/* XPM */
static char *van[] = {
/* columns rows colors chars-per-pixel */
"96 96 19 1 ",
"  c None",
". c black",
"X c #062E18",
"o c #0C0732",
"O c #0D4A28",
"+ c #53490B",
"@ c #757410",
"# c #160C5D",
"$ c #3A8059",
"% c #828105",
"& c #AFAE17",
"* c #B1B711",
"= c #F5F31F",
"- c #C8C628",
"; c #15308C",
": c #2F4684",
"> c #4C6DC4",
", c #768ECB",
"< c white",
/* pixels */
"<<<======ooo;;;###<<<##################<<<===<<<===;;;;;;;;;#########;;;>>>>>>;;;;;;;;;;;;;;;###",
"<<<======ooo;;;###<<<##################<<<===<<<===;;;;;;;;;#########;;;>>>>>>;;;;;;;;;;;;;;;###",
"<<<======ooo;;;###<<<##################<<<===<<<===;;;;;;;;;#########;;;>>>>>>;;;;;;;;;;;;;;;###",
"ooo<<<<<<ooo;;;<<<======############<<<<<<======<<<<<<;;;;;;#########;;;>>>;;;;;;<<<,,,#########",
"ooo<<<<<<ooo;;;<<<======############<<<<<<======<<<<<<;;;;;;#########;;;>>>;;;;;;<<<,,,#########",
"ooo<<<<<<ooo;;;<<<======############<<<<<<======<<<<<<;;;;;;#########;;;>>>;;;;;;<<<,,,#########",
"ooooooooo;;;###<<<======;;;;;;;;;;;;<<<============<<<############;;;;;;>>><<<======,,,#########",
"ooooooooo;;;###<<<======;;;;;;;;;;;;<<<============<<<############;;;;;;>>><<<======,,,#########",
"ooooooooo;;;###<<<======;;;;;;;;;;;;<<<============<<<############;;;;;;>>><<<======,,,#########",
";;;;;;;;;;;;...###<<<===>>>>>>>>>>>><<<============<<<############;;;;;;>>><<<=========ooooooooo",
";;;;;;;;;;;;...###<<<===>>>>>>>>>>>><<<============<<<############;;;;;;>>><<<=========ooooooooo",
";;;;;;;;;;;;...###<<<===>>>>>>>>>>>><<<============<<<############;;;;;;>>><<<=========ooooooooo",
"#########+++...;;;;;;>>>>>>:::::::::<<<<<<======<<<;;;#########;;;;;;;;;>>><<<<<<======ooo######",
"#########+++...;;;;;;>>>>>>:::::::::<<<<<<======<<<;;;#########;;;;;;;;;>>><<<<<<======ooo######",
"#########+++...;;;;;;>>>>>>:::::::::<<<<<<======<<<;;;#########;;;;;;;;;>>><<<<<<======ooo######",
"#########+++...;;;>>>>>>::::::,,,;;;,,,,,,::::::>>>>>>;;;###;;;<<<<<<;;;;;;>>>>>><<<<<<:::::::::",
"#########+++...;;;>>>>>>::::::,,,;;;,,,,,,::::::>>>>>>;;;###;;;<<<<<<;;;;;;>>>>>><<<<<<:::::::::",
"#########+++...;;;>>>>>>::::::,,,;;;,,,,,,::::::>>>>>>;;;###;;;<<<<<<;;;;;;>>>>>><<<<<<:::::::::",
";;;;;;;;;+++...>>>>>>::::::;;;;;;;;;>>>,,,,,,::::::>>>;;;###=========<<<;;;;;;;;;>>>ooo>>>>>>>>>",
";;;;;;;;;+++...>>>>>>::::::;;;;;;;;;>>>,,,,,,::::::>>>;;;###=========<<<;;;;;;;;;>>>ooo>>>>>>>>>",
";;;;;;;;;+++...>>>>>>::::::;;;;;;;;;>>>,,,,,,::::::>>>;;;###=========<<<;;;;;;;;;>>>ooo>>>>>>>>>",
">>>>>>;;;+++...:::...:::#########>>>>>>>>>::::::>>>>>>;;;;;;============######;;;;;;ooo;;;<<<===",
">>>>>>;;;+++...:::...:::#########>>>>>>>>>::::::>>>>>>;;;;;;============######;;;;;;ooo;;;<<<===",
">>>>>>;;;+++...:::...:::#########>>>>>>>>>::::::>>>>>>;;;;;;============######;;;;;;ooo;;;<<<===",
":::>>>>>>............######>>>,,,>>>>>>:::::::::>>>;;;;;;###============>>>#########ooo<<<======",
":::>>>>>>............######>>>,,,>>>>>>:::::::::>>>;;;;;;###============>>>#########ooo<<<======",
":::>>>>>>............######>>>,,,>>>>>>:::::::::>>>;;;;;;###============>>>#########ooo<<<======",
"###<<<...............###:::>>>,,,,,,>>>>>>>>>>>>>>>;;;######>>>======<<<:::>>>>>>>>>###<<<======",
"###<<<...............###:::>>>,,,,,,>>>>>>>>>>>>>>>;;;######>>>======<<<:::>>>>>>>>>###<<<======",
"###<<<...............###:::>>>,,,,,,>>>>>>>>>>>>>>>;;;######>>>======<<<:::>>>>>>>>>###<<<======",
"<<<===...............###...:::<<<<<<>>>>>>>>>   ;;;######>>>:::<<<<<<,,,,,,::::::>>>######<<<===",
"<<<===...............###...:::<<<<<<>>>>>>>>>   ;;;######>>>:::<<<<<<,,,,,,::::::>>>######<<<===",
"<<<===...............###...:::<<<<<<>>>>>>>>>   ;;;######>>>:::<<<<<<,,,,,,::::::>>>######<<<===",
"<<<===...+++...............<<<=========>>>############>>>::::::::::::>>>,,,,,,:::>>>######;;;;;;",
"<<<===...+++...............<<<=========>>>############>>>::::::::::::>>>,,,,,,:::>>>######;;;;;;",
"<<<===...+++...............<<<=========>>>############>>>::::::::::::>>>,,,,,,:::>>>######;;;;;;",
",,,======+++...............<<<<<<=========>>>>>>>>>>>>:::;;;;;;::::::::::::>>>:::>>>###;;;oooooo",
",,,======+++...............<<<<<<=========>>>>>>>>>>>>:::;;;;;;::::::::::::>>>:::>>>###;;;oooooo",
",,,======+++...............<<<<<<=========>>>>>>>>>>>>:::;;;;;;::::::::::::>>>:::>>>###;;;oooooo",
";;;;;;<<<++++++............===============::::::::::::;;;;;;;;;:::,,,>>>:::::::::>>>oooooooooOOO",
";;;;;;<<<++++++............===============::::::::::::;;;;;;;;;:::,,,>>>:::::::::>>>oooooooooOOO",
";;;;;;<<<++++++............===============::::::::::::;;;;;;;;;:::,,,>>>:::::::::>>>oooooooooOOO",
";;;;;;ooo...+++............===...======<<<OOOOOOOOO;;;;;;;;;;;;:::,,,,,,::::::>>>OOOooooooooo;;;",
";;;;;;ooo...+++............===...======<<<OOOOOOOOO;;;;;;;;;;;;:::,,,,,,::::::>>>OOOooooooooo;;;",
";;;;;;ooo...+++............===...======<<<OOOOOOOOO;;;;;;;;;;;;:::,,,,,,::::::>>>OOOooooooooo;;;",
"ooooooooo...+++............;;;...======<<<;;;;;;OOOOOOOOOOOOOOO.........>>>>>>OOOOOOOOOOOOOOOOOO",
"ooooooooo...+++............;;;...======<<<;;;;;;OOOOOOOOOOOOOOO.........>>>>>>OOOOOOOOOOOOOOOOOO",
"ooooooooo...+++............;;;...======<<<;;;;;;OOOOOOOOOOOOOOO.........>>>>>>OOOOOOOOOOOOOOOOOO",
",,,,,,ooo...+++..................;;;;;;;;;,,,,,,,,,...,,,,,,,,,...---OOOOOOOOOOOO,,,......---...",
",,,,,,ooo...+++..................;;;;;;;;;,,,,,,,,,...,,,,,,,,,...---OOOOOOOOOOOO,,,......---...",
",,,,,,ooo...+++..................;;;;;;;;;,,,,,,,,,...,,,,,,,,,...---OOOOOOOOOOOO,,,......---...",
",,,,,,............+++...............,,,......,,,......,,,......,,,,,,......,,,...,,,------...,,,",
",,,,,,............+++...............,,,......,,,......,,,......,,,,,,......,,,...,,,------...,,,",
",,,,,,............+++...............,,,......,,,......,,,......,,,,,,......,,,...,,,------...,,,",
"$$$$$$$$$........................,,,,,,......,,,===...,,,.........,,,...---......,,,OOOOOO,,,,,,",
"$$$$$$$$$........................,,,,,,......,,,===...,,,.........,,,...---......,,,OOOOOO,,,,,,",
"$$$$$$$$$........................,,,,,,......,,,===...,,,.........,,,...---......,,,OOOOOO,,,,,,",
"OOOOOO$$$OOO...OOO............,,,,,,,,,,,,,,,OOOOOOOOOOOOOOOOOO...OOO,,,...,,,OOOOOO......******",
"OOOOOO$$$OOO...OOO............,,,,,,,,,,,,,,,OOOOOOOOOOOOOOOOOO...OOO,,,...,,,OOOOOO......******",
"OOOOOO$$$OOO...OOO............,,,,,,,,,,,,,,,OOOOOOOOOOOOOOOOOO...OOO,,,...,,,OOOOOO......******",
"XXXXXXXXXXXXXXXXXX...+++.........#####################OOO.........###OOOOOOOOOOOO#########******",
"XXXXXXXXXXXXXXXXXX...+++.........#####################OOO.........###OOOOOOOOOOOO#########******",
"XXXXXXXXXXXXXXXXXX...+++.........#####################OOO.........###OOOOOOOOOOOO#########******",
"OOO%%%OOOXXXXXXXXXOOO...............;;;;;;;;;;;;***&&&&&&***...######******;;;;;;;;;######oooooo",
"OOO%%%OOOXXXXXXXXXOOO...............;;;;;;;;;;;;***&&&&&&***...######******;;;;;;;;;######oooooo",
"OOO%%%OOOXXXXXXXXXOOO...............;;;;;;;;;;;;***&&&&&&***...######******;;;;;;;;;######oooooo",
"XXXOOO%%%OOOOOOOOO$$$$$$$$$$$$......###;;;;;;######@@@&&&***###;;;###***@@@;;;;;;;;;######;;;;;;",
"XXXOOO%%%OOOOOOOOO$$$$$$$$$$$$......###;;;;;;######@@@&&&***###;;;###***@@@;;;;;;;;;######;;;;;;",
"XXXOOO%%%OOOOOOOOO$$$$$$$$$$$$......###;;;;;;######@@@&&&***###;;;###***@@@;;;;;;;;;######;;;;;;",
"XXXXXXXXXXXXXXX%%%OOOOOO$$$$$$...#########;;;###@@@@@@***###;;;;;;******@@@###;;;;;;############",
"XXXXXXXXXXXXXXX%%%OOOOOO$$$$$$...#########;;;###@@@@@@***###;;;;;;******@@@###;;;;;;############",
"XXXXXXXXXXXXXXX%%%OOOOOO$$$$$$...#########;;;###@@@@@@***###;;;;;;******@@@###;;;;;;############",
"OOOOOOOOOOOOXXXOOOOOOOOOOOO$$$$$$$$$OOO############******######;;;###***@@@@@@;;;###$$$$$$OOOXXX",
"OOOOOOOOOOOOXXXOOOOOOOOOOOO$$$$$$$$$OOO############******######;;;###***@@@@@@;;;###$$$$$$OOOXXX",
"OOOOOOOOOOOOXXXOOOOOOOOOOOO$$$$$$$$$OOO############******######;;;###***@@@@@@;;;###$$$$$$OOOXXX",
"%%%XXXXXX%%%XXXXXXOOO######OOOOOOOOOOOOOOOOOOOOO###***#########;;;###******######$$$$$$OOOOOOXXX",
"%%%XXXXXX%%%XXXXXXOOO######OOOOOOOOOOOOOOOOOOOOO###***#########;;;###******######$$$$$$OOOOOOXXX",
"%%%XXXXXX%%%XXXXXXOOO######OOOOOOOOOOOOOOOOOOOOO###***#########;;;###******######$$$$$$OOOOOOXXX",
"XXXXXXOOOXXXXXXXXX;;;;;;######OOOXXXXXX######OOO$$$$$$#########;;;;;;******######$$$OOOOOOXXXXXX",
"XXXXXXOOOXXXXXXXXX;;;;;;######OOOXXXXXX######OOO$$$$$$#########;;;;;;******######$$$OOOOOOXXXXXX",
"XXXXXXOOOXXXXXXXXX;;;;;;######OOOXXXXXX######OOO$$$$$$#########;;;;;;******######$$$OOOOOOXXXXXX",
"XXX>>>>>>###%%%###;;;%%%>>>###OOOXXX######%%%>>>OOO$$$$$$$$$############OOO$$$$$$$$$;;;;;;XXXXXX",
"XXX>>>>>>###%%%###;;;%%%>>>###OOOXXX######%%%>>>OOO$$$$$$$$$############OOO$$$$$$$$$;;;;;;XXXXXX",
"XXX>>>>>>###%%%###;;;%%%>>>###OOOXXX######%%%>>>OOO$$$$$$$$$############OOO$$$$$$$$$;;;;;;XXXXXX",
"XXX;;;;;;ooo###;;;>>>>>>######XXXXXXXXX;;;>>>>>>XXXXXXXXX$$$$$$$$$$$$XXXXXXXXXXXX>>>;;;;;;######",
"XXX;;;;;;ooo###;;;>>>>>>######XXXXXXXXX;;;>>>>>>XXXXXXXXX$$$$$$$$$$$$XXXXXXXXXXXX>>>;;;;;;######",
"XXX;;;;;;ooo###;;;>>>>>>######XXXXXXXXX;;;>>>>>>XXXXXXXXX$$$$$$$$$$$$XXXXXXXXXXXX>>>;;;;;;######",
"###;;;%%%>>>;;;;;;OOOOOO######;;;#########>>>######XXXXXXOOOOOOXXXXXXXXXXXXXXX%%%>>>>>>%%%>>>###",
"###;;;%%%>>>;;;;;;OOOOOO######;;;#########>>>######XXXXXXOOOOOOXXXXXXXXXXXXXXX%%%>>>>>>%%%>>>###",
"###;;;%%%>>>;;;;;;OOOOOO######;;;#########>>>######XXXXXXOOOOOOXXXXXXXXXXXXXXX%%%>>>>>>%%%>>>###",
"#########OOO###;;;%%%>>>###;;;;;;%%%>>>######%%%###;;;###>>>%%%######;;;ooo>>>ooo###>>>;;;%%%>>>",
"#########OOO###;;;%%%>>>###;;;;;;%%%>>>######%%%###;;;###>>>%%%######;;;ooo>>>ooo###>>>;;;%%%>>>",
"#########OOO###;;;%%%>>>###;;;;;;%%%>>>######%%%###;;;###>>>%%%######;;;ooo>>>ooo###>>>;;;%%%>>>",
"OOO###oooOOO###;;;>>>>>>###ooo>>>>>>>>>OOO###%%%ooo;;;######>>>###>>>%%%>>>%%%>>>#########;;;>>>",
"OOO###oooOOO###;;;>>>>>>###ooo>>>>>>>>>OOO###%%%ooo;;;######>>>###>>>%%%>>>%%%>>>#########;;;>>>",
"OOO###oooOOO###;;;>>>>>>###ooo>>>>>>>>>OOO###%%%ooo;;;######>>>###>>>%%%>>>%%%>>>#########;;;>>>"
};
