/* XPM */
static char *wall_painting_landscape[] = {
/* columns rows colors chars-per-pixel */
"256 256 256 2 ",
"   c black",
".  c #1C1C1B",
"X  c #2A241E",
"o  c #2C1D27",
"O  c #1D2426",
"+  c #1B2F39",
"@  c #242425",
"#  c #2A2625",
"$  c #252629",
"%  c #25292C",
"&  c #2B2B2C",
"*  c #2B2828",
"=  c #342B26",
"-  c #332D2B",
";  c #3B2D2A",
":  c #382826",
">  c #35322C",
",  c #3B332C",
"<  c #3A3829",
"1  c #2B2D33",
"2  c #272C36",
"3  c #362C35",
"4  c #2C3334",
"5  c #2C333B",
"6  c #27373A",
"7  c #343334",
"8  c #3B3533",
"9  c #3C3B34",
"0  c #33353B",
"q  c #343B3C",
"w  c #3B3B3C",
"e  c #373837",
"r  c #2B342C",
"t  c #1F1E20",
"y  c #51371D",
"u  c #6F361D",
"i  c #531C2C",
"p  c #462B26",
"a  c #443325",
"s  c #43342B",
"d  c #433B2C",
"f  c #4B3B2B",
"g  c #4A3627",
"h  c #563926",
"j  c #433C33",
"k  c #463A38",
"l  c #502F32",
"z  c #653924",
"x  c #6E2F2C",
"c  c #64172B",
"v  c #39433A",
"b  c #334832",
"n  c #2A5733",
"m  c #59431D",
"M  c #68481A",
"N  c #774B18",
"B  c #795418",
"V  c #6D5013",
"C  c #4A442B",
"Z  c #584428",
"A  c #474437",
"S  c #574736",
"D  c #575435",
"F  c #664727",
"G  c #6A5628",
"H  c #785826",
"J  c #664937",
"K  c #685836",
"L  c #775938",
"P  c #76492A",
"I  c #756731",
"U  c #636A28",
"Y  c #193947",
"T  c #0D3B4F",
"R  c #293845",
"E  c #343B43",
"W  c #3B3C43",
"Q  c #363A48",
"!  c #303850",
"~  c #1C3E66",
"^  c #453A46",
"/  c #50334E",
"(  c #6C3451",
")  c #642554",
"_  c #0A4658",
"`  c #194858",
"'  c #184A4F",
"]  c #294549",
"[  c #384449",
"{  c #294756",
"}  c #394656",
"|  c #325553",
" . c #175468",
".. c #0C526E",
"X. c #3A4B64",
"o. c #2E546B",
"O. c #0B6677",
"+. c #326A73",
"@. c #286652",
"#. c #464548",
"$. c #564849",
"%. c #484956",
"&. c #554B56",
"*. c #48545A",
"=. c #57545A",
"-. c #535648",
";. c #685646",
":. c #765B47",
">. c #675859",
",. c #705050",
"<. c #536B51",
"1. c #746950",
"2. c #454B65",
"3. c #485469",
"4. c #585767",
"5. c #4A5875",
"6. c #565B77",
"7. c #564969",
"8. c #645A66",
"9. c #6A516F",
"0. c #586379",
"q. c #516D70",
"w. c #68646A",
"e. c #686778",
"r. c #756B77",
"t. c #79727B",
"y. c #746F69",
"u. c #8C311B",
"i. c #8A2D29",
"p. c #A62525",
"a. c #875717",
"s. c #955A16",
"d. c #8F550F",
"f. c #AA5613",
"g. c #9A6308",
"h. c #986718",
"j. c #8F6C19",
"k. c #A76806",
"l. c #B67706",
"z. c #A77718",
"x. c #AD700F",
"c. c #865927",
"v. c #8B552E",
"b. c #896629",
"n. c #956826",
"m. c #876637",
"M. c #977739",
"N. c #8F742E",
"B. c #A8762D",
"V. c #AC4E2E",
"C. c #CD710E",
"Z. c #D56526",
"A. c #9D245B",
"S. c #CF2D63",
"D. c #8B5249",
"F. c #876747",
"G. c #967847",
"H. c #866A57",
"J. c #977858",
"K. c #8B7450",
"L. c #A87A49",
"P. c #8B4E6F",
"I. c #8A7466",
"U. c #967A68",
"Y. c #897678",
"T. c #8E7370",
"R. c #AB5C63",
"E. c #D06A68",
"W. c #D1341C",
"Q. c #728D71",
"!. c #628960",
"~. c #46855C",
"^. c #B28713",
"/. c #978531",
"(. c #AD8931",
"). c #9C8619",
"_. c #D89506",
"`. c #CA8C0A",
"'. c #E49901",
"]. c #EA830C",
"[. c #EDA803",
"{. c #D69F28",
"}. c #94864D",
"|. c #B08A4E",
" X c #968672",
".X c #A68977",
"XX c #AD8C6F",
"oX c #99A96D",
"OX c #C8944C",
"+X c #D8A960",
"@X c #EAC44E",
"#X c #075A85",
"$X c #0A6D8B",
"%X c #32728C",
"&X c #1071A3",
"*X c #596786",
"=X c #4F708C",
"-X c #797686",
";X c #6C718A",
":X c #5C5D87",
">X c #6C3581",
",X c #857C87",
"<X c #8E738B",
"1X c #A7678C",
"2X c #D2668F",
"3X c #B02F87",
"4X c #0F8CAD",
"5X c #258D9F",
"6X c #4F888E",
"7X c #758498",
"8X c #6197AB",
"9X c #56B1C6",
"0X c #8A838B",
"qX c #968789",
"wX c #898795",
"eX c #948C94",
"rX c #9B9298",
"tX c #8E938F",
"yX c #A59799",
"uX c #AF9588",
"iX c #9196A9",
"pX c #A79CA3",
"aX c #A9A5AF",
"sX c #A5A89F",
"dX c #D1A39D",
"fX c #D3C8B3",
"gX c #DDD5CC",
"hX c #DDD5CB",
"jX c #DFD8D0",
"kX c #D6CDC4",
"lX c #E0D7CE",
"zX c #E1D9CF",
"xX c #E5DDD4",
"cX c #E8DFD6",
"vX c #E7DFD8",
"bX c #E8DFD8",
"nX c #E0D7D0",
"mX c #E7E0D6",
"MX c #E8E1D7",
"NX c #E7E0D8",
"BX c #EAE3D9",
"VX c #E9E2D8",
"CX c #EBE4DA",
"ZX c #ECE5DB",
"AX c #EDE5DB",
"SX c #EDE6DD",
"DX c #EBE3DB",
"FX c #EFE8DE",
"GX c #F0E9DF",
"HX c #F0E7DE",
"JX c #EFE8E0",
"KX c #EEE7E0",
"LX c #F1EAE2",
"PX c #F1E9E2",
"IX c #F7F2EA",
"UX c #A3C5A2",
/* pixels */
"ZXxXxXxXxXMXZXcXMXZXZXMXZXcXZXZXZXZXmXZXmXxXmXMXMXMXZXZXZXMXxXxXxXZXMXxXMXxXcXxXxXxXxXcXxXxXxXxXxXxXxXxXxXxXxXMXcXZXZXxXcXZXZXZXZXZXZXZXMXmXMXZXZXMXZXMXZXmXZXZXNXFXPXFXFXZXZXZXZXMXFXmXZXZXFXPXZXJXFXZXZXZXZXZXFXZXZXZXxXMXZXmXZXZXZXZXZXZXZXZXPXZXZXFXZXmXZXmXMXZXxXcXxXlXxXxXxXMXxXlXxXxXxXZXZXxXZXMXxXMXMXxXMXxXMXxXxXMXMXcXxXxXZXxXxXZXMXxXxXxXMXxXxXmXmXmXZXZXmXmXMXxXmXZXxXxXZXxXZXMXZXZXMXxXZXZXZXZXZXZXPXFXPXZXZXZXZXZXZXZXMXZXFXZXZXZXxXZXZXZXZXZXZXZXMXZXZXZXZXZXZXZXZXZXZXZXZXZXxXxXmXZXZXZXZXZXZXZXcXZXxXcXZXxXmXJX",
"ZXZXxXxXxXcXxXxXxXcXMXcXcXcXcXZXZXxXMXxXxXxXmXmXmXMXZXZXZXZXZXxXxXxXcXMXMXxXxXcXxXxXMXMXMXcXxXlXxXxXxXcXxXxXxXMXMXcXZXZXcXMXMXMXxXZXZXZXZXZXZXxXmXZXZXZXxXxXNXZXZXJXPXFXFXFXZXZXZXZXPXxXmXmXMXZXZXFXFXPXFXZXMXZXMXZXFXxXMXMXZXZXMXZXmXZXFXPXZXZXJXPXZXZXZXMXZXZXMXcXcXZXZXxXlXxXcXxXxXxXMXxXxXZXcXxXcXcXxXxXxXcXxXcXcXxXxXcXMXMXxXxXZXxXZXZXxXxXcXxXxXxXZXxXmXZXZXZXmXxXxXmXmXZXZXMXZXZXcXxXMXcXZXcXZXZXZXZXZXZXPXMXZXZXZXZXZXPXZXMXZXxXZXZXZXZXZXZXMXMXmXZXZXZXMXZXZXZXZXZXZXZXZXZXZXZXZXZXZXxXMXFXZXZXmXZXMXMXZXZXZXcXZXmXZXPX",
"ZXZXZXcXZXcXxXxXxXxXcXZXMXxXxXxXZXMXZXMXmXMXZXMXmXmXmXZXZXZXPXZXxXxXxXZXMXZXxXxXxXxXxXMXxXcXlXlXxXxXxXxXcXcXcXMXZXMXxXcXZXZXZXxXxXMXZXZXZXZXFXZXZXZXZXZXxXZXPXPXZXPXPXPXPXPXGXZXmXZXZXxXxXxXZXZXFXZXPXPXPXFXFXZXFXZXMXxXZXZXmXZXZXZXZXZXZXPXZXZXZXZXJXFXGXZXxXxXcXZXxXxXZXZXcXxXlXgXlXxXxXxXcXZXxXxXMXZXZXZXxXZXcXxXxXxXZXxXxXxXxXcXZXcXMXMXZXcXcXxXxXZXZXZXZXZXMXmXMXMXZXMXMXZXMXMXMXcXcXMXZXZXZXZXMXZXZXZXGXZXZXZXZXZXZXFXZXPXZXZXZXmXZXFXZXmXZXFXZXmXZXZXPXFXZXZXZXmXZXZXMXZXZXFXZXZXZXZXZXZXZXZXxXxXZXZXZXcXcXxXMXcXZXFXZXZX",
"ZXZXMXZXMXMXxXxXxXxXxXZXxXxXZXZXZXMXZXZXZXZXZXxXMXxXmXmXZXZXZXZXmXxXxXxXMXxXxXcXMXcXxXxXxXxXlXcXxXxXcXxXZXMXMXcXxXZXZXMXZXcXxXxXMXMXZXZXZXZXZXZXZXmXZXGXZXZXZXZXZXZXJXZXPXPXPXZXZXmXmXZXZXMXZXZXZXZXZXZXPXPXMXFXPXZXZXZXZXZXMXMXZXZXZXZXPXZXZXZXZXPXPXZXZXZXZXZXZXxXxXZXZXZXcXcXgXlXcXMXZXMXxXMXMXMXcXZXZXMXZXZXZXxXZXxXxXxXZXZXxXZXZXcXMXxXZXZXxXZXMXxXxXxXxXMXmXZXZXmXZXZXZXMXZXZXMXxXxXZXZXMXZXZXZXZXZXMXZXZXZXZXZXZXZXZXGXGXZXZXZXZXZXZXZXZXZXZXZXZXZXZXPXZXMXZXZXZXmXZXZXZXZXZXZXZXZXmXMXMXZXZXZXMXxXZXZXZXZXZXZXZXMXMXZXZX",
"ZXZXMXcXMXHXcXxXxXxXxXMXxXcXZXcXZXZXxXmXMXZXMXZXZXxXZXmXMXZXZXZXZXZXZXxXMXZXMXcXxXxXZXcXxXxXxXxXxXxXxXcXcXcXcXMXZXcXZXcXZXZXxXxXmXmXxXMXMXZXxXZXZXZXGXPXGXMXvXZXZXxXbXxXHXZXZXZXZXxXmXxXmXZXZXZXGXxXxXZXZXFXZXZXFXFXFXZXZXZXZXZXZXZXZXZXFXZXZXZXZXJXZXZXFXPXGXZXZXxXZXZXxXlXxXxXcXxXMXcXcXMXMXMXxXZXcXcXZXZXZXZXZXMXcXxXxXcXxXZXxXZXHXMXZXZXcXxXcXcXxXgXgXjXxXxXZXMXZXMXZXMXMXZXZXMXZXxXxXZXZXZXMXxXZXmXZXZXZXZXZXZXZXZXZXZXGXZXMXZXZXmXZXMXMXZXZXMXmXMXMXZXZXZXZXZXZXMXZXZXZXZXZXGXxXZXZXZXZXZXZXFXZXZXZXZXZXZXZXZXZXZXZXxXZXFX",
"ZXZXZXZXxXZXZXcXxXxXxXxXcXxXcXxXxXZXxXmXMXZXZXZXZXZXZXZXZXZXZXZXFXZXZXxXZXZXZXxXxXxXxXZXxXxXxXxXxXxXxXxXcXxXxXxXZXxXcXZXcXMXZXZXZXMXxXxXxXMXxXMXxXxXZXZXMXZXZXxXxXxXZXlXxXZXZXZXZXMXZXZXZXZXmXZXZXZXZXZXZXZXFXZXGXZXZXZXFXFXZXZXMXZXFXZXGXZXFXZXZXZXZXZXZXZXZXZXZXZXZXMXlXgXlXxXlXcXMXcXMXxXcXMXxXxXcXZXZXcXcXZXZXxXxXxXMXcXcXMXcXxXZXxXxXcXcXxXZXxXlXxXlXgXgXxXmXmXMXMXZXZXZXZXZXMXZXxXxXMXZXZXxXxXxXZXZXZXZXZXZXMXZXZXZXZXZXZXZXZXZXxXxXxXxXxXxXcXZXMXxXMXxXMXZXZXZXZXZXZXZXFXFXZXZXZXZXZXZXMXZXZXZXZXZXZXZXZXZXZXGXZXZXZXxXZX",
"ZXZXZXZXZXbXZXcXZXZXcXxXcXxXxXcXxXmXmXmXxXMXZXZXFXGXZXZXJXZXZXxXZXZXPXZXZXZXZXxXMXxXgXZXZXZXcXxXxXlXxXxXxXMXcXZXZXZXcXxXcXZXcXcXZXcXMXxXxXxXlXxXZXZXMXZXmXMXZXxXmXxXPXxXxXmXZXZXZXZXZXJXJXZXZXZXZXZXZXmXMXZXZXZXZXZXFXZXZXZXZXZXmXMXZXZXPXZXZXZXZXZXZXZXZXZXZXZXZXZXMXxXmXxXlXxXxXxXxXcXxXxXxXcXZXcXxXcXMXcXxXcXZXxXcXcXZXxXcXMXZXMXZXcXcXxXcXmXxXZXlXxXxXxXxXxXZXZXZXxXMXZXZXmXmXmXZXZXMXmXmXZXxXxXxXmXZXZXMXZXMXxXZXZXZXZXZXZXMXxXcXxXxXZXMXcXxXMXcXcXxXZXZXZXZXZXPXZXZXZXZXPXGXZXZXZXZXZXZXZXZXZXZXZXMXZXHXcXZXZXZXZXZXZXmXZX",
"ZXZXZXZXZXZXMXZXMXHXZXcXcXxXxXcXxXmXmXxXMXZXZXZXZXMXMXZXZXZXZXZXxXZXPXJXxXxXZXZXZXxXxXxXxXxXxXxXxXxXxXxXxXMXZXMXxXxXMXxXxXcXZXcXZXZXZXMXcXcXZXZXxXZXZXxXMXZXZXZXZXGXZXlXMXZXZXZXZXZXZXNXZXPXFXGXFXGXZXZXMXZXZXZXMXZXZXZXZXZXZXmXZXMXxXMXZXZXZXZXZXZXZXZXZXZXMXZXZXZXMXMXMXxXxXZXxXxXxXxXxXxXxXxXMXcXxXZXcXMXcXcXcXcXxXxXxXxXMXcXxXZXcXxXcXxXxXmXmXZXxXgXlXxXxXxXZXZXmXxXmXxXZXZXZXZXxXZXmXMXZXZXxXxXZXZXZXZXMXZXZXxXcXZXZXZXZXZXZXZXxXxXxXZXZXcXxXxXZXcXZXZXZXZXZXFXPXFXZXZXZXZXZXFXZXZXZXZXZXZXZXZXZXZXZXZXHXZXZXZXZXZXZXZXZXGX",
"JXJXPXZXNXZXZXMXZXxXMXMXcXxXxXxXxXxXxXZXxXmXZXZXMXZXZXZXZXZXZXZXZXZXZXZXZXxXNXZXZXZXMXxXZXcXcXxXcXxXxXxXxXxXxXcXxXxXxXMXcXZXMXMXcXZXxXcXZXMXZXcXZXxXxXZXZXMXGXZXZXZXxXmXZXZXZXZXZXZXNXxXZXPXPXFXPXGXxXMXZXZXZXZXZXZXZXZXZXZXZXFXZXZXZXxXxXZXZXZXZXGXZXZXZXZXZXZXZXZXxXMXmXZXMXxXmXxXZXxXxXcXcXMXMXxXZXcXcXMXxXxXcXcXxXcXxXxXcXMXcXZXcXxXxXxXcXMXmXZXZXxXgXlXxXxXxXZXMXMXZXxXxXxXMXZXmXZXZXZXZXZXZXZXZXZXZXmXxXMXMXZXZXZXZXZXZXZXcXcXxXcXMXZXZXZXZXxXZXZXZXMXZXZXMXGXZXZXZXGXZXZXZXZXZXZXZXZXZXZXZXZXZXZXZXZXZXcXZXMXZXZXZXZXZXZX",
"PXZXJXPXJXPXZXMXZXxXxXxXcXMXcXcXxXxXMXMXMXxXZXZXZXZXZXZXZXZXZXZXZXZXxXxXZXZXNXPXZXZXZXmXMXcXcXxXxXxXxXxXxXcXxXxXZXxXxXMXMXZXcXMXxXMXZXcXZXcXZXZXZXmXZXZXxXZXZXZXZXZXZXZXFXZXZXZXZXZXZXZXZXZXJXPXPXGXMXMXZXmXxXZXPXZXZXZXZXmXZXGXZXmXZXMXxXxXZXZXZXZXGXZXZXZXZXxXZXZXZXMXZXZXZXxXxXZXxXcXcXcXxXcXxXxXcXcXxXZXZXxXxXxXxXxXxXxXMXcXZXxXcXZXMXMXZXZXxXZXZXZXxXxXZXxXxXZXxXxXZXMXxXmXMXxXxXMXZXZXZXZXZXmXMXZXZXxXxXxXxXxXZXZXZXZXZXZXZXZXMXZXZXZXZXZXcXZXcXZXZXZXZXmXZXFXZXZXZXGXZXxXMXZXZXGXZXZXZXZXZXZXZXZXZXZXZXZXZXZXZXZXZXZXZXFX",
"ZXZXZXZXPXPXZXZXHXGXZXxXMXcXcXxXxXmXmXxXZXxXZXZXZXZXZXZXZXJXZXZXZXZXxXxXPXNXZXPXFXZXFXZXxXxXxXcXcXcXxXxXxXcXMXcXZXZXHXZXZXZXZXxXcXZXcXZXcXxXZXZXMXZXxXmXxXxXZXZXZXZXmXMXZXZXZXZXZXNXZXZXZXIXPXZXZXPXFXZXZXZXZXZXZXPXZXZXZXMXZXZXFXZXxXxXMXxXMXZXZXZXZXZXZXZXZXMXZXZXZXZXZXZXZXZXxXZXxXxXxXxXcXxXxXcXcXcXMXMXZXxXcXcXxXxXxXxXcXxXcXcXcXxXcXcXcXmXxXZXZXMXMXcXxXxXcXMXMXZXZXZXxXZXmXZXMXMXZXZXxXmXZXZXMXxXmXmXmXxXMXcXMXZXZXZXZXHXZXZXZXZXZXZXZXZXcXMXxXxXcXZXZXZXJXZXZXZXFXZXGXZXZXZXZXZXFXZXZXZXZXZXZXMXZXZXGXZXZXZXZXMXMXZXZXPX",
"ZXZXZXZXZXmXZXZXZXZXZXZXMXxXxXxXMXxXxXMXMXMXxXxXZXZXZXZXNXZXZXZXPXZXNXNXZXZXZXPXJXZXZXZXZXxXxXxXxXxXxXMXMXMXZXcXxXZXMXmXxXMXZXZXmXMXMXZXcXxXZXMXZXMXZXMXZXZXMXxXMXZXZXZXmXMXZXZXZXZXMXZXZXZXZXZXZXZXZXZXZXZXZXZXZXZXZXZXZXZXZXZXZXMXxXxXMXMXxXZXZXmXZXcXMXZXZXZXZXZXZXFXFXZXZXMXZXZXmXxXxXxXxXxXxXZXcXcXxXMXZXxXZXcXcXxXcXcXZXZXZXZXcXxXxXxXxXZXZXcXxXMXZXMXxXZXcXcXZXZXMXZXcXMXxXMXZXMXcXZXxXZXZXZXZXxXxXxXZXZXxXMXMXZXZXZXZXZXMXMXMXZXZXmXxXZXZXmXMXxXZXxXxXZXZXFXZXZXZXZXGXZXZXMXxXmXZXZXZXZXZXZXZXZXZXZXGXZXZXZXZXZXZXZXZXPX",
"ZXZXZXZXZXZXZXmXxXMXMXcXMXxXxXxXcXcXxXMXcXcXxXZXmXZXZXxXZXZXZXZXZXZXZXvXZXZXxXJXZXZXZXZXZXMXxXxXcXxXxXZXxXxXxXcXxXZXZXZXxXZXZXmXmXZXZXcXcXcXxXcXcXZXZXxXZXZXMXMXMXcXcXxXMXZXZXmXmXZXZXZXZXZXZXZXZXZXZXZXZXZXZXZXZXZXZXPXZXZXFXZXZXxXZXmXMXZXZXmXxXZXZXbXZXZXZXZXZXZXGXZXZXFXZXZXZXZXMXxXxXcXxXxXcXZXxXxXxXxXZXZXZXMXZXxXxXZXMXcXcXMXcXcXxXxXZXMXMXcXxXxXcXZXZXxXZXcXZXMXcXcXZXZXcXxXxXMXZXZXcXcXZXZXxXxXcXcXxXxXZXZXZXcXZXZXZXZXZXZXZXZXZXZXZXmXZXmXmXmXMXZXxXxXZXPXGXGXZXZXZXZXZXZXxXZXZXZXGXFXZXZXPXZXZXZXPXZXMXZXxXZXZXmXxXZX",
"ZXZXZXZXZXFXZXZXxXZXxXxXMXcXcXxXxXcXxXZXMXxXmXxXxXZXZXZXZXZXxXZXZXZXZXNXZXZXZXZXZXZXNXZXZXMXxXxXxXxXxXxXxXxXcXZXMXmXZXZXZXZXZXmXxXmXZXcXxXZXcXZXZXcXcXxXZXMXZXMXMXxXZXMXZXZXxXxXZXZXZXZXZXZXZXFXPXZXZXZXZXZXZXZXZXZXZXZXFXPXZXFXZXxXMXMXZXMXxXZXMXMXcXcXZXZXZXZXZXZXZXxXZXZXZXFXGXZXZXcXMXMXcXcXZXcXxXxXcXMXcXcXcXZXZXMXZXZXcXcXxXxXcXcXxXxXcXcXxXMXMXcXZXcXZXZXcXMXZXcXMXZXMXZXxXcXMXcXZXxXZXcXZXZXxXxXxXcXxXxXZXZXZXZXZXMXxXZXZXZXZXZXZXZXZXZXZXMXZXmXxXZXZXZXZXZXPXFXPXPXMXZXZXZXmXZXZXMXZXFXZXmXFXZXZXZXZXZXZXZXZXMXZXZXZXPX",
"ZXZXZXZXZXZXZXZXxXxXxXxXxXcXMXxXxXMXxXMXxXxXxXZXZXZXZXxXxXZXZXZXZXZXZXNXZXZXZXZXZXZXZXZXZXZXcXxXxXxXxXxXcXcXxXxXMXmXZXMXmXZXmXMXxXxXMXHXcXxXMXMXcXZXcXMXZXZXZXZXxXxXxXmXZXZXZXmXmXxXxXmXMXxXmXZXZXZXZXZXZXZXZXFXxXZXZXZXZXZXZXPXFXxXxXxXZXZXZXZXMXZXZXZXZXZXcXZXZXxXZXMXZXZXFXZXFXFXZXZXcXcXxXxXZXZXcXMXZXZXZXcXxXxXZXZXxXZXZXcXxXxXxXxXxXxXxXxXxXcXZXcXcXxXxXcXxXZXZXcXZXcXZXZXZXZXZXMXxXcXcXZXZXMXcXxXxXMXxXxXcXMXcXZXZXZXZXZXFXZXZXZXZXZXZXZXMXZXmXxXxXZXZXZXFXZXZXMXZXFXZXxXmXmXMXmXZXMXxXZXZXZXZXFXZXZXZXZXZXZXZXZXZXZXZXZX",
"FXZXZXZXZXZXZXZXMXxXxXxXMXxXxXcXxXxXxXxXxXxXMXZXZXZXZXZXmXZXZXMXmXZXZXZXZXZXZXZXZXZXxXNXZXZXMXxXxXxXxXxXcXxXxXxXMXxXMXMXMXZXmXMXZXxXMXcXxXxXZXMXZXcXcXZXZXMXZXZXxXxXxXZXmXZXZXZXZXxXxXZXZXmXxXZXZXZXZXZXZXZXZXZXZXmXZXMXZXZXMXZXPXZXZXZXZXZXZXZXMXxXZXZXMXxXZXxXmXZXZXZXxXFXZXZXMXZXZXZXxXMXxXcXxXcXcXMXcXZXZXMXZXxXcXZXcXZXZXcXcXxXxXxXxXxXxXcXcXxXxXcXxXcXxXMXcXZXZXlXxXxXZXMXMXcXZXxXxXZXxXZXZXMXxXxXxXxXxXxXcXMXcXMXZXZXZXZXGXZXZXZXZXZXZXZXZXMXmXZXZXZXZXZXZXZXZXZXxXPXZXmXZXZXxXjXZXFXxXMXZXxXZXZXZXFXZXZXZXZXZXPXZXMXZXZX",
"PXPXPXPXZXZXZXZXMXmXZXZXZXcXMXxXxXxXxXxXxXxXMXMXmXZXZXZXMXZXZXmXmXxXZXPXZXZXZXxXxXZXxXxXZXZXZXxXxXxXlXxXcXcXMXMXMXxXmXmXmXZXZXZXxXxXMXxXcXMXZXZXxXcXZXZXZXcXZXcXxXxXxXMXZXZXZXZXZXMXmXZXMXmXmXmXZXZXZXZXmXZXZXZXFXZXZXmXZXZXZXZXFXFXPXFXZXMXMXZXZXZXMXmXMXxXZXxXxXZXZXMXZXZXZXZXxXmXZXxXMXZXmXxXxXxXZXcXMXZXMXcXZXxXZXMXcXZXZXxXxXxXxXcXxXxXxXxXxXxXxXxXZXZXZXZXxXcXZXxXxXZXZXcXMXZXZXcXMXcXZXZXZXZXZXMXMXMXZXZXZXMXMXZXZXZXZXZXZXZXZXZXZXZXZXZXZXxXZXZXZXZXZXZXZXZXZXZXmXFXFXmXMXmXZXxXxXZXZXGXZXMXZXZXZXZXZXxXFXZXZXFXZXZXZXZX",
"ZXPXPXPXPXJXPXJXZXvXZXxXxXxXcXcXMXcXMXxXxXxXxXxXMXZXZXZXZXZXZXZXZXZXZXZXZXZXZXZXNXZXxXZXPXJXZXxXmXxXlXxXxXxXxXMXZXxXmXZXxXZXZXmXxXxXmXZXMXMXMXMXxXxXMXcXcXZXcXZXcXxXxXxXMXMXmXMXZXZXMXZXMXmXZXZXZXZXFXZXxXZXZXZXZXGXZXZXZXZXZXNXZXZXZXFXZXZXZXZXZXZXZXZXZXmXxXZXZXZXZXZXZXZXmXZXxXZXMXZXZXZXZXmXmXZXZXxXxXMXZXMXcXMXMXZXZXZXZXxXxXMXZXZXcXxXxXxXMXcXxXZXMXxXMXZXcXMXZXcXxXZXcXcXcXMXxXcXZXZXZXZXcXcXxXMXZXZXZXZXcXZXZXcXcXZXcXZXZXcXMXZXcXfXlXZXZXZXZXZXZXZXZXPXZXmXZXZXZXZXFXMXmXMXMXZXZXZXcXZXZXmXMXZXZXZXZXxXZXZXZXZXZXZXZXZX",
"ZXZXZXZXPXZXZXZXZXZXZXcXxXxXxXxXcXcXMXxXxXcXxXxXxXmXMXMXZXZXZXZXZXZXZXZXZXJXZXZXZXNXZXZXZXZXNXxXxXxXxXxXxXxXxXxXZXZXmXZXZXZXZXZXMXMXxXcXxXxXxXxXMXZXMXxXZXZXMXxXxXlXxXxXxXZXMXZXZXZXZXZXZXZXZXZXZXZXZXZXZXZXZXZXZXZXPXZXZXZXZXmXxXMXZXZXZXZXFXZXZXMXZXZXZXxXZXZXxXZXPXPXZXZXZXZXZXZXxXxXZXZXZXZXZXxXZXxXxXZXZXZXcXcXZXMXZXcXxXxXcXcXcXMXMXcXxXxXxXcXxXMXMXcXZXMXcXcXxXxXxXxXZXZXxXMXxXxXMXMXZXMXcXxXxXMXZXZXcXxXcXcXcXMXcXZXZXZXZXZXZXZXcXlXZXHXZXFXPXGXZXZXZXFXFXZXZXZXZXZXZXZXZXMXxXcXZXZXMXMXmXZXMXZXZXxXZXxXZXZXZXZXMXZXZXZX",
"ZXZXJXZXZXPXZXZXZXZXZXZXcXxXxXZXxXxXxXlXxXxXxXZXxXxXxXxXmXZXZXZXxXxXNXZXZXPXZXZXZXZXZXZXZXZXvXxXxXxXxXxXxXxXZXMXxXxXmXZXmXMXZXZXxXZXxXxXxXxXxXxXxXcXMXcXcXcXlXxXcXcXxXxXZXZXZXMXZXZXmXMXZXZXmXZXMXZXZXZXZXZXZXZXZXZXZXFXZXFXZXZXmXMXxXZXMXZXZXZXZXZXZXZXZXZXZXZXZXZXIXPXZXZXZXZXZXZXZXxXZXZXZXZXZXxXZXZXxXMXZXZXxXcXMXZXMXxXxXMXcXxXxXcXZXcXcXZXxXxXxXxXMXZXZXZXZXxXxXxXxXMXcXZXcXGXxXxXxXMXZXMXcXMXxXcXcXcXZXZXcXxXMXZXZXZXZXZXMXcXMXZXZXZXZXZXZXZXZXZXZXZXZXFXZXZXZXZXZXZXZXMXmXxXZXcXZXZXZXxXxXmXZXZXZXZXZXZXZXMXZXMXZXZXZXGX",
"JXJXZXPXZXZXZXZXPXZXZXHXZXZXZXZXxXxXgXxXlXxXxXMXZXxXxXxXxXZXZXMXxXxXZXNXZXZXZXZXZXxXvXZXZXZXNXxXZXxXxXxXxXxXMXZXZXmXxXZXZXxXxXxXMXmXlXcXxXxXxXxXxXZXcXMXcXcXxXxXZXcXxXxXxXxXZXMXZXZXZXMXZXMXZXZXZXZXZXZXZXZXZXZXZXZXZXZXZXFXZXmXZXZXMXxXmXZXZXFXZXZXFXZXmXZXZXZXNXZXPXZXNXZXZXZXMXMXZXMXMXZXZXZXMXMXZXMXZXZXZXZXZXcXcXZXMXxXxXxXxXMXxXZXZXcXcXZXcXxXxXxXxXxXxXxXZXcXcXxXMXZXcXZXMXcXMXxXcXZXcXMXMXcXxXcXxXxXxXxXcXMXxXxXMXZXZXcXcXcXMXZXZXcXZXZXZXZXmXZXZXMXFXFXNXZXZXmXmXxXZXZXxXMXcXxXxXcXcXMXZXmXZXZXZXGXFXZXZXMXZXMXZXZXFXPX",
"ZXJXPXPXZXZXNXZXZXZXNXMXZXcXcXZXcXxXgXxXxXcXxXMXZXmXxXxXxXmXxXMXmXNXZXZXZXZXZXZXZXxXZXZXZXZXZXvXNXNXxXxXxXlXxXZXZXZXZXZXZXmXmXxXZXZXxXcXxXxXxXcXxXZXMXZXcXcXcXxXxXMXMXMXmXZXZXMXZXZXmXmXZXZXZXZXMXZXZXFXZXFXZXZXmXmXmXZXNXZXZXZXcXxXlXxXZXZXZXGXFXFXGXZXZXZXFXZXZXZXxXNXZXxXMXxXMXMXxXmXxXxXZXZXZXZXmXmXZXMXxXlXxXxXxXMXZXxXgXxXxXZXxXxXxXcXMXZXZXZXcXZXxXxXxXxXZXZXxXxXcXxXxXcXcXZXcXxXxXcXcXMXZXxXMXxXcXxXxXxXxXxXcXxXcXcXcXZXxXxXZXZXMXcXxXZXZXZXxXMXZXZXFXFXZXxXxXxXxXxXZXxXxXxXZXlXgXMXxXxXMXZXZXZXZXZXPXZXZXZXZXZXmXZXZXPX",
"ZXZXJXZXZXZXxXxXbXxXxXxXcXMXZXZXxXgXxXxXcXxXxXMXMXZXxXxXxXmXxXxXxXZXZXxXmXZXZXZXZXMXZXZXZXZXxXxXxXcXxXxXxXxXMXcXxXxXZXZXZXZXMXxXxXMXxXcXMXxXxXxXxXZXZXZXZXZXxXxXxXxXxXxXxXMXZXMXZXMXxXmXZXZXxXZXFXZXZXZXZXZXmXZXZXxXxXNXMXZXZXZXZXxXxXxXZXZXZXZXZXZXZXZXGXZXFXFXZXZXZXxXmXZXZXMXZXmXMXMXxXMXMXxXZXZXxXmXMXxXcXlXxXcXxXZXcXxXcXxXxXxXxXxXxXcXcXxXZXZXxXxXxXcXxXxXZXZXxXxXxXxXcXZXxXxXcXZXcXcXZXcXcXMXZXZXZXxXMXxXcXxXMXxXMXZXxXxXcXxXxXZXxXxXxXcXZXZXMXMXMXZXFXPXZXxXxXxXZXxXMXjXjXxXMXMXxXZXZXMXZXZXZXPXZXxXZXZXZXZXZXZXmXZXMXGX",
"ZXZXZXZXZXZXxXcXZXcXxXcXcXZXZXxXxXxXMXZXZXxXxXcXxXxXxXlXlXxXxXxXxXxXZXZXZXZXZXZXZXMXZXcXZXZXxXxXxXxXxXxXxXxXxXxXxXxXMXZXZXMXZXcXcXxXxXxXcXZXxXxXZXZXZXxXcXMXMXcXxXcXxXcXMXMXZXZXZXZXmXZXZXZXZXZXZXMXZXZXmXZXxXxXmXZXmXxXZXMXZXZXZXMXcXMXMXZXZXZXZXZXZXZXZXZXZXZXZXFXZXZXZXZXZXZXMXMXMXxXxXZXZXxXZXZXmXmXMXxXxXgXgXxXMXcXMXxXMXMXcXcXMXMXxXMXxXxXxXcXMXcXxXxXxXxXxXMXxXxXxXMXxXxXxXxXMXZXZXZXZXZXxXxXxXxXxXxXcXMXZXxXxXxXcXMXZXZXxXcXZXZXxXcXxXMXZXZXZXZXcXxXZXPXZXxXlXZXFXZXmXMXxXxXxXMXcXMXMXxXMXZXZXGXZXcXZXZXZXZXxXmXZXZXmXFX",
"ZXZXZXZXZXZXZXZXxXZXxXxXcXxXxXxXcXcXZXZXxXxXxXMXxXxXxXcXxXxXxXxXcXMXMXZXZXZXZXMXcXcXZXxXZXZXxXZXZXcXxXxXxXcXMXxXlXxXxXxXZXMXMXMXZXcXxXxXxXxXZXxXZXZXxXZXcXMXZXcXxXxXxXxXMXZXZXZXZXMXZXZXMXZXZXZXxXxXZXZXZXZXZXZXxXxXZXZXmXxXmXZXxXZXMXMXZXZXZXZXZXZXZXZXZXZXmXZXZXZXZXZXZXMXMXZXZXZXxXxXxXZXZXxXZXmXmXZXZXxXgXgXxXZXZXxXxXxXcXMXxXxXZXZXZXxXMXZXZXMXcXZXcXxXxXxXZXHXxXxXZXxXxXcXxXxXMXZXMXZXcXMXZXcXxXxXxXcXcXxXxXZXcXxXcXxXZXcXxXMXZXZXZXcXxXZXZXZXMXcXZXcXZXFXZXmXlXxXZXZXxXxXxXgXgXxXMXZXcXMXZXZXMXZXZXZXZXZXcXcXxXZXxXxXxXFX",
"PXJXPXZXZXxXcXZXcXMXxXZXxXgXlXxXxXxXZXMXxXxXxXxXxXxXxXxXMXMXxXlXxXxXlXmXMXMXZXMXMXxXxXxXlXxXxXMXcXcXcXxXxXxXxXxXgXgXlXxXZXcXcXZXZXZXcXcXxXMXZXxXZXcXcXZXZXZXZXZXxXcXxXcXxXxXxXxXMXZXMXMXmXxXxXZXZXmXZXMXmXxXMXZXlXgXZXZXxXxXMXMXMXcXZXZXZXZXZXZXZXMXZXZXZXZXZXZXZXZXGXZXFXZXZXmXZXZXZXZXZXPXMXmXmXZXmXxXlXgXlXxXZXxXcXZXxXxXMXxXxXxXxXZXZXxXMXZXZXxXMXxXxXMXMXxXZXMXZXMXcXxXZXZXMXZXZXZXMXZXZXcXZXZXxXcXZXcXcXMXxXgXZXMXxXxXxXZXMXcXxXxXMXMXxXcXcXMXcXcXZXcXZXZXMXMXxXlXxXZXmXZXZXxXxXxXxXxXMXZXZXZXZXZXZXZXGXxXxXlXxXZXxXxXmXZX",
"ZXZXPXZXZXZXcXMXcXxXxXcXxXxXZXMXxXcXZXMXcXMXxXxXcXMXxXxXxXxXcXxXcXxXjXxXMXMXZXZXcXxXkXcXxXgXxXcXcXMXZXZXxXxXxXxXxXxXxXcXcXcXxXMXcXZXZXxXMXMXxXxXcXcXcXcXcXZXxXZXZXcXxXcXxXxXxXxXcXMXxXxXxXxXxXxXxXZXMXZXZXxXZXZXZXMXZXZXMXMXFXZXZXcXZXZXZXZXZXZXZXZXZXZXmXmXMXMXZXZXZXZXMXZXZXZXZXGXZXZXZXZXMXZXMXmXxXmXlXjXZXxXZXxXZXcXxXxXxXxXcXxXxXZXZXMXZXMXcXcXxXcXMXcXMXcXxXxXMXZXxXZXZXZXZXZXZXZXZXcXcXlXxXZXcXcXcXZXMXcXcXcXxXMXMXZXZXZXcXxXxXxXcXcXZXZXcXZXZXZXPXxXZXZXmXmXmXxXgXxXZXZXmXMXxXcXxXxXxXZXZXZXZXZXZXZXZXxXxXxXxXMXZXZXMXZX",
"JXZXNXZXZXZXcXxXxXxXgXgXcXxXgXcXZXZXZXcXZXZXMXxXMXZXMXxXxXxXxXZXZXxXxXxXxXxXxXMXMXZXZXxXZXZXxXxXcXZXZXZXxXxXxXxXxXxXxXxXZXxXlXxXcXMXZXxXZXZXMXxXcXcXxXcXZXZXZXZXZXcXcXxXcXMXcXxXxXxXxXxXxXxXmXMXmXxXmXZXZXZXZXZXZXMXZXZXMXMXZXZXcXcXZXZXZXZXZXZXZXZXZXZXZXZXxXMXxXxXZXZXMXZXZXMXZXZXGXZXmXMXZXZXZXxXmXZXMXZXMXMXZXMXZXxXxXcXcXcXZXxXxXZXMXxXxXxXMXZXxXxXMXxXxXZXxXcXMXxXMXMXZXZXZXZXZXZXZXZXMXcXMXMXMXZXMXcXMXcXcXZXxXxXxXZXZXcXMXcXxXxXcXcXZXZXMXxXcXxXZXZXZXZXMXmXZXZXZXxXxXxXZXZXxXZXxXxXMXMXZXxXxXZXZXZXZXxXcXxXZXZXZXZXZXZX",
"ZXmXxXxXZXZXxXxXZXZXxXxXcXxXgXxXxXxXZXZXZXMXmXxXxXmXMXMXgXlXxXxXMXcXxXxXxXgXlXxXxXxXxXcXxXmXMXxXxXMXxXMXxXxXlXxXxXxXxXxXMXxXxXxXcXMXZXZXMXZXcXxXcXxXMXMXcXxXcXHXxXxXxXxXcXcXMXxXxXxXxXxXxXxXcXcXcXcXxXZXZXZXZXZXZXcXZXZXZXZXcXcXxXcXZXZXMXMXZXZXMXZXZXmXZXZXZXZXZXxXmXZXxXxXxXxXZXMXMXZXZXMXxXmXZXZXMXMXxXxXZXZXMXZXZXMXxXcXxXxXxXxXxXZXMXcXxXxXMXMXxXxXxXcXMXZXZXMXZXMXMXxXZXZXcXZXZXZXZXZXZXZXZXxXMXmXZXZXmXxXMXZXxXMXcXxXMXMXcXMXMXxXZXZXZXxXcXZXMXZXZXZXZXZXZXZXZXMXZXxXxXZXZXZXmXZXmXmXZXxXcXxXxXZXZXZXZXZXZXZXZXmXMXxXxXZX",
"xXmXxXxXmXZXZXZXZXbXbXZXMXMXcXxXlXxXcXMXcXcXZXmXxXxXZXZXlXgXxXZXMXMXcXxXxXxXxXxXxXxXcXxXxXmXZXmXxXxXZXMXxXxXxXMXZXcXxXxXxXcXxXxXxXxXxXcXcXxXxXZXcXxXcXcXMXMXMXMXxXxXxXxXMXcXxXxXxXcXMXxXxXxXxXMXxXxXMXZXMXcXMXZXZXxXxXZXZXMXcXcXMXcXcXZXZXZXZXZXZXmXZXZXZXZXZXZXZXZXmXxXxXxXZXFXMXMXZXZXZXZXZXmXmXZXMXZXZXmXMXZXZXZXMXMXxXxXlXxXlXMXcXZXZXZXMXMXxXMXMXMXZXZXMXxXZXZXMXMXMXZXMXZXcXcXxXxXZXxXMXZXxXZXZXZXMXZXZXxXZXZXZXMXxXxXcXcXcXcXZXZXcXZXZXcXZXZXcXZXZXZXZXZXZXZXZXZXmXMXxXZXZXxXMXZXxXxXxXxXxXxXxXxXMXZXZXZXZXZXZXZXxXMXxXZX",
"ZXZXZXxXxXZXZXbXZXZXZXZXcXMXxXxXxXxXcXcXxXxXmXZXxXMXmXZXMXxXgXlXcXZXcXMXxXxXxXxXxXxXcXcXcXMXxXxXZXZXcXxXcXMXZXxXxXZXMXZXcXMXMXxXxXxXxXxXxXxXMXMXxXZXcXxXcXcXMXxXcXxXxXxXcXMXMXMXZXxXxXxXxXxXMXZXcXxXxXZXcXMXMXxXZXcXZXMXcXxXcXZXcXMXcXxXZXZXMXmXmXmXZXZXZXZXZXZXZXZXZXMXZXZXMXMXZXZXZXMXZXZXFXZXZXZXZXMXMXxXMXMXMXMXcXZXxXxXxXxXlXlXxXMXZXZXxXxXmXmXZXMXZXxXxXxXMXZXZXZXxXmXmXMXcXcXcXcXMXZXmXxXxXZXZXZXMXZXZXMXZXmXZXMXxXxXxXMXxXxXxXcXxXxXZXZXxXxXxXcXZXMXZXZXZXZXZXMXMXZXZXMXMXMXMXMXMXmXZXMXxXlXxXxXcXZXZXZXMXZXMXMXmXZXMXZX",
"FXZXZXxXZXZXZXZXZXZXPXZXxXxXxXMXMXMXcXMXxXxXmXZXmXMXMXmXZXxXxXxXxXxXxXZXxXxXxXxXxXxXxXcXcXxXxXMXxXxXxXxXZXcXcXxXxXxXZXcXMXMXxXxXxXcXxXMXxXcXxXxXcXxXZXZXZXcXxXMXMXcXxXxXxXxXZXZXMXcXxXxXcXxXxXxXxXxXxXZXMXZXgXhXlXxXcXMXZXMXMXcXMXZXMXcXxXZXmXxXmXZXZXZXZXZXZXMXZXmXZXZXZXmXZXZXMXZXZXMXZXFXZXPXZXMXZXMXxXxXMXxXxXcXcXxXlXxXcXlXxXxXcXcXcXMXxXxXMXZXZXMXmXxXxXcXZXZXZXZXZXxXxXZXcXxXxXcXZXZXZXxXmXxXmXZXZXZXZXZXZXmXZXZXxXxXcXMXxXxXxXxXxXcXZXZXcXcXcXcXZXcXZXZXZXmXmXZXZXZXZXZXMXZXxXZXZXZXZXMXxXgXxXxXMXZXZXZXxXMXMXMXZXmXMXZX",
"mXZXxXZXZXxXZXZXZXZXZXZXZXxXxXcXZXZXZXZXMXZXMXxXMXMXMXmXMXxXxXxXxXxXxXZXcXxXxXxXxXxXxXxXxXMXxXxXgXxXxXxXcXxXMXxXxXxXMXcXxXZXxXlXxXxXxXlXZXZXZXZXZXZXZXZXZXMXZXZXxXxXxXxXxXxXMXZXZXZXcXMXcXxXxXcXMXcXxXcXZXxXxXlXgXxXMXMXZXMXMXxXZXZXZXZXZXxXZXZXZXZXZXZXZXMXZXZXZXZXZXMXZXZXFXZXZXZXmXZXZXZXZXZXZXZXZXmXMXMXxXxXZXcXxXMXxXxXZXZXZXZXcXMXMXZXcXmXZXZXmXxXxXcXxXxXMXMXMXZXZXZXmXZXZXcXxXxXxXxXMXxXmXxXMXZXZXZXMXZXZXZXmXmXNXmXxXZXcXxXcXxXxXMXcXcXZXZXZXZXZXMXZXZXMXxXxXZXZXZXZXZXZXZXxXmXmXZXZXMXxXxXxXxXMXZXZXZXZXxXxXZXZXZXxXZX",
"mXNXmXZXPXZXZXZXZXZXZXZXZXZXZXMXcXZXMXZXZXMXZXxXZXZXmXZXMXZXZXxXxXxXZXZXZXcXxXxXlXlXlXgXgXlXlXlXxXlXxXcXcXcXcXxXxXxXxXxXxXxXmXxXxXxXxXxXZXZXZXZXZXZXZXJXZXZXZXZXmXZXxXxXxXxXxXNXbXbXZXZXZXvXxXxXxXxXcXMXZXMXcXMXMXxXMXMXxXcXZXZXcXZXcXcXZXZXZXZXFXGXZXZXZXZXZXZXZXZXZXxXZXZXZXZXZXZXZXMXZXZXZXZXZXZXZXZXZXZXZXZXMXZXZXMXcXxXxXZXZXZXZXxXMXZXxXxXZXZXZXxXxXxXmXMXZXMXZXZXZXZXMXMXMXZXMXxXxXxXMXcXMXmXMXZXMXMXZXZXMXZXmXmXNXZXMXxXxXZXMXcXxXxXZXZXMXZXZXMXZXxXZXMXZXcXMXMXZXZXMXZXMXmXmXmXMXZXZXZXZXMXxXZXxXZXZXZXZXxXMXZXZXMXxXZX",
"ZXZXZXPXJXZXZXZXZXZXZXZXZXZXZXZXMXxXMXcXMXcXZXZXZXZXZXZXMXZXZXmXxXxXcXZXxXxXMXgXlXxXlXgXhXhXhXgXlXlXxXxXcXxXxXxXZXZXxXxXxXxXmXZXxXMXZXZXZXZXxXZXZXZXZXPXZXZXZXNXZXZXZXxXZXNXxXxXxXxXxXZXZXbXxXxXxXxXxXZXZXZXxXMXMXxXxXxXxXxXxXZXcXcXZXZXZXZXxXZXZXZXZXZXZXZXZXZXZXZXZXxXmXMXmXZXZXZXZXZXZXZXZXMXZXxXMXZXZXZXZXZXxXmXxXMXxXxXxXxXZXZXxXxXmXZXxXxXZXZXZXMXmXMXZXZXZXZXMXZXZXZXZXMXcXxXMXcXxXlXxXZXxXcXxXcXMXMXZXMXMXZXMXmXMXZXMXxXMXZXxXxXZXxXxXMXZXcXMXZXZXxXZXZXZXZXcXMXZXZXZXZXZXZXmXZXZXmXMXMXZXZXxXmXxXMXxXZXZXcXZXcXZXZXZXZX",
"JXPXPXJXZXJXZXZXZXxXNXZXZXZXZXZXZXZXZXMXZXcXMXxXxXZXNXZXZXxXxXxXZXZXMXxXxXZXZXxXxXxXgXgXgXgXgXhXgXlXxXgXxXcXxXcXxXxXMXcXZXmXMXMXxXMXMXxXNXZXZXZXZXJXZXZXZXPXZXZXZXZXJXZXZXZXNXNXxXxXxXZXZXbXxXxXcXMXcXcXcXMXxXcXxXMXxXxXxXxXZXcXxXcXZXxXxXZXMXMXFXZXZXZXZXZXMXZXZXMXmXZXMXmXZXZXZXZXmXZXZXZXxXmXMXxXMXZXZXZXmXxXxXmXxXxXxXMXZXMXxXZXZXMXxXZXZXMXZXMXZXZXZXZXZXZXZXZXmXmXZXZXZXZXZXZXcXcXxXxXxXZXxXxXMXcXxXMXcXxXMXMXmXMXZXmXMXZXZXZXxXxXZXcXcXMXxXxXcXZXcXxXZXZXZXZXZXcXxXZXZXZXZXZXZXZXZXZXZXmXZXZXZXMXxXZXMXMXZXZXxXxXxXxXxXHX",
"ZXZXZXPXPXZXNXZXNXZXZXZXMXZXZXZXZXZXZXZXZXZXZXZXZXmXNXmXmXxXxXxXZXZXcXZXMXcXMXZXmXMXlXgXlXlXgXlXgXxXlXlXxXxXxXxXcXcXcXlXxXZXZXmXxXMXZXxXxXNXJXZXNXZXJXNXxXZXZXxXZXZXZXZXZXZXZXxXxXbXxXbXZXZXZXxXxXMXcXxXxXxXxXxXxXcXMXxXxXxXxXxXxXcXxXxXxXZXZXMXZXZXZXZXZXZXMXmXZXZXZXZXZXxXZXZXZXxXZXZXZXZXZXxXxXZXMXZXmXZXmXZXmXZXZXxXcXcXcXxXxXxXZXZXZXMXZXZXZXZXZXZXZXZXMXZXZXZXMXZXMXZXMXMXxXlXZXcXxXZXZXMXcXxXcXZXcXxXxXxXxXmXmXMXZXZXMXMXxXZXZXZXZXMXZXxXxXxXZXcXxXcXZXZXZXZXZXZXxXxXFXZXZXZXZXZXZXZXZXZXZXMXZXZXZXZXZXMXZXZXZXZXMXxXxXHX",
"ZXZXZXZXZXZXNXxXNXPXPXZXZXZXZXZXZXZXMXMXcXZXZXZXZXNXNXmXZXMXxXxXxXxXxXZXZXZXMXxXZXZXZXlXlXxXMXxXxXxXxXgXxXcXxXMXcXcXcXxXxXMXZXxXxXmXZXZXxXxXZXZXZXZXZXZXZXZXZXZXxXNXNXZXNXZXJXZXZXbXxXxXZXZXZXZXZXZXxXxXxXxXcXcXxXxXMXxXxXxXxXxXxXxXZXZXcXxXMXZXZXZXZXZXZXZXZXZXxXZXZXxXZXZXZXMXZXZXZXZXZXZXZXZXmXmXZXmXmXxXmXxXxXZXZXMXxXxXcXlXgXxXgXZXZXMXZXxXZXZXxXmXmXZXZXZXZXZXZXZXZXZXZXxXxXxXgXxXZXMXZXZXMXxXxXMXcXMXcXMXxXmXxXmXmXmXMXMXMXMXMXMXMXZXcXxXMXxXcXZXZXZXZXZXZXZXZXZXZXxXZXZXZXZXZXZXZXZXZXMXZXZXZXMXZXZXZXZXMXZXZXcXxXZXcXZX",
"JXZXZXZXZXZXZXZXZXZXFXPXZXZXZXZXZXZXZXZXZXZXZXMXmXmXNXNXZXZXxXxXMXxXxXxXMXZXMXZXZXxXZXZXZXxXMXZXMXxXxXlXxXxXxXxXxXxXcXcXcXZXMXxXxXxXxXNXNXZXZXZXZXZXxXJXJXZXZXJXPXJXZXZXZXZXJXPXPXZXxXbXZXZXZXxXZXZXZXZXxXxXcXMXMXxXxXxXxXxXxXxXxXcXZXZXZXZXZXZXZXZXZXZXZXZXZXMXMXZXZXxXMXZXZXMXZXZXZXZXZXZXZXZXZXmXmXmXZXmXZXZXZXZXZXmXxXcXZXxXxXZXxXlXZXZXMXZXZXZXMXZXMXmXZXMXZXZXZXZXZXZXZXZXZXZXlXxXZXMXZXZXZXxXxXxXMXZXxXMXMXmXxXZXMXmXMXZXMXMXZXZXMXZXZXxXcXZXZXcXZXZXMXZXZXZXZXMXZXMXZXZXZXZXZXFXZXZXZXZXZXZXZXZXZXZXZXZXZXZXZXZXZXZXMXZX",
"ZXZXZXZXZXxXZXZXmXZXZXZXZXZXZXZXZXZXZXZXZXMXZXZXmXZXZXZXmXxXxXZXZXxXlXMXZXZXZXZXZXxXxXZXMXxXZXMXxXcXxXgXlXZXxXxXxXxXxXxXZXxXlXMXxXMXMXmXZXZXZXZXZXNXZXZXZXJXZXZXZXJXZXZXZXZXZXZXZXZXZXxXZXxXZXZXNXZXZXZXZXZXxXmXZXMXxXxXMXxXxXxXxXxXxXMXZXZXZXMXMXZXMXZXFXZXZXxXZXZXMXZXZXZXmXxXZXZXZXZXZXZXZXZXZXMXZXmXZXMXmXZXZXZXZXZXcXcXZXZXMXZXZXxXxXxXMXZXMXZXZXZXxXxXZXMXMXxXZXZXZXNXNXZXZXMXZXcXZXxXMXMXMXxXZXZXmXmXMXMXMXZXMXxXxXxXxXxXZXMXMXMXmXZXMXZXxXxXcXMXZXxXcXcXZXZXcXxXMXZXZXZXZXZXGXFXZXZXZXMXxXZXZXZXZXZXZXZXMXxXZXMXZXZXZXZX",
"ZXZXMXZXxXxXPXxXxXZXZXFXZXZXZXZXZXZXZXZXZXmXZXZXZXZXZXmXmXZXZXZXmXjXxXxXZXZXZXZXZXMXmXZXMXxXxXxXxXMXxXgXgXxXxXxXxXlXxXZXcXgXmXxXxXMXZXMXmXZXZXZXZXZXZXZXZXJXJXvXZXZXZXZXZXZXxXxXNXJXZXZXZXZXZXZXZXZXZXZXZXZXZXxXMXZXmXMXZXxXxXxXxXxXMXZXZXZXZXZXMXZXZXZXFXZXZXxXMXZXZXZXcXZXZXxXZXMXZXZXZXZXZXZXZXZXZXZXxXxXZXZXZXmXMXZXMXxXZXMXZXZXcXcXxXxXxXxXZXZXZXZXMXZXZXxXmXZXZXZXmXmXZXZXbXZXxXxXZXZXMXMXZXMXmXZXxXxXMXxXZXMXxXcXcXcXMXMXmXMXmXZXZXmXMXmXmXZXcXcXZXMXcXxXxXxXMXZXZXZXMXZXZXZXZXZXZXZXZXZXZXZXZXZXZXMXMXMXZXZXZXZXxXZXZXZX",
"ZXZXZXmXxXZXZXxXZXZXZXZXZXZXxXZXZXFXZXZXFXZXZXZXZXZXZXZXMXMXZXxXmXZXZXZXZXZXZXZXZXMXMXmXMXZXxXxXxXMXZXxXgXxXxXgXcXxXcXcXcXMXZXMXxXZXMXZXZXMXZXZXZXZXZXZXJXZXZXPXZXJXPXZXZXJXZXZXZXZXZXJXJXZXxXvXxXZXZXZXZXZXMXmXxXZXZXZXZXmXxXxXMXxXxXcXMXMXZXZXZXZXZXZXZXZXZXZXZXcXZXcXxXxXZXZXZXZXZXZXZXMXxXxXZXZXZXZXZXZXMXZXMXMXZXZXZXZXZXMXZXZXcXZXcXxXxXMXxXZXMXcXMXZXZXZXMXZXmXmXZXmXmXZXZXZXZXcXxXZXxXmXZXxXMXZXxXxXmXxXcXZXxXxXxXcXZXZXmXmXmXZXZXmXmXMXZXZXcXxXMXMXMXZXMXxXxXZXZXxXZXZXMXZXZXZXZXZXZXZXZXZXMXZXZXZXZXZXZXZXZXZXmXmXMXZX",
"ZXZXMXZXZXMXxXMXZXZXGXZXZXMXxXZXZXZXFXMXZXFXZXZXZXZXZXZXZXxXZXZXmXMXmXMXZXZXMXZXZXxXxXZXxXxXxXxXcXMXcXxXxXlXlXgXlXxXxXZXMXMXxXMXxXMXxXZXZXMXmXZXZXZXZXZXZXZXZXJXZXZXZXZXxXZXJXPXZXNXNXZXJXZXZXxXxXJXZXZXFXZXZXZXxXMXZXZXZXxXmXZXMXcXxXxXMXZXZXZXMXZXZXZXZXZXZXZXMXxXZXxXcXxXxXMXZXZXZXZXxXxXMXZXZXZXZXmXZXMXmXZXZXZXMXZXcXZXcXcXcXZXZXcXZXMXMXZXMXcXZXZXZXZXZXZXZXZXZXMXZXmXxXMXxXxXMXZXcXMXxXxXcXMXxXxXxXlXxXxXZXMXMXcXMXMXmXZXZXmXmXxXmXZXMXMXZXMXcXMXxXMXcXMXMXMXxXlXxXxXZXZXZXZXZXMXZXZXZXZXZXZXZXZXZXZXZXZXZXMXMXmXZXZXmXZX",
"ZXZXMXxXMXxXmXlXxXMXZXZXZXMXMXZXZXmXZXMXZXZXZXZXZXZXZXGXZXmXmXZXMXZXZXmXZXZXMXZXZXZXxXgXhXxXgXxXMXxXlXxXxXxXlXgXgXxXZXxXcXZXZXxXmXxXmXZXZXZXZXMXZXPXZXZXZXZXZXZXNXZXZXJXZXPXZXZXZXZXxXZXZXJXZXZXJXPXJXZXZXZXxXmXmXmXZXZXZXxXZXZXMXxXMXxXZXFXZXGXZXZXZXZXZXMXZXZXxXcXMXxXMXxXxXZXmXZXZXZXMXMXZXZXZXxXZXZXMXZXZXMXZXmXZXZXMXcXcXxXMXMXMXxXxXZXZXZXZXZXZXZXZXMXZXMXxXZXZXZXZXZXxXxXcXxXxXZXcXxXMXMXcXZXlXlXMXxXxXxXMXZXZXMXZXZXZXZXmXmXmXxXxXZXZXMXmXcXcXMXcXMXxXxXMXcXZXxXZXZXZXmXMXmXZXZXZXZXxXMXZXZXZXZXZXZXcXZXZXMXMXZXMXZXmXZX",
"ZXZXZXmXxXMXZXZXMXxXZXMXZXMXZXMXxXxXmXZXZXZXZXZXmXZXZXZXZXZXZXZXZXMXmXxXMXZXZXZXZXMXZXkXkXlXlXxXgXxXxXxXlXxXlXgXgXxXMXZXMXMXMXxXMXZXMXZXMXZXZXZXZXZXZXZXZXJXPXZXZXZXZXZXZXZXZXxXvXZXZXZXZXJXZXZXZXZXZXPXZXZXmXxXxXZXmXZXZXZXmXmXMXZXZXxXxXPXZXZXZXPXFXZXZXZXZXZXZXZXMXcXxXMXxXZXZXZXZXMXZXZXmXmXmXxXMXZXZXZXZXxXZXZXZXZXZXMXZXcXZXZXMXxXcXZXZXxXxXMXZXZXmXMXmXxXZXZXZXZXmXZXZXZXZXZXZXMXxXxXmXMXcXMXZXZXZXZXcXmXxXZXZXxXcXZXZXZXMXMXmXZXMXMXZXZXMXMXMXxXxXMXxXxXZXZXMXcXxXZXZXMXmXMXxXxXmXMXZXZXxXmXZXZXMXZXZXZXZXZXZXZXZXZXZXFX",
"ZXZXxXMXZXZXmXZXFXZXZXZXZXxXmXZXmXmXmXZXZXZXZXNXZXZXZXZXMXZXZXZXZXZXZXMXZXmXZXNXmXMXmXMXZXxXxXlXhXlXxXxXxXlXlXlXgXgXxXZXZXmXxXxXxXMXxXZXxXMXZXMXZXPXZXZXZXZXJXZXZXJXZXJXZXZXJXZXZXNXZXZXZXZXZXZXZXvXZXPXPXZXZXxXxXNXxXZXNXNXZXmXZXZXZXZXZXZXZXxXZXFXPXZXZXZXZXMXZXZXZXZXxXMXxXZXZXZXZXZXmXmXZXxXZXZXMXZXZXMXMXMXZXZXMXZXZXZXcXZXZXxXxXxXZXxXZXxXxXMXMXZXZXmXxXjXZXZXMXmXxXmXxXMXcXxXxXMXcXxXxXmXMXZXZXZXZXMXcXZXxXxXMXZXZXMXZXMXZXZXZXZXZXZXZXZXZXZXZXMXmXZXmXcXZXMXZXxXxXZXZXcXZXZXxXxXMXmXMXMXZXZXZXZXZXZXZXZXZXZXZXZXZXZXZXFX",
"ZXZXMXZXZXZXZXFXZXZXZXZXPXZXxXxXZXmXZXZXZXmXZXNXZXZXNXZXMXZXZXMXZXZXZXZXZXZXZXZXmXZXxXxXcXcXlXlXlXlXkXlXcXlXxXlXgXhXxXcXZXMXMXxXxXlXlXZXxXxXxXxXxXZXZXZXJXJXPXZXZXZXZXZXPXZXZXZXZXZXvXNXZXZXZXZXZXZXZXZXZXPXZXJXZXNXxXxXxXNXZXxXMXZXZXMXmXZXcXZXZXZXFXZXZXZXMXMXMXMXcXZXMXxXZXZXZXMXMXMXZXZXZXZXmXZXZXxXxXcXZXZXmXmXZXZXZXZXxXZXMXxXcXxXcXxXZXZXxXxXmXMXZXxXxXmXmXMXMXZXxXxXxXxXMXxXxXxXMXxXxXxXmXZXMXcXZXZXMXcXZXMXcXMXZXMXxXxXMXZXMXZXZXZXZXZXZXMXMXZXmXZXZXZXcXxXcXMXxXMXcXxXZXZXmXZXmXmXZXZXZXZXZXZXZXmXMXMXZXZXZXZXZXZXMXZX",
"ZXZXZXZXZXZXZXZXFXZXZXxXZXFXZXmXZXmXZXZXZXmXNXZXZXZXxXxXxXZXMXMXMXZXZXZXZXZXMXZXZXZXZXxXxXxXxXlXgXgXgXhXxXxXxXlXlXxXlXxXxXxXxXxXxXlXxXcXMXMXxXgXxXZXZXZXZXZXZXZXZXZXJXZXJXZXZXJXZXNXNXxXxXZXJXZXZXZXZXZXJXPXPXZXZXZXZXZXNXZXZXZXZXZXZXZXZXGXxXxXcXxXZXZXZXZXZXZXxXxXxXcXZXMXZXZXMXZXZXxXZXZXMXZXMXZXkXkXZXxXxXMXmXmXZXMXcXZXxXxXcXxXxXxXMXxXxXZXmXxXxXMXZXZXxXmXZXZXZXZXxXxXxXMXxXxXxXcXxXxXmXZXxXZXxXcXZXZXZXcXMXcXxXxXxXxXxXmXZXZXMXMXmXZXZXZXZXZXZXZXZXZXZXZXcXZXMXcXMXxXcXZXZXZXZXZXZXZXZXZXZXZXxXZXZXZXZXZXZXZXZXZXMXZXZXZX",
"ZXZXZXZXZXFXZXFXZXZXZXZXZXMXZXZXMXxXMXZXMXMXxXZXNXZXZXmXmXMXmXZXZXZXZXZXZXMXmXZXZXZXZXxXxXMXMXxXlXxXlXgXxXxXlXxXxXxXgXgXxXcXMXcXlXlXgXcXxXZXxXxXxXZXZXxXZXZXZXZXZXZXZXJXPXJXZXZXZXZXNXZXZXZXJXZXZXPXPXZXZXZXZXPXxXZXZXZXZXZXZXZXZXZXZXmXZXZXxXxXxXcXZXZXZXZXGXFXZXZXxXcXZXcXZXZXZXcXZXZXZXZXZXMXxXxXZXZXZXZXMXxXMXZXMXmXxXcXxXZXcXcXxXMXcXxXcXZXMXmXmXZXZXxXZXZXMXZXZXMXxXxXxXxXxXxXxXxXcXxXmXZXxXmXZXMXMXxXZXZXZXcXxXZXZXcXxXxXxXZXMXmXmXxXZXZXZXZXZXZXZXZXZXMXcXZXMXMXcXxXcXZXMXZXZXZXZXZXmXMXZXZXmXZXZXZXZXZXZXZXFXZXZXZXZXZX",
"ZXZXZXGXFXZXZXZXZXZXZXZXmXmXZXZXZXxXMXMXMXxXNXZXNXZXZXZXMXxXMXmXZXxXxXZXZXMXmXmXZXZXmXcXZXxXjXxXmXmXlXxXxXlXxXxXxXxXxXlXgXxXcXlXlXlXlXxXxXxXxXZXZXZXZXxXxXZXZXZXZXNXZXZXZXJXJXZXZXJXZXZXJXZXZXZXJXJXJXJXZXZXZXZXJXZXZXZXZXZXZXZXZXGXZXZXmXMXcXMXcXZXZXZXZXZXZXZXZXxXZXZXcXxXZXcXZXZXZXZXZXmXMXxXxXZXMXZXZXMXZXZXMXxXMXMXxXxXxXZXZXxXxXcXZXMXMXMXZXmXMXZXZXZXZXmXMXZXZXZXZXMXZXMXZXZXcXxXMXxXmXZXxXxXxXMXcXMXZXZXcXZXxXxXxXcXxXxXMXMXMXZXZXZXZXZXZXZXZXZXZXZXZXZXZXcXZXMXxXxXxXxXcXZXZXZXMXMXZXMXMXZXZXZXZXZXZXZXZXZXZXZXZXZXZXFX",
"ZXZXZXZXZXZXZXZXZXmXxXxXxXZXZXZXMXZXZXMXMXMXZXZXZXxXZXZXmXmXmXmXZXMXZXxXZXZXxXxXxXmXmXxXZXmXxXxXxXmXZXxXxXxXxXxXxXxXxXxXgXgXgXgXgXlXxXlXxXxXMXMXxXxXmXxXZXZXxXxXZXZXxXNXJXZXZXZXPXZXZXJXZXZXZXZXZXZXZXJXZXPXPXPXZXZXZXZXZXZXZXJXJXPXZXZXmXxXmXMXZXMXZXZXxXxXZXZXZXMXZXZXZXZXxXMXxXxXZXZXZXZXxXMXZXZXxXMXZXZXZXZXZXMXxXMXMXcXxXxXxXxXxXxXxXMXZXZXZXmXmXmXMXcXxXMXcXZXZXZXmXMXMXMXcXMXcXxXxXMXcXZXZXcXxXcXcXZXMXcXZXxXMXxXxXcXZXZXMXcXZXMXMXcXZXZXZXZXZXZXZXZXZXMXMXZXxXmXcXZXlXxXcXZXZXMXMXMXZXZXZXmXZXMXZXZXZXZXZXZXZXZXMXZXZXZX",
"ZXFXZXZXZXZXFXZXZXxXMXcXMXZXZXZXZXZXZXZXZXZXZXZXxXxXxXxXmXZXMXmXZXmXZXZXGXZXZXmXxXxXMXmXZXxXxXmXxXmXmXxXxXgXxXxXxXxXxXxXxXlXlXlXlXxXxXxXxXxXxXxXxXxXMXZXmXZXxXNXZXZXZXZXJXZXZXZXZXZXZXZXZXZXZXZXZXNXZXPXJXJXPXZXJXPXZXZXPXPXZXZXZXZXFXZXZXZXZXZXmXxXxXMXxXxXMXMXZXZXZXZXZXxXMXMXxXZXxXxXxXxXmXZXMXmXmXMXZXZXMXMXZXZXZXMXMXcXxXxXZXMXcXcXxXxXZXMXMXxXZXmXmXZXxXcXZXMXxXmXMXMXMXMXxXxXMXcXxXZXMXxXxXZXZXxXxXxXMXZXZXMXxXZXcXxXcXZXZXZXMXZXxXcXZXZXZXZXZXZXZXMXZXZXZXxXMXMXMXZXxXxXMXcXxXZXMXxXZXZXZXZXZXZXZXZXZXZXmXZXZXZXPXZXZXZX",
"ZXFXZXZXFXZXZXZXZXZXZXcXZXHXZXZXMXxXMXMXZXZXZXZXMXZXmXmXMXZXmXZXZXMXMXMXZXmXMXMXmXmXZXZXmXxXmXZXmXmXxXxXMXgXgXxXxXxXxXxXxXxXlXxXgXxXxXxXxXxXlXxXMXZXxXxXmXZXZXNXNXxXZXZXZXJXZXZXZXZXZXZXZXZXZXZXZXZXZXPXPXPXJXZXZXZXZXJXPXZXJXPXPXPXZXZXZXZXPXZXZXmXxXcXZXxXxXcXMXcXcXcXxXZXxXMXxXxXZXZXZXZXxXMXZXxXMXMXZXZXmXmXmXZXZXZXMXcXMXZXxXxXxXxXxXMXcXZXxXxXMXMXmXZXZXZXZXMXgXxXZXZXmXMXcXcXcXcXcXxXMXxXcXMXZXxXlXxXcXcXMXxXxXMXZXZXxXxXxXgXxXZXxXMXZXZXZXZXZXZXZXZXMXZXZXxXZXZXZXZXMXxXZXZXZXxXxXZXxXxXZXZXZXZXZXZXZXMXmXZXZXZXZXZXMXFX",
"ZXZXZXZXZXZXZXZXZXZXZXGXZXZXZXcXcXZXZXZXZXZXZXMXZXZXFXFXZXZXmXmXxXmXGXZXmXmXZXZXZXZXZXZXZXZXMXmXmXMXxXMXgXgXgXxXxXxXxXgXxXcXxXxXlXxXxXxXxXxXcXxXMXmXxXZXmXmXNXZXZXZXxXxXZXZXZXZXZXZXZXZXZXZXJXZXZXJXJXZXJXZXZXZXZXZXZXZXZXZXPXPXPXJXZXZXZXZXZXZXZXZXZXZXZXZXcXxXxXMXcXcXcXZXxXxXZXxXmXmXMXxXjXMXZXZXZXMXMXZXMXmXZXxXmXZXcXxXcXMXcXxXcXMXcXxXxXmXMXxXZXZXZXZXZXZXcXMXMXmXxXZXZXMXZXMXxXZXxXxXxXcXcXxXZXZXxXxXcXcXxXlXxXMXZXZXZXxXlXgXgXcXZXZXcXZXZXZXZXZXZXMXZXmXZXZXZXZXMXZXMXxXZXZXZXZXxXMXZXxXmXxXZXmXZXMXZXZXZXmXZXmXZXZXZXGX",
"ZXZXZXZXZXZXZXZXZXZXZXZXZXZXZXZXZXFXmXmXZXZXZXZXZXZXZXZXZXMXxXxXMXMXZXZXZXZXZXZXmXZXZXZXZXZXmXxXxXmXMXMXlXkXgXxXxXxXxXlXlXxXMXxXgXlXxXxXxXxXxXlXxXmXZXZXmXmXZXZXZXZXZXxXgXxXZXZXZXZXZXZXNXJXJXJXZXZXPXPXZXZXZXZXZXZXJXZXZXPXZXNXZXNXJXPXZXZXmXZXZXZXZXZXZXxXxXMXZXMXZXcXcXZXmXxXmXZXZXMXmXxXxXZXZXZXZXZXmXMXZXZXmXmXxXMXZXMXMXxXxXxXcXZXcXxXxXxXZXmXZXZXZXZXZXZXZXZXxXZXxXxXZXZXZXZXMXMXcXxXxXcXxXcXcXMXMXcXZXZXxXxXlXlXxXxXZXxXMXZXcXZXZXZXMXZXZXZXZXZXZXmXZXMXZXZXxXxXcXcXMXxXZXZXMXxXxXmXxXmXxXZXZXZXZXmXZXZXZXxXZXmXMXZXZXZX",
"ZXZXZXZXZXZXZXZXZXZXGXZXZXHXZXZXZXZXZXZXZXZXZXZXZXZXMXZXMXxXxXxXZXZXmXZXZXZXZXZXMXZXZXZXZXmXMXMXZXZXxXlXMXxXxXxXZXcXcXMXlXcXMXZXxXxXxXxXxXxXxXxXxXxXZXxXMXZXxXZXZXNXZXJXZXZXZXZXZXZXZXZXZXZXZXZXJXZXJXPXZXJXPXPXZXPXPXJXZXZXZXZXJXZXZXJXPXFXZXZXZXZXZXZXZXxXxXMXxXxXMXHXZXZXZXZXZXZXZXZXZXZXZXZXZXmXZXmXmXxXMXMXmXZXZXZXxXMXZXcXxXxXcXZXMXxXMXxXxXMXZXZXZXZXZXZXZXZXcXxXxXxXZXMXxXZXxXMXMXxXxXcXMXxXMXZXxXxXMXZXxXxXlXxXxXxXxXxXxXxXZXZXZXMXcXZXMXZXZXZXZXMXxXZXZXZXMXxXMXZXcXxXZXMXZXxXxXxXxXmXxXZXZXZXmXMXZXZXZXZXZXZXZXZXZXFX",
"JXJXJXZXZXFXZXZXZXZXZXZXZXZXZXZXZXMXmXZXZXZXZXZXZXZXmXZXZXZXZXxXmXZXMXmXMXMXZXZXZXZXZXZXZXMXZXZXZXZXxXxXxXcXZXcXxXcXcXZXcXcXMXcXcXZXZXZXxXxXxXxXxXxXMXxXxXxXxXmXxXZXZXmXZXZXmXMXZXZXZXZXZXZXZXZXZXZXZXJXPXJXZXPXPXJXPXZXZXZXJXZXZXZXFXZXZXZXZXZXZXMXZXZXZXZXMXxXcXcXZXZXZXZXFXFXZXFXFXZXZXZXZXZXZXZXZXmXxXmXxXMXZXZXZXZXZXZXxXMXZXxXxXxXxXcXxXxXxXZXZXZXMXZXZXxXZXZXZXxXcXZXxXxXMXxXxXxXcXcXxXxXMXZXZXZXxXxXxXZXmXxXxXZXMXxXxXxXxXlXlXxXZXZXMXcXZXxXcXZXZXxXMXmXxXmXmXmXMXZXMXxXZXMXZXMXlXxXMXZXZXmXMXZXZXZXMXZXZXZXZXJXZXZXZXJX",
"PXZXZXZXFXJXJXPXZXJXZXZXZXZXZXZXZXZXmXmXZXZXZXZXZXmXZXZXZXZXmXmXmXmXZXmXmXxXZXZXZXZXZXZXZXMXxXmXxXMXxXcXxXxXcXZXcXxXZXxXZXZXZXZXcXMXcXZXZXZXZXZXxXxXZXxXxXxXxXxXxXZXZXZXZXZXZXZXZXJXvXZXZXZXZXZXZXZXJXPXJXJXZXZXPXZXPXZXJXZXZXmXZXZXZXZXZXZXZXZXZXZXZXZXMXZXZXMXZXZXZXZXZXZXZXZXZXZXFXZXZXFXFXZXGXFXZXZXmXMXZXZXxXZXmXZXZXZXmXmXZXxXxXxXcXcXxXcXZXZXZXxXxXxXxXcXxXZXZXZXMXZXxXgXMXZXxXxXxXMXxXxXxXZXxXZXmXmXxXZXZXmXZXZXZXZXZXZXxXlXxXcXZXZXZXZXZXZXZXZXMXcXxXxXMXmXmXxXMXMXmXxXxXxXZXZXmXZXxXmXZXZXMXZXZXGXMXZXGXPXZXZXZXZXZXZX",
"PXPXJXJXJXJXFXFXZXZXJXJXJXZXZXZXNXZXMXZXZXZXZXZXZXZXZXZXZXMXZXZXmXxXmXZXZXxXgXMXZXZXZXMXZXZXmXmXMXZXZXxXxXxXxXxXxXMXcXxXxXZXZXZXZXZXZXMXZXZXHXZXcXxXxXxXxXxXxXxXmXMXmXZXZXxXZXZXZXZXZXZXZXZXZXZXZXZXZXJXZXZXZXZXZXJXZXZXPXZXZXZXZXmXZXPXZXZXZXMXZXZXZXZXZXZXMXZXZXxXxXZXZXZXZXZXZXZXmXZXZXZXZXZXZXZXZXxXxXmXZXZXZXZXZXZXZXZXZXZXMXMXcXxXZXMXZXcXMXZXZXcXxXZXxXgXxXMXZXxXxXMXZXxXZXZXxXxXxXxXcXcXZXxXxXMXZXZXxXmXZXmXxXMXZXZXZXZXHXxXxXZXxXZXZXZXZXZXZXZXMXMXxXlXxXmXxXmXxXZXxXxXMXmXxXxXmXMXZXZXZXZXZXZXZXZXZXZXZXFXZXPXZXNXZXZX",
"ZXZXPXJXJXJXJXFXJXJXPXPXJXZXZXZXNXZXZXZXZXZXFXZXZXZXZXZXZXmXZXZXZXxXMXZXZXxXxXxXZXZXmXMXZXZXZXxXZXZXZXZXxXxXxXxXxXxXMXxXxXcXcXZXZXZXMXcXcXZXZXZXZXZXxXxXxXMXMXxXxXMXmXZXZXZXFXPXZXJXJXZXZXZXZXZXZXZXZXxXZXZXZXZXZXPXZXZXJXZXZXZXZXZXZXZXZXZXZXZXZXmXxXZXZXZXxXMXZXcXxXxXZXcXMXZXZXZXZXZXZXZXFXGXZXFXZXMXZXZXZXZXZXZXZXZXZXmXmXMXZXZXcXZXZXZXZXZXZXZXZXZXZXZXZXZXZXcXcXcXcXcXMXZXZXxXxXZXxXxXMXZXxXxXZXMXZXmXZXZXxXmXZXxXZXZXZXZXZXZXMXxXxXZXxXcXZXZXZXZXcXxXxXgXxXmXxXmXmXxXxXZXMXxXxXZXZXmXZXZXZXZXZXFXZXZXZXZXZXZXPXPXNXZXZXJX",
"PXZXPXPXJXJXPXZXJXPXJXPXPXPXZXZXxXmXZXZXZXZXZXZXxXZXZXZXZXZXmXZXxXxXmXZXZXZXmXxXZXMXZXZXZXZXZXZXxXMXZXZXxXxXZXZXxXxXMXMXMXMXxXZXZXZXMXMXcXZXZXZXZXZXZXZXxXMXZXZXxXMXmXZXFXZXZXZXFXZXZXZXPXZXZXZXZXZXZXZXZXZXZXZXZXZXPXPXZXxXZXZXZXZXMXFXFXZXZXZXZXZXxXcXZXxXxXZXxXZXxXxXcXZXZXZXZXZXFXZXZXZXPXGXPXZXZXZXZXZXFXZXZXMXZXZXZXxXMXMXmXZXZXGXZXZXZXZXZXZXZXZXZXcXxXcXZXZXcXcXcXcXxXZXcXMXcXZXZXZXZXMXcXZXZXZXZXZXZXZXZXZXZXZXZXmXZXZXZXZXHXZXZXxXxXcXMXcXZXZXZXxXxXxXmXMXxXxXZXZXxXxXxXxXxXZXZXZXZXZXZXZXZXZXZXZXZXZXZXZXZXZXZXZXZXJX",
"JXPXZXJXJXPXPXJXJXZXZXJXZXZXZXJXZXZXZXZXZXZXmXZXZXZXZXZXZXZXmXmXZXZXZXZXZXZXZXxXmXZXZXZXZXZXZXmXZXmXMXZXMXMXxXMXMXMXZXZXMXMXZXcXZXZXZXZXmXmXMXMXxXxXxXZXZXcXZXZXZXMXMXxXxXmXxXmXZXZXPXZXZXZXZXZXZXZXJXJXZXPXZXZXZXZXZXPXZXZXFXZXZXZXZXZXFXZXZXZXZXZXZXZXZXxXxXxXxXxXZXZXZXxXZXZXZXZXZXZXFXMXZXMXZXFXZXFXZXZXPXZXZXZXZXZXZXZXmXMXMXZXZXZXZXZXZXZXZXZXZXZXZXZXxXgXxXZXZXZXxXMXxXxXZXcXxXxXMXZXZXZXZXZXZXZXZXvXZXZXZXZXZXZXZXZXZXMXMXZXFXFXZXZXZXZXMXZXZXZXZXxXxXxXMXcXxXMXMXZXgXxXZXxXZXZXxXxXMXmXZXMXxXZXZXZXZXZXPXZXZXZXZXZXNXZX",
"HXZXJXJXJXJXPXJXJXJXZXZXJXJXPXJXZXPXPXZXZXZXZXZXZXmXmXZXZXZXZXZXmXMXZXZXxXcXcXMXmXZXZXZXZXZXZXMXMXxXZXZXZXMXxXxXxXxXmXZXmXxXMXZXZXZXZXZXMXmXMXZXxXlXMXZXZXMXMXmXZXZXmXxXxXmXZXZXZXZXxXZXZXJXZXZXPXPXJXZXZXZXZXZXPXZXZXZXZXZXZXZXZXZXZXZXFXZXZXxXxXMXZXZXlXxXcXxXZXcXxXZXZXxXZXZXZXZXZXZXZXZXZXMXMXZXZXZXFXZXFXZXPXPXZXZXZXZXZXMXZXMXMXZXFXGXZXZXZXZXZXZXZXZXMXxXMXcXZXZXMXmXxXxXZXMXcXZXMXZXZXZXZXNXZXZXZXNXZXZXZXZXZXMXZXZXZXZXMXxXxXZXZXFXZXZXZXMXxXMXmXxXxXxXxXxXMXcXMXZXxXMXcXxXMXZXmXmXZXMXmXmXZXZXZXZXZXFXPXZXZXZXZXJXZXJX",
"ZXZXJXJXJXJXIXPXJXJXZXZXZXJXJXPXPXZXZXZXZXZXZXZXZXMXZXZXZXMXZXMXZXxXxXcXxXxXxXMXmXZXZXMXMXZXmXZXZXMXmXZXZXZXZXmXxXxXmXZXMXxXxXMXZXMXZXZXZXMXZXZXmXxXmXZXZXZXZXmXZXZXmXxXxXmXZXZXZXZXvXNXNXZXZXZXJXJXZXZXZXZXNXZXZXPXFXZXZXZXZXZXZXZXZXZXZXZXZXZXZXZXxXlXxXZXxXZXMXZXxXxXZXcXMXZXZXZXZXZXZXZXZXMXxXZXGXFXPXGXZXPXPXFXPXFXZXZXZXFXZXxXxXZXZXZXZXZXZXZXZXMXZXZXZXZXZXZXMXMXZXZXZXxXxXZXZXZXZXZXZXZXZXZXJXJXNXZXZXZXZXZXZXZXZXZXZXZXZXZXmXZXZXZXZXZXZXZXxXZXZXZXZXZXcXcXMXcXxXMXZXZXxXMXxXMXZXxXxXZXZXZXZXZXZXZXZXZXZXZXZXZXZXJXZXJX",
"ZXZXZXJXJXPXPXPXPXPXZXZXZXZXZXZXPXZXZXZXZXZXZXZXZXZXZXZXZXmXmXZXMXMXxX                                                                                                                                                                                                                                                                                                                                                                                  mXZXZXZXZXZXZXZXZXZXMXZXcXZXMXmXmXmXZXZXZXZXZXMXxXmXZXZXZXPXJXZXZXZXJXJX",
"ZXFXZXJXPXPXJXZXPXPXZXZXZXZXZXZXPXZXJXZXZXZXZXZXZXZXZXZXMXmXmXxXxXZXZX                                                                                                                                                                                                                                                                                                                                                                                  MXZXZXZXcXMXcXcXZXZXZXxXxXZXZXZXMXZXZXZXZXZXxXxXmXmXZXMXZXZXPXZXZXZXZXZX",
"ZXZXZXJXJXJXZXJXZXZXZXJXZXZXJXPXPXZXZXZXZXPXZXxXxXmXZXZXmXxXZXZXZXMXxX                                                                                                                                                                                                                                                                                                                                                                                  ZXZXZXZXZXZXZXMXMXZXZXgXxXZXMXZXZXxXZXZXZXZXxXNXZXZXZXZXmXZXZXZXPXPXZXPX",
"ZXZXZXZXZXZXZXJXZXZXZXJXZXZXZXPXZXNXZXxXxXZXZXZXZXZXZXZXZXxXZXZXZXZXNX                                                                                                                                                                                                                                                                                                                                                                                  xXZXZXZXZXZXZXMXMXcXZXMXxXZXZXZXmXMXmXZXZXZXvXvXvXZXZXZXZXvXNXZXZXPXZXPX",
"ZXZXZXZXZXZXZXZXZXZXZXZXZXZXZXZXJXPXZXZXZXZXZXZXZXZXZXZXZXZXxXZXZXZXNX                                                                                                                                                                                                                                                                                                                                                                                  ZXGXZXZXZXxXxXZXZXMXMXZXgXxXZXxXmXZXxXZXZXZXZXNXxXxXNXZXZXZXZXxXJXJXJXPX",
"ZXZXZXJXZXZXZXZXJXZXZXZXZXZXZXZXZXZXZXZXPXJXZXZXZXZXZXZXZXZXZXZXZXZXZX                                                                                                                                                                                                                                                                                                                                                                                  ZXZXZXZXZXZXmXxXxXcXMXcXgXxXMXZXxXmXmXZXZXZXPXZXxXxXZXZXZXZXZXZXZXZXZXPX",
"bXZXZXZXZXZXxXvXZXZXJXJXZXJXPXJXJXJXZXZXZXJXJXZXZXZXZXZXZXZXZXPXZXPXZX            k.g , 4 , , s s s g d d C Z `.`._.`.K +X+XOXXX.XtX7X!.7Xq.| *.<.:.I z.'.x.n.I -.-.%XtXdXE.dXsXdX XL B.z.`.[.[.[.y.6X6X6X~.1.b.s.f.f.f.n.m.1.v.s.N.!.!.Q.<.<.<.6X2X( O.:X2XdX2X1XP.5 Y y D Y k x l c x ) ( T.T.dXfXuXP.R._.L.(.K ] B h.Z F h a < Z z z g f Z Z h A ] ] ' _ 6 > , > q ] ] ] ] > > 4 4 4 4 4 g.l.g > > - - > * * * * * * * - * ; < ; g g.k.a             MXxXmXZXxXMXxXxXxXlXcXcXgXlXZXxXxXMXZXZXZXZXZXZXZXZXJXZXZXZXxXNXJXZXZXPX",
"ZXZXZXZXPXZXZXjXvXZXZXZXZXZXZXZXJXZXZXZXZXZXZXJXZXZXZXbXZXZXPXZXZXJXPX            k.g , 4 - ; ; s a s , < 9 C C._.`._.Z K.+XOXXX.Xy.=.<.| ` | -.<.L m.z.'.l.h.L <.-.$XtXdXuXdXdXdXXXH B.B.`.[.[.'.K.6X6Xq.<.m.n.n.n.K.K.}.1.w.w.-.U !.oXUXQ.U U D.A.A.i A.A.$.( l $X$XT ` ..$X/ A.A.c i.1X7.o P.1X1XR.P.( ].C.C.B.#.G h.F P Z > 9 h z F z Z Z h g d v ` ] _ _ 4 > r R ` ' ' ] > > 4 4 * > 4 d.l.g ; > > > * * * * * * * * r * ; g ; y k.k.g             xXMXMXMXMXZXxXZXxXgXxXxXlXgXZXmXZXxXZXZXZXZXZXZXZXJXJXZXJXJXZXxXZXZXZXZX",
"JXZXZXJXJXZXZXZXJXZXZXZXZXZXJXZXJXZXZXZXZXxXNXZXZXZXZXZXZXZXJXPXZXZXJX            k.h - - = : : : : , 9 , , s C.`.i.C.M.D OXOX.XU.} E w w | o.*.L :.m.B.'.z.n.c.<.-.q.uXU..XdXXXXXF.H B.z.`.[.[.'.M.y.6Xq.1.w.y.y.y.y.1.G.K.y.OX}.V n !.fXoXn l S.A.A.A.A.S.i.c p.$.6.6X8X$X . .) c ( R.dXeXP.( l / / l u x.l.C.C.x.F h.M F Z s j Z z N M z Z f f f 9 ' q q 4 7 4 6 + _ ' ' 6 > > 7 r - > r d.l.a ; a , , - * * * * * * % r * a g > m k.k.y             ZXZXZXZXZXMXZXZXxXxXxXZXxXfXkXZXZXmXMXZXZXZXZXJXJXJXZXZXZXZXPXJXZXZXZXZX",
"JXxXgXZXZXJXZXZXJXZXZXJXPXZXZXZXPXJXJXZXZXNXxXxXZXZXPXZXZXNXJXPXPXPXJX            k.y - - : : : : - 7 7 a , - C.a.A.Z.B S +X|..Xy.R [ k k l | +.;.L m.B.'.).1.:.>.3.K.+XuX XuXuXF.L H z.B.^.[.[.[.n.K.6Xq.q.6Xq.y.w.y.1.>.(.[.@X@X[.U /.Q.!.@.l A.2XdX2XS.S.p.p.c u.p.8XUX5X.._ @.D P.dXdXdXP.n.b.d.B B.Z.z.h.`.f.f.B h.Z G F z f d Z G G G Z f f f q ] 9 7 7 > q 6 ' _ ' ] 9 > > 4 4 > > 1 a.d.= a g , - - * * * * * * 2 4 * g g > V k.k.y             PXPXZXZXMXMXZXMXZXZXmXMXmXxXkXmXZXZXZXZXNXZXZXZXJXJXZXZXZXPXPXJXZXZXZXZX",
"ZXZXZXJXZXZXNXZXZXZXZXZXZXxXZXJXZXZXZXZXZXZXxXNXNXJXPXZXZXZXJXPXJXPXJX            k.h - = : : : : 7 9 ; a < - l.M ( Z.V K +XXXuXw.0 k l k l l *.<.J c.z.[.l.b.F.1.q.y.+XdX;.uXfXuX:.m.z.z.^.[.[.[.x.m.~.6Xq.6X6XQ.q.q.q.y.^.'.{.{.{.[.(.O.+.%X8.1X2XdXdXS.A.i.x x x i.0XUX9X&X .D <.A D P.( N OX@X{.^.`.(.b.^.C.f.f.H j.h F N u z < Z B B V M Z f d q ] 7 7 7 7 6 2 Y ' ' ] 4 , 9 4 > > > % a.a.= a , , ; = * * * * * 2 2 * * g g = B k.k.y             FXZXZXMXMXMXMXZXxXmXmXZXZXZXgXxXZXxXmXZXZXZXZXJXZXZXZXZXZXJXZXZXJXZXZXZX",
"ZXZXZXZXZXZXZXZXNXJXZXJXPXNXZXZXJXZXxXZXZXZXZXZXZXZXZXJXPXxXNXZXZXZXZX            k.M - : : : : - 5 8 p s < ; x.u >.+XN J OXOXuX#.E [ k k k l z <.<.v.z.[.l.h.n.1.y.q.+X}.-. X+X}.;.m.z.l.l.[.[.[.M.K.~.6Xq.q.q.q.q.q.%X/.'.+X{.{.{.{.I 5X.._ 4X7.S.dXdXS.p.D.E.E.V.p.i.4X4X$XO.n <.<.~.<.U _._._.@X{.C.v.M.x.f.Z.a.C j.j A F N z C B M.|.G.F Z f j 9 9 7 , 7 7 7 6 Y ' ] ] > > 9 6 > = r % a.a.: g h g = = * * - - * 2 * * r < g > B k.g.y             ZXGXZXMXxXxXZXZXMXxXmXmXxXZXgXxXZXZXxXxXZXZXZXZXZXZXZXZXZXJXZXZXZXZXZXJX",
"NXxXNXZXZXZXNXZXZXZXZXZXJXJXZXJXZXZXZXZXZXZXZXZXZXZXZXNXZXZXZXZXZXPXJX            g.M * = : : : 4 5 ; p g d - x.M k OXOX:.OXOXyX[ ]  .{ #.#.k h J <.1.z.[.x.n.m.1.1.w.sX X-. XfXF.G m.x.l.l.[.[.[.G.y.q.6Xq.q.-.;.-.w.w.M.'.+X@X{.@XOXl.q.5X6X%XX.R.R.S./ 0.V.+X+XZ.u.` ..! b U !.tXoXQ.<.B z.{.{.+X_.l.f.C.C.f.f.a.Z j.9 v C F Z G j.+X{.+XXXf j 9 9 9 , 8 q q 9 6 ' ' { ] > > 7 6 > > r % B B - ; a a : - - * - - 4 1 * * - g < r V k.k.y             MXZXZXZXmXZXmXMXMXmXxXxXxXZXgXmXZXxXxXxXZXZXZXZXZXZXZXZXJXPXJXZXZXZXZXZX",
"ZXZXNXZXZXZXZXZXZXZXZXNXPXZXZXPXZXZXZXZXZXZXZXvXZXvXxXNXZXZXZXPXZXZXJX            g.M * = : p - 5 7 s l f C ; k.N 3 L.+X1.m.|.sX| ] [ [ ^ k #.l u K <.N.[.x.h.m.:.1.>.uXuX*. XdXH a.n.x.l.l.[.[.[.}.I.w.6Xq.<.T.R.E.:.S.A.p.l.+XfX+XC.:.9X9X8X5XO.+.X./ $X$Xp.Z.V.p.u l A.S.A.D. XUXsX!.n r g H M.n.z z u u V.u h v C H 9 v d F G V XXOX^.{.uXS 9 9 9 s a 9 q 7 9 6 ' ' { v = > 4 5 7 > r % B B - ; a a = = r 4 - 4 2 * * - > g g r V k.g.y             ZXZXZXZXZXZXmXZXZXZXZXmXZXZXxXxXZXmXxXZXZXZXZXZXZXZXJXZXJXJXJXJXZXZXZXZX",
"NXZXZXZXZXZXZXZXZXZXZXZXZXZXZXJXPXJXZXZXZXZXZXcXxXlXxXcXxXxXZXHXHXPXPX            h.M 4 : = p , q > l f f d ; k.B - F.OX-.b D.R.#.] W k k l h z P P 1./.[.x.h.n.:.1.;. XdX<.qXXXN a.k.x.^.(._.[.[.K.H.y.+.w.R.E.S.S.S.S.i.i.x a.a.p u.i.$X4X5X@.+ +.9XiX8X5X+.u.p # : ( A.A.A.A.}.UXoX<.v O...b g.g.( ( ( ( A.( ] A C I 9 v g Z C = I.+XB.|.dXA > 8 , s s 9 q q q q ] ` | v = > q 7 , , 6 % N B = ; a ; = - * 4 r 4 2 * = - = g g r M k.g.g             ZXZXZXZXZXZXZXZXZXZXZXZXZXMXZXxXxXZXmXZXZXZXZXJXZXJXJXJXZXNXZXJXZXZXZXZX",
"ZXZXZXZXcXZXZXZXZXZXZXZXZXZXZXZXJXPXPXZXJXZXxXZXxXgXlXZXlXgXxXxXPXZXPX            d.B r : ; s , , s s l f A 7 h.a.7 J Z.,.C V.p.l p p l k k h z P v.m./.[.l.h.n.F.1.:.U.uX<.dXL.a.h.k.z.(.}.{.[.[.G.y.8X5X9.A.: # i p.S.2XA.i s p c i i W.;./.{.OXoX9XUX9X%Xn D <.. c S.R.2X2XE.R.<.n b _ ...._ ' A.S.dX2XR.A.P.O.v D B 9 C C < > * > .XXX X:.: , > > s s , 9 q 9 4 ] ` ] v > 7 q 7 , , 9 * N B = : , , > 4 * 6 4 2 4 * * - , g g * m k.g.a             FXFXZXZXZXZXZXxXmXZXZXZXZXxXZXMXxXZXZXNXZXZXZXJXZXJXJXJXZXxXZXZXZXZXxXZX",
"NXZXmXZXZXZXZXZXZXZXZXZXZXJXZXZXJXZXvXZXJXJXZXZXcXxXxXZXxXxXgXxXZXZXZX            a.a.- ; ; j q 8 l f f f A 7 h.B 0 C Z.D.h V.p.k p p p l S S J v.m.N./.[.x.k.n.F.H.1.H.uX>..Xc.a.h.h.B.(.}.(.[.[.Q.%XO...,.x f ,.@ : S.2XyX%X#X$X,.R.D.C.[.{.k.k.{.oX6X5X%X<.~.!.<.A A.2XdX{.{.V.C C ] _ O.$XO.#X .c 2X2XS.A.{ ..4X%XB v v C > > > @ , d X X : - - , , s 8 R q 9 4 ]  .| q > 7 q 7 , 8 9 - N B = : - , 9 6 1 2 6 6 * * * * > g a * m k.d.a             FXGXZXZXZXZXZXMXxXZXZXZXZXZXZXMXxXmXZXmXZXJXJXPXZXZXJXPXJXZXZXZXZXJXZXNX",
"mXZXZXxXxXZXZXZXZXJXZXZXJXZXJXZXZXZXZXJXZXJXZXZXxXxXxXxXxXxXxXxXZXZXZX            a.a.; : p 9 R 8 h h f f A 7 s.B 5 C Z.D.y V.D.7 l p l z z $.;.m.m.M.B.[.B.h.z.H.y.H.1.K.:.L m.n.h.h.B.(.(.(.[.'.+.5X6X6XD.D.D.,.l 3 A.S.5X%X%XO.$XyXOX`.l.`.d.x.x.[.m 6 <.<.Q.<.Q.,.P.S.{._.`.{.`._.5X5X8XiX8XO._ ! c A.) ! 5X$X$X' H C 9 j < r > * - - , , ; = : ; h h w ] q 9 4 ]  .o.q > 7 q 7 , 9 9 - B B = : ; j ] 6 * 2 6 * * * * * * = ; * y g.d.p             ZXZXZXZXZXZXZXZXZXGXZXZXZXZXZXZXxXxXxXNXZXZXZXZXZXZXZXZXZXZXZXJXZXvXZXJX",
"ZXmXMXZXZXZXZXZXZXZXZXZXZXZXZXJXZXNXZXZXZXJXxXxXZXcXmXxXxXxXxXZXMXxXxX            a.s.; p ; q R s f h h Z C 8 a.c.2 K f.x z z l 8 ^ l h z P P ;.1.F.M.B.'.B.h.z.F.1.1.:.L L L I b.h.n.M.(.(.(.[.'.` 8XaX9Xw.x ( x x l ( P.1XR.dX=X .Z.p.h.z z.OX(.@X_.B.1X<.UXsXQ.<.;.3 ) m.{.`.{.z.M 6 $X9XiX8X&XO.<.r [ O.4X9X5X%X$X| C 9 j , r r > 8 8 8 d , : a p p s 9 q q 9 6 q o.| > , 6 q 8 , 7 9 - B a.: a a j ] 4 - 2 Y 1 * * * * * * = * a s.B :             ZXZXFXZXZXZXFXZXZXMXZXZXZXZXZXZXZXxXgXNXZXZXZXZXJXZXZXZXZXZXJXZXNXZXZXPX",
"ZXNXZXZXZXZXZXZXZXZXZXZXZXZXJXZXxXZXZXZXZXZXZXZXZXZXZXZXMXxXMXZXxXxXZX            B s., s s q q l k h F h d 5 b.a.#.XXh.p z h p l ^ k h J J L :.1.K.M.B._.(.n.k.m.:.:.;.L L L c.c.c.n.M.(.(.(.[.B T %X9X9Xo.l l p D.i.5 7XdXr.T.wX#XM.f.V.( l M.(.j.^.B./ <.UXUXUX!.D &./ l b.n.^.{.C.| &X$X8X4X$X| (.<.~.O.5X9X5XO.6 A v 9 9 d , < C j j j k d g h , , j 9 , q q 7 a *.| > , 6 q , , 7 9 ; B a.a a s w ' q > 7 T 6 - * * * * - * * g k.d.=             ZXmXPXJXZXZXZXZXZXZXZXZXZXZXZXZXFXxXjXZXNXZXJXZXJXZXJXJXZXZXPXZXZXZXZXZX",
"NXZXZXZXZXZXZXZXZXZXZXZXZXZXZXZXxXZXJXZXZXZXZXZXcXZXxXZXZXZXxXZXNXxXZX            B h.s l s 8 , l f Z Z F f 5 B B.y.F.B.h z z l l #.$.f J :.:.m.F.1.}.(.'.(.b.k.n.H.I.1.L :.L H a.c.m.G.|.|.(.x.> d.}.oX$X' l ( l p R  .9.1XT.Y.Y.6 p C.B.o o / ( l.h.P.( 5 n Q.<.A 1XdXR.k d.`._._.C.i.x ..$X#X .f.Z.B.`.@.$X4X$X+ v A A A d d d 9 A C f k j l z h h l d 8 s s 8 , q A g 7 8 q 9 , , > > : B a., g s q _ ' 4 7 Y 6 - - * - * > - * a k.g.;             ZXZXJXJXJXZXZXZXZXZXZXZXZXZXZXZXZXmXxXZXZXZXJXZXZXZXZXZXZXZXJXZXZXZXxXvX",
"NXZXZXZXZXZXZXZXZXZXJXJXNXJXJXZXZXJXZXZXZXZXxXgXlXmXMXMXZXxXxXZXZXmXxX            B k.l g s , g g h S F Z d 8 n.B.I.J.n.L z z h l ^ ;.:.$.;.:.m.m.K.}.(.'.(.1.k.n.H.I.1.:.:.m.a.c.m.L K.|.|.N.h C.C.C.C.h b $ = ; r ~.O.| <XuXT.{ +.M.v.f.( 9.P.,.z.n.1X1X<X7.=.9.P.1XuXP.( C [.j.N v.u.x x R ] G v.u v.Z.<.2 _ + t < C j d s s j 9 k k C A h z z h h z d 7 4 , s > R k g 7 9 q 7 , a 7 < ; N d.; , , 7 Y ' 4 4 Y 6 * * * - - * , * ; g.g.=             ZXZXZXZXPXPXZXNXJXPXZXZXxXZXZXxXZXZXxXZXJXZXZXJXZXZXZXZXZXZXZXZXvXZXZXZX",
"NXxXZXZXZXZXZXZXZXZXZXZXZXZXZXZXZXZXZXZXPXZXfXlXxXZXFXZXZXZXZXZXZXZXZX            N k.g g a a g h h h S A S :.L.B.T.J.n.F.m.h S f S $.J.J.:.;.F.m.M.}./.'.^.F.h.f.F.H.:.:.:.v.c.m.F.L 1.(.(.B.`.C.f.C.C.B.b ' @.Q.!.<. .T Y -.4 > OXOXn.C.2XaXdX( 3 8 ,.1XuXdX1X( 8 ^ / + O.$X+. .x D.D.i.p.x n.].L.J.L.f.f.-.$ ( A.A.J A d 8 8 9 9 9 A A v k A h h 7 g h j , g q , 7 A j 8 s , , s a 7 < : N a.- > > 7 7 7 7 4 2 1 * * * - > * > * a k.g.=             ZXNXZXPXZXJXZXZXPXPXZXZXZXZXMXmXxXxXjXxXJXJXZXJXZXZXJXZXJXZXZXZXxXZXZXPX",
"ZXZXJXZXZXZXZXZXZXZXZXZXZXvXgXZXZXNXZXJXZXZXgXgXgXZXFXPXJXZXZXZXZXZXxX            N x.g h a a h h z u f d L 1.L.B.U.H.B.K.L.K Z S J S H.U.XXH.:.M.M././.'.`.M.B.k.s.F.L L H a.v.H.I.L m.(.M.M _.[.x.z._.f.u <.UXQ.n O + O._ + _ O.OX+Xv.x dXdX1XP.O * ,.P.1XP.P.l  .4X$X5X5X5XO.*.R.E.E.V.p.x a C.+X+XL.f.C 7 l S.A.A.A.d j 9 8 w w w A A [ v j l g 8 s d h z h < 9 q *.l y h s , a a 7 , ; B a., , > > 7 > 7 - * * 2 * * - , < < * d k.g.=             ZXZXZXPXZXZXJXZXJXZXJXNXNXZXZXZXZXZXxXxXZXZXZXZXZXZXZXJXZXxXxXZXNXZXNXZX",
"ZXZXPXJXZXJXZXvXZXZXZXZXNXZXxXNXNXNXZXZXxXZXZXgXxXxXxXZXPXZXJXPXZXZXZX            N x.h h s , g h h z z h J 1.L.(..X.X(.XX|.L.Z S S S 1..XU.XXH.L M.(./._.`.M.G.n.f.f.s.s.d.a.:.H.I.F.m./.I N {.{.{.{.l.f.h r U B V V | ' O.$XO.+ v.Z.x.$ ^ ( 3 / * * @ / $.^ k @ Y 4X5X8X9X5XO. .E.E.E.W.i.c k f.C.L.k = * c A.A.P.A.) A.j 9 8 w [ v v [ [ Z k l h 7 l h j j d v ] R +.[ , s , s a a 9 < ; s.a.s , > 7 7 7 7 * 4 - 1 + * - > C < > g s.d.*             ZXxXZXZXZXZXZXZXZXZXJXxXZXZXZXZXZXZXMXxXZXZXZXZXZXZXZXZXZXxXxXxXZXNXZXZX",
"ZXZXZXZXJXZXZXZXZXZXZXZXZXxXMXcXxXNXxXZXZXxXNXxXxXZXvXZXZXZXZXPXPXZXZX            B x.g g 8 w l l f d u u L I.|.B.I.U.|.J.|.XXH.S S S $. XXXXXJ.L b.z.)._.`.M.G.K.F.s.f.s.c.:.1.H.H.F.m./.D c.B.u n.{.C.x.d.t ^.@X@X@Xd.O ' % % @ : X p @ @ @ @ @ * # $ * @ @ @ @ @ t T $X$XO.T i.E.E.Z.p.i ) $.j : O $ @ @ = A.2XdX1X) l 7 j q [ ] ] ] [ [ k z u z l z u A A < ] ] q | v , d , a a a 9 9 g k.B - , > > 7 7 4 * * - - 6 + > = < > > g s.d.*             PXZXZXJXPXZXPXZXZXZXZXmXmXZXZXZXZXZXZXlXMXZXZXZXZXZXZXZXZXNXNXvXxXxXZXZX",
"ZXZXZXZXZXZXZXZXZXvXZXZXZXxXZXZXZXZXxXZXZXZXxXxXxXZXZXZXZXJXZXPXZXPXJX            N x.f g q E s , ] , h u K.I.G.(.I.U.B.XX|.|.XXI.S S S =..XXX.XK.c.z.^._.`.M.G.J.H.:.L F.:.:.1.H.H.F.L M.K O u c.Z.C.f.p B `.(.+X{.+X+Xg.t @ @ $ @ $ $ # * * * * * @ * @ $ * @ * 7 @ + @ + + % u.c p.p.i.A.S.A.i 3 3 2 * = @ k E.2XS.S.o % [ [ ] ] ] [ [ v A h h z h u u A C d 9 v 8 f f a a , a a ; q 9 f k.M - > > > > , > * * - - * Y + = ; , > g s.a.*             ZXZXZXZXPXZXZXZXZXZXZXZXmXZXZXZXZXZXZXZXZXcXZXZXZXZXNXZXZXZXNXvXxXxXxXZX",
"ZXZXZXZXJXZXZXZXZXxXZXFXZXZXZXZXZXJXZXxXNXNXZXxXxXZXZXZXZXZXJXZXZXZXPX            a.x.h f q ] l ] q p g F XX:.P B.I.U.B.U.XXXXJ.I.I.S S -. X.XXXXXm.z.^._.`.m.K.J.H.L L H.F.F.F.F.F.F.v.M.I 4 > 5X;.Q.J - X B.dX+XOXOX+XV O * * @ # * * * @ * # * * * # * * * k #.* @ # @ @ % # # p c ( ) A.A.) l l / k 3 k * 3 A.A.) c i O [ ] ] ` | v w A A f f z h h h A f C v 9 y #.k p a , a : g A 9 > d.M 1 > 7 > > > - * 4 * - - 2 Y r > > * g s.a.*             ZXvXZXZXJXJXZXZXZXZXZXFXxXZXZXZXZXZXZXxXxXZXZXZXZXZXZXZXZXZXNXNXZXZXxXZX",
"ZXZXZXZXZXZXNXZXZXZXJXZXxXxXmXxXxXxXZXZXxXgXZXxXxXZXxXZXZXZXZXZXZXZXZX            s.x.f f E q q Y p p 9 Z J.I.K.B.U.H.B.U.|.|.XXU..XH.S $.y.U..XXXm.B.^._.`.m.G.|.F.H v.F.m.m.K.F.F.m.v.M.B q.5X_ _ $X5XO.V ^.fXfX+XdXOX_.Z $ * * * * * * * * # * * # * * 7 #.Y.=.1 * @ @ % # @ % # l 9.A.A.i P.( 3 / / 7 8 $ 3 O o : . @ @ R [ [ ` A W k A A h d q x h f d d A ] 9 a A f z , , g , f v 9 7 B N 2 6 R 4 * > > * * * * 1 * 2 r r * = g g.a.*             JXZXNXZXJXJXZXxXZXGXZXFXmXZXZXZXZXZXZXxXxXZXxXZXZXJXZXZXZXZXZXZXZXNXZXZX",
"ZXZXNXZXNXxXvXZXNXJXJXxXjXmXxXmXmXgXxXxXNXZXgXxXNXxXZXZXJXZXZXZXZXZXZX            s.l.l f w R ] $.p s ] D J.H.XXOXI..X|.J.L.J..X.XU..XU.>.=. XXXXXJ.OX^.`.`.m.G.L.F.c.m.H.F.F.F.F.m.n.c.m.1.O. . .Y ' 5X5X< V l.XXfXdX^.l.; @ * * * @ @ * @ * * - k k k ^ >.y.Y.y.$.- * * * @ @ $ % t 9.P.c P.2XA.2 3 ^ / * o s.N C @ @ @ @ w A A ] [ #.^ k j f j q l h f d C d q v d , Z M , , a , , q 9 4 M V 6 Y T 6 1 * > - * * * * * 6 r * r > < k.a.*             JXZXZXZXJXZXZXZXZXZXZXZXmXZXZXZXZXZXZXMXxXZXZXZXZXZXZXZXZXxXZXZXZXZXJXJX",
"ZXNXZXZXZXZXZXxXZXZXxXxXmXmXxXxXxXZXxXxXvXgXkXxXZXNXZXZXZXZXJXZXZXZXZX            h.x.h f w T y..Xp ] ] J J.I.J.(.U..X|..XJ.|.U..X XuX.X.XI.=..XXXXX|.^.`.`.F.M.B.m.H F.H.I.H.H.H.m.n.s.b.!.5X .+.o.`  .O.Y y g.B M M g.M O @ @ * $ # - k -.$.>.y.>.I.>.I.Y.Y.Y.I.>.^ $.e 7 - * # # @ ( / ) S.2XA.3 ( / 8 3 * f.f.C.p O @ % j A A ] ] %.#.k k A l 9 f f C h h j v w d a h g h s s , , q 9 6 G N Y _ Y Y 5 4 * > * * * * * * r b > > , s.a.%             JXPXJXZXPXZXZXZXZXxXZXZXxXZXZXZXZXZXZXMXxXZXZXZXZXZXZXZXZXZXZXZXZXNXNXZX",
"ZXZXZXNXZXZXZXZXcXMXZXxXmXjXgXxXMXxXZXMXxXxXZXvXZXZXZXJXZXZXNXZXvXZXZX            l.x.h h Y o. XH.>.' l J .XI.H.OXU..X|.U.F.K.XX.X.XuXuXuX.Xt.w.XXXXM.^.`.`.m.M.B.F.L F.I.I.I.I.I.K.n.s.L r %X6X+.o. .$X_ @ O g y M g O $ % * * * * * ^ >.I.Y.qXY.T.Y.I.T.qXqXY.qXy.>.>.>.>.$.k - * @ t O ) A.i o t * 3 k l b.x.a.f.a.@ @ @ * k #.{ | %.#.#.A #.k [ h h Z h C b ] j f a h h d s j 9 , ' R Y m B + 5 7 * 6 6 4 7 4 4 * * * * > b > , > g.a.%             JXZXJXJXJXZXZXZXZXZXZXZXZXZXZXZXZXZXFXFXjXxXFXZXmXmXZXZXZXZXZXZXJXZXxXZX",
"ZXNXNXxXNXZXxXxXMXMXZXZXxXxXxXMXxXxXMXcXZXxXxXZXxXZXZXNXZXZXxXxXZXJXZX            l.x.h k ' qXU.H.I.A l J .XU.J.OXuXU.|..XL K..XU.U. XuXuXuXuX XuXL.M.z.`.`.m.G.(.F.K 1.I.I.I.I.I.H.c.s.c.D  . .6X| o.o.+ % @ $ $ @ $ * * $ * 7 8 - 8 $.T.T.Y.qXY.qX XY.Y.rXqXqXqXI.I.y.Y.w.>.$.^ 8 * @ @ @ @ O @ @ @ M y a.z.l.^.a.f.= @ @ @ k k { { %.*.#.#.A [ [ h h Z Z d d j h h a a g < < 9 w q ' ' ' D a.- , ; ; , 9 q 7 6 4 1 * * * , > < > > s.a.*             PXZXZXZXvXZXZXZXZXNXZXZXZXZXZXMXZXxXmXZXxXxXZXmXZXmXmXZXZXZXFXZXZXJXZXZX",
"ZXZXxXxXNXxXxXxXxXcXZXZXxXgXMXMXxXMXMXZXxXxXvXZXZXZXZXZXZXZXZXNXZXJXZX            d.x.Z 9 w.I.1.I..XH.l J J..X.XB.U.U.B.U.J.J.XXU..X.X.X.XdXuX.X.XXXL.x.`.`.G.}.}.F.K H.I.I.I.I.I.H.m.s.n.Z O ' R Y + Y @ @ @ @ * * * * * 7 k ^ #.#.$.w.T.Y.qXrXqXyXrXqXqXyXyXqXqXY.Y.Y.Y.Y.>.>.>.$.8 * # @ @ * $ @ @ a a.f.z.`.s.f.a.O @ @ @ 8 k [ { [ %.S #.#.v w f k Z Z v d g h h g s s 9 v 9 q R _ _ _ D a., 8 , , s , q 6 4 6 1 1 * * > > > * > s.a.1             JXZXZXZXPXZXNXZXZXZXZXZXZXZXZXMXMXmXFXZXZXmXjXmXZXZXZXZXZXZXZXZXZXZXZXZX",
"ZXZXxXxXNXxXcXxXxXMXMXZXxXhXxXxXxXlXMXZXZXZXxXZXZXZXZXZXZXZXZXZXZXZXZX            G h.A #.H.:.H. XU.XXJ Z H.U..XOXU.U.|.U.XXXX.X.XuXuXU..XuX.XuX.XXXB.x.`.`.M.}.}.L K H.I.Y.U.I.H.H.v.s.H > @ @ O O O @ $ t 2 6 X # * * 8 ^ #.k $.>.w.Y.qXqXyXyXyXyXyXrXyXyXyXyXyXqXqXY.y.qXy.w.>.>.#.8 * * * $ @ @ O a N a.c.s.u.d.N # @ @ @ > k q ] [ #.A h S j 9 #.k C Z v 9 g h h g f d d v q q ] _ _ R G d., s , , d s 6 6 6 6 4 * * * * > > * > k.a.*             ZXZXZXJXJXvXZXZXZXxXNXZXZXZXcXxXxXZXFXZXZXZXxXxXmXZXZXZXZXZXZXZXZXZXZXZX",
"ZXNXxXxXxXxXcXxXxXMXMXMXjXkXlXxXjXZXZXxXZXxXxXNXZXZXZXZXZXZXJXZXZXNXZX            a.x.q ;.:.:.1.I.J H.U.h H. XJ.OXuXuXOX.X.XXXXX.XU.uX.XU..XuXuXuXXXB.l.`._.G.}.}.m.F 1.I.I.I.U.J.F.H h.c.- O * x p i.# Y $X4X$X{ | # 8 $.#.$.#.$.>.I.<XrXrXyXyXyXyXyXyXyXyXpXyXyXyXqXqXY.qXY.>.y.8.&.$.7 1 * * @ @ @ O M B u f.d.V t @ @ @ * j k W q w #.A A A [ [ [ A Z A 9 h h h h h f f j 9 ] ] ' _ R 7 F d., s , , s s 7 6 6 6 4 * * * * * > > < k.B $             ZXxXZXZXJXNXZXJXZXNXZXZXZXZXZXZXxXZXZXZXMXZXxXmXZXZXZXZXZXZXZXZXZXZXZXZX",
"ZXxXxXxXxXMXcXcXxXxXxXcXxXxXxXxXxXgXxXZXZXZXZXNXZXZXZXNXZXZXZXZXZXZXxX            I j.A :.:.1.U.1.J :.J.J ;.uXU.(. XdXL.uXXXXXXXuXU..X.XU.uXuX.X.XXXh.x.`._.M.K.}.F.F L I.I.U.J.J.F.c.n.F * : x W.p.W.c ! &X$X$X4X .X e $.>.>.>.>.y.Y.qXyXyXyXyXyXyXyXyXyXpXaXpXyXyXeXeXqXqX,Xw.y.w.8.>.^ k e 7 * @ # : u p.a.k.* = @ @ @ @ @ 7 k W [ j k A A A [ { W j f h l h h h h j j f j v ] ' _ _ 7 4 F a., ; , - , g ; 6 6 5 1 * = * > > * r ; k.N $             xXZXJXJXZXZXNXZXZXZXZXZXPXZXxXZXZXZXxXNXZXZXxXmXZXZXZXZXMXZXZXZXZXZXMXGX",
"MXcXMXZXcXcXxXMXMXxXxXxXlXxXxXcXxXgXxXxXxXZXZXZXZXZXZXZXZXZXZXZXZXZXxX            H H K :.U.I.I.f :.F.H.J S U.H.B. XU.B.uX.XXXXX.XuX.X.X.XU.H..X.XXXs.B.^._.N.K.}.F.K F :.I.U.J.K.m.H c.h $ u.Z.E.R.x i l ..8X6X..T * 8 >.y.>.w.I.Y.qXqXyXyXyXpXaXyXyXyXyXpXpXpXyXyXrXyXyXqXqXY.,XY.r.w.#.#.^ 7 - @ : i.i i.x i.i.p O @ @ @ @ * k w ] w f j d j ] ] w s l h h f h h k A j j v 9 v _ _ ' 7 1 M d., ; , - , g ; > 6 6 * * * * > < ; - ; k.N $             ZXZXZXJXZXZXZXZXZXZXZXZXJXZXZXZXMXZXMXmXmXZXxXZXGXZXZXZXMXZXZXZXZXZXZXGX",
"cXMXZXxXMXMXxXxXxXxXxXxXxXlXcXMXZXZXZXxXmXZXxXZXJXJXZXJXZXJXPXZXZXZXxX            G B.L :.I.1.I.l :.F.F.K.Z I.U.B.I. XOX.XuXJ.U. X.X.XH.U.F.H..X.XG.b./.^._.N.G.}.K.L F L L F.K.G.H a.H f g p.Z.E.R.D.p c %X9X9X5XT # k >.y.I.T.Y.qXY.qXyXyXyXyXaXyXyXyXyXpXpXpXyXyXrXyXyXeXqXY.Y.Y.8.8.$.#.#.^ 7 * x i.p o : x p.i O @ @ @ @ @ w w ] w k f d w ] E w s g g s s h f A A j A [ v ] _ ] R 7 1 M s.s ; > - , ; ; = 4 Y * * * * > < = = = g.M +             JXZXZXZXZXZXZXPXZXZXZXZXxXxXZXZXZXxXZXZXZXmXxXZXZXZXZXMXmXmXZXZXZXZXmXZX",
"MXMXZXZXxXcXcXMXcXxXxXMXcXxXxXZXZXMXZXMXMXZXZXZXJXZXZXZXZXZXZXZXZXZXZX            H ^.}.;.J.$.k p H.J.J.J.L :.U.(..XY.|..XU.H.H.U..XuX1..X.X.XuX.Xm.b./.(._.M.G.}.J.1.F :.H.F.m.b.B b.b.Z z W.V.E.E.E.V.i.5X9X9X4XR - -.>.I.Y.qXqXqX<XyXyXyXyXyXyXyXyXyXpXpXpXpXyXrXrXyXrXeX,XqXY.Y.r.8.>.&.&.#.0 ; p.p.p o : i u.x @ @ @ @ @ * w w ] w j v f w E w j s l g , , f A A A j v [ [ ' ' q ] 7 * M a., , - - ; : = = : 6 Y * * * > > = = = g.M +             PXJXJXZXZXZXZXZXZXZXZXZXZXNXxXxXZXFXZXxXMXMXxXxXZXZXZXZXZXZXZXZXZXxXMXZX",
"ZXMXZXZXcXMXcXcXMXcXxXZXZXxXMXZXZXxXxXZXZXMXvXZXZXZXJXZXZXJXJXZXNXZXZX            G B K..XH.8 - : 1.J.J.K.H.J ;.n.U.uX|.XXU.H.U.uX.XdX:.H..XuXuX.XP b.1.(._.}.M.}.K.H.G L H.I.I.v.B n.B.m., o p.E.dXE.Z.p.#X#X..+ 1 ^ $.>.y.T.qXqXY.<XrXyXyXyXyXyXyXyXyXyXyXyXpXpXrXeXyXyXqXqXqXY.Y.r.8.=.8.&.-.e * i.x : : p : x i @ @ @ @ @ 0 w W ] q j A f w W 8 l g g g s 7 d A A A w [ [ ] ' 9 9 ] 7 1 N N , , - - = : : = : # Y Y Y T 6 > - r r g.M $             PXJXZXZXZXNXZXPXZXPXPXJXJXZXZXMXxXZXGXmXxXxXxXMXMXZXZXMXZXZXZXZXZXZXZXZX",
"ZXZXZXZXMXZXZXMXcXMXcXZXMXcXZXZXZXmXZXZXZXZXZXZXZXZXZXZXNXZXZXZXZXZXZX            H d.> $.1.; 7 : ;.uXJ.J.H.H.$.n.U.>.|..XuX.X XuXuXU.z :..XU.uXH.u c.K.(._.}.K.}.G.H.:.K L F.F.H c.N.M.m.< x x u.Z.Z.W.%.$X&XO.X * ^ -.>.y.Y.qX<XT.qXrXyXyXyXyXyXyXyXyXyXyXyXyXpXrXqXeXrX,XqX,XY.Y.,Xr.>.=.&.>.w - c p : x x : # @ @ @ @ @ * w w w ] E j f f 8 9 s g h h g s q j A A A v [ [ { ] s 9 ] - - a.f , , - = = : 4 - - # * T _ _ Y 6 6 r r g.M $             ZXZXZXZXZXZXZXPXZXZXZXJXZXZXZXZXZXZXxXZXMXlXgXZXZXZXZXZXZXZXGXZXPXZXZXMX",
"ZXMXZXMXMXZXZXZXZXZXZXxXMXxXxXxXZXcXMXZXxXcXZXZXZXZXZXZXZXZXZXZXZXZXMX            H b.v ; p : 7 - h  XJ.J.H.H.I.(.:.k |..XuX.XXXuX.XU.F.z U.uXuXL u s.b.(._.}.K.M.M.H.H.L G B B B b.M.M.L C * O i c x 2  .5X5XO.' - k $.>.y.T.T.Y.Y.qXyXyXyXyXyXyXrXqXyXyXyXyXyXyXrXqXeXrX<XqX,XY.Y.t.r.8.>.#.=.%.0 % p p p.c : @ @ @ @ @ @ 7 #.w w ] q d f f j j l h h h g j q 9 A A v [  . .| v d 9 q 1 f N > s , - : = , - - - * # * T _ Y r r > = g.M $             ZXPXZXZXZXZXZXZXmXZXFXGXFXZXZXZXZXZXZXZXxXcXhXxXGXZXZXZXZXGXFXZXGXGXZXZX",
"ZXZXZXxXMXZXZXZXMXZXZXxXMXlXmXxXZXMXcXcXZXZXZXZXZXNXZXZXZXZXZXvXZXZXxX            B h.A p p : - , h K.L.L..XI.U.(.;.j |.K.yX.X.X.X.XuXI.p H.uX.Xx x a.s.B._.}.}.M.M.H.I.H.:.L H H G.L.M.:.D > * X  .$X4X8X6X8X4XO.; #.>.y.y.T.Y.Y. XqXyXyXrXyXyXyXyXyXyXyXrXpXyXyXrXeXrXrXeXqXqXY.r.w.w.w.8.&.=.8.#.1 @ @ p @ @ @ @ @ @ @ * w #.#.k ] v f f f s s g h h h g j [ v A A w ' ..v [ v d 9 q 1 M g > , , = : - , > - * * * # Y T - - - ; ; g.h $             PXPXZXZXZXZXZXJXmXZXZXZXGXZXZXZXZXZXZXMXcXxXxXxXMXxXZXZXZXZXZXZXZXZXZXZX",
"ZXZXFXxXZXZXZXZXZXZXZXxXZXZXZXZXZXZXZXxXMXxXZXZXZXNXZXZXZXZXZXZXbXZXZX            s.x.C l ; : ; f F M.G.F. XI.I.(.;.; J..X.X.XuXuX.X.X,.z H.dXH.z z u.s.h._.}.}.M.B.H.1.I.H.F.L F.G.M.M.1.D d $ #  .&X5X8X%Xo..._ 7 #.-.>.Y.T.Y.qXY.qXyXyXyXpXyXyXrXyXyXyXrXyXyXyXyXrXyXrXeX0X0XqXr.>.8.r.w.=.=.8.w * @ @ @ @ @ @ @ @ @ @ R W #.#.A [ ` v h g s s g h h l s 9 E 9 A A [ ] 9 d b 9 s 9 q ; F 7 8 , , - - - , > > - * * * Y % > > = = a g.h $             PXPXJXZXZXZXJXZXgXxXxXZXZXZXZXZXZXZXxXxXcXcXMXxXxXmXMXZXZXMXZXmXZXPXPXZX",
"MXMXZXZXZXZXZXZXMXZXZXxXZXZXZXZXZXMXZXMXMXZXxXNXZXZXZXZXZXZXbXZXZXZXZX            H l.Z l ; : : f F H G.K.I.U.U.OX-.- H. XU..X.X.XU.U.;.J J H.:.z h u a.h._.M.K.}.B.G.1.y.y.1.L K.}.M.G.J.K C * X 2 4X5X5X+.O..._ 1 ^ #.>.I.I.Y.qX XqXyXyXyXyXyXyXyXrXyXyXyXpXyXyXyXrXyXrXeXqX0X0Xt.8.r.y.w.&.w.w.e @ # @ @ @ @ @ @ @ @ @ ] [ #.#.A [ ] C h h l l h h h l j j w 9 A v v ] ] v v d g j q , 7 5 8 , , , - > d , > > * 1 - Y 6 > > = ; ; g.m $             PXPXPXJXZXZXZXZXZXxXxXFXZXZXZXGXZXmXmXcXxXxXcXxXMXZXZXmXZXZXZXZXZXZXZXZX",
"ZXZXZXFXFXZXgXxXZXZXZXZXZXZXZXZXZXZXMXZXZXxXNXNXZXZXNXNXZXZXZXbXbXZXZX            H z.Z f p : : s h B L F..XI.Y.(.k e U.I.I..XH.H.uX.X:.F f h z h h z P s._.N.G.}.(.M.H.H.H.H.F.K.}.B.G.J.G.I C X Y  .#X&X4X4X..X * w $.=.>.y.Y.qXqXrXyXyXyXyXyXyXyXrXyXyXeXrXrXrXyXrXrXrXeXeXqXqX0Xr.r.w.=.&.r.8.w * @ @ @ @ $ @ @ @ @ @ R [ #.v A v v h h h l l l h l j j j w w C A v [ ] ] v f g d 9 , , 7 7 , < , 7 , d < < > - 4 - Y 6 > > = < < g.m $             ZXPXJXJXZXZXxXZXMXZXZXZXFXZXxXZXMXZXMXMXxXxXxXgXxXZXMXmXMXZXZXZXZXPXZXZX",
"MXcXMXZXZXMXxXZXZXZXZXZXZXmXZXZXZXZXcXcXZXmXmXmXNXZXZXmXZXZXcXxXZXZXZX            j.x.Z h p : : , f M L K.U.H.I.B.h #.uXU. X.X:.:..X.XH.F S F J $.$.L H a._.h.N.G./.n.F.H.1.:.:.K.M.B.G.J.M.z.H # t @ #X_ $XY + @ $ 7 -.>.>.y.qXY.Y.Y.qXrXyXpXyXyXrXrXrXeXqXeXeXyXyXrXrXrXqX0Xr.w.w.=.=.8.=.&.w.=.^ * @ @ @ @ @ @ @ @ @ % { [ w w A f C h z h l l h l k j j 9 W E d d v q ` ] A h g d q , > > 7 7 9 9 7 7 < < < > - 7 - 6 * * > ; < < g.y $             xXZXZXZXZXmXZXxXZXZXZXZXPXZXxXxXZXZXMXxXxXxXZXxXxXZXZXZXZXMXZXZXZXFXFXZX",
"ZXZXZXZXZXZXFXZXZXZXZXZXxXxXmXZXZXZXxXxXZXMXmXMXmXZXZXZXZXmXZXZXZXZXZX            k.l.Z h ; : : ; s h J J.H.I.I.B.h =.uXU. XU.U.U. X.XI.Z S F J ;.>.L v.n._.n.h.N./.n.m.F.:.L 1.K.L.B.G.G.B.N.b.= @ * % @ O # # $ 7 8 #.>.#.#.-.w - * 7 k #.>.t.qXqXrXeXqXeXeXeXrXrX,Xt.r.&.#.* * * % $ * 0 #.r.=.^ 7 @ @ @ t @ @ @ @ @ ] | ] [ W j f C z u z h h h l k k 8 8 w 0 7 < 9 v ] R C g g < v s 7 7 7 9 9 9 7 7 < < < = * - - 4 * * = = < < g.y $             jXxXZXZXZXZXmXZXPXZXZXxXbXZXZXZXMXxXZXmXxXxXMXxXxXZXZXZXZXZXMXZXZXGXFXZX",
"ZXZXZXcXZXZXZXZXZXZXZXZXZXZXZXZXZXZXZXMXZXmXZXMXMXZXZXMXmXZXMXZXZXmXZX            s.l.h f p ; : ; 8 h F XXU.U.rXOXM y..XI..XU.U..XU.uXU.M F F S ;.>.:.m.n._.m.b.h.B.M.c.m.m.L H.K.B.B.M.K.}.B.b.b.* * # % * * $ @ 7 k ^ 8 @ @ @ @ @ @ @ @ @ @ @ 7 #.>.,X0X0XqXeX0Xw.e e * @ @ % $ @ @ @ @ @ $ =.=.#.W @ t @ ' @ t @ % R | | | [ [ A A v f z z z h l j k k e 8 w q 8 , 9 9 q w Z f g d v 8 8 8 8 7 6 9 0 9 C < < ; - - - 4 * * > > < g g.y $             xXxXMXZXZXZXZXZXFXPXZXPXZXZXFXZXZXxXmXmXmXxXxXmXxXxXZXZXxXZXxXmXZXFXZXZX",
"xXZXMXMXZXZXZXZXZXZXZXZXZXmXmXMXMXZXZXZXmXxXxXMXZXZXMXmXMXMXmXZXZXZXZX            u l.h f s p : : 8 h h J |.K.I.(.H qXU.U. X.XU..X.X.X1.F F F S ;.>.:.m.m._.I m.n.x.n.v.v.H m.F.M.z.B.I.Q. X/.N.`.g $ $ @ * * # @ 8 k 8 * # 7 -.=.&.k 7 * @ * @ @ @ @ =.,X0XY.r.#.7 7 * @ @ # @ * 7 #.#.7 * @ * #.&.#.t O.O.&XY  .+ 4 [ } | | [ [ A C v j j k j s 8 k w w w 0 w w 9 , 7 7 8 9 Z h f 9 v 8 8 7 8 8 9 q q 0 C d , ; - - - 4 * * > > > g g.y $             xXZXZXZXZXZXZXZXZXJXPXPXPXPXGXZXZXZXZXZXmXmXxXmXxXxXZXZXZXmXZXxXxXZXZXZX",
"cXMXxXZXMXMXmXMXZXxXmXMXZXxXmXZXZXZXZXMXxXZXmXZXZXZXmXZXmXmXMXZXmXZXxX            F x.h g s ; p p s f h h M.L.H.n.m.qX XU.H.U..X.X.XuX;.F F F ;.>.>.1.F.m._.I I m.B.s.c.c.c.m.m.z.z.M.y.Q.Q.}.G.^.y $ * * * * * @ w k 8 7 7 -.y.qXqX0Xy.-.7 * * * * * &.r.r.r.8.e 0 7 * * * * 0 #.=.4.e.#.7 7 1 W =.&.t O.$XO...$X5 q [ [ | | } [ A A [ 9 w E 5 0 w w 0 q q e 9 9 8 f d 5 7 s C f f 9 ] 8 8 7 8 9 9 q q 7 d < ; ; - - * 6 4 4 > > b < g.y $             ZXZXZXZXZXZXZXmXmXZXJXJXZXPXZXxXZXZXZXmXZXFXMXmXMXxXxXZXZXmXZXZXxXxXZXZX",
"cXxXcXZXZXMXMXMXZXmXMXZXMXxXxXZXZXZXxXMXxXZXMXxXmXZXZXZXMXZXZXmXMXmXmX            B k.s h s - : p g l g h N G.XXb.L.I.:.:.U.U.I.uXuXuXL F P c.m.F.>.:.F.c._.m.I m.M.c.d.d.a.c.v.z.B.K.q.Q.Q.}.G.^.M O @ # * * * @ k k w #.#.-.>.>.=.y.0Xt.-.7 7 7 7 w =.t.t.,X,X#.0 7 7 1 * 7 %.=.%.#.%.^ 7 7 0 e =.&. .$X&X4X4X$X=X[ [ [ [ | } #.A A [ v q q E w q 0 0 W 0 0 0 8 9 f h 7 , a h C j w ] 9 7 8 8 7 8 7 4 4 < < ; ; - - 4 R 4 4 > 9 < < g.a $             MXZXZXZXZXZXZXZXNXZXPXJXJXFXGXZXZXmXxXMXGXFXFXZXZXxXlXZXZXZXxXZXZXxXxXZX",
"mXxXMXMXZXMXZXcXxXxXZXZXxXxXZXxXZXZXZXZXMXZXxXxXxXxXZXmXmXZXZXxXxXZXZX            B k.s h f ; p p p , s h F Z :.c.|.>.J ;.U.1.;..X.XuXL M a.h.B.B.:.:.L c._.m.I v.N.m.c.d.f.s.n.z.M.y.6XQ.oX}.m.`.a.O 8 #.* * * @ 8 ^ ^ &.#.^ 7 * w #.&.=.&.&.w 7 w #.>.,X0XeX0X#.7 7 * * 7 #.%.^ w 1 1 1 1 0 W W 4.&.' $X4X4X4X4X..Y [ [ [ | | #.A A [ [ [ E E 0 0 E E [ 0 0 q q k S F k g g Z Z 9 v ] 9 8 7 7 , , > , 4 > < , > 4 1 4 4 6 2 > 6 > < g.y $             ZXMXMXZXZXZXmXZXZXFXPXZXZXZXZXZXZXZXZXGXZXZXFXZXZXxXxXxXZXZXZXxXMXMXcXMX",
"ZXZXZXMXMXxXxXZXZXxXxXxXxXxXmXxXZXZXmXZXMXZXZXmXmXmXMXmXZXZXZXxXxXZXvX            h.B , h h a p p p , j p z h f a.|.1.I.U.I.H.$..X.X.X:.M a.j.n.).m.:.z u._.m.I v.N.F.v.d.s.f.s.B.G.y.6XQ.}.(.G.^.h.w ^ >.k * * @ w #.-.>.#.7 * @ * @ t t @ k ^ #.&.=.=.0X0XqXqX&.1 7 7 7 0 * @ @ @ * * % 1 w W %.4.%.* ..&X4X4X$X/ R ] [ [ [ | [ A A [ [ [ [ R 0 E 0 q Q E W w E 8 a g h l f Z Z d v ] 9 7 7 , , , , , > 9 > > > 4 6 Y T T T 6 6 > < g.a $             cXMXZXZXZXZXZXZXZXZXZXZXZXZXZXZXZXZXZXZXZXZXFXZXZXZXxXMXZXZXmXMXxXxXZXxX",
"ZXZXZXxXZXxXhXZXcXMXxXlXMXxXxXZXZXZXmXZXMXZXZXZXmXMXmXxXZXZXMXMXmXZXxX            h.Z a g h p p p p s C g z h j B |.>.I.U. XU.v H.U.XXm.F N a.b.z.M.L x u._.m.L c.M.m.P v.v.v.s.N.G.y.6XQ.}./.G.^.z.k # w A 7 * $ e #.#.8.>.^ * @ -.#.@ @ &.Y.7 W ,XY.Y.0XeXrX0X4.=.r.w 0 4.#.@ @ @ W * $ 7 #.%.4.#.*.W $ ' O. .3 6 ' [ #.#.[ } #.A A [ [ [ [ E 0 E E E Q E W k k 0 s g h f f Z Z f 9 ] q 7 , , , , Z Z - < 6 > > 6 Y Y Y + + 6 Y b < g.a $             cXZXZXZXxXZXZXMXZXZXZXZXFXZXZXZXZXZXZXZXZXZXZXZXGXFXPXZXZXZXxXZXcXxXMXZX",
"ZXZXZXZXZXmXcXMXZXxXxXxXxXmXZXxXxXxXZXmXxXZXZXZXZXmXxXxXZXZXMXMXZXZXNX            s.Z a g h g p p : p j s p h 9 G h.>.1.H.U.I.v y.I.U.H B N a.c.N.b.u u.u._.b.I b.N.m.J L m.m.n.M.K.y.6XQ.(.(.G.^.z.A @ 8 w * * * 7 ^ ^ 8.r.w.8 * 8.,Xw.w.t.w.8.8.0X,X0XeXrXrX0Xr.-XeX8.8.w.4.#.#.#.%.0 * ^ %.%.%.0 %.#.@ * = @ Y ' ] [ #.#.[ #.A C A [ [ [ { E 0 0 q E E E k k l k j g d f l h Z k j ] q > > , ; > > d 7 < < 4 6 2 4 5 4 1 1 > 6 b < g.y $             ZXxXZXxXxXMXZXMXZXZXZXZXPXZXZXZXZXZXZXZXZXxXZXZXZXZXZXZXZXZXxXxXZXZXZXZX",
"ZXMXZXZXZXZXxXZXxXcXZXZXMXmXxXZXZXxXMXMXZXMXZXZXxXmXMXZXZXZXZXZXZXZXZX            M Z g h h a ; , ; ; 8 s p p 8 F h.l K H.I.U.S #.;.;.k G h.N c.c.P u u.s._.b.m.n.N.m.K :.F.F.K.G.!.!.6X X(.(.K.^.x.$.- 7 8 * * * 7 ^ &.8.t.y.#.w 8.w.r.r.w.w.t.t.0X0X0XeXrXeX0Xt.r.,Xr.4.=.#.&.4.%.W W W #.&.&.#.e #.W @ $ @ R O. .| *.#.#.#.[ A A A } { { [ R 0 E E E E e k f s s j l k Z f h Z f 9 q 9 0 7 > , 7 7 7 7 9 < 6 6 2 5 5 1 1 1 > > > < g.y $             MXMXZXZXmXmXxXmXMXZXxXmXZXZXZXZXZXZXZXZXZXxXZXZXZXZXZXZXPXZXxXxXZXZXZXZX",
"MXZXZXMXZXZXcXMXcXZXxXMXMXxXxXcXxXZXxXmXMXmXxXZXxXZXZXZXMXZXZXZXMXxXZX            C Z h g h a - , , ; ; s g p 8 Z h.J J J H.1.S 9 $.:.D S a.a.P N u u u.f._.b.I b.N.b.L 1.F.1.K.!.Q.y.Q. X(.|.J.`.^.;.S - 8 7 * 7 w #.-.>.r.r.8.=.t.t.t.0X0XeXeX,X,X0X0XrXeXeXt.e.e.t.e.r.e.=.&.%.W %.4.=.%.&.4.#.e #.e @ @ @ | O. .| | #.#.#.#.A f #.} { { { { E 0 E e 0 8 s g s j s j k S j Z Z f s q 8 7 5 7 7 7 0 0 0 9 > r 6 6 6 5 1 1 1 > > , < g.y $             ZXMXZXZXZXZXxXmXZXMXZXxXZXZXZXZXZXZXZXZXZXZXZXZXMXZXZXxXZXPXZXZXZXZXZXZX",
"MXZXMXZXxXZXcXgXZXcXxXcXxXxXcXcXMXmXxXmXZXZXMXZXZXmXxXxXMXmXZXMXZXxXxX            C C M y h d - j ; , p s s p l l s.S k k j A A A #.#.D G H L H N a.u i.s._.m.I N.b.b.:.1.:.:.!.Q.q.y.K.}.(.|.J.`.^.;.:.A W w * * 7 e #.=.w.t.r.t.eXyXrXyXrXrXrX0X0X0XeXeX0XeXt.r.t.,Xr.-X,Xr.e.r.e.e.r.8.=.4.4.%.W ^ 7 @ $ * { O. .| | -.#.#.#.A k #.{ | | { ! ! 0 0 7 5 , a g s j l j j W 8 h Z h d 9 8 , R R R 0 5 0 0 9 > > > 6 Y 6 5 1 1 > > , a g.y $             ZXHXZXmXZXxXZXxXZXmXmXmXZXZXZXZXZXxXZXZXZXZXZXZXmXMXZXZXZXZXZXPXGXZXmXZX",
"MXcXxXZXZXcXZXgXxXcXxXZXZXxXcXcXZXxXxXMXmXMXZXMXMXZXMXMXxXxXmXZXxXMXmX            Z Z Z a s d 7 , 8 j l l f s 8 f a.l l k Z S ;.J S A #.S J F c.s.d.u.u a._.m.1.N.b.N.1.>.<.y.Q.Q.y.J.y.K.(.(.K.`.l.;.K ;.w w #.* * e #.&.=.t.r.0XeXpXeXrXrXrXeX0X,X0XeX0X,XeX,Xt.,X-Xr.,XwX-Xe.-Xe.e.r.e.4.4.%.%.W 7 $ @ $ 0 | O. .| | -.#.A A C A %.} | { { ! ! w 7 0 8 a s s s f s e j A f h Z f f 9 9 8 0 Y R R q q q 6 < > > 7 6 Y 4 1 * * > = ; g.y $             xXxXMXMXZXZXZXZXZXmXMXZXZXZXZXZXZXZXZXZXZXZXPXZXZXZXZXZXmXMXZXZXZXZXGXZX",
"cXxXMXcXZXZXxXxXxXZXZXZXZXcXxXxXMXZXZXZXZXmXmXmXmXMXZXZXmXmXxXxXmXmXMX            h C C a d f 8 8 8 8 s l f s e h s.l l k A h h h k k h S F a.G G j.a.u h.'.N.1.N.b.N.>.q.q.Q.}.}.H.I.y.}.(.(.F.`.l.S K K #.#.=.* * 7 %.#.&.w.8.t.,XeXeXrXeXeXeXt.t.0X,X0XwXeX0X0X-X0X-X-XwX,X-X,X-Xr.r.8.4.%.%.W 0 * $ 1 1 q | O.O.| -.-.#.#.A Z -.3.[ | o.{ ! q 8 w 8 p p k j h h , 8 f Z h g Z f s q 5 9 j 5 Y R 5 q R 6 < > 7 7 4 6 6 % 1 r > , ; s.y $             xXMXZXZXZXZXZXZXmXMXZXZXZXZXZXZXZXZXZXZXZXZXZXFXZXZXZXZXZXZXxXMXZXZXZXFX",
"xXxXMXZXZXZXlXZXcXcXcXZXZXZXxXxXxXjXxXZXxXmXmXMXMXZXMXmXmXxXMXxXMXMXmX            g 9 C g d d , 8 8 8 , a f 9 q S c.h h l h z z h g k k l S F F h A c.d.x.'./.!.1.1.!.+.q.q.!.}.G.K.K.y.}.(.B.m._.^.S K K >.#.#.7 @ * [ %.^ &.8.8.r.0XrXrXrXeXeXr.t.0X0XeXeXeXeX0X0X0Xr.-X0X0X-X,X-Xr.,Xw.=.%.%.0 1 * @ #.W 7 | O.O. .-.-.-.$.D Z -.#.} { [ { E 8 w j s a s j g j 8 8 7 8 f g g Z f 9 q 6 9 A 0 R T R q q 6 < > > > 7 1 6 C 1 * * = ; s.y O             xXZXZXZXZXZXZXmXMXMXMXZXZXMXZXZXZXZXZXZXZXZXZXZXZXZXFXZXZXmXmXmXMXmXZXZX",
"xXZXcXMXcXZXcXZXMXcXxXgXxXZXMXMXxXxXxXmXxXMXZXZXZXMXmXxXMXmXmXZXMXMXMX            h d Z d d d , , d < s f l x #.S c.h F M N P F h h h k h h F L F F P a.`.'.N.!.!.~.!.<.<.K././.}.K.G.I.}.(.B.h.'.`.J I G w.w.* 7 @ * 7 0 e ^ &.=.r.qXrXpXrX0X0X-X,X0X,XeXeXeX0Xt.,X-Xe.-XwX0X,X0X-Xe.-Xw.%.%.%.0 * @ @ %.W q o.O.O. .| -.;.-.S S D A *.[ E E w 0 w d s s s l 7 8 f 8 7 7 d f f C < 9 q R 9 A 7 7 R Y R 5 7 < > 1 1 4 > > g.B r j A = g.y h             cXMXZXZXZXZXZXZXmXMXZXZXZXZXZXZXGXZXZXZXZXZXZXZXZXZXZXZXMXZXxXxXxXZXZXZX",
"ZXZXNXZXZXZXZXxXMXZXMXcXcXcXcXMXxXcXMXMXZXZXcXcXMXZXcXZXcXxXcXxXMXMXlX            f d C d d d > , d , d k j x x A h.z h z F F A A A h h z z h a.L G L J l.'.l.)././.N.I 1.M./.}.G.M.(.}.}.(.z.z.'.^.;.I I -.t.w % * * * 7 7 ^ &.=.t.rXeXrXrXeXwXr.-X0X,X0X0XwX,X-X,X,X8.r.wX,X0X,X-Xe.r.8.%.Q E 1 * @ % 4.0 [ | O.O.{ | -.;.K K K ;.#.-.[ [ w w 0 w k 8 8 8 8 l z z s 7 7 j d j A 9 9 q 5 < Z 7 7 7 Y Y 4 > > , Z V d.g.k.k.k.a.|.XXI.s.d.a.            xXcXZXZXMXMXZXxXZXMXZXZXZXZXZXZXZXZXZXZXZXxXxXMXZXZXZXZXZXxXxXgXmXZXZXZX",
"vXxXxXZXZXMXxXZXMXmXMXxXZXxXcXcXxXxXxXcXcXMXZXZXZXZXcXcXcXcXcXxXxXxXxX            d d d < , , - , , , , , k S k k x.h p p h l k h A l p z h l h P S K ;.z.'.l.^.^.^./.N.N.M././.G.G.G.Q.}.(.M.M.[.^.;.I I #.=.&.@ @ @ * 7 7 #.8.&.-XpXeXeXrXeX0X%.#.4.r.0X,X,XwXr.4.8.#.-XwX-X0X-Xr.e.e.4.%.Q 0 * $ @ * 0 W [ | O.O. .o.%.;.K D K K -.[ E q [ E W W w w 0 0 8 h z h s 1 1 7 d j A A 9 v 6 Z g.< 7 1 1 6 R 1 M g.l.l.l.k.V V k.z.M.n. Xm.B =             ZXcXMXZXZXcXcXxXZXZXMXxXZXZXZXZXZXZXZXMXcXZXxXxXcXZXZXZXZXZXMXxXmXZXZXMX",
"xXxXxXxXxXmXZXxXxXxXZXcXxXMXxXcXMXMXZXxXMXZXMXMXMXxXZXMXZXZXcXcXxXcXMX            d , d < , , , , : : : > s h j k k.a p p p j j h h g p z z l f F a.h.I ^.'.j.j.B.z.).N.N.B./.M.F.K.m.y.}.(.K.M.[.x.:.m.b.$.w * * @ @ * 1 * e %.%.w.0X0XeXeXeX0Xe 1 4 #.4.e.r.w.0 * * W -X,X-X,X-Xr.8.4.4.%.W 1 * $ @ $ %.4.[ | | { { { %.#.D -.D D -.[ q [ [ [ ! [ W W W E 8 d h h s 1 5 0 9 j A v q ] q l.s.7 , 1 7 1 Y B l.l.k.k.k.M O 1 a.c. Xm.K.L y @             xXZXZXZXMXcXZXZXZXZXFXZXMXmXZXZXZXZXcXMXZXMXZXcXcXZXxXZXZXcXZXMXxXZXZXZX",
"NXxXxXxXMXlXxXxXxXcXMXlXxXMXxXcXZXZXMXxXZXZXZXZXcXbXcXZXZXcXcXcXxXxXNX            , , d < s s 8 > ; , ; - s h , z a.* ; p p 9 l p p p p h h f J c.b.j.s.l.'.j.h.x.k.l.N.L b.n.n.c.n.m.y.}.(.K.M.[.^.:.b.b.$.&.7 * * @ $ * 1 E #.&.8.8.,X0XeXeXrX4.1 0 0 1 1 0 1 $ % * 4.-X,X-X-X,X-X8.4.4.#.1 * * $ @ W e.4.[ [ { { { ] [ #.#.| #.A A [ [ [ } [ Q } [ Q Q Q k d Z F s 1 5 q 9 C C v 9 q Z `.a.d * * * % B l.l.l.l.a.g , 4 % Z a.J 1.Z m y @             xXcXZXcXZXcXcXcXZXmXZXZXZXxXxXZXxXZXMXZXZXxXxXZXZXxXxXcXcXxXxXMXmXZXMXZX",
"NXZXmXZXZXmXlXxXxXxXxXxXxXxXxXxXZXxXxXmXmXZXMXZXZXMXxXZXZXZXZXZXMXZXZX            - > j 9 , j j - - ; - - , g - N M $ - p p 9 k ; p p h F J #.S F J D c.l.'.g.g.k.l.l.j.H j.h.j.c.a.c.y.}.(.1.N.[.^.:.n.b.S %.8.w @ @ @ @ * 7 e ^ w.,XeX0XeXeXeXrXw.0 4 0 1 4 0 * 7 4.-X-X,X-XwX0X-X8.4.%.W 1 * % % @ 4.wX%.[ | O... .] [ [ { o.#.A A [ ] [ [ [ E [ } [ Q [ #.j S G d 1 7 0 w d d d < q G `.j.M Z - O M l.k.l.l.k.; * r 4 % , s.N V N M a $             cXxXxXxXxXcXcXcXmXxXxXxXMXZXZXZXZXZXxXZXZXlXxXZXZXcXZXcXxXxXxXmXZXZXZXZX",
"xXxXxXxXZXZXMXxXxXlXgXxXxXxXxXZXZXxXxXZXZXxXxXZXZXZXZXZXZXcXZXZXMXvXZX            * , d 9 < j , - * - = - ; a s h.g * - ; : w A s l h h Z h #.Z S S #.$.b._.h.h.g.k.l.h.h.h.h.a.a.a.a.m././.1.N.[.^.v.m.I K 8 &.w @ # $ 7 w 0 W %.w.eXrX0X0X0XwXeX0Xe.0 1 0 W W 0 e.-Xr.-X-X-X-X-Xr.4.=.%.Q 1 * % @ * ;Xr.[ [ O.O... .{ ! [ [ #.#.A A | | ] ] [ [ [ } } } } #.A D Z < 1 7 7 8 , < C < 4 G `.m > a a M l.k.l.l.l.Z % 7 4 4 % 1 d.g.g.d.s.m $             xXxXxXxXxXcXcXxXxXxXmXxXxXxXZXxXZXZXxXZXZXZXZXZXZXMXZXZXcXxXxXZXZXZXZXZX",
"xXxXxXxXZXMXZXMXcXgXxXMXMXMXcXMXxXxXZXZXZXZXxXbXZXbXbXbXxXZXxXbXZXxXZX            * ; , 8 , , ; - = * = = = a Z d.- - * ; a j ^ k #.j ; #.#.k h S J #.#.m.'.n.b.h.x.x.B.n.h.h.a.a.a.a.m.B./.I z.[.`.c.M.1.:.S 7 , A > 1 #.W 7 e %.4.r.,X0X0X,X,XeX,X-Xe.W 0 W %.e.-X-X-Xe.-X-X-X-X-X4.=.#.0 * * @ @ 0 =.#.[ ` O.O.` { { E ! } } [ j j | { R R ! Q [ [ W [ %.[ w A f , 1 - ; 7 - > d = < B l.Z ; O V g.B > F l.9 Y 6 6 4 4 1 % a.k.V d.g.N g             MXcXcXxXxXxXxXxXxXcXcXcXcXcXcXxXZXZXZXZXZXZXZXNXZXcXcXcXMXcXxXxXMXZXZXGX",
"xXxXxXZXZXxXlXxXlXMXxXZXMXZXxXcXxXZXvXZXNXZXZXZXZXZXZXxXZXZXZXbXbXxXZX            * * > 7 7 ; = = * * * = a a a ; ; - , a a g k #.#.#.k #.k l h h $.#.#.L '.h.b.j.h.h.N.B.^.n.n.a.s.a.m.(.(.:.^.[.`.m.G.1.:.$.D I D w $ * @ @ 7 W %.4.r.0X-X-X-XeX,X,X-X-X-X-XwX-X-XwX-X4.-X-Xe.e.-X6.%.Q 4 * % @ % E 9 [ | O.O.O.{ E E E [ [ { { v v { { { R [ [ } [ w #.W A 8 j s ; - - - - , > = * M g.a.m > V k.g a 1 Z V 4 Y _ Y Y 2 6 2 a.g.C g.k.m 1             xXMXMXcXxXxXxXxXxXxXxXxXxXxXxXcXZXZXMXZXZXZXvXZXZXZXZXxXxXxXxXZXZXMXZXZX",
"xXbXxXZXZXxXgXlXlXxXcXMXMXxXcXMXxXxXNXZXZXZXbXZXZXbXbXxXxXZXZXZXZXMXZX            * * > > - - = # * * * : : : : s f = ; - - S h 8 w W k j k k k h k A S G b.b.h.j.h.h.b.n.^.n.n.c.s.s.m.(./.>.B.[.`.m.m.I ;.;.I D A Q * @ * * 1 e %.&.e.-X-Xr.-XwXr.4.#.#.4.4.%.Q ^ 4.e.e.e.-Xe.e.e.4.%.0 1 * % @ 7 W W }  .`  .{ { { w [ [ [ [ { [ w R R ] R ! } %.#.^ 8 j k s f s ; * * - 7 - > < g Z g m G x.d.m - d 1 Z m 1 Y _ _ _ Y 6 O a.m m g.g.Z 2             xXxXxXxXxXxXmXxXxXxXxXZXMXxXxXZXZXZXMXZXZXMXxXxXZXMXxXxXxXxXxXxXxXZXZXZX",
"xXxXxXxXbXxXlXlXxXxXxXcXxXxXxXcXZXNXNXZXZXZXvXbXZXbXxXxXxXxXxXxXZXZXZX            * * - > - = = # # * = g = h f s s j - - e q w k 8 - 8 j k s j W k #.A Z `.h.j.j.z.n.N.B.N.N.b.n.s.s.m./.M.;.B.[.`.m.I I I /.I A W A > $ * 1 1 e #.&.8.r.-Xe.&.#.7 $ @ @ $ $ % $ @ @ 0 %.4.e.4.9.e.4.#.4 1 * $ * e k W [ [ [ | } } | { { [ [ [ | { 9 ] { { [ [ #.f f k : = : g h : = # = - * * # # g = ; m V g., Z % 1 4 M y 1 6 _ _ _ T + + B g M a.d.M %             xXxXxXxXxXxXmXMXxXxXxXxXMXxXxXcXZXZXZXxXxXMXMXMXxXcXcXZXxXxXZXxXxXZXZXxX",
"bXxXxXxXxXcXMXxXcXxXxXxXxXxXMXxXZXZXxXNXxXvXxXxXbXbXxXxXxXxXZXgXxXcXcX            # # * = * # # # = = , m.a ; l k S k # # k f k 8 l : - s s 8 k $.j k k k `.z.b.N.B.B.N.).).I b.z.s.s.m.M.N.K x.[._.m.1.N./.N.-.#.D K j $ 1 1 1 0 W &.w.r.4.1 @ @ @ $ @ $ * $ $ $ % @ @ @ * 4.e.6.9.4.Q 5 1 * @ - k e k #.E E [ [ } | #XO.` [ [ { { q [ ` { [ [ k h l s g : p p ; = = - = - ^ #.w d g : = g M = - h % 1 1 V y % R T _ _ T + % B g V m d.Z %             xXxXxXxXxXmXxXxXxXxXxXxXxXxXxXxXMXMXMXhXgXgXMXMXMXxXcXxXxXxXMXZXmXxXZXZX",
"xXxXxXxXbXxXMXxXxXxXxXZXxXZXZXMXZXZXcXcXcXZXcXxXxXcXcXxXxXxXZXxXcXxXxX            * # # = * * * = = * - - * 8 j - - : s s ; j s S ; # : = = j :.S g f Z Z x.j.H I b.j.N.^.).N.b.z.x.h.m.N.N.P l.[._./.)./.m.I I I K D A @ * 1 1 0 e #.8.-X8.^ $ * * * 1 1 0 E E 0 0 5 1 1 %.e.e.6.e.4.Q W 1 $ $ 8 ^ w k A #.E E ! [ | O.#X.. .`  .{ ] R { { { ! w h l ; p g : : - s $.%.=.e.0.7X=.A B h.C m F 7 * * * * % M y % 6 T ' _ T 6 % N Z V < d.Z 2             xXxXxXxXxXcXxXxXxXcXxXbXcXxXxXMXMXcXcXZXxXxXxXxXcXMXMXZXxXMXxXxXZXZXcXZX",
"xXxXxXxXZXZXZXZXxXxXMXxXxXMXZXcXZXMXcXxXxXcXZXZXMXcXxXxXxXxXxXxXxXxXxX            = * # * - # # # # , - j A > - ; , k 8 $.>.$.j # j = # = * ;.H.f ; f Z F l.z.b.I I N.N.).).N.N.z.^.^././.z.h.`.'._.^./.I N.N.m.I A W #.1 @ 1 7 0 e %.e.-Xr.-XE * * * 1 0 Q Q %.Q W 5 $ E 6.e.-X9.6.7.Q E * $ - 8 k #.W #.#.[ E E [ | ..#XO.....` { ' R { { ] R 0 l l ; p p : : : =.q.=X;X| ;XiXw v j.m > d.A 3.9 # = - * M m * 5 Y ] Y Y Y % M B M r s.Z %             xXxXxXxXxXcXxXxXZXxXxXxXxXxXxXxXcXcXcXxXZXZXcXxXcXxXcXZXZXZXcXxXZXZXZXcX",
"NXxXxXmXZXZXZXZXZXxXMXxXxXMXxXlXxXMXcXxXcXZXZXZXxXcXxXxXcXcXxXMXcXxXxX            * # # # # # # : # = k 9 - - j > * 7 e #.pXw.#.$.; # # # ; f ;.f ; l Z F `.z.j.I ).^.).).).m.I j.x.^.).^.^.n.`.'._.)./././.1.-.=.} Q #.W $ * 1 1 0 #.e.-Xe.-X4.Q 1 @ * * * * E 5 1 1 * %.e.4.e.9.4.%.Q 0 * * 8 8 8 k #.#.#.[ [ E ]  .#X$X#X.. . .' { { ] { { R 0 - : p p : s p #.;X7X8X6Xo.7XaXt. X}.C r z.v | } A - * * m m * 4 Y Y Y 6 + + M g.b > s.g %             xXxXxXxXcXcXxXxXxXxXZXxXxXxXxXMXcXcXcXxXMXMXcXcXxXxXxXcXMXcXZXcXZXZXZXcX",
"xXxXZXZXZXZXZXZXMXZXZXxXxXMXxXxXMXcXxXcXxXxXZXZXcXZXxXxXxXcXcXMXMXcXxX            * # # @ * = # # # # - * 8 #.k @ 7 r.,Xr.pXr.r.aXy.= # * = k qX$.; f h Z `.h.H I `._.^.).).N.m.j.x.z.z.^.^.N.`.'._.^./.I 1.-.%.*.%.%.#.#.* * 1 1 0 %.4.r.-Xr.4.4.%.7 * % % * 0 1 7 0 Q &.e.e.e.4.%.Q Q Q * 1 w 8 w A #.%.*.[ [ w [  .O.#X#X#X . .` { { { ` { { q ; p p : , l q q.=Xw.8X8X7X;XaXwX-X1.y r j.~.+.} q.#.# $ m y $ 6 Y Y Y 6 1 + B a.> C g.Z %             xXxXxXcXxXxXxXxXxXxXbXbXZXxXMXMXxXxXcXxXxXxXcXcXxXxXxXcXMXxXZXxXxXxXZXZX",
"xXxXNXZXNXZXZXZXZXZXZXcXxXxXZXcXxXZXMXxXxXxXcXMXZXMXMXxXxXcXMXxXcXMXxX            * * # * * # # # # # # e #.t.w.* @ 8.t.,XpXr.,XpX,X* s # 8 ; >.;.; s l Z l.G F K `.).^.^.)./.j.h.z.^.z.^.^./._.'._./.;.-.=.*.*.*.2.%.%.#.* $ * 1 0 %.8.-X-X-X4.6.4.E 0 * * 1 %.%.%.%.2.9.-Xe.e.4.4.%.%.E $ 7 k w [ #.#.*.*.} A v | { ` O.O.#XO.....{ { ` ` ` R 7 7 p : ; j R $X}.-._ 6X8XwX7XaXiX7XX y b j.q.8X6.%.4.w # M = * Y Y Y Y 5 1 R H h 9 C g.m $             xXxXMXcXxXxXxXxXZXZXZXxXbXxXcXcXMXxXcXMXxXxXcXMXxXxXxXxXxXxXcXMXcXMXZXZX",
"xXxXNXxXxXZXFXZXFXFXZXmXxXxXMXcXxXMXZXlXMXZXZXcXZXcXZXZXZXZXcXxXxXxXZX            * # * * # * # # # # 8 #.w.pXw.-.% . w.rXeX-X0XeXr.W >.j #.$.= >.^ p s F h.h h D ^.).N.^.).N.b.a.h.^.^.^.B.I `.'._./.1.;.-.3.*.%.| 2.%.%.* @ $ * 7 Q 4.-X-Xe.4.e.e.%.%.^ Q #.-Xe.6.e.6.9.e.9.6.6.%.%.! 1 $ 0 k k %.%.#.2.3.| A [ } { } ` ..O. . .` { { `  .{ R 5 - 8 ; s w Y 8XiXq.o.7XiXwXe.4.4.E = Z 1.g.< *.iX;X4.%.7 # * * 6 Y T Y 6 4 % M A v g g.y $             NXxXxXxXxXxXxXxXxXZXZXZXxXxXxXxXxXxXxXZXcXxXxXcXxXxXcXcXxXxXxXZXZXMXcXZX",
"xXNXxXxXNXZXFXZXZXPXZXNXNXxXZXZXNXZXZXmXMXMXZXcXZXxXMXZXZXZXMXMXxXxXZX            * * # * # # # # # - #.8.eX&.; 0X%.* 7 =.%.w.0X0X0Xr.wXy.* &.;.>.$.a 8 a.d.h h Z z.^.).^.).N.j.h.z.^.^.^.N.D `.'._./.N.N.I -.-.#.{ } %.%.* $ $ * 1 0 &.9.-X-X9.-X-X7.6.4.6.&.-X;X-X-X6.;X9.7.7.4.%.Q 2 * O f J E } %.#.%.3.#.A [ [ [ } [  . .{  .{ ] ] { { ] { R - 7 - 0  . .pX6Xy.7X;X[ e.iXe.4.W = d <.B.= % *.iXe.%.%.* * * + Y Y Y R 2 > s.A 9 < s.h $             ZXNXxXNXZXxXxXxXxXxXxXxXxXxXxXxXmXmXxXMXMXMXxXcXxXcXxXxXxXxXxXMXZXZXZXZX",
"xXNXvXZXZXmXZXZXxXZXZXZXZXxXZXZXNXmXZXxXMXmXZXcXcXcXcXcXZXcXcXcXcXxXxX            * * # * # # # # # 8 4.wX#.t r.eX%.@ 4 =.r.pXw.$ W w.r.=.$.>.l # X 8 w h.F h h Z h._.`.^.^.^.z.s.h.^.).).N.A `.'._.N.I I /.I I K -.=.-.#.$ @ $ $ * 1 Q 4.e.e.-X;X-X4.6.9.9.4.e.-X-X-X9.-X7.4.7.%.%.1 $ p f.f.Z.v.:.! ^ } *.A [ [ [ [ [ [ } { { {  .] E W E 7 5 1 7 7 1 _ ....8X+.1.#.1 %.% 7XaX;X0.1 [ r H <.% % } 7X7X=.* % Y Y T T Y Y + Z k.A 6 < d.a %             ZXZXZXvXxXNXNXNXZXZXxXjXgXxXxXxXmXZXZXxXxXZXcXxXMXZXxXxXMXxXxXZXMXMXZXZX",
"jXxXNXZXxXZXZXZXmXxXZXZXNXZXZXZXZXxXmXZXMXMXZXMXcXcXMXZXcXxXMXMXxXxXxX            * * * # # # @ # # -.t.#.. r.rXw w 0 #.w.iX0X$ 4.=.* =.wXI.;.S l ; * D a.z h h Z j._.`._.^.j.g.N b.j.j.).N.C `.'._.I K I I -.-.D -.-.-.#.@ @ @ $ $ * 1 %.6.9.e.e.e.9.4.4.4.4.9.-X-Xe.4.e.7.%.%.Q 1 $ $ $ f.V.v.Z.B.J E [ #.[ [ [ [ #.#.[ [ { { |  .] R E E 7 - - - 7 7 R _ +.8XiX>.V e.e.@ E 7X;X%.4 #.#.M -.[ % O E 4.%.7 Y _ _ _ T T Y 6 M a.A 9 < d., %             ZXZXZXxXZXZXNXxXNXZXZXxXgXxXlXxXxXmXZXZXZXxXZXMXZXcXxXxXMXMXMXZXZXMXZXZX",
"xXxXxXxXZXZXZXmXZXxXMXZXZXZXZXZXZXZXZXZXmXMXZXZXxXZXZXMXxXMXZXZXxXxXxX            * * * # @ # # : = &.#.. k eX%.t #.0 w =.,X=.@ w -XiXw.iX,Xy.}.>.3 2 b.Z k j l C U `.`.^.).z.h.G H b.b.N.).A l.'._.K D N.I E [ [ %.%.%.[ * @ @ $ * $ * 1 %.%.7.9.4.4.%.%.4.&.7.e.9.4.4.4.%.Q 5 $ $ * O N C.v.= J f.h R [ A } | O.o.#.#.[ [ [ [ | ] R E W w 7 > - - 4 6 7 .. .aXaXy.|.iX3.t [ e.0.[ 4 7 =.V X [ 4 1 * 7 4.W + _ .._ _ T T v F Z C b C a.7 %             ZXNXZXNXZXZXxXxXxXxXxXNXxXxXZXmXxXxXZXMXMXxXZXZXZXMXxXcXxXcXxXxXxXZXZXZX",
"gXxXxXZXZXZXZXZXZXZXZXNXZXZXZXZXZXZXMXZXxXxXZXZXZXxXcXZXcXZXMXZXMXxXxX            * * * * # = - 8 - ^ ( / ,Xr.t * 4.@ w &.w.4.t %.pXaXeXrXrX*.I.:.% -.a.e A [ w A U `.`.).N.z.d.L m.N.I N.).D h.'._.G A N.I A D D %.%.%.A * @ @ % 1 * * $ $ 1 %.7.2.%.%.%.%.%.%.7.2.%.4.2.E 1 @ $ $ $ $ N f.i o p V.P R w v [ { O.O.O.[ [ [ [ [  .{ { E E 8 > - # 4 4 6 ' ..R iXaX7X.XrXiX$ E e.4.[ 0 7 =.M X 1 *.* * * %.E 6 T .._ T Y Y G , Z d 6 C d.Y Y             ZXZXZXJXZXNXZXxXvXxXNXxXxXgXlXZXZXxXMXmXMXxXxXZXZXMXxXZXMXxXxXmXxXZXZXZX",
"jXxXmXZXZXZXZXZXZXZXZXZXmXZXZXZXZXZXZXZXZXMXMXZXZXxXMXxXmXmXZXxXxXZXxX            % % % * * * * , # #.8.8.wXW t * =.4 0 #.4.w.t -XaXaXrXrXpXe.wX>.T I v 7 9 ] ] [ U ^._.^.N.z.h.H K I N./.(.K j.'.'.b.A N.b.I K =.%.%.=.< @ * @ % 1 7 1 * * @ 1 E E Q %.%.Q ^ E %.#.0 E 1 % @ @ $ $ * $ O f.u.u.z z ; 7 q [ [ ] ..#X$XO.[ [ w h k R ] E q 7 - - - * 4 Y _ 5 4 iXiX7XiXiXiX*.@ ;X#.@ * W *.G * t *.0 # * W R Y ' T T T Y 9 G + Z , 4 b d.q Y             JXZXZXZXZXZXNXxXNXNXxXjXxXgXlXxXxXZXxXxXxXmXxXZXZXMXMXZXMXcXZXxXxXZXPXZX",
"xXxXxXZXxXZXZXZXMXmXMXZXmXmXZXZXZXZXZXZXZXZXZXZXZXMXmXMXZXZXZXZXFXZXZX            * % % * 8 * * = @ - #.-X-X@ @ * %.W % @ %.%.@ wXwXiXpXaXaXeXwXw.* H _ - s R ' q U I _.`.j.z.z.G D j.).).).I z._._.h.G b.b.D A %.} #.D @ $ % % * 2 E 1 1 1 * 1 2 1 2 E ! 0 5 1 1 1 * * $ @ $ $ $ $ $ $ * h h u.: : O % R [ [ [ 0.*X%X .[ { { E 8 p 8 q 0 7 1 7 R # 5 2 Y 1 w aXaXiXaX-X;X4.t *.#.* @ [ *.m * t 0 %.# - 7 ! T Y 2 1 R Y Z d O h j q C g.q R             ZXZXZXZXxXZXZXZXZXxXxXxXxXxXZXZXlXxXxXxXxXxXxXxXZXMXZXZXMXMXZXZXxXmXZXZX",
"xXxXcXxXZXMXxXZXxXmXxXMXZXxXxXZXZXZXZXxXZXZXxXlXxXxXxXxXZXZXZXZXZXZXZX            # # % * * / 8 - 7 - &.-X=.t @ 1 %.#.* 7 =.w . e.r.w.iXiXiX,X7Xo.g D Y 0 q R ' q U I ^.`.H h.^.j.I ^.^.^.N.I ^._.'.h.Z H H Z A #.#.K ; O @ @ $ 1 0 0 1 * 1 * 1 E 1 2 5 1 % % % 1 1 $ 2 % @ $ $ % % % % $ O % @ O 3 ) / R R [ *.*X%X$X$XO.#X#X..q p 0 0 q q 5 4 6 6 R 6 Y Y E iXiXiXwXI y.E t W 4.* * #.4.M = @ * ;X- 4 6 7 6 + * * % 4 M $ O S #.6 C g.#.2             PXZXZXZXZXZXNXxXZXZXNXxXvXZXxXZXxXkXkXcXZXmXmXmXxXxXxXmXZXZXZXZXxXZXZXxX",
"MXxXZXMXxXMXZXZXZXZXmXMXZXxXMXmXZXZXZXZXMXMXxXxXgXxXxXxXZXmXZXZXZXZXZX            * * % * - 8 7 - e t ^ ;X7 t @ 7 %.%.% * w.0 #.%.#.%.iXiXiX XQ.7XK ] 2 ` ` ] R ` U U z.`.H H z.).).^.^.^.N.K z._.'.z.Z H I D A W K G @ @ @ t t * E 0 * * * $ * 0 1 1 5 1 * $ $ * % @ $ $ @ @ $ * * % $ $ E R 3 ) A.) A.) Y ` O.....#X$X$X#X....R 7 q 8 , 7 , 7 Y T Y 1 1 6 + 6X8XiXwXS :.0.;X1 0.%.* [ 6.K 8 @ t 0.*.6 R # 5 * # * $ d s = ^ J l q m g.3 2             ZXJXZXZXZXZXZXNXxXZXZXNXxXZXZXxXxXxXkXxXxXMXMXmXxXmXZXZXZXcXZXZXMXZXZXxX",
"ZXZXZXZXZXZXZXZXZXZXZXZXxXMXZXMXmXZXZXmXMXZXxXlXgXjXxXmXZXmXZXZXZXZXZX            % * * * * # @ @ k @ #.e.@ @ @ #.*.%.7 r.4.* iXiX-Xe.wXeXiXyX XY.L T R R  . .{ ] U I z._.j.H I N.N.).^.^.N.I ^._._.l.D I D K D K G * @ t * [ -.[ E 0 * 1 * * 1 0 * 1 1 1 1 * * * $ @ $ $ $ $ $ $ $ $ 1 5 Q 7 A.S.c ) A.c 3 ~ O.o.o.X.%X#X#XO.O._ R q 7 8 8 8 7 R 6 1 _ 2 * 1 0.8XwX7X6.iXiX7X@ [ 7X3.q 4.:.#.@ @ E 7X] % * * * * # * * $ #.%.a J e M g.7 ^             ZXZXZXZXJXZXNXNXvXZXZXZXZXZXxXxXcXcXxXgXlXxXxXmXxXmXZXFXZXZXZXZXZXZXZXjX",
"MXMXHXZXZXZXMXZXZXZXMXxXxXmXZXZXMXMXmXMXZXZXxXgXgXxXZXxXmXxXxXZXZXZXZX            # @ $ @ % * 7 7 , d k #.t @ * %.*.%.W -X[ t 4.iXiXw.iXeXwX-X,XK.A + R ; E  . .j H I ^.`.`.z.D K D I N.(.N.D z._._.`.H K [ K I I C @ @ % | Q.!.L.<.Y 1 1 2 2 2 E 1 1 1 1 1 * % * $ $ $ $ 1 1 $ $ * $ Q 3.5 k A.) ) 1X1X3XS.A.6 o. ._ #X=X*X:X%X{ - R R , p 0 R 5 Y R Y o.e p 2.6X8X7X0.iXiX[ t % %.@ [ 0.K E 1 @ O 0.6.@ * * * * * 1 * E 6.X.j 9 A H s.5 ^             JXZXZXJXJXZXZXvXZXZXNXZXZXNXMXZXZXxXZXxXgXjXxXjXxXxXxXZXZXZXZXZXxXZXZXxX",
"cXZXHXZXZXGXZXZXmXZXZXZXZXGXFXmXxXMXZXMXxXxXgXlXxXZXxXMXcXxXxXMXZXZXZX            # @ @ * * 1 7 # * A #.7 @ @ 7 0 %.4.@ q * @ @ -XeXw.wXwX0X;XY.T.3.{ o.5 ; ] ` 8 G /.^._._.^.D D A #.K /.).I b._.`.l.H K K I H Z * @ t v <.Z.B.Z.B.L q 2 E E 5 5 1 1 1 1 1 1 1 2 1 % % $ 1 1 * 1 1 %.6.6.E 1 A.A.3X1XdX3X) l @ O { 4.P.P.1Xr.5.R { R R R q R { %.Y _ % [ &.k }  .=X=X6.7X7X@ @ t 0 0 %.4.Z * E @ @ * #.# # # * * 1 * 1 R 7.9.,.k A b.s.R 2             ZXZXZXZXZXZXZXZXZXZXZXZXZXNXvXxXxXcXxXxXxXZXxXxXxXNXxXZXNXZXZXZXZXxXxXxX",
"MXZXZXZXZXZXZXZXZXZXPXZXZXZXmXZXZXxXcXZXZXlXxXcXxXMXxXZXxXxXcXcXxXZXZX            @ @ * 7 1 1 * 7 * 7 8.* @ @ w @ #.4.%.w @ @ t -XiX-XwXaXiXy.1.P.-X8X3.6 q q q  .<.1.^.`._.^.#.;.-.v K I H N.B.`.C.l.j.N.I D > @ @ # O S Z.V.v.v.B.Z.A Q E R 5 5 1 % % 2 2 1 1 1 1 % % % % 1 2 R } *X*X6.} 1 : A.3X2X2XA.i O $ @ * ^ ^ 8.<X<X4.X.:Xo.R R ' Y ` R | ` 0 2.e.e.%.+ 2.*X;X7X7X% @ @ @ } 3.3.G t [ q t @ e * # @ * # % * * % %.7.,.,.Q V s.7 /             ZXJXZXZXZXPXZXZXZXZXZXZXNXZXZXxXxXxXxXgXxXxXxXvXxXNXxXxXZXxXZXMXxXxXxXcX",
"MXxXMXZXZXMXZXZXxXZXGXZXZXMXMXMXZXcXxXZXMXZXZXMXxXZXZXZXxXxXZXMXxXZXMX            @ @ * - 7 * $ @ @ - =.7 t W q 1 4.%.%.@ 1 * t e.4.r.aXpX<Xr.I.1.e.;X=XR ; 0 4 { +.<.I `._.z.^ ,.:.9 K H C D j.l.l.l.b.G , O @ @ @ @ % B.Z.P l h P V.Z.Q R 2 2 5 1 1 1 2 5 2 1 1 1 % % % 1 2 R %.3.3.*X*X3.5 k A.) ) ) ) ) @ $ $ @ O % 8.<X<X<X;XX...T 6 R T  .O.%X=X+.=X=.4.4.} * 0 e %.e.g @ * * @ -.b.I } W %.t * { @ # @ * * 1 @ @ $ % 2 f h 2 M s.* /             ZXZXZXZXZXZXZXZXZXZXZXZXZXZXxXxXxXxXZXxXxXxXxXbXZXxXxXgXxXxXxXMXxXxXxXZX",
"MXxXcXcXZXxXZXxXxXZXZXZXZXZXZXxXZXZXZXMXZXxXxXZXMXMXMXMXxXxXcXxXxXxXmX            * # @ @ * * * * > k $.7 t [ %.%.%.#.7 t * @ . q wXiXaX3.I.e.H.y.-X4.o.0.l 1 0 Y.0.| D ^._.B.x x A v K G Z C Z C.`.k.Z % @ @ @ @ @ @ O N f.D.H.L l v.P R E 2 2 5 2 5 2 2 5 1 1 1 1 % % 1 5 ! 2.5.5.*X*X3.%.5 * ( / $ ) A.^ O $ $ $ $ @ O &.P.9.r.,X7X+.R 6 E %X$X8X8X7X0.4.%.#.%.Q E t #.$.y @ * * t S s.V %.0.%.@ 0 { $ # # # # E } 5 * $ O , a $ M d.0 2             ZXZXZXZXZXZXZXZXZXZXNXZXZXZXZXZXZXxXxXxXxXxXxXxXZXxXxXgXfXNXxXxXxXxXxXxX",
"cXZXcXcXcXxXxXZXZXmXZXZXZXZXmXmXZXZXZXZXZXMXxXZXZXMXMXZXxXxXxXlXlXxXMX            % $ $ % 1 * * k $.#.^ * @ W *.%.W %.0 @ @ 1 %.W ;XaX7X_ Q.q.e.8.4.;X| =X3.+ 2.<XR.1.*.x.'.n.;.$.#.w D C H G , x.g.= O $ @ @ @ @ @ @ O p u F.F.z h u.x { ! 5 R R R R 5 1 1 1 1 1 2 1 1 2 ! 2.5.6.*X*X5.} } 2 @ O O @ 3 7 @ $ $ @ @ $ @ @ t k &.7.6.;X=X9.%.%.=X%X8X8X8X0.0.iXW * Q W # 4.3.4.0.% @ @ 7 :.M $.2.1 0 * } % * @ * * 8 2.Q / &.E g l 2 M s.&.E             xXZXZXZXZXZXNXZXZXZXJXJXZXZXZXZXxXxXcXxXxXZXxXxXxXjXxXxXgXgXgXlXkXfXxXxX",
"cXMXZXMXMXMXZXZXZXZXxXZXmXZXZXZXZXMXZXMXMXMXcXxXMXZXMXZXxXxXxXlXxXgXlX            % $ % * 1 1 * - 3 * $ # * # e %.W =.1 @ t *.-XwX4.iX ._ 7X7X7Xr.%.e.wX=X . .5 2 $. XI.z._.N.Q. XT.:.9 C b.S < i.( ) ) t $ @ @ @ @ $ @ O h s.u.u u h } o.} Q Q 5 5 5 R 2 2 1 1 1 5 5 1 E } 5.6.0.6.6.3.} X.1 $ * $ @ @ @ % $ @ @ @ @ @ @ @ t e 7.! 5.o.:X9.0.8X%X&X8X8X%X} %.E 2.! - 3 ^ 0.7X0.[ t @ @ S G , } [ 4 E 4.R 2 # 1 * k %.3 / 9.2.l ( &.a.a.,.k             ZXxXZXZXZXZXZXNXZXZXZXZXZXZXJXPXZXZXZXxXxXZXvXZXxXNXNXxXZXZXxXgXkXkXgXxX",
"cXxXZXZXZXZXmXZXmXmXZXZXZXZXZXZXZXMXMXZXmXMXxXcXxXMXZXMXxXxXxXcXxXxXxX            $ * 1 4 1 % * # @ @ @ @ @ * 7 @ [ #.@ $ @ 4.4.;Xe.0.+.o.r.-X0X-X4.7X;Xo.=Xo.! 5 : A y.(.`.|.:.R.P.K.>.D D = P.A.%X2.>XR # $ $ $ $ $ $ @ - - h p - ! o.o.o.2.} E E E ! ! E 5 R ! Q ! ! Q 3.*X*X0.6.5.2.} 2.1 @ @ @ @ @ @ $ $ @ @ @ @ @ @ @ @ O 1 E 4.o.o.7.;X7X+.5.+.+.X.Y  .5.%.Q 7 -X4.=.w.0.4.* % @ w H., % [ 5 E %.R Y * * 1 E ^ ! 7.^ + E / >.b.s.&.<             MXZXZXMXZXZXZXZXZXZXZXZXZXJXZXZXJXJXZXZXxXNXxXxXNXZXNXZXZXZXbXxXZXnXgXxX",
"cXZXZXZXMXZXZXZXZXFXFXxXZXZXZXZXZXMXZXZXmXMXMXMXcXZXxXxXZXcXxXZXMXZXZX            @ w j e * * % % @ @ @ @ @ # * 7 8.7 @ @ W 3.7.-X;X-XiXr.=.>.Q.-Xe.iX4.;X,.2 o.-X1.C #.(._.M #.1./ J y.#.* i 7.#X#X..$X7.o @ $ $ $ $ $ @ $ % ! ! ! ~ o.o.X.6.2.} ! } X.Q ! } ! ! 2.X.} 5.*X;X;X*X0.5.2.2.5.E @ $ $ @ @ @ @ @ $ @ $ @ @ @ @ @ @ @ 1 %.5.X.5.%Xo.4.3.3.X.{ + ..*X0.} W -X;X>.y.*X0.%.t @ t F =.R [ %.0 0 R 2 $ * / / ! ^ ( ! 2 3 ! =.b.a.! %             xXZXxXMXZXZXZXZXZXZXZXZXZXZXZXZXZXJXZXZXZXNXxXZXZXxXxXxXxXNXvXxXxXxXZXZX",
"xXMXZXZXcXZXZXZXZXZXZXZXmXZXZXmXZXZXZXZXZXZXZXZXMXxXMXZXcXcXxXxXZXcXZX            % [ #.R % % % % @ @ @ @ # * * ^ W t @ 4 *.4.Q %.%.%.wX;X%.r.-X-X;X;X-X3.2.o...-X1XH.v b.`.c.w $.W , 8 $ @ A.Y _ &X$X....2 @ $ @ @ $ @ @ % 1 ! 3.2.} o.o.X.6.*X3.2.3.6.2.} 3.} } 5.2.3.*X*X;X*X*X0.5.X.3.3.2 @ $ @ @ @ @ @ $ $ $ t 2 2 $ $ @ @ @ @ 1 Q X.! ;Xq.;X%X+. ._ T %.3._ R 0.6.E 3.3.6.7X6.%.4 % g 2.*.%.%.W w { % * * 0 Q E 3 8 T R l 7.7.c.B 2 1             ZXxXMXMXZXZXZXmXZXNXZXNXZXZXZXPXPXJXZXZXZXZXZXNXZXZXZXvXxXNXZXxXxXbXbXZX",
"xXcXcXZXxXZXZXZXZXZXZXZXZXMXMXZXZXMXxXMXZXZXZXZXZXxXcXcXcXxXcXxXxXZXZX            % E 6 + % $ $ % $ @ @ @ # # * e 7 0 0 *.;XwX2.E %.W e.4.W e.;XiXe.e.7XX.7.*Xo.~ 5.y.y.M l.c.j l e % @ $ @ i / #X4X4X4X~ 3 @ @ @ @ @ @ @ $ %.2 2.3.2.2.2.6.5.6.2.2.5.6.6.3.2.2.2.6.3.*X*X;X;X*X*X*X5.X.3.E $ $ $ $ @ @ @ @ @ @ * *.@.' ' 6 t @ @ @ @ @ 5 5 o. .#X...._ + R 3.T ..R 3.7.0 4.%.0.7X;X3.Q 5 A E 5 q 5 1 } %.$ * % 7 3 2 8 2 ^ 7.Q Q 7.v.N 1 E             xXmXxXxXxXxXZXZXNXxXNXZXZXJXZXZXZXZXZXZXZXZXZXZXxXxXZXZXNXZXvXxXxXbXZXZX",
"cXcXxXcXZXxXmXZXZXZXmXZXZXZXZXxXZXZXxXZXZXZXZXcXxXxXxXxXxXxXcXMXxXxXZX            % $ % % % $ $ $ $ @ @ # # # @ * E 7 0 0 %.%.;X0.#.%.0.e.%.4.-XwX4.3.4.^ 7.2.:X .! <.<.N.k.H w 7 @ $ $ $ O ) A.&X4X9X&X! # $ $ @ @ @ @ @ 1 } 1 R 2.2.6.3.2.5.5.2.2.2.5.5.5.2.} 2.2.5.*X*X*X*X*X*X*X2.} 3.! 2 @ $ $ @ @ @ @ $ @ v +.O.O.' + @ @ @ @ @ @ @ % + ' O.......+ ^ =X+.{ ' o.X.} Q 0.;X} [ 0 0 5 A w @ % * 4 5 3.*.* * ^ Q R ^ 3 / 7.! O ^ a.H ! %.            xXxXmXmXNXZXNXZXNXZXZXZXZXJXZXZXNXZXZXvXNXxXxXxXxXNXNXNXxXNXvXvXxXxXxXZX",
"ZXbXZXZXZXZXmXZXZXZXxXZXZXZXZXZXxXxXZXZXMXmXMXMXZXZXZXZXmXxXmXMXxXxXxX            % % % % % % % @ @ @ @ # # @ @ @ $ 0 W [ 0 1 %.3.0 1 *.;XW [ 4.%.4.;X8 9.1X9.T  .} A -.H g.g % @ $ $ $ $ $ @ 3 ! &X..Y $ $ $ $ @ @ @ @ @ 1 5 5 5 ! 2.3.3.2.3.6.3.2.2.5.3.5.5.2.2.3.6.*X0.;X*X6.6.5.! R ! } E @ $ @ $ @ @ @ @ @ n ' O.5X~.@.+ @ @ @ @ @ @ @ O E X....... .+.{ o.R R +.X.1 1 %.[ E % %.[ E , t * 4 $ @ % E 3.% 5 7.9.9.7.! ^ W ~ ! 0 B F 2 l             NXNXxXxXZXZXxXxXZXZXZXZXZXZXJXJXZXZXZXNXvXZXxXxXxXZXZXZXZXxXxXvXnXxXxXZX",
"ZXZXbXZXbXZXZXMXZXZXZXZXZXZXZXZXMXmXmXZXZXmXMXZXmXmXZXZXZXMXmXxXlXxXxX            [ 1 $ 2 % % % $ # @ * @ @ @ @ @ @ @ * W 4 1 0 E %.%.0.;Xe.*.4.%.^ <X<X9.9.1X6.%.k S ;.Z a @ @ @ @ @ @ @ @ @ l i Q % i * @ @ @ @ @ @ @ @ E 1 @ 1 5 2 } 2.5.5.5.5.3.2.5.5.5.3.2.2.5.6.*X*X*X;X5.} E R 5 } 3.5 @ @ @ @ @ @ @ @ @ > @.$X8X8X' $ $ @ @ @ @ @ @ @ @ 6 { 6 ..o.%.o. .T o.%X .} %.} E 0 5 5 0 t 1 E 1 @ @ @ @ 0 E R o.5.9.9.9.R 2 2 } / J g F 3 =             xXxXZXxXNXNXxXZXZXZXZXZXJXZXZXZXZXZXZXvXxXxXZXxXNXvXZXNXxXxXxXZXxXxXxXxX",
"ZXbXbXbXZXZXZXZXZXZXFXZXZXZXZXZXZXZXmXmXZXxXmXZXZXxXZXZXZXZXZXZXxXxXbX            0 $ * %.6 O % 7 - * @ @ @ @ @ @ 0 W $ 0 Q [ 0 7 #.#.%.0.-XwX-XW W -X<XP.9.:X%.%.e $.7 @ O @ @ @ @ @ @ @ @ @ @ O * $ O @ $ @ @ @ $ @ @ @ 1 1 $ % 1 5 2 2.} 2.5.5.5.5.5.6.6.6.2.5.6.*X;X5.0.4.} 5 1 % } ;X3.R @ $ @ @ @ @ @ $ @ b @.$X8X+.+ * $ @ @ @ @ @ @ @ @ @ * ' ..R * [ *X=X=X%X` ! } 0 1 E %.%.0 E %.0 @ @ @ @ @ t } 5.+ R ! ! e 7 R 5.2.( F ; Z R 3             ZXNXJXxXNXxXxXNXZXZXNXZXJXZXZXZXZXZXvXxXxXZXZXZXZXZXxXxXZXvXxXZXZXZXxXbX",
"ZXZXbXbXZXZXMXMXxXZXZXZXZXZXZXZXZXZXZXMXxXZXZXZXPXMXZXZXZXZXZXZXxXZXxX            * 1 % R 6 % #.^ 3 3 - * @ @ @ @ @ 0 W 3.0.%.E 0 } } @ t @ 5 3.%.2.;X2.( P.} =.8 1 @ @ @ @ @ @ @ @ @ @ @ @ @ @ $ $ $ $ $ @ $ $ $ $ $ $ @ @ 2 2 1 $ E E E } R E 5.6.0.6.*X*X0.6.*X2.2.%.R ! ! 2.R R [ ;X3.X.R @ $ @ @ @ @ @ @ O c j b Y + i : $ @ @ @ @ @ @ @ @ @ @ O Y [ E % 3.| % @ t [ 2.E E ! 3.;X%.E * @ 1 * @ @ @ % 3.3.R E *XR * @ } :X2.J $.$.Z ^ E             NXNXZXxXZXNXZXNXZXZXxXZXZXZXZXZXZXZXZXZXZXZXZXZXxXxXNXZXZXNXxXZXbXZXbXZX",
"xXbXxXxXvXZXxXMXZXmXmXZXZXZXZXZXZXZXZXmXmXZXZXZXZXZXZXMXZXZXxXxXZXcXZX            0 1 2 R + 6 5.4.^ ^ 7 ^ e * @ @ @ @ @ E %.[ 0 0 W %.%.* t E 9.8 2.} e.7.2.#.7.( 8 @ @ @ @ @ @ @ @ @ @ @ @ @ @ $ $ $ $ $ @ @ $ $ $ @ @ @ $ % 2.6.} 2 R ! ! E E E 5 E E 5 ! } 5 ! 2.! } 0.5 R [ X.0.*X*XX.3.R @ $ @ @ @ @ @ @ @ p c x ( x c # $ @ @ @ @ @ @ @ @ @ @ @ t 5 $ @ @ $ $ @ [ } E 0 1 E Q [ 1 @ 4 1 @ @ @ @ @ $ % 2.3.:X7.4 * W ^ 7.9.J 7.,.J 7.^             NXZXZXjXNXZXZXZXZXZXZXZXZXZXZXZXxXNXZXJXZXxXxXxXxXNXNXxXNXZXZXZXZXvXvXbX",
"xXZXxXxXbXZXZXZXZXmXZXZXZXZXZXxXmXmXZXZXmXZXZXZXZXZXxXxXxXcXxXxXZXxXZX            3.E 8 { + R 5.^ ^ &.W ! %.k 3 7 7 [ 7 $ * } E E %.%.%.* 5 9.9.3 i 3 9.;XR w ;X>XE @ $ $ $ @ @ @ @ @ @ @ @ @ @ @ @ @ @ @ @ @ @ @ @ @ @ @ % $ ! *X6.6.5.} } % R X.} 2.} } 5.5.! 3.%.5 E E R R 0.;X7X*X3.} 3.R @ @ @ @ @ @ @ @ @ O : p c c # @ @ @ @ @ @ @ @ @ @ @ @ @ @ @ @ @ @ t @ @ } X.} [ E Q } @ @ * * @ @ @ @ $ @ @ ^ %.R 2.% r q 7.%.! ,.g ! ,.P / 3             ZXZXZXjXNXZXZXJXZXZXZXZXZXZXZXZXZXZXPXPXJXJXJXZXxXZXxXNXxXxXZXZXZXZXvXZX",
"vXZXxXbXZXvXZXZXZXxXxXNXNXZXZXZXZXZXZXvXZXZXZXZXZXZXxXZXZXbXbXbXbXZXxX            [ R 3.o.O 5.7.l / / e [ / l ^ l l 4.e.Q $ E Q W %.5 1 0 ! / X.! / ! 9.1X&.W 7.Q 2 @ $ $ @ @ @ @ @ @ @ @ @ @ @ @ @ @ @ @ @ @ @ @ @ @ @ @ 5 ! R *X5.*X*X;X*X6.} R R 2 1 R ! R R R ! } } 5.*X*X;X;X;X} } 3.X.5 @ $ $ @ @ @ @ @ @ @ @ O @ @ @ @ @ @ @ @ @ @ @ @ @ @ @ @ @ @ @ @ @ 2.E @ 1 [ 0 5 * } 0 t @ $ @ @ @ $ $ @ O } ,.H 9 O 5 8.2.3.9.^ h 7 ! ,.Z + *             ZXxXZXgXZXZXZXZXNXZXZXZXZXZXZXZXJXJXZXZXZXZXJXZXxXNXZXZXZXNXZXZXNXZXZXZX",
"xXbXxXxXxXxXNXZXZXxXxXxXxXNXxXZXZXZXNXZXZXNXZXZXZXxXxXxXbXbXbXZXZXNXxX            O [ 0.} % X.4./ / 7.[ *.7./ ^ 8 k e E 1 @ @ 2.-X-XE = W ( ( / ! P.X.R 9.7.R / l + @ $ @ @ @ @ @ @ @ @ @ @ @ @ @ @ @ @ @ @ @ @ @ @ @ @ @ 2 } E 5.5.*X*X*X*X5.6.5.5.2.R 2 2 R } 6.*X*X*X*X*X*X*X;X3.2 [ 2.[ R $ $ $ @ @ @ @ @ @ @ @ @ @ @ @ @ @ @ @ @ @ @ @ @ @ @ @ @ @ @ @ @ @ E } 5 R 5 q o.! * * @ 0 0 @ 1 5 @ @ 0 X.R ;.H < + Q 9.! ^ / E h / 7.:.h + 2             xXxXZXgXZXZXZXZXZXZXNXxXZXJXZXZXJXZXZXZXZXZXZXZXZXZXZXZXZXZXNXZXZXZXxXjX",
"xXxXxXxXxXxXxXvXxXxXNXZXxXZXZXNXZXZXvXZXxXNXZXxXxXxXNXxXxXbXxXxXZXZXxX            [ 4.9.7.6.{ %.7.7.3.E 1 1 7 * * $ * @ 4 * 0.,X9.<X7.3 8 7.7.Q Y 3.^ 3 ! ! %.2.E % @ @ @ @ @ @ @ @ @ @ @ @ @ @ @ @ @ @ @ @ @ @ @ @ @ @ @ $ } ! 2.5.*X*X*X6.5.5.5.*X*X*X5.0.*X*X*X*X*X5.*X*X*X*X7XQ R 2.5.R R $ $ $ @ @ @ @ @ @ @ @ @ @ @ @ @ @ @ @ @ @ @ @ @ @ @ @ @ @ @ @ * $ t Y +.X.q.*.3.2.1 * @ 0 @ 1 1 @ @ E ( 9.! h K D C C 7 8 : R A E / / S h 3 /             ZXZXNXxXZXZXNXZXZXZXZXZXPXZXNXZXZXZXJXPXxXZXZXZXZXZXZXZXNXZXZXZXZXZXxXxX",
"bXZXZXxXxXxXxXxXNXxXxXZXNXNXNXxXNXxXxXZXxXZXZXNXxXNXZXNXxXnXxXxXZXZXxX            } &.4.8.0.^ 3 = E 1 ! 3.E @ @ @ t @ % 3 k 7.-XY.<X2.^ 9.;X2.O { / i ^ 5.R -XP.( 7 @ @ @ @ @ @ @ @ @ @ @ @ @ @ @ @ @ @ @ @ @ @ @ @ @ @ $ @ ! 1 2.5.6.*X*X6.5.5.5.*X*X*X*X;X;X*X*X*X*X5.*X=X%X&X%X` :X} R } ! @ % $ $ @ @ @ @ @ @ @ @ @ @ @ @ @ @ @ @ @ @ @ @ @ @ @ @ @ t h V.i.x + X.w.w.&.7.0.*.6 t 1 4 @ @ @ 2 T ! 6.R k A ( / e , A S f J 7.R + J h R (             ZXZXxXxXZXZXPXJXZXZXZXJXJXZXZXZXZXZXZXJXZXNXNXNXZXNXZXZXZXZXZXZXZXZXNXNX",
"ZXZXZXxXxXxXxXxXNXNXxXxXxXZXNXNXZXNXZXZXgXZXZXZXZXZXZXNXxXxXxXZXxXZXZX            W 4.8.8.%.* / ^ / X.o.3.=X3.&.^ Q } %./ 9.( -X-XO. .9.<X9.0 %.<XP.! R %.9.<X:X( l @ @ @ @ @ @ @ @ @ @ @ @ @ @ @ @ @ @ @ @ @ @ @ @ @ $ @ @ [ } R 5.3.*X*X5.5.6.5.*X*X*X*X*X*X;X;X*X*X5.;X=X#X$X#X..o.%.{ 5.} t % % $ @ @ @ @ @ @ @ @ @ @ @ @ @ @ @ @ @ @ @ @ @ @ @ @ = f.i.x c i u J | q.6.} 5.3.&.@ t t @ @ t [ =X! 2.R #.A 2.:X7.2 ^ ^ F h S 9 % F S R !             JXPXxXxXJXPXIXZXZXZXZXZXZXZXZXZXZXZXJXJXZXZXZXZXvXZXZXZXZXZXNXZXZXZXxXNX",
"vXxXZXxXxXxXxXxXZXZXxXNXZXZXZXZXxXZXJXZXJXZXZXNXZXZXZXZXxXxXZXZXZXZXZX            2.7.o.` | Q / / ^ | % [ 3./ / / 7.*Xe./ / 7.0.O.#X .9.9.3 ! 9.7.X.o.;X,X<X/ 3 / 3 @ @ @ @ @ @ @ @ @ @ @ @ @ @ @ @ @ @ @ @ @ @ @ @ @ $ @ 1 } 2.% 5.3.*X*X*X5.5.5.;X;X*X;X;X;X7XwX;X;X;XA.^.^./.!.6X&X#X*X=X} @ $ $ % @ @ @ @ @ @ @ @ @ @ @ @ @ @ @ @ @ @ @ @ @ @ @ O : u : p : : i.h { X.3.{ 0.7.7.^ E Q X.6.%.R %./ ! ! ( >.9.7.9.9.9.7.Z 1 - [ [ M G S 7             ZXZXxXZXZXZXZXvXZXZXZXZXZXZXZXPXZXJXZXZXZXJXZXZXZXNXZXZXZXZXNXZXZXZXZXJX",
"xXxXxXNXxXxXxXZXZXZXZXgXxXNXZXZXxXNXxXxXNXZXNXxXxXxXNXZXZXvXxXxXZXxXZX            Y Y ` } e.%.} 2.;XX.T  ./ / / l / 3.o.4.7.6.^ X.+.} Q 3.X./ ( / ! 9.,X9.9.! 2 3 3 @ @ @ @ @ @ @ @ @ @ @ @ @ @ @ @ @ @ @ @ @ @ @ @ @ @ @ 5 [ E R ! X.*X;X5.5.2.*X*X;X7X7X7X7X;X7X-X3XA.k.(.{.|.^.6X#X .;X;X} @ $ @ $ @ @ @ @ @ @ @ @ @ @ @ @ @ @ @ @ @ @ @ @ @ @ @ # f.P # l ( i.x : 9 -.*.3.6.7.9.6.;X;X*X*X*Xo.1 7 ! o.^ S 3 R :X:X7.J ; % ^ ! Q F g % ;             ZXZXZXZXZXZXZXZXZXZXZXxXZXJXZXZXJXJXZXvXNXZXZXZXZXZXNXZXZXZXZXZXZXxXvXNX",
"xXNXZXZXNXvXvXxXZXZXjXxXxXxXxXNXZXZXgXZXNXNXZXxXxXxXxXvXxXbXZXZXxXbXxX            % R 4.$.7.&.| 0.r.o... .2./ ^ l / ;X3.;Xt.l / ( ( / 3 %Xo./ P.P.9.( 7.2 Q / Q ! / O @ @ @ @ @ @ @ @ @ @ @ @ @ @ @ @ @ @ @ @ @ @ @ @ @ @ 1 X.R ! 5 X.5.*X5.5.5.*X*X*X;X7X7X7X7XwX<X) ) B.dX+X+X|.~.#Xo.7X*X! @ $ @ @ @ @ @ $ $ @ @ @ @ @ @ @ @ @ @ @ @ @ @ @ @ @ @ @ h i.c l x i.i : Z B B H I >.;.f 4.6.*.e.3.R 2.% / 9.#.> +  .! 3.! y % 2.:X7.^ F a $ 2             NXZXZXZXZXZXNXZXZXZXZXvXNXZXZXZXJXZXxXZXZXZXZXZXNXZXZXZXZXZXZXZXZXNXvXZX",
"ZXNXNXxXvXvXZXZXZXNXxXxXxXxXxXxXNXxXxXxXxXZXNXZXNXxXxXNXxXxXbXZXxXbXbX            + Y 7.4.4.7.{ X.9.` Y R [ 3 ^ / 3.e.9.,.h p / / ) 7. .$XR l h y l ( : / / o i Q R @ @ @ @ @ @ @ @ @ @ @ @ @ @ @ @ @ @ @ @ @ @ @ @ @ @ @ % 2.! E ! } 5.5.5.5.6.*X*X*X*X;X;X7X7XiXP.) D.{.aX|. X}.d.{ *X;X3.} $ $ @ $ @ $ @ $ @ @ @ @ @ @ @ @ @ @ @ @ @ @ @ @ @ @ @ t h u.i i p.i.p = C C C I I G B B G m C H m Z K C S k C v #.=.7 2 S g + } 7.&.3 J f % e             ZXZXxXZXZXZXZXZXZXvXxXZXZXZXZXZXJXZXjXNXZXZXJXZXZXZXZXZXZXZXZXNXZXZXZXxX",
"xXNXZXNXvXxXxXZXZXNXxXxXvXxXxXjXxXxXNXxXZXxXxXZXZXNXjXZXbXxXxXbXZXxXxX            % T | 8.7.o.X.} 2.% + T R _ X.0.5.5.&.p : : p ( -X=X%X>.p p p l p ^ ! / 9.X./ 9.Y @ @ @ @ @ @ @ @ @ @ @ @ @ @ @ @ @ @ @ @ @ @ @ @ @ @ @ % X.} 1 R R 5.5.5.X.5.*X*X5.*X*X*X=X;X;X9.c P.v.1..X XG 4 T 5.*X5.3.$ $ $ $ $ $ $ $ $ @ $ @ @ @ @ @ @ @ @ @ @ @ @ @ @ @ @ @ # : p p u.p : % 9 D D I I D #.-.D -.<.;.I U D C b < C C K L l l M > A > f ;./ G J ^ $.            NXZXxXZXZXZXZXNXZXZXNXNXZXZXZXZXZXZXZXZXZXZXZXJXZXZXZXZXZXZXZXNXZXvXNXZX",
"ZXZXZXxXxXZXxXxXZXxXgXxXZXxXxXxXxXNXxXxXxXvXZXZXNXZXZXZXxXZXxXZXZXZXZX            % + _ | _ X.7 Q Q Y ' 5.5.7.8.6.3.#.; : p p / r.4.#.1.z z k 5 %.p l ! o.5.X.! 7.E @ @ @ @ @ @ @ @ @ @ @ @ @ @ @ @ @ @ @ @ @ @ @ @ @ @ @ % R $ $ % R ! X.3.5.5.5.5.X.*X*X5.5.*X*X7.) 3X1XP.H z z 7 Y o.5.X.X.$ @ @ @ $ @ @ @ @ @ @ @ @ @ @ $ @ @ @ @ @ @ @ @ @ @ @ @ @ @ # @ p # O Y *.<.<.#.| D D U A $.>.q.q.+.X.7 * > [ + w :.&.S y k ;.8 3 $.$.F $.&./             ZXxXxXZXZXZXZXZXNXxXxXxXxXNXZXZXZXZXZXZXZXZXZXZXZXJXZXZXZXZXZXZXZXvXZXZX",
"ZXZXxXxXnXxXxXxXxXZXbXZXbXxXxXxXxXNXNXxXNXZXZXZXZXxXxXxXxXbXbXZXbXxXZX            + + T + 2 * * * % + R 2.5.3.5.5.%.# * : p $.7.9.7./ p p } Y Y X.l p R ' ^ ( Q E 2 @ @ @ @ @ @ @ @ @ @ @ @ @ @ @ @ @ @ @ @ @ @ @ @ @ @ @ $ % $ % @ R ! % ! ! } X.X.X.5.5.X.X.X.5.:X6.A.P.P.p l ! Y  .X.} X.X.$ @ @ @ @ @ @ @ @ @ @ @ @ @ @ @ @ @ @ @ @ @ @ @ @ @ @ @ @ @ @ @ @ @ @ R *.X.R % +.<.;.K f J K D <.| v = > v q 5 % >.0.Z r q W 4 e #.$.P S ^ q             ZXNXZXcXZXZXZXZXNXxXxXxXxXZXNXNXZXZXZXZXZXZXZXZXZXZXZXZXZXZXZXZXbXxXZXZX",
"xXxXxXxXxXxXxXxXxXbXxXxXxXxXZXZXxXxXxXxXZXjXxXNXxXxXxXxXbXbXxXZXZXZXZX                                                                                                                                                                                                                                                                                                                                                                                  ZXxXxXxXxXJXZXZXNXxXxXxXZXZXxXNXNXZXZXZXZXJXPXZXZXZXJXZXZXZXZXZXbXxXvXbX",
"xXxXjXZXZXxXZXbXxXxXxXZXbXxXZXxXjXNXxXjXNXNXxXxXZXxXxXZXbXxXxXvXZXbXxX                                                                                                                                                                                                                                                                                                                                                                                  xXgXxXZXZXZXZXZXxXZXxXxXxXxXvXZXZXZXZXNXJXZXZXJXZXZXZXZXNXZXZXZXZXbXZXZX",
"ZXZXZXZXxXxXbXZXZXxXvXxXbXZXbXxXxXZXxXgXxXZXjXxXNXxXvXZXbXbXxXvXxXbXbX                                                                                                                                                                                                                                                                                                                                                                                  xXxXZXZXbXZXZXbXxXZXxXvXxXxXZXZXZXZXZXNXvXZXZXZXZXZXJXZXZXZXZXZXZXZXbXZX",
"ZXxXjXxXbXbXxXbXZXZXZXgXkXZXbXZXZXmXZXZXNXZXxXxXZXZXNXNXvXbXxXxXZXZXZX                                                                                                                                                                                                                                                                                                                                                                                  xXxXxXZXxXxXZXxXvXNXZXZXNXZXZXZXZXZXZXxXZXZXZXZXZXZXZXZXZXZXZXZXZXZXZXZX",
"bXnXxXxXbXxXbXxXZXZXxXZXxXbXbXbXZXZXZXxXxXxXbXxXbXZXZXvXvXxXxXjXxXxXZX                                                                                                                                                                                                                                                                                                                                                                                  xXxXxXZXbXxXbXbXxXbXZXZXZXZXZXZXPXZXZXZXZXZXZXZXZXNXNXvXZXvXvXZXZXZXxXbX",
"ZXbXxXZXbXxXZXbXvXbXZXxXbXZXbXxXZXNXNXZXxXZXZXbXxXvXZXxXxXxXxXxXxXxXNX                                                                                                                                                                                                                                                                                                                                                                                  xXxXxXbXxXZXxXbXZXxXvXvXZXZXZXZXZXNXZXPXZXZXZXZXZXZXZXxXxXvXvXxXvXZXNXZX",
"bXZXxXZXxXbXbXZXZXnXnXxXZXZXxXxXZXNXNXvXZXvXZXZXxXxXxXxXZXZXxXxXgXZXZXZXNXZXNXxXxXNXZXZXPXZXxXnXxXxXxXxXxXZXxXxXxXZXNXxXxXxXxXNXZXZXxXNXZXZXZXNXZXJXZXxXZXxXZXZXZXxXxXxXxXZXZXZXZXZXNXZXxXxXNXZXJXPXxXZXZXZXZXZXZXZXZXZXZXJXZXZXZXZXZXZXZXZXZXxXNXxXxXZXZXbXZXZXZXbXZXZXZXZXZXxXxXZXZXxXZXZXZXxXZXZXZXZXZXZXxXZXZXZXZXZXxXxXZXxXbXZXZXxXbXZXbXZXJXZXZXZXZXZXJXZXZXZXZXZXZXxXZXNXNXNXZXxXxXxXNXZXZXZXZXZXZXZXZXPXPXPXPXZXZXZXmXNXNXxXmXxXgXZXZXZXZXZXZXZXvXxXvXxXxXbXZXbXxXxXxXgXxXZXxXZXxXNXNXJXZXZXxXNXxXxXxXxXZXvXNXZXNXZXNXZX",
"ZXZXZXxXZXZXbXZXxXxXxXxXxXxXZXZXZXxXxXxXxXxXZXbXZXvXbXZXZXZXvXkXgXZXZXZXNXxXxXNXZXZXxXxXZXZXgXxXxXZXxXxXbXZXZXZXNXNXvXNXNXxXxXZXZXxXZXZXZXZXZXZXxXZXPXNXZXxXxXxXZXZXvXZXZXZXZXZXZXZXZXZXxXxXNXxXZXJXZXjXZXNXxXZXZXJXZXZXPXPXZXZXZXZXZXZXZXZXZXZXZXNXZXZXxXxXZXJXZXbXbXbXbXxXZXxXxXvXZXvXvXZXbXZXxXZXZXZXNXvXxXNXZXZXZXZXZXZXZXbXZXxXxXxXZXxXxXZXZXZXZXvXZXPXZXxXPXNXZXZXZXZXZXxXxXZXNXvXxXNXZXZXZXZXZXZXZXZXZXZXZXZXZXJXZXZXZXZXZXNXjXxXxXxXNXxXxXNXZXZXZXgXvXZXxXxXZXxXxXxXZXZXxXxXxXxXxXZXxXNXZXxXxXxXxXNXvXNXNXNXZXZXxXZXZXZX",
"ZXZXbXZXZXbXbXxXZXbXbXxXvXbXZXZXbXZXxXxXxXxXZXZXbXZXZXxXZXNXZXxXjXvXxXjXxXZXZXvXZXvXxXvXxXxXZXcXxXxXxXxXxXxXZXZXNXvXNXZXNXxXZXZXZXNXxXvXZXNXZXZXxXZXJXZXZXZXZXZXZXNXZXZXZXZXZXZXZXZXZXZXZXxXxXZXZXPXgXxXJXNXNXZXZXZXZXPXPXPXJXZXZXvXZXZXZXZXNXNXZXNXNXZXNXZXZXZXZXxXZXZXZXZXvXxXZXxXZXZXvXZXZXxXxXZXZXZXZXZXZXNXmXZXZXZXZXZXxXxXbXbXbXxXZXZXxXNXxXvXZXvXZXZXZXZXZXxXZXZXZXZXNXvXxXZXZXZXZXNXZXNXZXZXZXZXZXZXZXZXZXZXZXZXZXZXZXZXZXZXvXxXZXZXxXZXZXNXZXZXZXNXxXZXxXxXZXZXbXxXxXcXZXvXxXxXZXxXNXJXNXZXZXZXxXxXZXxXxXvXNXxXxXNXNXJX",
"ZXZXxXnXxXxXZXgXkXvXxXxXZXZXZXZXxXZXZXxXxXxXZXZXbXZXZXvXZXZXZXxXxXZXZXxXxXZXNXxXNXZXZXZXxXxXZXZXZXbXbXZXbXZXZXZXZXZXZXZXNXZXZXZXZXNXZXvXZXZXZXZXZXZXZXNXgXxXxXZXNXZXZXNXZXZXPXPXJXZXZXZXZXZXxXZXZXZXgXZXPXPXZXZXNXZXZXJXJXJXPXJXJXZXZXZXZXZXxXxXZXZXZXZXZXZXZXZXZXZXZXZXZXZXxXxXZXZXvXZXbXxXZXbXxXZXZXZXNXJXZXxXZXZXZXZXJXZXZXJXxXZXZXbXZXbXbXvXZXZXZXvXNXNXNXZXZXZXZXNXZXZXNXZXxXxXZXZXxXZXNXZXZXNXZXxXvXZXbXZXZXZXZXZXZXxXZXZXNXZXNXNXvXvXxXxXZXZXZXxXxXNXxXZXbXbXvXNXZXxXxXxXxXxXxXxXxXxXNXZXNXxXxXZXxXxXxXNXZXvXZXNXxXxXxXNX",
"ZXZXJXPXxXxXxXxXxXxXZXZXZXvXZXZXZXZXNXNXZXZXxXZXZXZXZXZXxXjXxXxXZXZXZXZXNXZXNXZXZXJXNXxXxXZXZXxXNXZXZXZXZXZXZXZXZXZXZXZXZXZXZXZXZXvXxXNXZXZXxXZXPXZXJXJXZXxXxXZXNXNXZXZXZXZXJXJXZXJXZXZXZXZXZXxXZXNXZXJXJXJXJXZXZXZXZXZXZXZXbXJXJXxXZXZXZXxXZXZXNXZXZXZXZXZXZXZXZXZXbXxXZXZXxXvXZXZXNXZXZXNXZXZXZXZXNXZXZXvXxXZXZXZXZXxXvXZXxXZXZXxXxXxXxXZXZXZXZXZXNXNXxXZXJXZXZXZXZXNXZXZXZXxXxXxXZXZXNXNXNXNXNXNXvXxXxXZXZXZXZXNXNXNXZXJXZXZXZXZXZXNXZXNXZXZXZXxXNXNXxXgXZXZXxXNXxXxXZXNXxXxXxXxXxXxXZXZXxXNXxXxXxXxXxXjXxXNXxXxXZXNXNXxXxXZX",
"ZXZXvXZXxXvXZXZXZXZXJXZXJXZXxXZXZXZXZXZXZXZXNXZXZXZXZXZXvXxXxXZXxXxXZXZXZXZXZXZXNXZXZXZXJXZXZXZXxXZXZXNXZXvXxXZXZXZXZXZXNXxXZXZXxXZXZXvXvXZXZXZXZXZXZXxXNXZXxXxXxXxXZXZXxXZXZXxXZXZXZXZXZXZXZXZXZXZXZXPXJXZXZXZXZXvXZXZXZXZXJXZXZXxXZXNXZXxXZXZXNXZXmXZXZXZXZXZXZXNXZXZXZXZXNXxXZXZXZXZXZXZXZXNXNXZXZXZXZXZXZXxXZXZXZXZXxXZXZXxXZXZXbXZXxXxXZXZXZXZXvXxXNXNXZXZXJXZXNXvXZXZXZXZXxXNXZXZXZXZXZXZXZXZXxXxXxXbXbXZXZXZXZXZXZXZXZXZXZXZXZXNXZXZXZXZXZXxXZXxXxXgXZXZXxXxXNXxXxXjXxXxXZXxXxXZXZXNXNXZXNXZXxXxXxXZXZXZXNXvXxXNXZXvXZXZX",
"ZXxXNXxXxXxXZXNXNXZXZXZXZXZXZXxXZXZXZXZXZXZXZXgXxXNXZXNXxXZXJXxXxXZXZXZXPXZXZXZXxXxXZXPXPXZXZXPXNXvXZXNXvXZXxXZXZXZXZXNXZXxXxXNXxXZXZXxXZXZXZXZXZXZXNXNXZXZXxXxXNXxXNXZXZXZXZXZXZXZXZXZXZXZXZXJXZXZXZXZXZXJXZXZXNXxXZXZXZXZXJXZXPXZXZXZXNXNXZXZXNXZXZXZXZXNXxXZXZXNXNXZXxXxXZXZXZXZXZXZXNXvXZXZXNXxXZXZXxXZXZXbXZXZXZXZXxXZXZXZXZXxXxXxXZXZXxXxXvXZXNXvXxXZXZXZXZXZXvXvXZXZXZXZXZXNXZXZXZXZXZXZXZXZXbXbXbXZXZXbXvXZXZXZXZXNXNXZXZXZXZXZXZXZXZXZXZXZXZXvXxXZXZXNXxXxXZXxXxXjXxXxXxXxXNXxXNXxXNXxXZXZXZXZXNXZXNXNXxXNXZXZXZXZXZXZX",
"NXZXZXvXxXxXZXZXZXZXZXJXZXZXZXNXZXZXPXZXNXZXZXNXxXZXZXZXxXxXZXNXxXZXZXNXNXNXZXZXZXNXZXZXZXZXZXPXZXxXNXZXNXNXZXNXZXZXZXZXZXNXxXxXxXNXZXxXZXZXvXZXZXZXNXxXxXNXZXZXZXZXZXZXZXJXZXPXZXZXZXZXZXZXZXZXZXJXZXZXNXZXJXZXZXZXZXZXZXvXZXZXZXZXNXNXxXNXZXZXZXNXZXZXZXZXZXvXZXNXNXZXZXZXZXPXvXZXZXNXZXZXZXZXZXNXNXZXxXZXZXZXZXZXJXZXmXxXxXvXxXvXxXxXZXZXvXxXxXxXxXjXxXZXNXZXJXJXZXZXZXZXZXZXZXNXNXNXvXZXZXZXZXxXZXZXZXZXZXPXZXxXNXZXZXZXZXZXZXZXZXZXZXZXZXZXJXZXZXZXZXZXZXvXxXxXxXxXNXZXxXxXxXZXZXNXvXxXZXZXZXZXZXZXZXZXZXxXxXNXZXZXZXZXNXZX",
"ZXZXxXNXZXZXZXZXZXZXxXxXZXZXZXZXZXZXZXPXZXNXNXxXxXjXxXxXxXxXNXZXvXZXNXNXNXZXZXxXZXZXZXZXZXZXNXZXZXNXNXZXZXZXZXZXZXNXZXZXNXZXZXZXZXZXZXZXZXNXNXZXZXZXZXZXZXNXZXNXxXNXxXxXxXZXZXNXZXJXZXZXZXZXZXZXZXZXZXNXZXZXZXZXZXZXbXbXZXZXZXZXNXZXPXNXxXZXNXvXNXNXNXZXZXNXxXZXZXZXNXZXNXNXZXZXZXZXZXZXZXZXZXNXZXvXxXvXZXZXZXZXZXZXZXZXZXxXxXxXxXvXxXxXxXZXvXNXxXxXxXxXjXxXZXZXZXJXZXZXZXZXZXZXZXZXJXZXZXNXxXxXZXZXZXZXxXxXZXxXZXNXNXZXNXNXNXNXNXZXZXZXZXZXZXZXZXJXZXvXjXZXNXxXxXxXZXxXxXZXxXxXZXZXNXZXZXNXZXxXxXZXZXxXZXZXZXZXZXNXZXZXZXZXZXPX",
"xXZXxXZXZXZXZXZXZXZXZXNXZXZXZXNXZXZXxXZXNXPXNXNXvXgXxXxXxXZXxXZXZXxXZXZXZXxXxXNXvXxXZXxXxXxXNXxXZXZXZXZXZXZXZXNXZXbXbXvXxXZXZXZXNXZXZXZXZXZXZXZXPXZXZXZXJXZXZXZXvXxXZXxXxXZXZXZXZXZXZXvXJXZXZXZXZXNXZXZXZXvXvXxXxXZXZXxXbXZXZXZXZXZXPXZXZXNXvXNXxXxXNXZXZXZXZXZXZXZXZXNXZXNXvXbXbXZXZXNXZXZXZXxXNXZXZXvXZXZXZXZXbXvXxXZXZXZXZXxXZXxXxXxXxXZXZXZXZXZXvXxXxXxXZXZXZXZXZXZXZXZXZXZXZXZXPXZXxXZXxXxXZXZXZXZXZXZXxXxXNXNXZXZXZXZXFXZXxXZXZXZXZXNXZXZXZXJXZXNXgXPXZXZXxXxXNXvXxXZXmXZXZXNXNXZXZXZXxXZXvXxXZXZXZXxXZXZXZXZXPXxXxXZXZXPX",
"xXZXZXZXZXZXNXxXZXZXZXZXZXZXZXZXvXNXNXZXZXZXxXZXNXxXxXxXxXxXxXZXxXxXxXZXZXNXgXxXxXxXZXPXZXNXZXNXNXZXZXNXZXZXxXxXZXZXbXvXvXxXxXvXZXZXZXZXZXZXNXZXZXZXZXZXZXZXZXZXZXZXZXZXZXZXZXZXZXZXZXZXJXZXZXZXZXZXZXZXZXZXZXZXZXZXZXZXZXZXZXZXZXPXZXZXPXJXZXZXxXZXZXNXZXZXZXZXmXZXMXmXZXZXbXvXbXxXvXZXZXZXgXZXZXbXZXZXZXZXZXZXNXZXZXZXZXZXZXZXNXZXxXxXZXZXNXZXZXZXZXxXxXbXbXxXbXZXZXZXxXZXZXZXJXZXJXZXNXZXxXZXZXZXZXZXZXNXxXxXZXNXNXJXZXNXJXZXZXZXZXZXZXNXZXNXxXNXZXZXxXPXZXxXxXxXxXxXmXZXZXZXmXmXNXmXZXxXxXxXNXxXZXZXZXZXZXxXxXZXNXNXxXZXZXJX",
"NXZXZXZXxXxXNXNXZXNXZXZXZXZXZXZXZXxXZXZXZXxXNXxXxXNXZXxXxXbXZXxXbXxXxXxXZXZXZXxXxXxXZXZXJXxXZXZXZXZXZXNXZXZXZXxXxXbXvXxXvXxXZXZXZXJXZXZXZXZXZXJXZXZXZXZXZXZXZXZXZXZXZXZXZXZXZXZXZXZXZXZXZXNXZXZXZXJXZXZXZXZXZXZXZXZXZXZXZXZXZXZXZXZXZXJXJXPXPXJXZXJXZXZXZXZXZXZXxXxXMXmXZXZXvXZXZXbXZXZXZXZXZXZXZXZXZXZXZXZXZXZXZXZXZXZXZXxXxXNXxXZXZXxXZXZXxXZXZXZXZXZXbXZXbXbXbXxXxXNXxXZXZXZXZXZXZXPXZXZXvXZXZXZXZXZXZXZXZXxXxXxXZXZXZXvXNXZXNXZXZXZXZXNXZXZXZXZXNXNXNXNXZXZXZXZXZXZXxXxXZXZXZXZXNXZXNXxXxXxXxXxXvXjXxXZXZXxXZXZXZXZXZXZXZXPX",
"ZXZXZXZXZXvXNXZXvXZXZXZXJXJXZXZXZXxXxXZXZXxXZXxXxXNXNXZXZXZXxXxXxXxXNXZXxXZXZXxXxXZXZXxXxXNXxXNXZXZXxXZXZXxXZXNXxXZXvXxXxXZXZXZXZXZXZXZXZXNXZXZXZXZXZXZXZXxXxXZXZXZXxXbXbXbXZXZXZXZXZXZXZXNXNXZXZXZXZXZXZXxXZXZXZXZXbXZXbXZXZXZXZXZXZXJXPXZXZXZXZXZXZXZXZXZXZXZXxXxXZXmXxXZXbXvXZXZXbXxXvXxXxXZXZXZXvXbXbXbXZXZXZXZXZXZXZXZXxXxXPXZXZXxXxXxXxXZXvXZXbXZXxXxXbXxXxXZXZXxXxXZXNXxXZXZXxXZXNXxXZXZXZXZXZXZXZXZXJXJXZXZXJXZXNXxXmXZXNXZXZXZXZXZXZXZXJXZXZXZXNXZXZXZXZXNXZXZXxXgXxXZXFXZXxXxXxXNXxXxXxXxXxXNXxXNXxXNXZXZXZXZXNXZXZXZX",
"xXZXJXZXZXPXNXvXNXZXZXZXZXZXZXZXZXZXNXZXxXxXNXvXxXxXxXbXxXbXxXnXxXxXxXJXZXxXZXxXgXZXZXNXvXZXZXZXxXNXxXxXPXZXxXZXZXJXbXZXbXxXZXxXNXZXZXZXZXxXxXNXZXZXNXZXNXxXZXZXxXvXZXZXxXbXxXbXvXZXZXZXZXxXxXZXZXZXZXZXxXjXNXZXZXvXbXxXxXZXZXZXZXJXJXPXPXZXNXZXZXZXZXZXZXZXZXZXZXZXZXZXxXZXZXZXbXZXZXxXvXZXZXZXZXxXbXbXxXZXNXZXZXNXZXZXZXxXxXZXZXZXZXxXxXxXZXbXvXZXxXZXbXZXZXxXxXbXxXxXZXxXZXZXxXxXxXxXxXZXJXFXZXZXJXZXJXZXPXZXZXPXJXPXZXZXmXNXNXxXxXxXZXNXNXZXZXZXZXZXZXZXJXZXZXNXZXPXZXxXMXxXlXxXZXZXxXxXxXxXxXxXNXNXNXNXxXZXZXZXZXZXZXvXZXPX",
"ZXNXZXZXZXJXZXZXZXZXZXZXxXNXZXZXPXZXZXZXZXgXxXZXxXxXxXvXbXxXxXZXxXvXNXNXxXZXZXxXxXZXZXZXNXxXxXxXxXZXZXZXZXZXZXJXZXZXJXZXZXxXZXZXxXZXZXZXZXZXZXZXZXZXNXZXZXNXZXZXxXxXZXZXbXxXZXZXZXZXvXNXxXxXxXvXZXZXPXZXxXNXxXZXZXxXbXZXbXbXbXvXZXZXZXZXZXZXZXZXZXZXJXJXZXZXZXZXZXPXGXZXxXMXZXbXbXxXZXZXvXZXZXZXZXvXxXbXvXZXZXZXNXZXZXZXNXxXxXNXxXNXZXxXZXZXZXbXxXbXZXZXZXZXbXZXxXxXxXZXxXxXxXZXNXNXvXxXZXJXZXZXZXZXZXNXZXJXZXZXJXJXPXPXZXFXZXNXNXNXNXZXZXZXNXZXZXZXZXZXZXJXJXZXxXZXZXZXZXZXMXxXxXxXxXZXNXxXxXxXxXxXZXxXxXZXxXZXxXxXZXZXZXZXZXPX",
"bXxXbXZXJXZXZXZXZXxXxXZXZXMXxXcXxXbXZXZXxXxXxXxXxXxXZXxXxXnXbXZXxXxXNXxXZXNXjXxXZXZXZXZXxXZXZXxXZXNXZXZXxXZXZXZXZXZXZXJXvXZXxXZXZXxXZXZXZXNXxXNXZXJXZXvXZXxXxXNXZXZXZXZXZXxXxXxXZXvXxXZXxXxXxXxXbXZXJXxXxXZXZXZXvXvXZXZXbXxXbXZXZXZXZXZXZXZXZXZXNXZXJXZXZXZXZXbXZXPXPXZXZXZXNXZXZXZXxXxXZXxXbXZXZXxXxXbXZXZXNXZXNXNXZXxXxXgXxXxXZXNXZXNXZXvXZXZXbXvXbXbXZXxXxXbXxXgXgXxXZXxXxXxXbXbXvXgXZXZXZXPXZXNXNXvXNXZXZXJXJXPXPXPXPXZXZXZXZXNXxXNXZXvXZXZXJXZXZXxXZXZXZXZXNXxXZXZXZXZXZXNXxXjXxXZXZXNXxXxXNXxXZXxXxXZXxXxXNXjXxXjXxXxXNXJX",
"ZXZXZXxXxXZXZXZXNXxXxXxXZXxXxXxXxXxXbXvXbXZXxXgXxXgXxXZXxXxXbXxXZXZXbXNXZXxXjXxXxXxXxXZXvXZXZXJXJXZXZXZXZXZXZXZXZXZXZXZXJXZXZXZXZXZXJXZXZXZXNXNXZXJXbXZXbXbXxXvXNXZXZXZXZXxXxXxXvXxXNXxXxXZXZXZXZXxXZXxXZXZXZXZXZXZXZXZXbXxXxXZXZXZXZXZXJXZXZXJXZXZXvXZXZXZXZXZXZXZXPXPXZXZXxXZXZXvXxXZXZXxXxXZXZXvXbXZXZXZXZXNXZXZXxXxXxXxXgXxXZXxXZXZXZXZXZXbXxXxXZXxXbXbXxXbXvXxXxXxXcXxXxXxXZXvXxXxXxXxXZXJXJXNXvXNXZXZXZXPXPXPXPXPXPXJXFXFXJXZXZXNXxXNXZXZXPXPXZXZXJXZXZXZXZXxXNXNXZXZXxXZXxXjXxXZXZXZXxXxXNXxXZXZXZXZXZXxXxXxXxXxXZXxXxXZX",
"bXZXbXxXZXbXZXZXZXxXxXxXMXZXxXgXgXxXxXxXZXbXxXZXNXZXxXxXxXxXxXZXvXbXxXvXZXxXNXZXZXxXxXvXZXxXxXZXZXJXJXZXZXZXZXxXZXZXZXNXZXPXZXZXJXPXPXPXZXPXIXPXPXZXZXZXxXxXZXNXxXxXxXxXxXbXbXxXxXxXNXNXxXxXZXZXbXZXJXbXZXZXZXZXZXZXZXZXvXZXbXZXZXZXZXZXZXNXZXJXPXPXJXZXZXZXZXZXZXZXZXZXZXZXxXZXxXvXZXxXxXvXxXbXZXZXZXZXZXZXZXxXxXxXZXZXxXZXZXxXNXvXxXNXvXZXZXxXZXxXxXxXZXxXxXZXZXbXbXcXxXxXxXxXbXxXbXvXxXxXZXPXZXxXvXxXZXZXJXPXPXPXPXPXJXZXJXJXPXPXPXZXvXZXJXZXJXPXPXZXPXJXZXZXPXZXxXZXxXxXZXZXxXZXZXNXxXZXxXxXxXZXxXNXZXZXxXZXZXxXxXxXNXZXZXPX",
"ZXZXZXZXZXxXNXZXZXxXZXcXZXZXgXxXxXxXxXZXbXZXZXZXxXxXNXxXxXxXvXZXxXxXZXZXZXZXNXZXvXxXZXxXZXZXxXxXgXZXZXJXZXZXZXxXPXZXZXZXJXJXZXZXJXIXPXPXJXPXPXPXPXxXxXjXZXxXxXZXNXxXxXxXxXxXxXxXxXxXxXNXNXxXZXZXZXZXZXZXZXZXZXZXZXZXZXZXZXZXvXbXbXZXZXZXZXZXZXZXZXZXJXJXZXZXZXZXZXZXZXZXZXZXZXZXZXvXZXZXZXZXZXbXZXZXZXxXvXZXZXZXZXNXZXJXxXxXNXxXZXZXNXNXZXZXZXbXvXbXvXZXZXxXxXxXbXxXMXxXxXxXMXxXxXxXbXxXxXxXZXZXJXZXZXZXZXZXZXPXPXPXZXPXJXPXPXPXPXPXZXZXZXZXZXZXZXZXZXZXZXZXZXZXJXPXxXZXZXZXZXvXxXxXZXZXZXNXNXZXNXZXxXxXxXZXZXZXZXxXZXxXxXxXxXZX",
"bXZXZXvXZXxXxXZXZXZXZXcXMXcXxXZXxXxXxXxXxXbXZXxXxXZXvXvXxXxXZXZXxXxXZXgXkXxXZXxXxXZXxXxXZXZXZXxXxXxXZXZXZXNXxXNXxXZXJXNXZXZXZXZXFXPXIXPXIXJXJXJXZXZXxXgXZXZXZXgXgXxXNXxXxXgXxXxXnXxXZXxXxXZXxXxXxXZXZXnXZXJXZXZXZXZXZXZXZXZXZXZXZXZXZXxXxXZXZXZXZXZXZXZXJXZXZXZXZXZXZXZXZXZXZXZXZXxXxXZXbXbXZXbXxXZXbXcXZXZXZXNXxXZXZXJXZXxXxXNXNXxXZXZXxXZXZXxXxXxXZXZXxXZXZXxXxXbXxXxXxXxXxXZXZXxXZXZXxXvXZXZXZXZXZXZXZXxXxXZXZXJXPXJXPXJXZXZXZXJXJXPXZXZXZXJXZXZXZXZXZXZXZXZXZXPXZXZXZXPXZXZXJXJXgXxXZXZXxXNXNXNXxXZXNXZXZXNXZXxXxXNXNXxXxXZX",
"ZXbXxXxXjXxXxXJXPXxXxXxXbXxXZXZXZXxXZXbXxXxXxXxXvXxXvXxXxXZXZXZXZXxXxXxXxXZXmXZXbXZXbXxXZXZXZXZXZXZXZXNXZXZXxXZXxXJXPXvXNXNXZXZXPXPXPXPXZXJXZXZXZXZXZXJXZXZXZXxXxXZXxXxXxXbXZXxXbXZXxXZXZXxXZXZXZXZXZXgXZXZXZXZXZXZXZXZXZXvXZXZXbXxXZXbXbXZXZXZXZXZXZXZXJXJXZXJXZXPXZXvXxXZXZXZXZXxXNXZXZXxXxXbXZXZXxXZXZXZXZXZXZXNXJXNXZXxXxXxXxXZXZXZXZXZXNXxXxXxXZXPXPXZXvXxXxXxXxXxXxXxXxXZXZXxXxXxXxXxXNXZXZXNXZXZXZXxXvXZXPXZXJXZXPXPXZXZXPXZXZXZXZXZXvXZXJXvXZXZXZXZXZXJXZXZXZXZXZXZXJXZXPXPXxXxXxXxXZXZXZXZXZXNXZXxXNXZXNXxXjXxXZXxXZXPX",
"xXZXZXZXZXvXZXJXZXNXNXxXZXZXZXZXZXvXZXbXxXZXxXZXxXxXxXxXNXxXxXvXZXZXZXZXZXZXNXvXxXxXbXZXZXZXxXZXZXZXZXZXxXZXZXZXNXZXZXZXZXNXJXZXPXPXJXZXZXZXZXZXZXZXZXZXZXbXvXxXZXZXxXbXZXxXbXZXxXxXxXZXZXxXxXZXbXZXZXnXZXZXZXZXZXZXZXZXZXZXNXZXbXbXbXZXZXNXZXZXNXZXZXZXJXJXZXZXJXZXJXxXbXZXZXZXNXZXxXvXZXZXZXZXZXZXZXZXZXZXZXZXZXZXZXmXMXxXxXxXxXxXZXNXZXZXJXbXbXbXZXPXPXxXxXxXxXxXxXxXxXxXxXNXxXbXbXZXxXxXxXZXZXZXZXZXNXNXNXZXPXPXJXZXZXPXZXZXZXZXPXZXZXbXZXZXZXxXxXZXZXZXPXZXPXZXPXJXZXxXNXZXZXZXxXNXvXxXxXZXZXZXZXxXxXxXZXZXxXxXZXxXxXNXNXPX",
"ZXZXZXZXZXZXZXvXNXZXxXNXZXZXZXZXxXbXxXxXbXZXxXxXZXZXZXNXZXxXxXZXxXNXZXNXZXZXxXZXZXZXZXZXZXvXxXZXZXZXZXZXZXxXZXZXZXZXxXZXZXZXPXZXZXZXZXxXxXNXZXZXZXJXZXZXZXZXZXZXxXZXZXbXxXbXZXZXxXxXNXxXxXxXvXvXxXZXZXxXNXPXZXJXJXZXZXZXZXZXZXZXZXZXxXxXxXZXZXZXZXZXZXZXZXZXJXZXZXZXJXbXxXZXZXNXgXZXZXZXZXxXbXZXZXZXZXvXxXJXZXZXZXZXZXZXZXZXxXxXxXZXZXZXZXJXPXxXbXZXxXZXZXxXNXxXxXxXxXxXZXxXZXZXZXZXZXZXZXvXZXxXvXxXZXZXNXNXZXPXJXPXPXPXPXZXJXJXZXZXPXPXxXZXZXZXxXNXxXZXPXZXZXZXJXJXZXPXZXZXZXZXZXZXNXxXxXNXNXxXZXZXZXvXZXNXZXZXZXxXNXxXxXZXZXZX",
"ZXZXZXZXZXZXZXZXxXZXNXvXZXZXZXZXZXZXZXxXbXZXxXvXZXNXZXZXZXZXZXZXxXNXZXxXZXNXxXZXZXZXbXbXZXZXZXZXZXxXNXNXNXZXxXNXNXxXZXPXJXPXPXPXPXZXZXZXZXZXZXZXZXZXZXNXZXZXZXbXxXxXxXbXZXxXxXZXxXxXxXxXxXNXNXxXxXxXZXZXxXPXNXZXZXZXNXZXZXZXJXZXZXbXZXZXZXvXZXZXZXZXZXJXZXJXZXJXJXJXZXZXZXJXZXZXxXZXZXZXZXbXxXbXbXZXZXxXxXZXNXZXZXZXZXZXxXxXZXZXZXxXZXZXvXZXZXbXbXxXxXxXZXxXZXNXxXxXxXxXZXvXxXxXxXZXZXZXZXZXZXxXxXxXZXZXPXZXZXPXPXZXPXPXPXPXJXZXZXZXZXZXZXZXZXZXZXZXJXZXZXZXZXZXZXZXZXPXZXZXZXxXZXNXNXNXNXZXZXxXZXNXxXNXZXZXJXZXxXxXxXNXxXxXvXZX",
"ZXZXZXZXZXZXZXZXZXxXxXZXNXZXZXNXZXZXZXZXZXbXZXZXNXZXvXZXNXZXZXZXxXxXxXNXZXZXZXJXZXZXZXbXZXPXZXZXZXZXZXZXxXNXZXxXjXxXPXPXZXNXZXPXPXZXZXZXZXZXJXZXZXZXZXZXZXZXZXZXxXxXxXbXxXxXxXxXbXxXjXxXxXZXxXbXZXxXbXZXgXPXZXZXZXZXNXNXZXZXZXZXbXbXZXZXZXZXZXZXNXZXZXZXPXZXZXPXJXZXZXJXJXPXZXZXZXZXZXZXPXPXZXZXZXZXZXvXxXxXNXxXZXZXxXZXcXcXZXZXxXxXxXvXZXZXNXZXbXxXvXPXPXZXxXZXZXxXxXxXxXxXxXxXbXbXxXbXZXZXZXNXNXxXZXZXZXZXZXFXZXZXZXZXPXPXPXPXJXZXZXZXZXZXZXZXZXZXZXZXJXJXZXZXZXZXJXPXZXxXNXZXZXxXxXZXNXNXZXxXNXxXZXZXZXxXNXxXxXNXZXZXNXNXxXZX",
"bXxXxXZXZXZXZXZXxXxXvXNXNXZXNXNXZXZXZXZXZXZXxXxXZXZXZXxXZXZXNXNXxXxXNXZXNXNXZXZXxXxXZXZXPXZXZXJXxXZXJXZXZXZXNXZXZXPXPXZXZXZXZXZXZXZXZXZXZXZXZXZXZXZXZXZXNXZXZXZXxXxXbXbXbXxXxXnXxXgXxXZXxXxXxXxXZXxXxXZXgXZXPXZXZXZXZXvXxXxXNXxXxXbXZXZXZXZXZXZXxXZXZXZXZXZXZXPXJXZXZXZXZXZXZXxXZXZXJXZXZXZXZXZXZXNXZXZXxXZXxXZXZXNXjXxXcXZXcXZXcXZXxXZXZXZXZXxXZXZXbXPXPXNXxXvXNXZXxXxXxXxXZXbXZXbXxXxXZXZXZXZXZXxXxXxXNXNXNXZXZXPXPXPXPXPXPXPXZXZXZXZXxXgXJXZXZXxXZXJXZXZXZXZXZXZXxXZXZXxXxXZXxXNXxXxXZXNXNXxXZXxXNXxXNXZXxXZXNXxXZXxXNXZXxXZX",
"ZXZXxXxXvXZXZXZXZXxXZXJXZXZXZXZXZXZXPXPXZXxXjXkXxXJXZXZXZXZXZXxXZXJXZXZXZXZXZXxXxXZXZXZXNXZXZXZXJXZXZXNXZXZXPXPXZXPXZXZXZXZXZXZXJXZXZXZXZXJXZXZXZXZXJXZXZXZXZXZXcXMXxXxXMXcXxXZXxXxXxXNXZXZXgXxXZXxXxXbXgXZXZXZXZXJXxXxXZXjXxXxXvXZXZXZXxXNXNXvXZXNXZXZXPXJXZXZXZXZXZXZXZXZXZXZXZXZXZXZXZXJXPXNXNXZXZXZXZXxXvXZXZXJXxXxXZXZXcXcXZXZXZXbXbXZXZXbXZXbXxXxXZXZXvXxXxXZXZXNXNXvXZXZXbXxXbXbXZXZXvXvXvXxXxXxXxXxXxXZXZXZXZXZXZXZXPXJXZXZXZXZXxXZXPXZXJXxXJXJXZXJXZXZXZXZXxXjXZXxXZXNXxXNXxXxXZXZXZXNXNXxXNXxXxXNXNXZXZXxXZXZXZXZXvXZX",
"ZXvXvXxXxXZXZXZXZXZXZXZXZXZXZXZXZXvXZXZXZXZXZXvXxXZXZXZXZXZXJXNXNXNXZXZXZXZXZXZXZXZXJXZXZXNXZXZXPXZXxXZXZXPXJXZXPXZXZXZXZXZXPXZXxXZXZXZXZXZXZXZXZXZXJXZXxXxXZXxXcXZXxXxXxXxXxXZXxXZXZXxXxXxXxXxXZXxXbXxXxXZXxXxXJXZXxXZXxXxXZXZXxXvXZXZXZXZXZXZXZXZXNXZXPXJXZXZXZXZXZXvXZXZXZXZXZXZXZXZXNXZXZXZXZXZXZXxXZXZXZXZXxXbXZXZXZXcXZXxXcXxXZXZXZXbXxXxXxXbXxXxXxXZXxXZXPXvXZXZXJXZXPXZXbXZXxXbXbXZXNXvXxXvXvXZXvXbXZXZXZXZXZXJXJXJXJXZXZXZXZXZXZXJXPXZXZXZXZXZXJXZXZXZXZXZXxXxXZXNXZXZXvXxXxXxXZXZXZXNXxXxXZXxXZXZXxXNXZXZXNXNXxXxXZXZX",
"ZXZXxXxXxXZXZXZXZXZXJXZXxXZXJXxXZXNXNXZXZXNXZXZXZXxXxXZXPXZXxXZXZXPXZXZXZXZXZXPXZXZXZXZXZXZXPXZXJXZXZXZXZXPXPXPXPXZXZXxXxXxXjXNXZXZXZXJXJXJXZXZXZXZXZXZXNXZXZXxXMXZXZXcXcXcXxXZXZXZXZXgXgXxXxXxXxXZXZXgXxXxXxXxXZXZXxXZXNXNXZXxXvXZXZXZXZXZXNXZXNXZXZXZXZXZXNXPXZXZXZXZXZXZXZXZXZXZXZXJXJXZXZXJXZXxXvXZXZXxXZXZXxXvXPXZXZXZXcXZXxXZXZXZXZXZXxXxXxXbXZXZXbXxXxXxXZXZXPXZXZXZXZXZXxXZXxXZXZXJXZXZXZXZXvXZXbXxXZXZXZXNXZXJXPXJXZXJXZXZXJXZXNXPXZXxXxXxXZXZXZXZXZXZXNXvXvXZXJXZXxXNXZXZXxXxXNXxXxXxXZXxXxXxXxXZXZXZXIXZXZXZXxXxXxXZX",
"vXvXxXxXZXZXZXZXZXZXNXZXZXxXZXZXPXZXxXJXZXxXxXxXxXZXxXjXZXZXZXZXZXPXZXZXPXZXZXZXZXZXZXZXNXJXPXZXZXZXZXZXNXxXZXZXZXZXPXZXNXxXxXZXZXZXvXZXJXPXJXZXZXZXZXZXZXZXZXZXZXcXxXxXxXxXMXxXcXZXxXxXvXvXZXZXxXZXJXxXxXZXxXxXNXZXZXjXxXZXZXxXNXZXZXZXxXNXxXNXvXNXZXZXZXPXZXZXJXZXZXZXZXZXZXZXZXNXZXxXjXZXxXZXZXJXZXZXZXxXZXxXxXZXZXgXxXZXxXcXZXxXxXbXZXZXZXbXxXxXxXxXxXxXxXxXZXZXZXJXNXZXZXZXZXxXZXZXvXZXZXZXZXZXJXbXvXZXZXZXZXZXZXZXZXZXZXZXZXZXJXJXxXZXZXZXZXxXvXZXZXZXZXNXZXZXxXNXPXZXZXxXZXZXZXxXxXZXZXxXNXxXvXxXxXZXZXZXPXPXZXZXZXZXZXZX",
"NXNXxXvXZXZXZXNXZXZXZXZXZXZXZXJXJXPXZXZXxXxXxXgXxXxXxXvXvXZXPXZXNXNXZXZXZXZXZXxXZXZXJXZXZXZXZXZXZXZXZXNXNXZXZXZXZXZXJXZXJXZXJXJXJXJXZXZXZXJXJXZXZXZXZXxXxXZXZXZXZXxXlXxXcXxXxXZXxXxXxXZXxXvXxXxXvXZXPXxXxXZXxXxXxXxXNXxXxXxXxXxXZXZXxXZXZXZXZXZXZXZXZXZXZXZXZXJXJXZXZXZXJXZXZXZXxXxXxXJXJXZXxXNXxXZXZXZXZXxXZXxXxXxXbXZXMXZXZXxXZXZXZXxXbXZXbXZXxXxXxXbXbXZXxXbXZXxXxXxXNXZXZXZXZXZXZXxXxXZXZXxXNXvXxXZXbXZXZXbXbXJXZXZXZXZXZXxXZXPXZXZXxXxXZXZXNXxXZXZXZXxXZXZXZXZXxXxXPXJXZXZXNXvXZXZXZXNXZXxXxXZXZXZXZXNXxXNXNXJXJXZXZXZXZXJX",
"ZXxXZXZXZXZXZXZXZXZXZXZXZXZXZXJXZXZXZXZXZXZXmXxXxXxXxXZXxXjXxXmXxXZXNXxXZXNXZXNXZXZXPXJXZXZXxXZXZXZXxXZXNXZXZXxXxXZXZXZXZXZXZXJXPXPXPXPXZXJXJXZXJXJXZXZXZXZXZXZXxXxXcXxXxXxXxXxXZXxXxXZXvXxXvXxXvXxXNXxXgXZXZXZXxXxXZXZXZXxXxXmXxXxXxXZXZXZXZXZXZXZXJXZXZXZXZXZXJXJXZXZXZXZXZXZXvXxXxXJXZXNXjXNXZXZXZXZXZXZXbXbXbXxXxXZXZXZXZXZXcXxXZXZXxXbXcXxXxXZXxXxXxXZXxXbXxXxXxXxXxXZXZXZXZXxXZXxXZXZXxXxXZXPXxXxXZXZXZXZXxXxXNXZXbXxXxXZXxXJXxXxXxXNXJXZXxXZXZXZXNXxXZXZXZXZXNXZXZXZXZXZXvXxXxXxXvXZXZXZXNXZXZXZXZXxXxXxXxXZXZXxXZXZXvXJX",
"JXZXJXZXZXNXxXZXZXZXZXxXxXvXxXZXZXZXZXZXZXZXZXxXMXxXxXxXjXjXZXZXZXZXxXxXZXZXZXZXxXxXZXZXNXPXJXZXZXZXZXNXZXZXZXZXZXZXJXZXZXJXZXZXPXZXNXPXZXJXZXJXPXJXZXZXxXZXZXxXxXxXxXZXxXxXxXxXNXZXZXxXxXxXxXNXxXmXNXNXgXZXZXZXZXxXxXxXxXNXxXxXxXcXxXxXZXJXZXvXZXZXZXZXZXZXZXZXZXZXZXZXZXZXJXZXZXZXZXxXxXZXxXZXNXNXNXZXZXvXxXxXxXxXxXZXxXZXcXxXgXlXcXcXZXcXxXxXcXZXcXxXcXMXcXxXcXcXZXZXxXPXvXvXmXmXmXxXZXPXZXxXJXNXxXZXZXZXZXZXZXZXPXZXZXZXZXZXxXZXZXxXxXxXJXJXxXJXZXZXxXZXNXZXxXxXZXNXNXNXZXZXZXvXvXZXZXZXZXNXNXxXxXNXxXZXZXNXxXNXZXNXZXZXxXZX",
"ZXZXZXZXZXZXZXZXZXZXZXvXJXZXZXZXZXZXZXvXxXxXxXxXxXlXxXxXxXxXxXmXZXZXZXZXNXZXJXPXJXZXxXZXPXJXZXZXZXZXZXZXZXZXZXZXZXJXPXZXJXJXZXJXJXJXFXZXPXZXPXxXZXPXZXZXZXZXZXZXZXbXxXZXZXxXxXxXxXvXZXZXbXZXxXxXxXZXvXxXgXZXZXZXZXZXZXZXZXNXxXxXxXxXZXcXZXZXZXZXZXZXZXZXZXNXZXJXZXZXZXZXZXJXZXZXZXZXZXZXZXZXZXNXvXxXZXZXZXNXZXZXxXbXZXZXMXcXxXxXxXxXxXcXZXcXxXMXcXcXZXcXZXZXMXlXxXxXxXZXxXZXZXZXxXZXxXZXZXxXZXNXxXvXZXZXNXZXZXZXZXbXZXZXZXZXZXZXxXbXZXxXZXxXZXZXxXNXZXZXNXZXZXZXxXvXxXxXZXZXZXZXZXZXZXbXZXbXxXxXxXxXxXxXZXZXZXZXxXNXxXxXxXxXxXZX",
"ZXZXxXxXZXZXZXZXJXZXJXJXJXPXPXJXZXZXZXZXZXxXxXxXgXgXgXgXxXZXZXZXZXZXNXZXZXxXxXPXPXZXZXZXJXZXZXxXxXjXZXZXxXZXZXZXZXZXJXZXZXZXZXZXZXZXJXPXZXZXPXZXxXxXxXPXZXZXZXZXZXvXxXxXxXxXxXxXxXxXZXZXZXZXZXZXxXZXxXZXgXZXZXZXJXPXZXZXZXZXxXxXcXMXxXxXZXZXNXZXxXNXZXZXZXZXZXZXZXZXZXZXZXZXZXvXxXxXNXZXZXZXZXZXJXZXZXJXZXxXZXZXZXZXbXbXMXcXxXMXxXxXxXZXxXZXxXZXcXxXZXxXxXxXZXcXZXxXxXZXbXbXbXZXZXxXxXMXZXxXxXxXZXZXZXxXZXZXZXZXZXZXZXZXZXZXZXZXxXbXZXZXZXxXZXZXxXZXZXZXZXZXZXZXZXZXvXZXZXPXZXZXNXxXvXxXZXZXxXZXNXxXZXNXZXNXZXZXxXxXxXxXxXxXxXZX",
"ZXZXZXxXNXZXZXZXZXZXZXJXZXZXZXZXZXPXPXPXZXvXPXgXgXxXxXxXxXxXZXZXZXxXNXNXZXNXZXZXZXZXZXJXZXxXZXxXZXJXvXZXZXZXNXZXJXJXZXZXZXZXJXZXNXFXZXZXJXJXPXmXxXxXZXPXbXZXZXZXZXZXZXZXvXZXvXZXNXZXZXvXxXxXxXZXvXvXxXZXgXNXNXNXxXNXxXNXxXxXxXxXxXxXZXMXMXNXxXxXvXZXZXZXZXZXZXNXvXxXZXZXZXZXZXZXNXvXZXZXZXZXZXZXNXZXZXZXxXxXZXZXZXvXvXZXZXZXcXxXMXcXMXZXcXZXxXMXMXMXxXcXxXcXcXxXZXZXcXZXbXxXZXcXxXMXZXxXxXNXxXxXZXZXZXZXZXZXZXZXZXZXxXZXbXZXZXZXZXxXZXJXZXZXxXZXxXZXZXZXJXZXZXZXNXxXZXZXJXJXxXNXZXxXvXvXxXbXxXZXZXxXxXmXxXZXNXNXxXxXxXxXxXxXxXZX",
"xXxXxXxXZXZXZXZXZXZXZXZXPXZXZXZXZXJXIXPXZXNXJXxXxXxXgXcXZXZXZXZXmXxXPXZXZXZXZXZXZXJXZXZXZXZXZXZXZXZXNXZXZXZXZXZXZXZXNXZXZXJXJXZXNXZXNXZXJXJXZXPXPXxXbXPXJXZXJXZXZXZXZXZXZXZXZXxXNXZXbXZXZXZXxXxXxXxXxXZXkXxXZXZXxXjXNXZXxXNXZXxXxXcXZXMXxXxXZXxXxXZXZXNXNXNXZXZXZXbXZXZXbXbXZXZXZXZXZXZXNXZXZXZXZXZXvXZXxXxXZXZXZXbXxXZXZXMXZXZXZXcXcXZXZXZXcXxXZXZXgXxXZXcXxXMXxXxXZXxXxXbXZXGXZXxXZXZXMXZXZXZXxXxXZXxXJXZXxXxXZXZXZXZXZXZXZXbXZXZXZXZXZXZXvXxXxXZXZXZXZXZXZXNXZXZXZXZXxXPXZXZXNXxXxXxXxXxXbXZXxXxXjXZXxXxXNXNXNXxXxXxXxXNXZXZX",
"vXvXxXxXxXvXZXZXZXZXZXZXZXZXZXZXZXZXJXZXZXZXxXbXZXHXxXxXxXZXZXNXZXxXZXZXZXZXZXZXZXZXZXZXZXZXZXNXZXZXZXZXZXxXPXZXZXZXNXZXZXZXJXNXxXNXZXPXZXZXJXZXZXPXZXZXZXxXvXZXNXZXZXZXZXZXZXZXZXcXZXZXxXcXxXZXxXxXZXxXkXZXZXNXxXxXZXxXZXNXNXZXxXxXxXgXxXZXZXxXxXbXZXNXZXZXZXZXZXZXZXZXZXZXZXZXPXZXZXZXZXZXbXvXZXZXZXNXZXZXNXxXZXZXZXxXmXZXmXZXZXxXMXxXMXcXcXxXZXZXxXxXZXbXZXxXxXbXZXvXxXNXJXZXZXmXmXmXmXZXMXFXZXZXZXxXZXJXxXNXxXbXZXbXbXZXZXZXZXZXZXZXvXZXZXZXNXZXZXZXZXNXZXZXZXZXZXPXxXZXJXPXxXxXxXxXxXxXmXMXxXxXxXZXZXZXZXxXxXvXZXNXxXZXZXZX",
"xXxXxXxXbXZXZXZXZXZXZXZXZXNXZXZXbXbXZXZXZXxXxXxXxXZXZXxXxXNXZXZXZXZXNXZXPXZXZXZXxXZXPXZXZXZXPXZXZXZXJXZXZXZXZXZXPXZXZXPXJXJXJXNXZXJXZXZXZXPXJXZXZXPXZXZXPXZXZXxXxXxXZXZXZXZXZXZXZXZXZXZXcXcXcXxXxXxXbXnXgXPXZXZXxXZXxXxXZXZXxXZXxXgXjXjXNXxXxXxXvXZXvXxXxXZXZXZXZXZXZXZXJXZXNXZXPXJXJXZXZXZXxXxXZXZXZXNXZXZXmXmXZXZXZXxXZXZXZXxXFXZXMXMXZXMXZXxXxXxXxXcXxXvXZXZXbXZXZXZXxXxXxXxXxXlXZXZXxXmXMXFXZXxXZXZXZXZXvXvXxXZXbXxXvXZXZXJXZXZXZXZXxXZXZXZXZXZXNXZXZXxXZXZXPXZXNXZXZXZXZXZXNXxXMXmXxXxXxXxXxXMXxXZXZXbXcXZXxXxXxXZXxXZXZXZX",
"xXZXZXZXZXZXZXZXZXNXZXZXZXZXZXZXZXxXZXZXvXxXxXxXjXxXZXZXZXvXZXZXZXZXPXZXPXZXZXZXZXZXZXZXxXZXZXZXZXZXPXJXZXZXZXJXZXZXNXJXPXZXJXZXZXZXZXxXZXZXJXZXZXJXZXxXZXZXZXZXZXJXxXZXJXZXvXZXZXZXZXZXxXxXcXbXxXbXbXxXxXZXZXZXxXjXgXNXNXZXxXNXxXxXxXxXvXZXxXxXxXxXxXZXZXZXZXZXZXZXZXZXZXZXZXZXZXZXZXZXZXZXZXZXxXZXZXZXZXZXZXmXZXZXZXZXZXxXFXxXxXZXcXZXGXZXZXMXxXxXxXxXxXxXZXJXZXZXZXNXxXvXxXxXMXmXmXZXZXZXmXxXxXxXZXJXZXjXZXNXbXZXbXZXbXZXPXZXbXZXZXZXNXZXxXZXNXZXJXZXZXZXZXZXZXZXZXZXZXZXZXZXZXxXxXmXxXlXxXxXxXxXxXxXmXxXZXZXbXxXxXxXxXZXxXZX",
"ZXZXxXZXZXZXZXZXZXZXZXZXZXZXZXZXZXZXZXZXZXxXvXZXPXZXZXZXZXZXNXZXJXZXPXZXZXvXvXJXxXZXPXxXxXxXxXPXZXJXJXPXZXZXZXJXZXZXZXJXZXFXJXJXZXZXZXZXJXJXZXZXZXJXZXxXZXJXZXJXZXZXZXZXZXxXvXZXZXZXZXZXcXcXMXbXxXZXxXxXxXZXZXxXgXgXZXvXxXxXxXxXZXxXxXxXbXZXxXxXxXxXxXxXZXZXZXPXZXxXbXxXxXvXZXZXZXZXZXbXbXxXZXZXNXZXZXZXZXZXZXxXZXZXMXZXZXZXmXxXgXxXxXZXcXZXZXcXxXlXxXZXxXxXbXZXZXxXNXNXvXZXZXxXxXmXxXZXmXmXFXZXxXmXxXZXxXZXZXNXbXZXxXZXZXZXZXZXxXZXZXZXxXNXZXZXZXZXPXZXZXZXZXZXZXZXZXZXZXZXNXZXZXmXxXxXxXZXmXjXxXxXxXxXxXZXZXZXZXxXxXxXjXxXNXZX",
"ZXZXvXvXZXZXZXZXZXZXZXxXZXZXZXxXvXZXZXZXxXxXxXNXJXJXJXPXZXZXZXZXPXPXZXZXZXxXZXZXZXZXJXZXZXZXZXZXJXZXPXPXPXZXZXZXZXZXxXNXZXZXZXZXZXZXZXNXNXZXJXZXZXZXxXZXZXZXPXJXZXZXZXZXZXZXZXZXZXcXcXMXZXZXZXvXbXbXvXxXjXZXZXxXjXxXjXNXNXxXjXxXxXxXxXxXZXPXZXJXZXZXvXNXxXxXZXZXZXZXZXbXvXvXZXNXZXZXZXxXxXxXxXZXZXvXZXZXZXZXZXxXxXZXxXZXmXmXxXxXxXgXgXZXZXHXZXxXxXcXxXZXxXbXxXxXxXbXxXxXZXxXxXZXmXxXmXZXZXxXZXZXxXxXxXZXZXxXZXZXxXZXZXZXZXZXkXxXPXZXZXZXxXZXZXxXZXZXJXZXZXZXZXZXZXJXZXZXZXZXZXZXZXxXxXMXMXxXxXxXxXxXxXmXxXxXZXZXxXxXZXZXZXxXxXZX",
"vXZXvXxXZXJXZXxXvXxXxXxXZXZXxXjXxXZXZXZXZXxXxXZXZXZXNXZXZXZXZXZXZXZXZXPXZXZXZXxXZXZXZXZXZXJXZXPXZXZXNXZXZXZXZXJXZXZXZXZXZXZXZXZXxXZXZXZXZXZXZXNXZXZXZXJXZXZXZXJXJXJXPXZXZXZXZXZXZXcXxXxXxXxXNXZXZXxXxXxXgXNXZXxXxXZXZXZXxXZXJXxXmXNXxXxXZXZXJXZXZXZXvXZXxXxXZXZXvXxXZXvXvXvXNXNXZXZXNXbXvXvXNXZXxXNXZXZXZXZXZXxXZXMXZXxXMXxXZXxXjXxXxXZXxXMXZXZXxXMXZXMXxXvXbXbXxXZXNXvXZXxXxXZXGXZXmXZXZXZXZXZXPXZXxXZXZXZXZXxXxXZXxXbXZXZXxXZXPXZXZXZXNXZXxXZXZXZXJXZXNXZXZXZXZXZXJXZXZXZXZXZXZXxXmXZXxXxXxXmXxXlXxXmXxXxXxXxXxXxXxXxXNXZXxXZX",
"xXxXxXNXZXZXZXZXxXxXxXNXZXZXZXZXJXZXZXJXNXZXJXZXZXZXZXZXJXZXZXZXZXPXJXJXZXZXJXZXZXNXZXZXJXJXIXIXIXZXZXZXZXNXJXJXPXJXNXJXZXZXZXZXZXZXZXZXJXZXZXxXZXZXZXZXZXZXZXZXJXJXJXZXNXZXZXxXxXZXZXZXNXxXxXZXZXxXxXNXgXxXNXZXxXZXJXxXxXZXZXxXmXZXZXxXxXJXNXgXZXZXZXZXZXZXZXZXZXNXxXZXZXxXNXNXZXZXZXZXZXZXZXZXNXNXvXZXZXZXxXbXbXZXZXZXcXcXZXcXcXxXZXZXxXNXNXZXZXZXZXZXZXbXbXbXxXxXxXxXNXZXZXZXPXZXmXMXxXNXZXZXPXZXxXbXZXbXZXZXMXmXZXxXxXZXZXZXZXJXZXZXvXJXZXZXNXZXZXZXZXZXZXZXJXPXZXxXZXxXxXNXZXZXZXZXxXZXxXxXxXlXxXmXMXxXcXxXgXxXZXNXxXxXNXZX",
"ZXZXxXZXxXxXgXxXxXZXZXZXZXZXZXZXZXZXJXZXZXZXJXZXZXZXJXZXZXPXJXZXZXPXJXZXZXZXJXPXZXxXxXZXPXIXIXIXJXJXZXZXZXZXZXZXZXZXZXZXZXPXJXZXZXJXZXZXZXNXNXZXZXZXPXZXZXZXZXZXZXZXZXZXZXZXZXZXZXZXZXxXxXNXNXNXZXZXNXxXxXZXNXZXZXZXZXxXxXNXZXxXxXxXxXZXPXxXgXZXZXNXZXZXZXZXZXZXNXvXxXxXxXZXNXxXZXxXNXvXZXZXZXZXZXZXZXZXZXZXZXZXZXbXZXZXMXMXcXxXMXxXxXxXZXZXNXZXZXZXZXbXZXZXbXxXxXbXxXZXZXZXZXZXZXZXPXZXxXmXNXNXJXZXvXZXxXbXZXbXZXxXMXZXxXmXxXNXJXZXZXZXxXZXZXPXPXZXNXZXZXNXvXZXZXZXxXNXZXjXxXZXZXZXNXZXZXZXZXxXlXxXxXxXmXZXgXgXgXxXxXZXNXNXZXZX",
"xXZXxXZXZXZXZXxXxXZXMXZXZXZXZXZXZXZXJXZXZXJXZXZXZXZXZXZXZXPXZXZXNXZXJXZXZXZXJXPXJXZXNXxXNXIXIXIXJXJXZXZXZXZXZXZXZXZXZXZXZXPXPXJXZXZXZXZXNXZXZXZXZXZXZXxXZXZXZXJXZXNXZXNXZXNXZXZXZXxXxXxXZXZXZXvXNXZXZXZXxXNXZXvXxXxXxXxXxXxXxXxXxXmXmXZXxXxXZXZXZXZXZXZXZXZXZXNXZXZXvXZXxXxXZXZXNXNXNXZXZXZXZXZXZXNXZXZXZXZXZXZXZXZXxXZXZXMXxXxXZXZXZXZXxXZXZXZXZXZXZXZXZXZXZXbXxXZXxXNXZXZXZXxXxXZXZXZXZXxXNXZXPXZXZXPXbXxXZXbXZXxXxXmXZXZXZXZXZXZXZXZXxXZXJXPXPXZXZXZXZXZXZXZXZXZXZXxXxXNXZXZXZXZXZXZXZXxXNXxXxXxXxXxXxXxXgXgXlXxXxXxXNXZXNXZX",
"xXxXxXZXZXZXxXlXZXlXxXxXxXxXxXxXxXZXZXZXZXZXPXJXPXIXJXZXZXZXZXZXZXZXPXPXPXJXZXZXJXZXxXZXxXNXPXIXJXZXNXZXZXZXZXZXNXZXJXPXPXNXZXPXZXZXZXZXJXJXJXZXJXZXZXZXZXZXJXPXZXZXZXZXZXZXZXNXNXZXNXZXZXZXZXZXNXZXZXZXxXjXZXvXxXNXxXNXxXxXxXxXmXZXZXxXxXNXNXxXZXZXZXZXZXZXZXZXZXZXZXNXxXgXxXZXNXxXvXZXZXZXZXZXZXZXZXZXZXZXZXbXZXbXvXbXxXZXZXZXgXlXMXmXxXxXZXZXZXbXbXZXZXxXZXZXbXZXNXxXZXZXxXNXxXZXZXZXZXZXZXZXZXZXxXZXZXxXxXxXmXmXZXZXZXZXZXZXZXZXZXZXxXPXZXPXJXxXZXZXZXZXZXZXZXZXZXZXxXZXJXZXNXJXNXZXZXZXZXmXxXxXxXxXlXlXxXlXxXxXxXxXxXZXZXZX",
"xXxXZXZXvXxXlXxXZXxXxXZXNXNXZXZXZXZXJXZXZXPXPXZXZXZXNXZXZXZXZXZXPXZXZXPXPXZXZXZXPXPXZXZXPXZXJXZXZXPXZXZXZXxXZXZXZXZXZXJXJXgXZXZXZXZXZXZXZXZXZXJXPXPXZXJXZXZXZXvXZXZXZXZXZXZXxXNXZXZXxXxXZXxXxXZXxXxXxXNXxXgXZXxXNXZXxXNXxXgXxXZXxXZXxXxXxXxXxXNXvXNXZXZXNXvXNXZXZXZXPXZXxXxXxXxXxXNXZXZXZXZXNXZXZXvXZXZXZXZXZXZXZXbXZXvXxXMXZXZXxXxXcXxXMXZXZXZXZXxXcXxXZXbXZXZXZXZXxXNXNXZXxXZXxXZXZXZXMXZXJXPXZXZXZXZXZXZXbXxXxXmXxXZXxXZXZXZXZXZXZXZXxXZXZXPXPXZXvXZXZXZXxXZXvXZXZXZXxXNXNXNXNXZXZXZXZXZXZXZXxXxXxXxXxXxXxXxXxXZXZXbXZXZXxXZX",
"vXZXZXZXZXZXxXZXbXxXZXZXZXZXZXZXZXZXJXZXZXJXZXZXNXvXZXZXJXZXxXZXZXZXPXPXZXZXZXPXIXPXNXZXZXJXZXJXvXZXZXZXZXZXZXZXZXZXZXJXPXJXZXZXZXZXZXZXxXZXZXZXZXPXPXZXZXxXNXZXZXZXNXZXZXxXZXZXZXxXxXxXmXxXZXZXZXZXZXbXxXgXxXxXxXxXvXxXxXgXjXZXNXxXZXxXxXZXvXNXZXNXNXJXZXxXvXZXZXZXZXZXZXZXZXZXgXxXZXZXZXxXNXZXZXZXZXZXZXZXZXZXZXZXZXZXZXxXxXZXZXZXZXZXZXNXZXvXZXvXxXZXZXNXJXZXZXZXZXZXZXZXxXmXMXZXZXxXmXxXxXZXZXZXZXZXZXxXNXxXxXxXcXZXxXxXZXMXZXZXZXZXxXZXZXPXPXJXZXZXZXxXxXZXJXZXZXZXNXZXZXNXNXNXZXPXZXZXxXxXZXxXxXZXxXxXxXxXxXZXZXgXgXZXxXxX",
"ZXZXZXZXZXZXZXZXbXxXZXZXZXZXbXbXxXZXZXZXJXZXZXZXxXZXJXZXZXNXZXJXZXxXZXZXNXZXJXxXxXxXZXZXZXZXZXJXZXZXZXZXZXZXZXZXZXZXZXJXPXJXxXZXvXxXZXNXZXZXZXxXZXZXZXNXNXZXZXZXxXxXZXZXxXZXPXJXZXZXFXZXZXmXxXxXxXZXxXxXxXgXnXxXxXxXbXZXxXnXxXxXxXZXxXxXNXZXvXNXZXNXZXZXJXxXNXZXZXPXZXZXPXZXZXZXxXxXZXNXxXxXNXxXZXZXNXNXvXZXZXmXMXZXMXZXZXNXxXNXZXZXZXNXZXNXZXZXZXZXZXZXZXZXZXZXZXZXZXZXZXmXMXxXMXZXZXxXxXZXNXZXZXZXZXZXZXZXNXNXZXxXZXZXcXxXxXZXZXZXMXZXxXZXxXZXZXZXJXJXZXZXZXZXNXZXxXNXZXZXNXNXZXZXNXZXxXNXxXZXZXZXxXZXNXxXxXxXNXNXZXlXkXxXcXxX",
"NXZXZXZXZXZXZXnXxXxXZXZXZXZXxXZXZXZXZXZXZXJXZXZXZXZXNXZXZXZXPXZXZXxXNXZXZXPXPXxXxXxXNXZXZXJXNXZXJXZXZXZXZXZXZXZXZXZXxXxXJXZXZXZXxXJXZXxXPXZXxXJXZXZXJXZXZXZXgXxXNXZXZXZXNXZXZXZXZXZXZXZXmXZXxXxXZXZXxXxXxXnXxXxXxXxXbXxXZXZXxXxXvXZXxXZXxXxXvXZXZXNXZXZXZXNXZXZXZXZXZXZXZXZXJXPXZXZXZXZXNXZXxXZXZXZXZXNXZXZXZXMXxXZXZXZXZXZXZXZXZXZXZXxXNXNXNXZXZXZXZXZXZXZXJXZXZXZXmXmXmXmXMXZXZXMXxXZXmXZXZXZXNXZXZXZXPXZXNXZXZXxXZXZXcXxXZXZXZXxXZXZXxXZXZXPXZXZXZXZXZXZXZXZXZXZXvXZXZXZXNXNXZXZXxXxXjXxXNXZXZXPXZXNXZXZXZXZXZXvXxXxXxXxXZXZX",
"xXvXvXxXZXZXZXxXZXbXJXJXPXJXJXZXZXZXZXZXZXZXZXPXPXxXxXZXPXPXZXxXZXPXZXZXPXZXZXJXNXvXxXvXJXZXZXZXPXJXPXZXZXxXZXZXZXZXxXZXZXZXZXNXxXxXZXZXPXZXZXPXZXNXZXZXZXjXNXZXPXZXZXZXJXJXZXxXxXZXZXmXZXmXmXxXxXxXcXxXgXnXxXxXxXxXxXxXZXxXxXxXxXZXxXZXNXxXNXZXZXZXZXZXZXZXZXZXxXxXZXJXJXZXZXJXPXJXZXZXJXZXJXZXZXZXZXZXZXZXMXMXmXxXxXZXZXxXZXNXZXZXZXZXZXZXxXZXNXZXPXJXNXNXZXZXxXZXmXxXZXMXxXMXMXMXZXxXxXZXNXxXNXvXNXvXZXZXZXZXZXZXxXZXZXZXZXZXZXMXmXmXxXZXZXZXZXZXPXZXZXxXZXJXZXZXZXZXZXZXxXxXZXZXZXxXxXxXZXxXZXZXNXNXNXZXZXZXNXZXxXFXZXxXxXZX",
"NXNXxXvXZXxXxXJXZXZXZXJXZXZXZXZXZXNXZXZXJXZXZXZXxXjXxXZXJXZXPXJXZXZXZXZXNXxXJXZXvXNXxXvXNXZXJXNXZXJXZXPXJXZXPXZXZXZXZXZXZXxXZXxXvXPXZXZXZXZXZXZXjXjXNXZXZXZXZXZXZXNXZXZXZXZXvXZXZXxXZXmXmXZXxXxXxXxXcXxXnXgXxXxXxXxXxXxXxXbXxXxXxXxXZXZXZXNXNXZXNXNXZXZXZXNXZXNXZXZXZXJXZXZXZXZXZXJXJXJXPXZXJXPXZXZXZXZXZXZXmXZXmXxXmXxXNXxXxXNXNXZXZXZXZXZXxXxXNXZXZXZXZXZXNXZXZXxXxXmXZXxXxXxXMXmXxXxXxXNXNXNXZXZXZXZXNXZXZXZXZXxXgXxXZXZXMXZXZXZXZXZXjXZXNXJXZXZXxXxXZXvXZXZXZXZXZXZXZXZXNXxXZXZXZXZXZXZXZXZXZXxXxXNXxXZXZXZXxXZXZXmXZXxXxXZX",
"ZXvXvXNXZXvXxXZXZXZXZXJXZXZXZXZXbXZXNXxXvXvXNXvXZXJXJXZXJXJXPXJXZXZXZXZXZXxXxXZXZXZXZXNXNXZXZXZXZXNXZXZXJXZXPXPXZXNXNXZXZXZXZXZXPXJXxXZXZXZXNXZXxXxXZXxXZXPXZXZXZXZXZXZXNXjXZXPXxXxXmXmXmXmXMXcXxXxXxXxXxXlXxXxXxXxXxXxXZXZXZXZXNXZXZXZXZXZXZXZXNXvXZXvXvXZXZXZXZXZXZXPXZXZXZXJXZXZXJXZXZXZXZXZXZXZXZXZXZXZXZXmXmXmXxXxXxXNXxXxXxXZXZXZXZXxXZXxXZXZXZXZXZXvXZXZXNXNXmXZXmXZXFXZXmXmXZXmXMXmXZXZXJXZXZXZXNXZXZXZXZXZXcXxXcXZXcXZXxXZXZXxXxXJXZXPXJXNXxXZXZXNXxXZXZXZXZXZXJXZXZXZXZXZXJXZXZXJXZXJXZXxXxXxXxXxXxXxXxXxXNXNXmXmXxXZX",
"xXvXZXvXbXZXJXNXNXZXNXJXZXNXxXxXxXZXNXxXxXxXxXZXZXJXJXPXJXIXjXxXIXZXZXZXZXZXJXJXZXZXZXZXZXZXZXZXZXZXZXZXZXZXJXPXZXZXZXvXZXNXZXZXZXNXZXPXPXZXZXZXZXZXZXZXZXxXZXZXxXxXMXMXmXxXxXmXxXlXxXxXxXxXxXxXxXxXxXxXxXlXxXxXxXxXxXZXNXxXNXxXNXZXxXxXZXZXZXZXZXZXZXZXZXxXZXZXZXZXZXZXZXZXZXZXZXPXxXxXZXxXZXZXZXZXZXZXZXNXxXxXmXxXxXNXxXNXxXxXZXZXMXZXZXZXZXxXxXNXZXZXZXZXZXZXZXNXNXNXxXZXZXZXZXZXZXZXxXxXxXZXZXxXxXZXZXZXZXZXxXZXbXZXZXZXxXbXZXxXZXxXZXZXZXZXZXNXxXZXZXNXxXxXxXxXZXZXxXZXZXZXZXZXZXJXZXZXZXZXZXZXxXxXxXxXxXxXxXxXNXZXZXxXxXxX",
"xXvXxXbXZXZXZXvXZXZXxXZXZXxXZXZXZXZXZXZXZXZXxXZXxXZXZXPXIXPXNXJXJXZXZXZXZXZXPXJXZXZXZXZXZXZXZXNXZXNXNXZXJXJXZXPXZXNXJXNXNXZXZXZXjXNXZXZXPXZXZXNXxXZXZXPXJXZXMXxXxXxXxXZXxXxXZXmXMXxXxXxXcXxXlXxXlXlXxXlXxXlXxXxXcXZXxXxXvXZXxXZXNXNXxXxXZXNXNXNXZXZXZXJXZXxXZXZXZXZXJXZXZXZXPXNXZXZXZXZXZXZXZXZXZXZXPXJXZXZXNXZXmXZXMXmXZXxXNXxXZXmXMXZXZXxXxXvXZXNXNXZXZXZXZXNXxXZXZXZXZXNXZXZXNXxXZXZXxXZXZXNXxXNXxXxXxXxXmXxXxXZXZXbXbXZXZXbXZXZXZXZXmXZXJXZXZXZXZXZXZXNXxXxXxXxXZXZXZXZXZXZXZXZXZXZXJXZXZXJXZXZXZXNXNXZXZXZXNXZXZXNXZXZXZXNX",
"xXxXxXbXZXZXJXZXZXZXZXNXxXNXZXZXZXZXZXZXJXPXPXZXZXZXZXJXPXNXvXJXZXZXZXZXZXJXJXJXZXNXZXZXxXxXZXNXZXZXZXZXZXZXZXZXZXJXZXZXZXZXZXZXZXZXNXNXZXZXZXZXxXZXZXZXZXZXxXxXxXjXMXxXZXZXZXmXZXZXxXcXcXxXxXxXxXxXxXgXlXlXxXxXxXZXvXvXxXNXZXZXZXZXxXxXNXZXNXNXZXZXZXZXZXZXZXZXZXZXZXJXZXZXZXZXZXZXJXJXxXZXZXZXZXZXZXZXZXZXZXxXMXMXxXxXZXZXxXNXxXmXmXmXxXmXZXNXNXZXZXZXZXJXZXZXZXZXZXZXNXNXZXZXZXZXZXZXZXZXZXZXZXZXZXMXxXxXZXZXxXZXZXZXbXbXZXZXbXZXPXxXZXZXZXZXZXZXJXNXNXZXxXxXxXxXZXZXZXZXZXZXZXZXxXZXZXZXZXZXZXZXZXZXNXZXZXNXNXNXZXNXZXZXxXZX",
"ZXbXxXnXxXZXZXZXZXZXJXvXxXxXxXxXxXZXZXZXJXJXJXZXxXZXZXJXJXJXPXJXJXZXJXPXJXJXPXPXPXPXFXZXZXZXZXZXZXPXJXJXZXxXJXJXZXZXxXZXZXZXNXZXZXJXZXZXZXZXZXZXZXxXZXNXxXxXxXxXmXgXxXjXZXmXxXZXxXxXxXxXxXxXMXxXxXMXxXxXxXxXlXcXxXxXxXZXZXZXxXNXZXZXNXxXZXZXZXZXZXJXNXvXNXZXZXZXZXZXJXxXxXxXxXZXNXNXPXZXZXZXZXNXvXNXPXZXZXZXZXxXmXZXmXZXvXxXxXNXxXZXmXxXxXMXZXxXZXZXNXZXZXZXZXZXZXZXZXZXZXZXZXZXZXZXZXZXNXxXZXxXZXZXZXZXZXZXZXZXxXxXxXZXZXZXZXZXZXvXZXxXZXZXJXZXZXJXIXPXNXZXNXxXvXxXZXZXZXxXjXZXFXZXZXZXZXZXZXZXZXZXZXZXxXNXZXxXxXNXxXxXxXZXNXxX",
"xXxXxXxXxXZXZXxXZXbXxXvXxXxXxXxXZXvXPXZXNXZXZXNXxXxXZXPXIXIXPXJXZXJXPXPXPXJXJXNXZXJXPXZXjXxXNXZXZXZXZXZXZXZXZXZXNXJXJXZXZXZXxXvXbXZXZXZXZXZXZXZXNXZXZXNXxXZXZXZXZXmXmXmXxXxXZXZXxXxXxXxXxXxXgXgXgXxXxXxXxXlXgXxXxXxXZXZXZXZXxXxXZXNXNXZXZXZXZXNXZXJXZXZXvXvXNXxXZXZXZXZXZXZXZXJXZXJXJXZXZXxXZXxXjXZXZXJXZXZXZXZXxXZXMXxXxXZXvXNXxXxXZXxXxXZXZXZXZXNXZXxXxXZXZXZXZXZXZXxXNXZXZXZXNXJXJXZXZXZXxXxXxXZXZXZXZXZXxXmXZXbXxXZXZXZXvXbXZXZXPXbXZXZXZXPXZXZXNXZXZXZXZXvXZXZXZXZXZXgXgXZXZXZXZXZXZXZXZXZXZXNXZXZXZXZXZXvXxXxXxXxXxXxXgXjX",
"xXxXxXxXxXcXcXcXbXxXnXZXZXxXNXZXZXZXPXPXPXJXZXNXxXNXNXJXIXJXZXIXIXPXZXZXPXPXJXNXNXZXZXZXZXNXNXxXxXjXjXxXZXPXZXJXZXZXZXZXxXZXZXxXvXJXZXZXZXxXZXZXZXNXvXZXZXZXZXZXZXxXZXZXZXxXxXZXxXxXcXZXcXxXxXgXgXxXxXMXcXxXlXxXxXxXxXxXNXZXZXxXxXZXZXZXZXxXZXZXZXNXZXZXxXNXxXNXvXZXZXPXPXJXZXJXZXZXZXZXxXZXZXPXxXxXZXZXZXJXPXFXmXmXmXxXbXvXbXxXxXZXxXNXZXxXbXZXZXZXNXxXvXxXxXZXZXNXmXxXNXZXmXNXNXZXZXZXPXZXxXbXxXZXZXZXZXxXZXZXZXZXxXZXZXZXZXZXZXZXZXxXZXZXZXNXZXJXZXZXZXZXZXxXxXxXZXxXxXZXZXZXZXZXZXZXZXZXZXZXNXNXNXZXZXZXZXZXxXxXNXZXZXNXgXjX",
"lXxXlXgXxXlXlXxXxXlXxXxXZXZXZXZXZXJXPXPXIXIXNXNXZXZXZXZXIXIXIXJXJXJXZXZXZXPXZXZXZXZXZXxXZXZXxXxXjXgXNXZXZXZXZXZXZXZXZXxXZXZXZXPXZXJXZXNXxXZXPXPXxXxXNXxXZXJXZXJXZXZXZXZXZXNXxXNXZXZXZXxXZXxXgXlXlXcXlXMXxXcXlXxXxXxXxXxXxXZXNXZXZXZXxXxXNXZXNXxXZXZXZXvXxXNXNXZXNXZXZXZXZXPXZXJXJXxXZXZXZXZXZXPXNXNXJXZXZXPXGXZXZXmXmXxXbXbXxXxXxXZXvXxXxXxXxXxXZXZXxXZXxXNXZXxXvXNXxXZXZXZXZXZXZXmXZXmXFXZXxXZXZXxXZXZXZXZXvXZXZXZXZXZXZXxXZXZXZXZXZXZXZXZXZXPXZXZXZXvXZXZXxXxXxXmXZXZXZXxXZXJXZXNXZXZXZXZXZXZXZXZXZXZXZXZXZXvXxXxXZXZXZXZXjXxX",
"cXcXgXhXPXxXgXgXxXcXxXxXxXZXZXZXZXZXNXZXPXPXJXNXZXZXZXZXNXIXIXJXIXJXZXZXxXZXZXNXZXJXxXjXxXZXZXNXxXZXZXZXJXxXxXZXvXxXNXNXNXxXxXZXPXZXZXZXMXxXPXZXxXZXZXxXxXxXZXZXZXZXZXZXZXZXZXxXPXZXZXZXcXgXhXlXfXkXcXMXxXxXhXlXxXxXxXZXZXZXZXNXJXxXxXZXZXZXNXxXZXZXvXZXZXxXxXNXZXZXZXZXZXPXZXJXZXZXZXZXZXJXPXZXZXZXNXZXZXJXZXZXFXZXMXxXxXxXxXxXZXZXZXxXxXxXxXxXxXbXZXxXxXxXNXZXxXvXxXmXZXZXZXZXMXZXmXmXZXJXNXmXmXMXZXxXZXZXZXZXZXZXZXZXZXbXvXZXZXZXZXJXZXZXZXZXZXNXNXZXZXxXxXxXxXmXFXZXNXZXZXZXxXxXZXZXZXZXZXZXZXZXZXxXZXZXZXZXZXxXNXZXZXNXxXNX",
"cXxXxXZXxXxXcXxXxXMXcXxXxXZXZXZXNXgXjXNXJXPXPXPXZXZXNXZXZXPXJXPXIXJXZXZXZXZXZXxXNXPXZXjXxXZXZXZXxXZXZXxXZXNXZXZXxXxXxXZXZXNXZXZXPXZXxXZXxXlXxXxXxXxXxXxXxXxXZXZXZXxXZXZXZXZXZXZXZXZXZXxXxXcXgXfXdXuXhXxXxXxXgXlXxXxXxXNXZXZXxXZXZXZXxXZXZXxXZXJXZXxXNXZXZXZXxXNXxXvXZXZXZXZXPXJXZXxXvXNXJXPXPXZXZXPXZXZXZXJXGXZXZXFXZXZXbXxXZXZXxXxXZXbXZXxXxXZXvXxXbXbXxXNXNXxXxXxXmXMXmXZXMXMXmXxXMXMXMXNXZXZXxXMXZXxXZXZXZXbXZXZXZXZXZXZXZXZXZXZXNXPXZXJXZXZXZXxXZXZXxXZXZXmXmXxXxXxXZXZXZXNXNXZXZXZXZXZXZXZXZXZXZXZXNXZXZXZXZXxXxXZXxXZXxXxX",
"cXxXcXxXgXxXxXxXcXcXcXxXxXZXNXNXNXZXZXNXZXPXJXPXIXJXZXZXNXJXZXJXJXZXZXZXZXJXZXZXZXvXZXZXxXxXNXZXZXZXxXZXPXPXxXZXZXxXZXZXJXNXxXZXZXvXZXxXMXxXxXxXxXxXNXxXxXNXbXZXvXxXvXxXZXxXxXxXxXZXxXxXxXxXxXlXhXkXlXlXxXcXgXlXxXxXxXxXZXxXvXxXNXZXJXNXZXxXZXNXZXNXZXZXZXZXxXxXxXvXNXZXZXZXZXJXJXZXZXZXPXJXPXZXZXZXZXZXZXZXFXZXZXZXZXZXZXbXZXbXxXZXZXbXZXZXbXxXbXbXxXxXZXxXxXxXxXxXxXxXxXZXZXZXmXZXxXMXZXxXNXZXZXZXGXxXgXZXcXbXbXbXxXZXZXbXZXZXvXZXxXZXJXPXZXJXJXZXJXZXNXZXZXmXmXxXZXZXZXZXxXxXNXZXZXNXZXZXZXZXZXZXZXZXZXNXZXZXZXNXxXNXxXZXxXxX",
"xXZXxXlXxXxXxXxXZXxXxXNXxXNXxXxXNXZXZXZXZXZXJXNXZXPXPXPXZXJXJXJXJXZXJXZXZXZXZXZXZXZXZXZXxXxXxXxXZXZXxXxXPXZXNXNXNXZXJXZXZXZXxXxXNXZXZXZXZXlXxXZXZXNXZXZXZXxXZXZXZXJXvXZXZXxXjXxXZXZXZXbXZXgXlXgXxXxXxXxXMXMXgXlXxXxXxXvXZXNXZXxXxXxXxXxXZXxXNXZXNXZXZXNXNXZXxXxXxXxXxXxXxXZXZXZXZXZXJXZXZXPXPXZXJXPXPXZXZXNXZXPXZXmXZXZXxXxXZXZXxXZXbXbXbXxXZXxXxXxXZXxXZXxXxXZXNXZXZXZXxXxXZXZXZXZXMXZXZXNXNXZXZXFXZXxXxXxXcXcXbXZXZXbXxXxXxXxXZXZXjXZXJXFXJXJXZXZXPXPXZXZXZXxXxXxXZXZXZXxXZXxXxXxXNXZXZXZXJXZXZXZXZXZXvXvXZXZXZXZXxXZXZXZXNXZX"
};
