/* XPM */
static char *wall_base[] = {
/* columns rows colors chars-per-pixel */
"256 256 186 2 ",
"   c #AD9B8F",
".  c #B9AEA7",
"X  c #C0B0A4",
"o  c #CCC4BA",
"O  c #D0C1B5",
"+  c #D0C7BD",
"@  c #D1C8BD",
"#  c #CFC8C0",
"$  c #D5CCC4",
"%  c #D9CEC4",
"&  c #D8CFC8",
"*  c #D7D0C6",
"=  c #DAD1C7",
"-  c #D7D0C8",
";  c #DDD5CC",
":  c #DFD8CE",
">  c #DFD7D0",
",  c #DFD8D0",
"<  c #E0D7CE",
"1  c #E1D9CF",
"2  c #E0D7D0",
"3  c #E5DDD4",
"4  c #E8DFD6",
"5  c #E7DFD8",
"6  c #E8DFD8",
"7  c #E7E0D6",
"8  c #E8E1D7",
"9  c #E7E0D8",
"0  c #E8E1D9",
"q  c #E9E1D8",
"w  c #EAE0D8",
"e  c #EAE1D8",
"r  c #EBE1D8",
"t  c #EBE1D9",
"y  c #EAE1D9",
"u  c #E8E2D8",
"i  c #E9E2D8",
"p  c #E9E3D8",
"a  c #E9E2D9",
"s  c #E9E3D9",
"d  c #EAE2D8",
"f  c #EAE2D9",
"g  c #EBE2D9",
"h  c #EAE3D9",
"j  c #EBE3D9",
"k  c #EAE1DA",
"l  c #E9E2DA",
"z  c #E8E3DA",
"x  c #EAE2DA",
"c  c #EAE3DA",
"v  c #EBE3DA",
"b  c #EBE2DB",
"n  c #EAE3DB",
"m  c #EBE3DB",
"M  c #ECE2DA",
"N  c #ECE3DA",
"B  c #EDE3DA",
"V  c #ECE3DB",
"C  c #E8E4D9",
"Z  c #E8E5D9",
"A  c #EAE4D9",
"S  c #EBE4D9",
"D  c #E9E5DA",
"F  c #E8E4DB",
"G  c #EBE4DA",
"H  c #EAE5DA",
"J  c #EBE4DB",
"K  c #EBE5DB",
"L  c #EAE6DB",
"P  c #EBE6DB",
"I  c #ECE4DA",
"U  c #ECE4DB",
"Y  c #EDE4DB",
"T  c #ECE5DB",
"R  c #EDE5DB",
"E  c #EEE4DB",
"W  c #ECE6DB",
"Q  c #EBE3DC",
"!  c #EAE3DC",
"~  c #ECE3DC",
"^  c #E9E5DC",
"/  c #EBE4DC",
"(  c #EAE5DC",
")  c #E9E6DC",
"_  c #EBE7DC",
"`  c #EAE6DD",
"'  c #EBE7DE",
"]  c #ECE5DC",
"[  c #ECE5DD",
"{  c #EDE5DD",
"}  c #ECE4DC",
"|  c #EEE4DC",
" . c #EEE5DC",
".. c #ECE6DC",
"X. c #EDE6DC",
"o. c #ECE7DC",
"O. c #EDE7DC",
"+. c #ECE6DD",
"@. c #EDE6DD",
"#. c #EDE7DD",
"$. c #EEE6DD",
"%. c #EFE6DD",
"&. c #EEE7DD",
"*. c #EFE7DD",
"=. c #EEE5DE",
"-. c #ECE6DE",
";. c #EDE6DE",
":. c #ECE7DE",
">. c #EDE6DF",
",. c #EEE6DE",
"<. c #EFE6DE",
"1. c #EEE7DE",
"2. c #EFE7DE",
"3. c #EEE6DF",
"4. c #EEE7DF",
"5. c #EBE3DB",
"6. c #ECE8DD",
"7. c #EEE8DD",
"8. c #ECE8DE",
"9. c #ECE9DE",
"0. c #EDE9DE",
"q. c #ECE8DF",
"w. c #EEE8DE",
"e. c #EFE8DE",
"r. c #EEE9DE",
"t. c #EFE9DE",
"y. c #EFE8DF",
"u. c #EEE9DF",
"i. c #EDEADE",
"p. c #EFEADF",
"a. c #EFE8DE",
"s. c #F0E6DD",
"d. c #F0E7DE",
"f. c #F1E7DF",
"g. c #F0E7DE",
"h. c #F0E8DE",
"j. c #F1E8DF",
"k. c #F0E9DF",
"l. c #F1E9DF",
"z. c #F0EADF",
"x. c #F0E9DF",
"c. c #EEE7E0",
"v. c #EEE8E0",
"b. c #EFE8E0",
"n. c #EFE8E1",
"m. c #EFE9E1",
"M. c #EEEBE0",
"N. c #EFEBE0",
"B. c #EFE8E0",
"V. c #F0E7E0",
"C. c #F0E8E0",
"Z. c #F0E9E0",
"A. c #F1E8E1",
"S. c #F0E9E1",
"D. c #F2E9E0",
"F. c #F1EAE0",
"G. c #F1EBE0",
"H. c #F1EAE1",
"J. c #F2EAE0",
"K. c #F2EBE1",
"L. c #F0E9E2",
"P. c #F0EAE2",
"I. c #F1EAE2",
"U. c #F1EBE3",
"Y. c #F2EAE2",
"T. c #F2EBE2",
"R. c #F2EBE3",
"E. c #F3EBE3",
"W. c #F1EDE2",
"Q. c #F0ECE3",
"!. c #F2ECE2",
"~. c #F3ECE2",
"^. c #F3ECE3",
"/. c #F1EEE3",
"(. c #F2EEE3",
"). c #F4EDE3",
"_. c #F3ECE4",
"`. c #F3EDE4",
"'. c #F4EEE4",
"]. c #F5EEE4",
"[. c #F1EAE2",
"{. c #F6EFE8",
"}. c #F4EFE9",
"|. c #F5F0E7",
" X c #F6F0E8",
".X c #F9F2EB",
/* pixels */
"Y 3 3 3 3 8 Y 8 8 Y Y 8 Y 8 Y Y Y Y 7 Y 7 3 7 8 Y 8 Y Y Y 8 3 3 3 Y 8 3 8 3 4 3 3 3 3 4 3 3 3 3 3 3 3 3 3 3 3 8 4 Y Y 3 4 Y Y Y Y Y Y Y 8 7 8 Y Y 7 Y 8 Y 7 9 Y 9 w.P.w.b.Y Y Y Y 8 w.7 Y Y w.P.Y b.w.Y Y Y Y Y w.Y Y Y 3 8 Y 7 Y Y Y Y Y Y Y Y P.Y Y w.Y 7 8 7 8 Y 3 4 3 1 3 3 3 8 3 1 3 3 3 Y Y 3 Y 8 3 8 8 3 8 3 8 3 3 8 8 4 3 3 Y 3 3 Y 8 3 3 3 8 3 3 7 7 7 Y Y 7 7 8 3 7 Y 3 3 Y 7 Y 8 Y Y 8 3 Y Y Y Y Y Y P.w.P.Y Y Y Y Y Y Y 8 Y w.Y Y Y 7 Y Y Y Y Y Y Y 7 Y Y Y Y Y Y Y Y Y Y Y Y Y 3 3 7 Y Y Y Y Y Y Y 4 Y 3 4 Y 3 7 b.",
"Y Y 3 3 3 4 3 3 3 4 8 8 4 4 4 Y Y 3 8 3 3 3 7 7 7 8 Y Y Y Y Y 3 3 3 4 8 8 3 3 4 3 3 8 8 8 4 3 < 3 3 3 4 3 3 3 8 8 8 Y Y 4 8 8 8 7 Y Y Y Y Y Y 3 7 Y Y Y 3 3 9 Y Y b.P.w.w.w.Y Y Y Y P.3 7 7 8 Y Y w.w.P.w.Y 8 Y 8 Y w.3 8 8 Y Y 8 Y 7 Y w.P.Y Y b.P.Y w.Y 8 Y Y 8 4 4 Y Y 3 1 3 4 3 3 3 8 3 3 Y 4 3 4 4 3 3 3 4 3 4 4 3 3 4 8 8 3 3 Y 3 Y Y 3 3 4 3 3 3 Y 3 7 Y Y Y 7 3 3 7 7 Y Y 8 Y Y 4 3 8 4 Y 4 Y Y Y Y Y Y P.8 Y Y Y Y Y P.Y 8 Y 3 Y Y Y Y Y Y 8 7 7 Y Y Y 7 Y Y Y Y Y Y Y Y Y Y Y Y Y Y 3 8 w.Y Y 7 Y 8 8 Y Y Y 4 Y 7 Y P.",
"Y Y Y 4 Y 4 3 3 3 3 4 Y 8 3 3 3 Y 8 Y 8 7 7 Y 7 7 7 7 Y Y Y P.Y 3 3 3 Y 8 Y 3 3 3 3 3 8 3 4 1 1 3 3 3 3 4 4 4 8 Y 8 3 4 Y Y Y 3 3 7 Y Y Y Y w.Y Y Y Y Y 3 Y P.P.Y P.P.P.P.P.k.Y 7 Y Y 3 3 3 Y Y w.Y P.P.P.w.w.Y w.Y 8 3 Y Y 7 Y Y Y Y Y Y P.Y Y Y Y b.w.k.Y 3 3 4 Y 3 3 Y Y 4 3 1 ; < 3 3 3 4 Y 3 3 8 Y Y Y 3 Y 4 3 3 3 Y 3 3 3 3 4 Y 4 8 8 Y 4 4 3 3 Y Y Y Y Y 7 7 8 8 Y 7 7 Y 8 8 8 8 8 8 Y Y Y Y 8 Y Y Y w.w.Y Y Y Y Y w.Y P.Y Y Y 7 Y w.Y 7 Y w.Y 7 Y Y P.w.Y Y Y 7 Y Y 7 Y Y w.Y Y Y Y Y Y Y Y 3 3 Y Y Y 3 8 3 8 8 Y w.Y Y ",
"Y Y 8 Y 8 8 3 3 3 3 3 Y 3 3 Y Y Y 8 Y Y Y Y Y 3 8 3 7 7 Y Y Y Y 7 3 3 3 8 3 3 4 8 4 3 3 3 3 1 4 3 3 4 3 Y 8 8 4 3 Y Y 8 Y 8 3 3 7 7 Y Y Y Y Y Y Y 7 Y k.Y Y Y Y Y Y b.Y P.P.P.Y Y 7 7 Y Y 8 Y Y Y Y Y w.P.P.8 w.P.Y Y Y Y Y 8 8 Y Y Y Y P.Y Y Y Y P.P.w.Y Y Y Y Y 3 3 Y Y Y 4 4 ; < 4 8 Y 8 3 8 8 8 4 Y Y 8 Y Y Y 3 Y 3 3 3 Y Y 3 Y Y 4 8 3 Y Y 3 Y 8 3 3 3 3 8 7 Y Y 7 Y Y 9 8 Y Y 8 3 3 Y Y 8 Y Y Y Y Y 7 w.Y Y Y Y Y Y Y k.k.Y Y Y Y Y Y Y Y Y Y Y Y Y Y P.Y 8 Y Y Y 7 Y Y Y Y Y Y Y Y 7 8 8 Y Y Y 7 3 Y Y Y Y Y Y Y 8 8 Y Y ",
"Y Y 8 4 8 d.4 3 3 3 3 8 3 4 Y 4 Y Y 7 7 8 Y 8 Y Y 3 Y 7 8 Y Y Y Y Y Y 3 8 Y Y 8 3 3 Y 4 3 3 3 3 3 3 3 4 4 4 4 8 Y 4 Y 4 Y Y 3 3 7 7 3 8 8 Y 3 Y Y Y w.P.k.8 Y Y Y 3 5 3 Y Y Y Y Y 3 7 3 7 Y Y Y k.3 3 Y Y w.Y Y w.w.w.Y Y Y Y Y Y Y Y Y w.Y Y Y Y b.Y Y w.P.k.Y Y 3 Y Y 3 < 3 3 4 3 8 4 4 8 8 8 3 Y 4 4 Y Y Y Y Y 8 4 3 3 4 3 Y 3 Y d.8 Y Y 4 3 4 4 3 ; ; : 3 3 Y 8 Y 7 Y 8 8 Y Y 8 Y 3 3 Y Y Y Y 3 Y 7 Y Y Y Y Y Y w.Y Y Y w.Y 7 Y Y 7 Y 7 8 Y Y 8 7 7 8 Y Y Y Y Y Y 8 Y Y Y Y w.k.3 Y Y Y Y Y Y w.Y Y Y Y Y Y Y Y Y Y Y 3 Y w.",
"Y Y Y Y 3 Y Y 4 3 3 3 3 4 3 4 3 3 Y 3 7 8 Y Y Y Y Y Y Y Y Y Y Y w.Y Y 3 Y Y Y 3 3 3 3 Y 3 3 3 3 3 3 3 3 4 3 3 3 Y 3 4 Y 4 8 8 Y Y 8 3 3 7 8 3 8 3 3 Y Y 8 Y Y 3 3 3 Y 1 3 Y Y Y Y 8 9 Y Y Y 7 Y Y Y Y Y Y Y w.Y w.Y Y Y w.w.Y Y 7 Y w.Y k.Y w.Y Y Y 9 Y Y Y Y Y Y Y Y 8 1 ; ; 3 1 4 8 4 8 3 4 8 3 3 4 Y Y 4 4 Y Y 3 3 3 8 4 4 8 4 3 Y 3 3 4 4 3 Y 3 < 3 < ; ; 3 7 7 7 7 Y Y Y Y Y 8 Y 3 3 8 Y Y 3 3 3 Y Y Y Y Y Y 7 Y Y Y Y Y Y Y Y Y 3 3 3 3 3 3 7 Y 7 3 8 3 8 Y Y w.Y Y Y Y w.w.Y Y Y Y Y Y 8 Y Y Y Y Y Y Y Y Y Y w.Y Y Y 3 Y ",
"Y Y Y Y Y Y Y 4 Y Y 4 3 4 3 3 4 3 7 7 7 3 8 Y Y w.w.Y Y b.Y Y 3 Y Y P.Y Y Y Y 3 8 3 ; Y Y Y 4 3 3 1 3 3 3 8 4 Y Y Y 4 3 4 Y 8 8 Y 3 8 3 3 3 1 3 Y Y 7 Y 7 8 Y 3 7 3 P.3 3 7 Y Y Y Y Y b.b.Y Y Y Y Y Y 7 8 Y Y Y Y Y w.Y Y Y Y Y 7 7 Y Y P.Y Y Y Y Y Y Y Y Y Y Y Y Y 8 3 7 3 < 3 3 3 3 4 3 3 3 4 Y 4 3 8 8 3 3 3 Y 3 4 4 Y 3 4 8 Y 8 Y 4 4 3 4 7 3 Y 1 3 3 3 3 3 Y Y Y 3 8 Y Y 7 7 7 Y Y 7 7 7 Y 3 3 3 7 Y Y 8 Y 8 3 Y Y Y Y Y Y 8 3 3 3 3 Y 8 4 3 8 3 3 3 Y Y Y Y Y P.Y Y Y Y P.k.Y Y Y w.Y Y Y Y Y Y Y 8 Y k.4 Y Y Y Y Y Y 7 Y ",
"Y Y Y Y Y Y 8 Y 8 d.Y 4 4 3 3 4 3 7 7 3 8 Y Y Y Y 7 7 Y Y Y Y Y 3 Y P.b.3 3 Y Y Y 3 3 3 3 3 3 3 3 3 3 3 3 8 Y 8 3 3 8 3 3 4 Y 8 Y Y Y 8 4 4 Y Y 3 Y Y 3 8 Y Y Y Y k.Y 1 7 Y Y Y Y Y Y 9 Y P.w.k.w.w.Y Y 8 Y Y Y 8 Y Y Y Y Y Y 7 Y 7 3 7 Y Y Y Y Y Y Y Y Y Y 8 Y Y Y 8 8 8 3 3 Y 3 3 3 3 3 3 3 3 8 4 3 Y 8 8 4 3 4 4 3 3 3 3 8 8 3 Y 4 3 4 3 3 7 7 Y 3 ; < 3 3 3 Y Y 7 3 7 3 Y Y Y Y 3 Y 7 7 Y Y 3 3 Y Y Y Y 7 Y Y 3 4 Y Y Y Y Y Y Y 3 3 3 Y Y 4 3 3 Y 4 Y Y Y Y Y w.P.w.Y Y Y w.Y w.Y Y Y Y Y Y Y Y Y Y Y Y d.Y Y Y Y Y Y Y Y k.",
"b.b.P.Y 9 Y Y 8 Y 3 8 8 4 3 3 3 3 3 3 Y 3 7 Y Y 8 Y Y Y Y Y Y Y 9 Y Y Y Y 7 9 Y Y Y 8 3 Y 4 4 3 4 3 3 3 3 3 3 4 3 3 3 8 4 Y 8 8 4 Y 3 4 Y 8 Y 4 Y 3 3 Y Y 8 k.Y Y Y 3 7 Y Y Y Y Y Y 9 3 Y P.P.w.P.k.3 8 Y Y Y Y Y Y Y Y Y Y Y w.Y Y Y 3 3 Y Y Y Y w.Y Y Y Y Y Y Y Y 3 8 7 Y 7 3 7 3 Y 3 3 4 4 8 8 3 Y 4 4 8 3 3 4 4 3 4 3 3 4 8 4 Y 4 3 3 3 4 8 7 Y Y 3 ; 1 3 3 3 Y 7 8 Y 3 3 3 8 Y 7 Y Y Y Y Y Y Y Y Y Y 7 3 8 8 Y Y Y Y Y Y Y 8 8 3 3 8 Y Y Y Y 3 Y Y Y 8 Y Y 8 k.Y Y Y w.Y Y Y Y Y Y Y Y Y Y Y Y Y Y Y Y Y 4 Y 8 Y Y Y Y Y Y ",
"P.Y b.P.b.P.Y 8 Y 3 3 3 4 8 4 4 3 3 8 7 8 3 Y Y Y Y Y Y Y Y Y Y Y Y 3 3 Y Y 9 P.Y Y Y 7 8 4 4 3 3 3 3 3 3 4 3 3 Y 3 3 8 8 Y 8 8 3 8 8 4 Y 4 Y Y Y 7 Y Y 3 Y Y Y Y Y Y Y w.Y Y Y Y Y Y Y Y Y b.P.P.w.8 8 Y 7 3 Y P.Y Y Y Y 7 Y k.Y 7 Y 8 3 3 Y Y Y Y k.Y Y Y Y 3 Y Y Y 8 Y Y Y 3 3 Y 3 4 4 4 3 4 3 3 4 4 3 Y Y 3 3 3 3 3 3 3 8 4 Y 3 4 Y 8 8 Y Y 3 Y Y Y 3 3 Y 3 3 Y 3 3 Y 8 3 7 8 3 3 8 Y Y Y Y Y 7 7 Y Y 3 3 3 3 3 Y Y Y Y Y Y Y Y 8 Y Y Y Y Y 4 Y 4 Y Y 8 Y 7 Y w.Y Y Y k.Y 3 8 Y Y w.Y Y Y Y Y Y Y Y Y Y Y Y Y Y Y Y Y Y Y w.",
"Y Y Y Y b.b.Y Y d.P.Y 3 8 4 4 3 3 7 7 3 Y 3 Y Y Y Y Y Y Y b.Y Y Y Y 3 3 b.9 Y P.w.Y w.Y 3 3 3 4 4 4 3 3 3 4 8 4 Y Y d.Y Y Y Y 3 4 Y 4 Y 4 3 Y Y 8 Y 3 7 3 3 Y Y Y Y 7 8 Y Y Y Y Y 9 Y Y Y {.b.Y Y P.w.Y Y Y Y Y Y P.Y Y Y 8 Y Y w.Y 3 7 7 3 7 Y Y Y Y Y Y Y Y 8 Y w.Y Y Y Y Y Y 3 Y 3 3 3 3 4 3 3 4 4 4 8 8 Y 3 4 4 3 3 3 3 4 3 4 4 4 3 4 4 4 7 3 Y Y 8 8 4 3 3 8 8 8 Y Y Y 3 Y 7 Y 7 8 Y Y 3 7 Y Y 7 3 7 7 7 3 8 4 Y Y Y Y Y d.Y Y Y Y Y Y Y Y 4 Y 3 3 8 Y Y Y b.Y w.w.w.Y k.Y Y Y Y Y w.Y Y Y Y Y Y 7 Y Y k.Y Y Y Y 7 8 Y Y P.",
"Y Y Y Y Y 7 Y Y Y Y Y Y 8 3 3 3 8 3 3 8 8 8 3 3 Y Y Y Y 9 Y Y Y P.Y 9 9 Y Y Y P.b.Y Y Y Y 3 3 3 3 3 3 8 8 8 Y 4 3 Y 8 7 3 8 Y Y 7 8 8 Y 4 3 Y 8 Y Y Y 8 Y Y 8 3 8 Y Y Y 7 7 Y Y Y Y 8 Y Y Y Y Y Y Y Y Y Y Y Y Y Y Y Y Y Y Y Y Y Y 8 3 3 8 7 3 Y Y 7 Y 3 7 Y Y Y Y Y Y w.w.Y Y 7 Y Y 7 3 3 3 3 3 3 Y 4 4 3 8 Y 3 Y 4 4 3 4 4 Y Y Y Y 4 3 3 3 3 Y Y 4 3 8 Y 8 3 Y 4 4 8 Y 8 Y 4 7 3 8 Y 8 4 Y 3 Y Y Y Y 3 3 3 Y Y 3 8 8 Y Y Y Y w.8 7 8 Y Y 7 3 Y Y 7 8 7 Y 7 3 Y Y w.Y Y Y Y k.Y Y 8 3 7 Y Y Y Y Y Y Y Y Y Y k.Y Y Y Y Y Y Y Y P.",
"Y Y Y Y Y Y Y 7 7 8 8 4 8 3 3 3 4 4 3 8 8 8 7 Y 7 Y Y 3 Y Y Y Y Y Y Y 3 Y Y 5 c.Y 9 Y Y Y 8 3 3 4 3 3 Y 3 3 3 8 3 Y Y Y 3 Y Y 7 7 Y Y 4 4 8 3 8 4 Y Y 3 Y Y 8 8 8 8 4 3 8 Y Y 7 7 Y Y Y Y Y Y Y Y Y Y Y Y Y Y Y w.Y Y P.Y Y w.Y Y 3 Y 7 8 Y Y 7 3 Y Y Y Y Y Y Y Y Y k.Y Y w.Y Y Y Y 8 3 3 4 3 3 4 Y 3 3 3 3 Y 8 Y 8 Y 3 3 Y 8 8 4 8 4 4 3 3 Y 8 8 4 3 3 4 Y Y 3 Y 8 Y 8 8 8 Y Y 4 3 3 8 Y Y 4 4 Y Y 3 3 3 4 3 3 Y Y Y 4 Y Y Y w.Y Y Y Y Y Y Y 7 Y 7 7 7 8 Y 3 3 Y P.k.k.Y Y Y Y Y Y 3 Y Y Y k.w.Y Y P.Y Y Y P.w.7 Y 3 Y Y 7 3 Y ",
"Y Y Y Y Y w.Y Y 3 Y 3 3 8 4 4 3 3 4 3 Y 8 3 7 3 3 Y Y Y 9 Y 3 Y Y Y Y 9 Y Y Y Y Y 9 9 Y Y 8 3 3 3 3 3 3 3 3 4 Y 8 7 Y Y Y Y Y 7 3 7 Y 4 3 Y 4 Y Y 8 4 3 Y 8 Y 8 8 3 Y 8 Y Y 3 3 Y Y Y Y Y Y Y w.P.Y Y Y Y Y Y Y Y Y Y Y w.P.Y w.Y 3 7 8 Y 8 3 Y 8 8 8 3 Y Y Y Y Y Y Y 3 Y Y Y w.k.Y Y 4 8 8 4 4 Y 4 3 3 8 8 4 4 4 Y Y 8 Y Y 4 4 3 3 4 4 3 3 4 4 3 8 8 4 Y 4 Y Y 4 8 Y 8 8 Y 8 Y 3 4 8 4 Y 3 Y 8 Y Y 3 3 3 4 3 3 Y Y Y Y Y 8 3 Y w.Y Y Y Y Y Y Y Y 7 Y 7 3 Y Y Y w.Y P.w.P.P.8 Y Y Y 7 Y Y 8 Y w.Y 7 w.Y Y Y Y Y Y Y Y Y Y Y Y P.",
"Y Y Y Y Y Y Y Y 3 3 3 1 3 4 8 3 3 8 3 8 3 3 3 Y Y Y Y 3 3 Y Y Y Y Y Y 9 Y Y Y Y Y Y Y Y Y Y 4 3 3 3 3 3 4 4 3 3 8 7 Y 7 7 Y 7 7 3 3 8 d.4 3 8 8 8 Y 4 Y Y Y Y Y 3 3 3 7 Y Y Y 7 7 3 3 7 8 3 7 Y Y Y Y Y Y Y Y w.3 Y Y Y Y Y Y P.w.3 3 3 Y Y Y Y 8 Y Y Y Y Y 8 Y Y 3 Y 8 Y Y w.Y w.w.Y Y 4 4 3 3 Y Y 4 8 Y Y Y 8 3 3 Y Y 3 Y Y 4 3 3 3 3 3 3 3 3 3 4 Y 8 4 3 3 8 3 Y Y 4 Y 3 Y Y Y Y Y 8 3 4 4 Y Y Y 3 3 3 8 3 3 4 8 4 Y Y Y Y Y w.Y Y Y Y Y Y Y 7 Y 7 3 3 Y Y Y w.Y Y 7 Y w.Y 3 7 7 8 7 Y 8 3 Y Y Y Y w.Y Y Y Y Y Y Y Y Y Y Y Y ",
"w.Y Y Y Y Y Y Y 8 3 3 3 8 3 3 4 3 3 3 3 3 3 7 Y Y Y Y Y 7 Y Y 7 7 Y Y Y Y Y Y Y Y Y 3 9 Y Y 8 3 3 3 3 3 4 3 3 3 8 3 8 8 8 Y 7 7 Y 3 8 4 3 3 Y 8 8 4 8 Y Y 8 8 Y 3 3 3 Y 7 Y Y Y Y 3 3 Y Y 7 3 Y Y Y Y Y Y Y Y Y Y 7 Y 7 Y Y 7 Y P.Y Y Y Y Y Y Y 8 3 Y Y 8 3 Y 3 7 Y Y Y 3 w.Y Y 8 Y Y Y 3 8 3 3 3 4 4 8 4 Y Y 8 Y 3 4 Y 4 Y Y 4 4 3 3 3 3 3 3 4 4 3 3 4 3 4 3 8 4 Y Y < 3 3 Y 8 8 4 Y 3 3 Y 3 Y Y 8 3 3 3 3 3 3 4 8 4 8 Y Y Y Y k.Y Y Y Y Y Y Y Y 8 7 Y Y Y Y Y Y Y Y Y 3 P.Y 7 Y Y 3 : Y w.3 8 Y 3 Y Y Y w.Y Y Y Y Y P.Y 7 Y Y ",
"P.P.P.P.Y Y Y Y 8 7 Y Y Y 8 8 3 3 3 3 3 3 3 8 8 7 Y Y Y 8 Y Y 7 7 3 Y b.Y Y Y 3 3 Y 3 3 Y Y Y 3 3 3 1 3 4 4 4 8 8 3 7 7 7 Y Y Y 3 3 8 3 4 8 Y Y 3 4 Y Y Y 4 Y 8 3 3 3 8 Y Y Y Y Y 7 7 Y 7 7 7 7 Y Y Y Y 7 Y Y Y w.Y Y 7 Y w.Y Y w.w.b.w.Y 7 7 Y Y Y 8 7 8 3 Y 3 3 Y Y Y Y Y Y Y 3 7 Y 3 8 Y 7 3 3 3 Y 4 8 Y 8 4 Y 3 Y 8 4 Y Y 3 3 3 3 4 3 3 3 3 3 3 3 3 Y Y Y Y 3 8 Y 3 3 Y Y 4 8 Y Y 4 8 4 Y Y Y Y Y 8 8 8 Y Y Y 8 8 Y Y Y Y Y Y Y Y Y Y Y Y Y Y 7 Y Y Y Y Y Y Y Y Y Y 7 w.w.7 7 7 Y 3 3 Y Y k.Y 7 Y Y Y Y Y 7 w.Y Y w.Y Y Y Y ",
"Y P.P.P.P.b.b.b.Y 5 Y 3 3 3 8 4 8 4 8 3 3 3 3 3 8 Y Y Y Y Y Y Y Y Y Y Y Y Y Y Y 9 Y 3 Y P.b.Y 3 7 3 1 3 3 3 3 8 Y 3 7 8 3 Y Y 7 3 3 7 Y 8 8 8 8 3 3 8 4 4 Y 4 Y 8 3 3 3 Y 8 7 8 Y Y 8 Y 7 7 Y Y Y Y w.Y 3 Y Y Y Y w.Y Y Y Y Y 9 Y Y Y w.Y Y Y Y Y Y Y Y Y 7 3 Y Y Y Y Y Y Y 7 Y 3 Y 8 Y Y Y Y 7 7 Y Y 3 3 7 Y 8 4 8 8 Y Y Y Y 3 3 8 Y Y 4 3 3 3 8 4 3 Y 8 3 8 Y 8 8 Y 4 3 Y 4 4 4 8 3 4 Y Y Y Y 8 4 3 8 Y Y Y Y 8 Y Y 3 4 Y 4 Y Y 8 8 Y 8 @ < Y Y Y Y Y Y Y Y P.Y 7 Y Y Y Y w.7 7 8 8 Y Y Y 4 Y Y 7 7 Y Y Y Y 3 Y Y Y Y Y Y Y w.",
"Y Y Y Y P.Y Y Y Y Y Y 4 3 3 3 3 4 4 8 3 3 4 3 3 3 7 8 8 Y Y Y Y Y Y Y Y Y b.Y Y Y 9 9 Y Y Y 9 3 3 3 3 3 3 3 3 3 Y Y 7 Y Y Y Y Y 8 8 3 4 3 3 3 3 Y Y 8 3 Y Y 8 3 1 1 3 3 3 Y 8 Y Y Y Y Y Y Y Y Y Y Y Y Y Y Y Y Y Y Y P.Y Y Y Y 7 3 8 9 Y Y Y w.Y Y 7 Y Y Y 3 Y Y 3 Y P.P.Y Y Y Y Y Y 7 7 Y Y Y Y Y 3 Y 3 3 Y Y Y 4 4 Y 8 Y 4 3 3 4 4 4 8 8 4 3 3 3 4 3 8 8 4 Y 8 4 4 3 3 3 3 Y Y 3 8 3 3 8 8 Y 8 4 3 3 8 Y Y 4 3 4 4 3 8 8 Y Y Y Y Y Y Y 4 1 Y d.Y w.P.k.Y Y Y w.w.Y Y Y Y Y Y Y Y 8 3 4 Y Y 8 8 7 Y 7 Y Y 3 Y 3 Y Y Y Y 8 Y Y Y ",
"Y Y b.Y Y b.Y Y Y Y Y Y 4 3 3 Y 3 3 3 < 3 3 3 Y 3 3 3 7 7 Y Y Y 3 3 9 Y Y P.Y Y Y Y Y Y Y Y 5 3 3 3 3 3 3 3 Y 8 3 3 7 Y 7 8 Y Y 3 Y 3 3 3 3 3 3 3 4 8 4 4 4 < 3 4 4 3 3 Y Y Y 8 Y Y 7 8 Y Y 7 Y 7 Y Y Y Y Y Y 9 Y Y Y w.9 w.Y Y 8 8 3 Y 7 Y Y Y Y Y Y Y Y Y Y Y Y Y .XP.Y Y Y Y Y Y Y 3 Y Y Y Y Y 3 Y Y 3 8 Y Y 3 4 8 Y 8 3 3 8 4 3 3 4 Y 4 4 Y 3 3 3 3 8 Y Y Y Y 3 3 3 3 8 4 Y 4 k.3 3 3 8 Y 8 4 8 3 4 4 8 Y Y 8 3 8 Y Y Y Y Y 8 8 8 Y Y Y Y Y Y Y Y Y Y Y Y w.Y Y Y Y Y Y Y 7 7 3 Y 4 Y Y Y 3 3 7 Y Y Y Y Y Y Y 7 Y 8 Y Y Y k.",
"b.b.Y P.Y Y Y Y P.Y Y Y Y Y Y Y 3 3 ; 3 1 3 3 8 Y 3 3 3 3 Y Y 8 3 7 Y 9 Y Y Y Y Y 3 5 Y Y Y 9 3 Y 3 3 3 3 3 8 Y Y 8 3 Y Y 3 3 3 8 7 1 4 3 3 3 3 3 8 4 8 4 8 3 3 Y 4 3 3 3 3 8 7 Y Y Y 8 Y 8 Y Y Y Y Y Y Y Y Y Y Y Y Y Y Y w.Y 7 Y Y 8 3 7 8 Y w.Y Y w.Y 7 Y Y Y 9 Y b.9 9 Y Y Y 7 7 Y 8 8 Y Y Y 8 7 Y 8 Y Y Y Y Y 4 4 Y 8 3 3 3 3 8 3 Y Y 4 4 Y 4 3 3 3 3 3 3 3 Y 4 4 3 8 Y 8 Y 8 4 8 3 4 Y 8 8 8 4 3 4 3 3 3 3 8 8 3 3 8 Y Y 4 8 3 8 Y Y 8 Y Y Y Y 7 Y Y 8 w.w.9 Y Y 7 7 3 Y Y 3 8 4 3 3 3 4 8 Y 7 Y Y Y k.w.Y Y 7 Y 8 Y Y w.P.",
"Y b.P.P.Y Y 9 Y Y Y 9 8 Y 4 4 Y 4 3 ; 3 3 4 3 8 Y 7 3 3 3 7 3 8 7 9 Y Y 9 Y Y Y Y 3 Y Y Y Y Y 5 9 7 3 3 3 3 3 Y Y Y Y Y Y 7 7 3 Y Y 3 4 3 3 3 4 3 Y 8 Y 4 4 8 3 3 8 8 8 7 Y Y 8 Y Y 7 7 Y Y Y Y 7 Y Y w.Y w.Y Y 7 7 7 Y 9 Y Y Y 4 3 1 3 Y Y Y k.w.w.k.Y Y Y w.Y Y Y 3 9 Y 3 8 3 7 7 3 7 3 3 Y Y Y Y 7 7 Y 8 3 < 3 3 3 8 Y 3 ; 3 3 Y 3 3 3 4 8 Y Y Y 4 Y 3 3 3 3 Y Y 3 3 4 3 3 4 8 Y 8 3 3 4 4 8 Y 3 8 3 4 3 3 3 3 3 4 3 4 4 8 8 3 3 Y Y 8 4 3 Y Y Y 3 8 Y Y w.w.Y 3 3 3 3 3 Y 3 3 3 Y 1 ; 8 3 3 7 Y Y Y Y Y P.Y Y Y Y Y 7 Y Y P.",
"Y Y b.Y Y Y 3 3 6 3 3 3 4 8 Y Y 3 ; 3 3 4 3 3 4 8 Y 3 3 3 7 3 3 3 Y Y 3 7 Y Y Y Y Y Y Y Y Y 7 3 3 4 3 3 3 3 8 3 3 3 Y Y Y Y 8 3 3 8 3 4 8 3 3 3 3 Y Y Y Y Y 3 3 3 3 3 3 3 8 Y 8 Y 7 3 7 Y Y 3 Y w.Y Y Y Y Y 7 Y Y 3 3 9 Y Y Y Y Y 3 3 3 Y Y Y Y Y Y Y Y w.Y w.w.Y Y Y 3 7 Y Y 8 Y 7 7 8 3 8 8 3 Y Y 7 7 8 3 4 < 3 4 3 Y 4 3 4 3 3 3 3 3 3 4 4 3 Y Y 3 3 3 4 3 3 Y Y 3 3 3 3 4 Y 3 3 4 Y 4 4 Y 4 4 8 Y Y Y 3 8 3 4 3 8 3 8 Y 3 3 3 3 3 Y 3 3 3 4 Y Y 8 8 7 Y w.P.Y 3 3 3 Y 3 8 : : 3 8 Y 3 8 Y 8 Y Y Y P.Y 3 Y Y Y Y Y Y 7 Y 8 w.",
"Y Y Y Y Y Y 3 4 Y 8 3 4 4 Y Y 3 3 3 8 Y Y 3 3 4 3 3 3 1 < 3 3 3 3 3 Y Y Y Y Y Y Y Y Y 3 Y Y 3 3 3 3 3 3 3 3 3 3 3 3 8 Y Y 8 Y 4 4 3 3 3 4 Y 3 3 Y Y Y 3 4 8 8 4 3 4 3 4 Y 8 Y Y Y Y 7 Y Y Y Y Y Y 8 Y Y 7 Y 3 3 7 Y 7 3 Y 8 Y Y Y Y 3 8 8 Y Y Y Y Y Y Y Y Y Y Y Y w.Y Y Y Y Y Y 7 7 7 3 3 Y Y 3 Y Y 7 7 8 3 3 ; ; 3 8 4 8 3 8 8 4 4 8 8 3 8 3 3 3 4 8 4 3 3 3 3 3 8 3 3 3 8 3 3 3 3 8 Y Y Y Y Y 3 3 3 3 3 3 4 8 Y 3 3 3 4 8 Y Y 3 3 Y Y 3 4 3 8 Y Y Y Y 3 3 Y P.Y 3 3 Y w.Y 7 8 3 3 3 8 3 8 8 3 7 Y Y w.Y 4 Y Y Y Y 3 7 Y Y 7 w.",
"Y Y Y Y Y Y Y Y 3 Y 3 3 4 3 3 3 4 4 Y Y 3 3 3 8 3 3 3 4 3 3 3 3 4 8 8 Y Y Y Y 8 4 3 Y 3 Y Y 3 Y Y 4 3 3 3 4 8 3 1 3 3 3 Y 8 8 8 Y 4 3 3 3 3 Y 3 Y Y 3 Y 4 8 Y 4 3 3 3 3 8 Y Y Y Y 8 Y Y 8 Y Y Y 3 3 Y Y Y Y Y Y 3 3 Y Y 7 3 7 Y 3 Y 8 8 Y Y Y Y Y Y Y Y Y Y 7 Y Y Y Y Y Y 7 8 Y Y Y 3 3 3 Y Y 3 Y 7 7 8 Y 3 ; ; 3 8 Y 3 3 3 4 8 3 3 Y Y Y 3 8 Y Y 8 4 Y 4 3 3 3 Y d.3 3 Y 3 3 3 3 3 8 Y 8 Y 4 8 Y 4 3 3 3 4 4 3 3 Y 4 3 8 3 Y 4 3 8 Y Y Y 3 3 Y Y Y 8 4 Y 4 Y w.Y 7 : 3 Y Y 3 3 3 ; ; 3 8 Y 4 8 Y Y Y Y Y Y Y 8 8 3 3 Y 3 3 3 w.",
"P.b.P.c.Y 3 4 Y 4 4 3 Y 3 ; 1 3 3 3 Y 8 3 3 3 3 3 3 3 3 8 8 3 1 3 3 3 7 8 8 8 8 8 3 3 3 1 3 3 8 4 4 4 3 3 3 3 3 ; ; 1 3 Y 4 4 Y Y Y 4 4 3 8 Y 3 Y 4 4 Y Y Y Y Y 3 4 3 4 3 3 3 3 8 Y 8 8 7 3 3 Y Y 7 Y 8 7 3 8 Y 3 ; Y Y 3 3 8 8 8 8 Y Y Y Y Y Y Y 7 Y Y Y Y Y Y Y Y w.Y w.Y Y 7 Y Y Y Y Y P.8 7 7 Y 7 3 : ; < 3 Y 3 8 Y 3 3 8 3 3 3 3 Y Y 3 8 Y Y 3 8 3 3 8 8 3 Y 8 Y 8 3 3 Y Y 8 Y Y Y 8 Y Y 8 Y Y 3 4 Y 4 8 8 3 ; Y 8 3 3 3 Y 8 4 3 3 8 8 3 4 4 8 3 4 Y 4 Y Y 8 8 3 : 3 Y 7 Y Y 3 3 3 3 3 8 Y Y Y Y Y Y Y k.3 3 ; 3 Y 3 3 7 Y ",
"Y Y b.Y Y 9 4 8 3 3 3 4 3 3 Y 8 3 8 Y 8 4 8 3 3 4 8 3 3 3 3 4 3 4 3 : 3 8 8 8 Y 4 3 % 4 3 ; 3 4 4 8 Y Y 3 3 3 3 3 3 3 4 4 4 3 8 4 Y Y 3 8 8 3 3 4 4 8 4 4 Y 3 Y Y 4 3 4 3 3 3 3 4 8 3 3 3 3 3 3 3 Y 7 Y Y 3 Y Y Y 8 Y Y 7 7 w.Y Y 3 Y Y Y Y Y Y Y Y Y Y 7 7 7 7 Y Y Y Y 8 Y Y Y Y w.Y Y Y Y 7 Y 8 7 3 7 3 : Y 3 Y 3 Y 4 3 3 3 3 4 3 3 Y Y 8 Y 8 4 4 3 4 8 4 8 4 3 3 8 Y 3 Y Y Y Y Y Y Y Y 8 4 ; 3 Y 4 4 4 8 8 8 3 8 3 8 8 Y Y Y 4 3 3 3 4 4 Y Y 4 Y Y Y P.3 Y Y 7 7 7 3 ; 3 Y Y 7 8 3 4 3 3 3 Y Y Y Y Y Y Y Y 3 3 3 3 8 Y Y 8 Y ",
"b.Y 9 Y Y Y 4 3 3 3 ; ; 4 3 ; 4 Y Y Y 4 Y Y 8 3 8 Y 8 3 3 3 3 Y Y 3 3 3 3 3 3 8 8 Y Y 3 Y Y 3 3 4 Y Y Y 3 3 3 3 3 3 3 3 Y 3 < 3 8 8 Y 3 Y Y 8 3 4 4 3 4 Y Y Y Y Y 4 4 3 4 8 4 3 3 3 3 3 3 3 7 8 7 3 7 Y Y Y Y Y Y 8 Y Y 7 7 8 Y 8 8 Y Y Y Y Y Y Y Y Y Y Y Y 3 7 3 3 Y Y 8 Y Y 8 Y Y P.Y 7 7 Y Y Y 3 7 Y Y Y 8 8 Y 8 Y 3 3 4 8 4 Y 3 3 Y 8 3 3 3 8 Y 3 3 8 3 3 Y 3 8 8 3 8 8 Y Y Y Y Y Y Y Y 8 3 8 8 8 Y 8 4 8 8 3 Y 3 3 3 Y Y 8 8 4 3 3 4 4 Y Y 8 3 8 3 Y Y Y Y 8 7 Y Y Y 3 3 3 Y Y 3 Y 3 3 8 8 Y 3 3 Y Y Y Y 3 4 3 Y Y Y Y Y Y ",
"Y 7 7 7 Y Y 3 3 Y Y 3 3 4 3 ; 3 3 3 Y Y Y 8 7 3 3 7 8 8 ; < 3 3 8 4 3 3 3 ; 1 3 3 3 3 4 3 7 8 3 3 8 3 8 3 3 1 3 3 3 3 3 8 3 3 3 8 8 Y Y 8 Y 4 3 4 3 8 8 4 3 4 d.3 3 3 3 4 8 8 3 3 3 3 3 3 3 4 4 8 4 3 Y Y Y Y Y Y 4 Y Y Y Y 4 4 3 4 Y Y 8 7 Y Y Y Y Y 7 Y Y Y Y Y 3 7 Y 3 3 3 3 Y 8 8 Y Y 8 3 7 Y Y 8 8 3 3 Y Y 8 Y Y 8 3 4 3 3 3 3 3 Y 8 4 3 3 8 8 3 3 3 4 8 Y Y 8 Y 8 8 7 Y Y 8 Y Y Y Y Y Y Y Y 3 7 7 Y Y 7 3 8 Y 3 8 4 3 8 8 4 8 8 3 Y Y Y 3 4 Y 8 Y Y Y Y Y Y Y Y 8 Y 3 3 Y Y Y 7 Y 7 7 Y 3 4 3 3 Y Y Y Y Y Y Y Y 7 8 3 3 Y ",
"3 7 3 3 7 Y Y Y Y Y 6 Y 8 8 4 3 1 3 4 8 4 4 Y 7 3 3 Y Y < ; 3 Y 8 8 4 3 3 3 3 3 3 3 8 3 3 7 Y 7 3 3 Y 8 3 3 3 8 Y 4 3 3 3 4 3 3 3 3 3 4 4 3 3 Y 8 3 4 4 8 8 8 8 3 3 3 3 8 4 3 3 3 4 8 3 3 3 3 8 3 3 8 Y 8 8 8 Y 8 3 3 Y Y 8 4 4 8 4 4 Y Y Y Y Y Y 7 Y Y Y Y Y Y Y Y 7 3 3 3 Y w.7 7 Y Y Y Y Y 7 7 Y 8 Y Y 7 8 Y Y Y 8 8 3 3 < 3 < 8 4 Y Y Y 8 8 3 8 8 8 Y Y 8 3 Y Y 8 8 8 Y 7 Y 4 8 3 3 Y 3 8 Y 3 Y Y Y 8 Y Y 3 Y Y Y 8 3 3 4 4 4 4 Y Y 4 Y Y 8 Y Y 4 Y Y Y Y Y Y Y Y Y 7 8 3 Y Y 3 8 Y 3 3 3 3 3 3 3 3 8 Y Y Y Y Y Y Y 3 7 3 Y ",
"Y Y Y 3 3 Y Y 6 Y Y Y Y 4 8 3 3 3 3 4 4 3 3 7 Y 3 8 7 Y 8 3 ; 1 4 Y 4 8 3 3 3 3 3 3 4 4 4 8 3 3 Y Y 4 3 4 8 Y 3 3 Y 8 Y 4 8 8 3 3 3 3 3 3 3 8 8 3 Y 4 3 4 8 8 3 4 3 3 3 4 8 8 8 Y 3 3 3 3 3 8 Y 4 3 3 Y 3 8 8 3 Y 4 Y 8 4 3 4 Y 4 8 4 3 Y Y 8 7 7 7 Y Y Y Y Y Y Y Y Y 8 Y Y 8 7 Y Y Y 7 Y Y w.Y Y Y Y 7 7 3 7 8 8 8 4 Y 3 3 3 3 < < 3 8 Y Y 3 3 7 7 Y 8 Y 3 3 3 8 Y Y Y 7 7 7 7 4 4 4 4 8 Y 7 3 3 Y Y Y 8 Y Y 8 Y 7 Y 8 3 3 3 8 3 3 3 4 3 3 Y Y 3 3 3 4 Y 8 Y Y Y Y Y 7 7 Y Y 7 8 8 8 8 8 7 Y 8 3 1 3 3 4 Y Y Y 8 Y 8 8 7 Y 8 Y ",
"w.Y Y 7 Y Y Y Y Y Y P.Y 3 3 3 8 8 8 4 8 3 3 7 Y 7 8 8 7 Y 3 3 3 3 3 3 Y 3 3 3 3 3 3 3 4 4 3 3 8 3 3 3 3 Y 4 4 3 3 3 Y 4 8 8 3 3 3 4 3 8 3 4 3 3 4 3 Y Y Y 4 3 8 8 4 3 3 3 3 Y Y 8 4 3 3 4 3 3 3 3 3 3 Y 8 Y ; = 1 3 8 8 Y 8 8 4 8 Y 8 4 3 Y 7 3 7 Y Y Y Y Y Y 7 Y 7 Y Y Y 7 Y Y 8 Y Y 7 Y w.Y P.Y 8 Y 8 3 3 7 3 3 4 4 3 1 3 4 1 3 3 4 4 8 8 3 3 8 Y Y 8 7 3 3 4 Y Y Y Y Y 3 3 Y 3 3 3 8 Y Y Y 3 7 3 7 Y Y Y Y Y Y 7 Y Y 3 3 4 8 3 3 3 3 3 8 Y Y 4 4 4 3 Y 8 Y Y Y 7 7 Y Y Y Y Y 8 Y 3 Y Y Y Y 8 3 ; 3 3 8 Y Y Y 3 8 8 8 Y 7 7 Y ",
"7 Y 3 Y Y 3 Y Y Y Y Y Y 8 3 3 4 Y Y Y Y 8 Y 8 3 7 8 8 7 8 3 3 3 3 3 3 Y 4 3 3 3 3 3 3 3 3 8 3 3 ; 3 3 3 4 3 8 3 3 3 8 4 3 Y 3 < 3 3 3 1 Y Y Y Y Y Y Y Y Y 8 Y Y 3 3 3 3 3 3 8 Y Y Y 4 8 3 3 3 4 8 4 3 4 Y 3 3 1 ; 3 8 8 Y 8 8 3 Y Y Y Y Y 3 Y Y Y Y Y Y Y 8 Y Y Y Y Y 8 Y Y w.Y Y Y 7 Y Y Y Y Y Y Y Y 7 7 8 3 3 Y 4 3 8 3 3 Y Y Y Y 4 8 8 Y 3 7 Y Y 7 3 3 4 3 3 8 8 7 Y Y Y 7 Y Y 4 3 3 3 3 8 3 7 3 7 Y Y Y 8 Y Y Y 7 7 9 7 3 Y 4 3 3 3 3 8 4 4 Y Y Y Y Y 8 Y Y 8 3 3 Y Y Y Y Y Y Y 3 7 7 Y Y 8 3 3 3 3 8 Y Y Y Y 3 3 Y Y Y 7 Y ",
"7 9 7 Y b.Y Y Y Y Y Y Y Y Y Y 8 3 Y 8 Y Y Y Y 3 Y 9 7 Y 8 Y Y 3 3 3 Y Y Y 4 3 3 1 1 1 ; ; 1 1 1 3 1 3 4 4 4 4 3 3 3 3 3 3 4 7 3 3 3 3 3 Y Y Y Y Y Y Y b.Y Y Y Y 7 Y 3 3 3 3 3 9 5 6 Y Y Y 5 3 3 3 3 4 8 Y 8 8 8 8 3 8 8 3 4 Y Y 4 Y 4 4 Y Y Y Y w.k.Y Y Y Y Y Y Y Y Y 3 Y Y Y Y Y Y Y 7 Y Y Y Y Y Y Y Y w.Y Y Y 8 Y Y 8 4 3 3 Y Y Y Y 3 7 Y 3 3 Y Y Y 3 3 3 7 8 Y 8 Y Y Y Y 7 7 8 Y 8 3 3 3 8 4 7 7 8 Y 8 8 Y Y 8 Y 7 7 9 Y 8 3 3 Y 8 4 3 3 Y Y 8 Y Y 8 Y 3 Y 8 Y 8 8 8 Y Y 8 Y 8 7 7 7 8 Y Y Y Y 8 3 Y 3 Y Y Y Y 3 8 Y Y 8 3 Y ",
"Y Y Y P.b.Y Y Y Y Y Y Y Y Y Y Y 8 3 8 8 Y 3 Y Y Y Y Y Y 8 Y Y 7 3 3 4 Y 3 3 8 ; 1 3 1 ; = = = ; 1 1 3 3 3 3 3 3 Y Y 3 3 3 3 7 Y 3 7 Y Y Y Y 3 Y Y Y Y b.Y Y Y 9 Y Y Y 3 Y 9 3 3 3 3 3 Y Y Y 3 3 3 3 3 Y Y Y 3 8 8 3 3 3 3 3 3 Y 4 4 Y Y Y Y 3 Y Y Y Y Y Y Y Y Y Y Y Y 3 7 8 7 Y Y Y Y Y Y Y Y 7 8 3 7 Y Y Y Y Y 3 7 3 7 3 3 3 3 Y Y 3 3 7 Y 3 3 Y Y Y 8 7 7 Y Y Y Y Y Y Y Y Y 7 4 3 8 4 3 < 3 8 3 4 3 4 8 8 Y 8 8 Y 8 7 8 Y 8 3 7 Y 3 3 Y 3 3 8 Y 4 8 Y Y 3 Y Y Y Y 4 8 Y Y 8 Y Y Y 7 Y Y 7 7 7 Y Y 3 7 3 8 3 Y Y 8 Y 4 Y Y Y Y ",
"b.b.P.b.Y b.Y Y c.3 9 Y Y Y Y Y Y 8 Y 8 Y 4 8 3 3 Y 9 Y Y 3 3 3 Y Y 8 3 3 Y Y 3 3 3 ; ; ; ; ; = ; 1 3 ; 3 4 3 4 3 3 8 4 Y 7 8 7 3 8 7 3 9 Y Y Y Y b.Y Y Y b.Y Y Y Y b.Y Y Y 9 9 3 3 3 Y Y 6 3 3 4 8 4 4 4 8 3 4 3 8 3 3 3 3 Y 4 3 4 Y 3 3 Y 8 8 w.Y Y Y Y Y 7 Y Y 8 7 Y 8 7 Y Y Y Y 7 Y Y Y 3 7 8 3 7 Y Y Y 7 3 3 7 3 7 3 8 Y 8 3 Y Y 8 3 Y Y 8 Y 7 Y Y Y Y Y Y Y Y 7 7 Y Y Y Y Y Y 4 8 3 3 3 Y 3 3 8 4 3 8 4 3 8 8 7 8 Y 7 8 Y Y Y 3 3 Y 4 4 8 3 3 4 Y 4 3 Y Y Y Y Y 4 3 Y Y Y Y Y Y Y Y Y Y 7 8 Y Y 8 3 Y 8 8 Y Y 3 3 3 3 3 k.",
"Y Y Y P.b.Y 9 Y 9 Y Y Y Y Y Y Y Y Y Y Y Y Y Y Y Y 9 9 7 7 3 3 3 Y Y 3 Y 8 8 8 Y 7 8 1 ; 1 1 ; 1 ; 3 1 < 3 3 3 3 4 4 4 1 3 Y Y 7 3 8 Y 3 3 9 b.Y 9 Y b.9 3 Y Y 3 Y Y Y Y Y Y Y 3 3 6 3 6 Y Y Y 3 3 8 4 3 3 3 3 3 3 4 8 3 3 3 3 3 3 4 3 3 3 Y Y 8 Y Y Y Y Y Y 8 7 Y Y Y Y Y 3 Y Y Y 3 Y Y Y Y Y 3 3 Y 7 Y 7 Y 7 Y 7 Y Y 7 8 4 8 3 3 3 Y Y Y 8 Y Y Y Y Y Y Y Y 8 Y Y Y Y Y 8 Y 8 8 3 < Y 4 3 Y Y 8 4 3 4 Y 4 3 3 3 3 7 7 8 Y Y 8 7 7 Y Y Y Y 8 Y 3 3 3 Y 4 3 4 Y Y Y Y Y Y 3 3 w.Y Y Y Y Y Y Y Y Y Y 7 Y Y Y Y Y 8 Y Y 8 Y 8 3 3 d.",
"Y Y Y Y Y 9 9 3 9 P.P.Y Y Y Y Y Y Y 8 8 8 Y Y Y Y 9 9 7 Y 7 3 3 3 3 3 Y Y Y 8 3 Y Y 8 1 1 3 8 3 3 3 3 ; 3 4 3 8 4 4 4 3 3 8 Y 3 3 7 Y Y 3 3 Y Y Y Y Y Y Y Y Y Y 3 9 9 Y 9 Y b.Y Y Y 3 3 Y Y Y Y Y Y 3 3 3 3 4 4 3 3 8 3 3 3 3 3 3 3 Y Y 4 3 8 Y Y Y Y Y Y Y Y Y 3 Y Y 3 Y Y Y 8 Y Y Y Y Y Y Y Y 7 7 Y 7 7 3 7 3 3 Y Y 7 3 3 4 < ; 3 ; Y Y 8 Y 3 Y Y 3 7 7 Y Y Y Y Y Y Y Y Y Y 7 3 3 ; 3 Y 8 Y Y 8 3 3 8 4 8 4 8 3 7 3 7 7 7 8 8 7 8 8 8 8 Y 3 3 8 3 4 Y Y Y Y Y Y Y Y Y Y 3 Y Y Y Y Y Y Y Y Y Y Y Y Y 7 Y Y Y Y 8 Y Y 8 3 Y 8 Y ",
"b.Y Y Y Y Y 9 Y Y Y w.P.Y Y Y Y Y Y Y Y Y Y Y 8 7 7 9 7 Y Y 3 3 8 3 3 3 8 Y 8 Y Y 3 Y Y Y 7 8 Y 8 3 3 < 3 3 3 3 3 3 4 4 4 Y 8 1 3 3 3 9 9 Y Y Y Y Y 3 b.c.Y Y c.P.c.Y Y Y Y b.P.P.Y 3 6 Y Y Y 3 Y Y Y Y 3 3 4 8 8 3 3 3 3 3 3 3 3 8 Y Y Y Y Y Y Y Y Y Y Y Y Y 7 7 Y Y 3 7 Y Y 8 Y Y Y Y Y w.Y Y Y 7 7 7 Y 7 Y Y Y Y Y 7 3 8 Y 3 3 Y 3 1 Y Y 8 Y Y Y 8 Y 8 7 Y 7 Y Y Y Y Y Y Y Y Y Y < 3 Y 8 Y Y Y 3 3 3 8 Y 3 8 8 7 3 Y 8 7 7 Y 8 Y Y Y 8 Y Y 3 3 Y Y 4 Y Y 8 Y Y Y Y 8 Y 8 Y Y Y Y Y w.Y Y Y Y Y Y Y Y Y Y Y Y Y Y Y Y Y Y 8 Y ",
"Y Y Y Y Y 3 Y Y 7 Y Y Y Y Y Y Y Y Y Y Y Y 8 Y Y 7 Y Y Y 7 3 3 Y Y 3 1 8 Y Y Y Y Y 3 3 Y 8 3 Y Y 3 4 3 ; < Y 3 3 3 3 3 3 Y 3 1 8 3 8 8 7 Y Y Y Y Y 9 Y 9 Y c.c.Y Y c.Y Y Y Y Y Y Y Y Y 3 9 3 Y Y 9 Y Y Y Y Y 3 7 Y 8 3 3 8 3 3 3 3 3 3 8 Y Y Y 8 8 Y 8 Y w.Y Y 3 Y Y 8 Y Y Y 7 3 Y Y Y Y Y Y Y Y Y 8 Y 7 Y 8 7 Y Y Y Y Y 4 4 Y Y 8 Y Y 3 3 3 8 Y 8 Y Y Y 7 7 Y 8 7 3 Y Y Y 9 9 Y Y 8 Y 8 Y 3 8 8 8 3 Y Y 7 7 8 8 8 Y 8 3 3 3 3 3 Y 8 8 8 7 Y 8 Y 3 3 8 8 Y 3 4 8 Y Y 3 3 Y Y Y Y Y Y w.w.Y Y 8 7 7 Y Y Y Y Y Y Y 8 3 Y 8 Y Y Y Y ",
"Y Y 8 Y 3 3 P.3 7 Y Y w.Y Y Y Y Y Y Y Y Y 7 Y Y Y Y Y 7 7 Y Y Y 7 : 3 3 Y Y Y Y Y 8 7 Y 7 3 3 3 3 8 3 ; ; 3 3 3 3 1 3 Y 4 ; 7 3 3 7 Y 8 7 Y Y Y Y Y Y Y Y b.b.5 Y Y Y Y Y Y 3 3 9 b.Y Y 9 Y Y Y Y Y Y Y Y Y Y 3 8 Y 7 8 Y 3 3 7 3 3 8 Y Y Y Y Y 8 Y Y Y w.Y Y 3 8 Y Y Y 4 Y Y 3 Y 7 Y Y Y Y Y Y Y Y Y Y 3 3 Y 8 Y 7 Y Y 8 3 Y 8 Y Y 4 8 3 3 3 3 Y Y Y Y 8 Y Y 3 7 Y Y Y 7 7 Y Y Y Y 3 3 Y Y 8 8 Y 8 7 Y 3 3 8 3 Y 8 3 8 3 4 8 8 7 7 7 Y Y 7 8 7 7 Y 4 4 Y 8 4 3 3 3 8 Y Y Y 8 Y Y Y Y Y Y Y Y Y Y Y Y Y Y 8 Y 8 Y Y Y Y 3 Y Y Y ",
"Y Y Y 7 3 Y Y 3 Y Y Y Y Y Y 3 Y Y w.Y Y w.Y Y Y Y Y Y Y 7 7 Y 3 7 Y Y 8 Y Y Y Y Y 8 8 7 7 Y 3 3 3 8 Y 3 ; 3 3 ; 4 3 4 4 4 8 Y Y 3 Y 8 Y Y 8 Y Y Y Y Y Y b.Y Y b.Y b.b.Y Y c.Y Y Y Y Y b.c.Y 3 5 3 Y Y Y Y Y 7 7 3 Y Y Y Y 7 3 3 8 3 3 3 8 7 Y Y Y Y Y Y Y Y Y Y Y 4 Y 8 3 3 Y Y Y Y Y Y Y 8 3 3 Y Y Y Y Y Y 7 Y 8 7 Y Y Y Y Y 8 Y Y 4 Y 8 3 3 8 3 Y 8 3 8 Y Y Y 7 Y 7 7 Y 7 7 Y Y Y Y 4 3 Y 7 7 Y 3 8 Y 3 3 7 3 4 Y 3 3 3 4 Y Y 7 7 7 Y Y 7 7 7 Y Y 4 3 8 8 8 Y 8 3 3 Y Y 7 Y Y 7 Y Y Y Y Y Y Y Y Y 7 9 Y Y Y Y Y Y Y Y 7 7 8 Y ",
"Y Y 8 Y Y 8 3 8 Y Y k.Y Y 7 3 Y Y Y w.8 Y w.Y Y Y Y Y Y Y 3 Y Y 7 Y 7 8 Y Y 8 Y Y 7 3 Y 3 3 3 3 4 8 4 3 3 < < ; 1 3 3 Y 8 8 3 Y 3 7 3 Y Y 7 7 Y Y Y Y Y Y Y Y c.Y Y Y Y 3 Y c.P.Y 9 9 Y b.Y Y 3 3 b.Y Y w.Y Y Y 3 8 Y Y Y 3 7 Y 8 4 3 3 8 Y Y Y 8 Y Y Y Y Y Y Y 8 3 Y 3 4 3 3 8 Y Y Y Y 3 3 7 Y Y Y Y 7 Y 8 7 Y Y Y Y Y 8 Y 3 8 3 Y Y 4 Y 8 8 Y 8 4 Y Y Y Y Y Y Y Y Y 7 Y 7 3 7 3 3 8 Y 4 8 3 3 4 8 3 3 3 1 3 3 Y 8 8 4 8 8 7 Y 8 7 7 3 7 Y 8 8 Y 8 4 8 3 8 8 8 8 8 3 1 3 3 Y Y Y Y Y 7 Y Y Y Y Y Y Y Y Y Y Y Y Y 8 7 7 Y Y 7 Y ",
"Y Y 8 3 8 3 7 1 3 8 Y Y Y 7 7 Y Y 7 Y 8 Y Y Y Y Y Y Y w.Y 7 7 Y 7 Y Y 7 Y Y 8 Y Y Y 3 ; = 3 ; 3 8 3 1 3 3 3 < ; ; 3 8 3 4 Y Y 3 7 3 7 Y Y Y Y 8 Y b.Y 9 Y Y Y Y 9 Y Y b.Y P.Y Y Y Y 3 Y Y c.Y Y b.b.b.Y Y Y 3 7 7 7 Y Y Y 3 Y Y 8 3 8 3 Y w.Y k.Y Y Y Y Y 7 Y Y 3 4 8 3 8 3 7 Y 7 Y Y Y 8 8 Y Y Y 3 Y Y 8 Y Y Y Y 7 Y Y 8 4 8 3 8 8 8 3 3 Y Y Y Y Y Y Y Y 8 Y 8 3 Y Y Y Y Y 7 3 4 3 3 Y 4 3 7 8 4 8 < < 8 3 3 3 8 Y Y 8 Y Y Y Y 7 7 7 3 3 Y Y 8 7 4 4 8 4 8 3 3 8 3 Y 3 Y Y Y 7 7 7 Y Y Y Y 7 8 Y Y Y Y Y Y 4 Y Y Y 8 Y 8 Y 7 Y ",
"Y Y Y 7 3 8 Y Y 8 3 Y 8 Y 8 Y 8 3 3 7 Y Y Y Y Y 7 Y Y Y Y Y Y Y Y Y 7 3 8 Y Y Y Y 8 Y * $ 1 1 3 ; 3 3 3 1 3 1 ; ; 3 8 Y 8 8 8 3 8 Y 8 Y 8 Y Y Y Y Y Y Y Y b.b.Y Y Y Y Y Y Y Y 3 9 Y Y Y Y b.Y Y Y Y Y P.Y Y 9 3 3 Y 7 Y Y Y 7 7 8 Y Y 3 3 P.Y Y Y P.w.Y Y Y Y Y Y Y 8 4 3 8 3 Y Y Y Y 8 Y Y 7 7 7 3 8 Y Y Y Y 7 Y Y Y Y 8 8 Y 8 Y Y 8 3 4 Y Y 3 3 8 Y Y 7 Y 7 3 Y Y Y Y 7 Y Y Y Y Y Y 8 3 3 7 8 4 8 Y Y Y Y 8 7 3 Y Y 3 4 Y Y Y Y 8 7 Y 7 7 Y Y 8 8 8 3 3 8 3 3 Y Y 8 4 3 Y Y 8 7 8 3 3 7 7 Y Y 3 7 Y Y 8 Y Y Y Y Y Y Y Y Y Y w.",
"Y Y 3 7 Y Y 7 Y w.Y Y Y Y 3 7 Y 7 7 7 Y Y Y Y 9 Y Y Y Y 8 Y Y Y Y Y Y 7 Y 7 Y 9 7 8 7 8 Y 3 3 < = < 3 3 3 1 1 < ; ; 3 Y 8 7 3 3 3 8 3 Y 3 8 Y 7 Y b.Y Y Y Y b.Y Y c.Y c.Y Y b.Y Y 9 Y Y Y Y Y Y Y 9 Y P.P.Y Y 3 3 9 3 Y 9 9 9 7 Y Y Y Y Y Y Y 3 Y w.P.Y Y Y Y 8 Y Y Y Y 3 8 3 Y Y Y Y Y 7 7 Y 3 Y Y 8 Y Y 8 8 8 Y Y 8 Y Y Y 3 Y Y 3 3 3 Y 3 Y 7 3 7 7 Y Y 7 3 : Y Y 8 7 3 7 3 7 4 3 3 8 4 3 3 7 8 Y Y Y Y 8 4 Y 3 3 8 Y Y 8 Y 8 Y Y Y Y Y Y Y Y Y Y Y 8 7 Y 7 8 Y 8 Y 3 3 Y Y 8 Y Y 3 3 7 7 8 7 Y Y Y Y Y 9 Y Y Y Y Y Y Y Y Y w.",
"Y Y 8 Y Y Y Y w.Y Y Y Y P.Y 3 3 Y 7 Y Y Y 7 Y 9 Y 9 9 Y 8 Y Y 8 Y Y Y Y Y Y Y Y 7 Y 3 3 4 4 < 1 ; ; % < 4 1 3 1 ; = 3 4 Y 8 8 3 3 < 1 Y 3 3 3 3 3 Y Y Y c.b.P.Y Y Y Y Y b.Y Y Y Y Y 5 9 Y Y Y Y Y Y 9 Y Y P.Y b.Y 9 3 3 3 9 Y 3 8 Y Y 8 7 Y 4 Y Y Y w.Y Y Y 8 8 8 8 4 Y 8 3 8 Y Y 8 8 8 Y Y Y Y 7 Y Y 3 3 4 Y Y 7 7 Y 8 Y Y 3 Y 8 3 4 3 8 3 Y Y 3 3 7 8 Y 3 3 7 7 7 8 Y 3 3 3 3 8 3 3 3 8 3 3 3 7 Y 8 8 Y Y 8 4 Y 8 4 8 Y 8 7 3 Y Y 8 Y Y Y Y Y Y 8 8 Y 7 Y Y Y 8 3 4 8 3 8 4 3 Y Y 7 Y 7 7 Y Y Y Y Y Y Y 7 7 7 Y Y Y Y Y Y 8 Y ",
"Y Y Y Y Y Y Y Y w.Y Y 3 Y w.Y 7 Y 7 Y Y Y 7 9 Y Y Y 3 3 3 Y 8 8 8 Y Y Y Y Y 8 Y Y Y Y 3 3 3 3 < ; ; ; = 3 3 3 1 < 3 1 3 3 3 3 3 3 1 3 4 8 Y 3 ; 3 Y Y Y Y Y Y Y Y Y b.Y c.Y Y b.Y 9 9 3 3 Y c.Y Y Y Y Y b.P.P.Y Y 9 Y Y 9 Y Y Y Y Y Y Y Y k.3 3 4 3 Y Y Y Y Y Y 3 3 3 4 Y 8 Y Y 8 Y Y 7 Y Y Y Y 8 Y $ @ Y 3 3 8 7 7 Y 8 4 Y 3 3 4 3 3 3 8 3 3 Y 7 3 3 8 Y Y 3 7 Y Y Y Y 3 3 3 7 3 3 3 4 3 3 7 Y 3 Y 7 4 Y Y Y 4 8 4 3 3 3 3 3 7 Y Y 8 7 7 Y Y Y Y Y Y Y Y Y Y Y 4 Y 8 4 8 3 3 Y Y Y Y Y Y Y Y Y Y Y 7 Y Y Y Y Y Y Y Y 8 7 Y Y Y ",
"Y Y Y Y Y w.Y w.Y Y Y Y Y 7 Y Y 8 3 7 Y 7 8 3 Y 9 Y Y 7 7 8 7 Y Y Y Y Y Y 8 7 Y Y Y Y 3 3 8 8 3 1 3 1 ; 3 3 1 3 3 3 ; ; 3 4 8 4 1 < ; 4 3 Y 3 3 3 Y Y 3 Y Y Y Y Y Y Y c.P.c.Y Y Y Y 9 Y Y Y c.9 Y P.P.Y Y Y Y P.3 Y Y c.Y Y Y Y Y Y Y 7 Y Y 3 3 3 4 Y Y Y Y k.w.Y Y 3 8 Y 4 Y Y Y 4 Y Y Y Y Y 8 3 3 8 Y Y Y 8 3 8 Y 8 7 3 4 3 Y 4 4 3 8 4 3 4 Y 8 7 7 Y Y 3 Y Y 8 Y Y 7 3 3 3 3 3 3 3 3 4 3 7 Y 3 7 Y 8 8 3 Y Y Y 4 3 Y Y 4 3 3 7 Y 8 7 7 7 Y Y Y Y Y Y Y Y Y 8 4 8 8 8 4 3 4 Y 8 Y Y Y Y Y 7 7 Y Y 7 Y Y Y Y Y Y Y w.Y Y Y Y Y ",
"Y Y Y w.w.Y w.Y Y Y Y Y 7 7 Y Y Y 3 7 7 Y 3 9 Y 9 Y Y Y 8 3 7 7 Y 3 3 Y Y 8 7 9 Y Y 7 3 Y 3 : 3 7 7 1 3 3 1 3 3 3 3 3 < ; 3 4 < < < < 3 3 3 3 Y Y Y Y 3 3 Y Y Y Y 9 9 Y Y c.b.Y Y b.Y Y c.Y Y Y Y b.c.c.c.Y Y Y b.Y Y Y Y Y Y Y Y k.Y Y 7 8 4 8 4 Y Y Y Y Y Y Y Y 3 Y Y 4 3 Y 4 Y Y Y Y Y 7 8 3 7 Y 8 8 Y Y Y Y 8 3 8 8 3 3 3 Y Y 3 3 4 Y 8 8 8 Y 7 8 Y Y Y Y 7 8 Y Y Y Y 7 Y 8 Y Y 4 3 8 3 7 Y 3 3 3 8 4 8 Y Y 4 Y 3 3 3 8 3 3 8 8 8 Y 8 Y Y Y Y Y Y Y Y Y Y Y Y 4 Y 8 3 3 3 3 4 Y Y Y 8 8 Y 8 8 Y Y Y Y Y Y Y Y Y Y Y Y Y Y w.",
"Y Y Y Y Y Y Y Y Y 7 3 3 3 Y Y Y 8 Y Y 7 7 8 Y Y Y 3 Y Y 7 7 7 7 Y 7 Y 3 Y Y 3 3 3 7 7 3 Y 7 3 3 3 7 Y 3 3 3 3 3 3 3 3 3 ; ; ; ; ; < 3 1 3 3 8 8 3 3 7 3 Y Y 3 3 Y Y 3 9 c.Y Y Y P.Y Y c.Y Y Y Y Y Y Y b.Y P.P.P.Y Y Y Y Y Y Y b.b.b.Y Y 7 3 7 8 Y 8 Y Y 3 3 Y Y Y 8 Y Y Y Y 3 8 3 3 Y Y Y Y 3 7 Y Y 3 7 Y Y Y Y Y 8 3 8 8 4 3 3 3 3 3 3 3 8 Y Y Y 7 7 7 7 3 3 8 4 Y Y Y 7 7 8 8 4 8 4 3 3 8 4 Y Y 4 3 4 4 Y 8 4 Y 3 8 3 3 4 Y Y 8 4 Y 8 8 4 Y Y Y Y Y Y Y Y Y 7 8 Y 3 7 4 Y < 3 8 Y Y 7 8 8 Y Y Y 7 Y 7 Y Y Y Y Y Y Y Y 7 Y Y Y ",
"Y w.Y Y Y Y w.Y Y 3 7 3 8 Y Y Y Y Y Y Y Y Y Y Y 3 3 3 3 7 Y 7 7 Y 7 Y Y w.Y Y 7 3 3 8 7 Y 3 3 7 3 7 7 3 3 ; 3 3 3 3 3 3 3 < 1 < ; 3 3 3 3 3 3 3 3 3 8 Y 7 Y 3 9 Y Y Y Y c.Y Y Y Y Y Y Y Y Y Y Y Y 9 Y P.b.b.P.Y c.P.Y Y P.P.Y Y 9 Y w.Y 9 Y Y Y 7 3 3 8 3 3 8 8 Y Y Y Y Y 3 8 8 3 Y 3 7 3 3 7 Y 8 7 7 7 Y Y 8 8 Y Y Y 8 8 4 3 3 Y 8 4 4 3 3 Y 8 8 3 Y 7 7 Y 3 4 Y 8 3 7 8 7 8 8 3 3 8 4 3 Y 8 3 3 Y Y 3 3 3 8 Y Y 8 3 Y 4 3 4 Y Y Y 8 Y 3 3 Y Y Y w.Y Y Y 7 Y Y Y 7 8 8 8 Y 3 3 8 3 7 8 7 3 Y Y Y Y Y Y Y Y Y Y 7 Y Y Y P.Y Y Y ",
"Y w.Y Y w.Y Y Y Y Y Y 4 Y d.Y Y 8 3 8 7 Y Y Y Y 7 Y 7 7 8 Y 7 Y Y 8 8 8 Y 7 7 7 7 7 Y Y 7 3 7 Y 7 7 3 3 8 ; ; 3 3 3 3 3 3 1 < 3 ; 3 3 3 3 3 1 3 8 Y 3 3 7 Y Y 9 9 3 Y Y Y b.Y Y Y Y Y Y Y Y Y Y Y Y Y P.P.P.c.Y Y Y Y b.b.Y b.P.P.P.Y Y Y Y P.Y Y 7 3 4 Y 3 3 4 8 4 4 4 3 Y 3 8 3 3 Y Y Y Y 3 8 Y 7 8 8 Y Y 7 7 7 Y Y Y 8 4 8 Y 3 3 3 3 3 8 4 Y 3 7 8 8 7 Y Y Y Y 8 ; 3 Y Y 7 8 8 4 4 4 4 3 8 3 4 8 Y 3 < 3 4 8 8 3 3 8 Y Y 3 3 3 ; 3 Y 3 8 Y Y Y Y Y Y Y Y 8 Y Y 3 Y Y Y Y 8 3 Y Y Y 3 3 Y 3 3 Y Y Y Y Y Y Y 7 7 Y Y Y Y Y 9 w.",
"Y Y Y Y Y Y Y Y Y Y Y k.Y Y Y 3 3 Y Y Y Y Y Y 7 Y Y w.w.Y Y 7 7 3 7 k.Y 7 7 Y Y Y Y Y Y Y Y 7 7 7 8 3 4 ; = ; 3 3 3 3 ; 3 4 3 3 < 3 3 3 3 3 4 3 7 7 3 Y 7 7 9 Y Y Y 3 3 Y Y Y Y Y Y Y Y Y Y b.Y Y b.b.Y c.c.Y Y Y Y Y Y Y Y P.P.P.b.Y Y Y Y Y w.Y Y Y Y Y Y 3 3 3 8 8 4 4 Y 3 3 Y 3 7 7 7 3 : 7 Y Y Y 8 7 Y 8 7 Y 3 7 Y 4 3 4 8 4 3 4 8 4 3 3 7 7 3 Y Y Y Y Y Y 3 8 8 7 3 Y Y 8 Y 8 3 Y 3 3 3 4 4 3 Y Y 3 3 4 4 3 < 3 8 Y Y Y 3 < ; ; 3 Y Y 4 Y Y Y Y Y Y 8 Y 7 Y Y Y Y 8 Y 8 3 Y Y Y Y 3 8 Y 3 7 3 Y 7 Y 7 Y Y Y 7 Y 7 Y Y Y w.",
"Y Y Y Y Y Y Y Y Y Y Y Y Y Y Y Y Y w.7 7 Y Y Y Y Y Y Y Y Y 8 3 3 8 8 Y Y Y Y Y Y 7 Y Y Y Y Y 7 3 3 7 8 8 < $ ; 3 3 3 3 1 1 3 8 3 ; 1 3 3 3 3 3 1 3 7 Y Y 7 7 Y Y Y Y Y 3 ; 3 Y Y Y Y Y 9 9 c.c.c.Y Y P.P.Y Y Y Y Y Y b.Y Y P.Y 9 Y 9 c.P.c.Y 7 Y Y Y Y Y Y 3 3 8 Y 8 Y 4 4 Y 7 3 7 Y Y 8 7 3 3 Y Y Y Y Y 7 7 Y Y 7 7 3 8 Y 8 8 3 3 3 4 Y 4 3 3 3 Y 7 Y Y Y Y Y Y Y Y 3 Y 3 3 Y Y Y Y 8 8 4 3 3 4 3 4 4 8 8 4 Y Y 3 3 1 1 3 3 Y 3 8 Y 4 Y Y Y 8 Y Y Y Y Y Y 7 Y 8 Y Y 3 3 4 4 8 3 Y Y Y 3 3 7 3 7 3 Y Y Y Y 7 Y Y Y 3 Y 7 8 Y Y Y ",
"Y Y Y Y Y Y Y Y Y Y k.Y Y w.Y Y Y Y Y Y Y Y Y Y Y Y 8 Y 8 3 3 3 Y Y 7 Y Y Y Y Y 8 Y Y Y Y 7 7 7 Y Y 3 3 Y 3 3 3 Y 4 4 Y 1 8 8 8 3 3 3 3 3 3 3 3 3 3 Y 3 8 Y 3 Y Y 9 Y b.Y Y Y Y Y Y Y Y Y Y Y Y b.Y b.P.Y b.P.P.Y b.b.b.Y Y Y Y b.Y Y b.P.w.Y Y Y Y Y Y Y 3 3 8 3 3 8 Y Y Y Y Y Y Y Y Y Y Y Y Y Y 7 Y 7 7 3 8 8 7 Y Y Y 3 8 Y 8 3 3 4 Y 8 3 8 3 3 8 Y Y Y Y Y Y Y Y 7 3 3 3 Y 8 3 Y 3 8 8 3 3 4 8 3 8 Y 3 3 8 Y 3 3 1 3 3 3 3 3 3 3 Y Y Y 8 8 Y 8 Y Y Y Y 8 3 Y Y Y 8 3 8 Y 4 3 Y 8 Y 3 3 3 3 7 3 Y Y Y 7 7 Y Y Y Y Y Y Y Y Y w.",
"b.b.b.Y Y w.Y Y Y Y Y Y Y Y Y Y 9 8 7 Y Y Y Y Y Y Y 7 Y Y Y Y 7 7 Y 8 7 8 8 Y Y Y Y Y Y Y 7 Y Y Y Y 3 3 3 8 Y 4 3 4 4 Y 8 8 8 4 8 Y Y Y 3 3 3 3 3 3 8 3 3 3 3 7 3 Y Y 7 Y Y 7 8 Y Y Y Y Y Y Y Y Y Y Y b.P.b.Y P.P.b.P.Y Y Y b.Y Y Y w.Y Y Y Y Y Y 8 Y Y Y Y 8 3 4 4 Y Y Y Y w.w.Y w.w.Y Y Y Y Y Y Y Y 7 3 7 3 7 Y Y Y Y Y Y 3 8 Y 3 3 3 3 4 3 3 3 Y Y Y 8 Y Y 3 Y Y Y 3 4 Y 3 3 8 3 3 3 4 4 3 3 8 Y Y Y 3 3 3 Y 7 3 3 Y 7 7 3 3 3 1 3 3 Y Y 8 4 Y 3 4 Y Y 3 8 7 3 7 7 7 8 Y 8 3 Y 8 Y 8 : 3 7 Y Y 7 Y Y Y Y 7 Y Y Y Y b.Y Y Y b.",
"P.Y Y Y w.b.b.P.Y b.Y Y Y Y Y Y Y Y 7 7 Y Y Y Y Y 7 Y Y Y Y 7 7 7 7 Y 7 7 3 Y Y Y Y Y Y Y 7 3 7 3 8 3 4 3 3 4 Y 4 3 Y 3 Y Y Y Y 8 8 4 Y Y Y Y Y 3 3 Y 3 3 3 3 3 3 Y Y Y Y Y Y Y w.b.9 Y 9 Y 9 Y Y Y c.P.b.b.Y Y P.Y P.Y b.Y Y 9 Y Y Y Y Y Y Y Y Y Y Y Y 8 Y Y 8 Y Y Y Y Y Y Y Y Y Y w.Y Y w.w.Y k.w.Y Y 7 8 Y Y 3 Y 7 Y Y Y 7 7 Y 3 3 3 3 8 3 4 Y Y Y 3 3 3 3 4 3 Y Y Y 8 Y 3 ; 8 Y 3 3 3 8 3 3 3 Y 3 Y 7 7 3 Y Y 7 Y Y Y Y Y Y 3 1 3 4 Y Y Y Y Y Y Y Y 8 4 3 3 7 7 7 3 8 8 7 3 3 3 Y Y 7 Y 3 7 Y Y 8 Y Y w.7 Y w.P.w.w.Y Y Y Y ",
"P.P.b.b.b.b.w.b.Y Y c.b.b.Y Y Y 9 Y 8 Y Y Y Y Y Y Y Y Y Y 7 Y Y 7 3 7 Y Y 3 ; 8 Y Y Y 8 Y Y 7 7 8 8 Y 3 3 3 3 3 3 8 4 3 3 Y Y Y Y Y Y 8 Y Y d.Y 3 3 3 3 3 3 3 3 7 7 7 Y Y 3 Y Y Y Y Y Y Y Y Y Y Y Y Y c.Y Y Y Y Y b.Y Y P.Y Y Y Y 7 Y P.Y Y Y 8 Y Y Y Y Y Y 8 Y Y 3 3 Y Y Y Y Y Y Y 7 Y Y Y Y Y Y Y Y 3 3 7 Y Y Y Y Y Y Y Y Y Y 8 8 4 3 Y 8 Y 3 8 Y Y 4 3 Y 3 ; 3 8 Y 3 3 8 Y 3 Y Y 3 3 3 3 4 4 Y 3 3 8 Y Y 3 7 Y 7 3 8 Y Y Y Y d.3 3 Y 3 Y Y Y Y Y Y Y 8 8 3 : 3 7 3 7 3 Y 3 3 7 7 3 3 7 7 Y Y Y Y Y Y Y Y Y Y Y w.Y P.Y 9 Y Y ",
"Y Y b.b.b.b.P.w.c.b.P.P.b.Y Y Y 9 Y Y Y Y Y w.Y Y Y Y Y Y 7 8 Y Y 3 7 Y Y 3 3 7 Y Y 7 7 Y Y Y 7 8 Y Y Y 3 3 3 3 3 3 8 3 3 4 4 Y Y Y 8 4 4 Y Y Y Y Y 3 3 3 8 8 3 3 8 7 Y Y Y w.P.Y b.b.Y Y Y Y Y Y c.Y 3 Y Y Y Y Y P.Y Y b.Y Y Y Y Y Y Y Y Y Y Y Y 7 3 Y Y Y 3 8 Y 8 3 3 Y 8 8 Y Y Y Y Y Y Y w.k.Y w.Y 8 Y Y Y Y Y Y Y Y Y 7 7 8 Y Y 8 Y Y Y Y Y Y Y Y Y Y Y Y Y Y 8 4 4 4 4 8 Y Y 3 3 Y 3 3 Y Y 3 3 Y 8 Y 7 Y Y 3 7 Y 3 Y Y Y Y Y Y 8 3 3 Y 3 4 Y Y Y Y 3 3 3 ; 3 7 3 7 7 3 3 Y 8 3 3 Y Y 7 Y Y Y Y Y w.Y Y Y Y Y Y P.P.9 Y Y b.",
"P.Y P.P.b.b.P.Y b.P.c.P.P.b.Y Y 3 7 Y Y Y Y Y Y 3 Y Y Y Y Y 7 Y 3 3 7 Y Y Y 7 3 Y 7 Y Y Y Y Y Y 3 8 Y Y 3 3 Y Y 3 3 8 8 8 8 3 Y Y Y 8 8 4 Y Y Y Y Y Y Y 3 8 Y Y 3 8 7 Y w.Y Y Y w.Y Y Y P.Y Y Y Y Y Y Y Y Y Y Y Y Y b.P.Y 3 Y Y Y Y 8 w.w.Y Y Y Y Y 3 4 Y 3 3 Y 3 Y 3 3 8 Y Y Y Y Y w.Y Y Y P.k.P.Y Y Y Y Y w.Y Y 7 Y Y Y 3 7 8 7 Y Y k.Y Y Y Y Y Y Y Y Y 4 3 4 Y Y 4 3 4 4 3 Y 4 8 4 Y Y Y Y 8 4 Y Y Y Y Y Y Y Y Y Y Y Y 7 Y Y Y Y d.Y Y 3 3 4 8 8 Y Y Y 3 3 3 7 8 3 3 Y Y 3 3 3 3 3 Y Y Y Y Y Y Y Y Y Y Y Y Y Y Y w.Y Y Y Y b.",
"P.P.Y b.b.P.P.b.b.Y Y c.Y Y b.b.Y Y Y Y w.Y 7 Y Y Y Y Y Y Y 7 7 Y Y Y Y Y Y Y 7 7 Y Y Y Y Y Y 7 Y 7 8 Y 7 8 3 8 8 8 Y Y 8 8 Y 4 Y Y Y Y 7 7 8 8 3 3 3 Y Y 4 Y Y Y 8 8 3 3 7 3 7 Y Y P.Y Y Y Y Y Y Y c.b.Y P.Y 9 Y w.Y P.Y Y w.Y Y Y Y Y w.Y Y Y Y Y Y Y Y 3 3 3 3 3 Y Y Y 3 Y Y Y Y Y Y w.8 Y 8 Y w.w.w.Y Y P.Y Y Y Y Y Y Y 7 7 8 Y Y Y Y Y Y Y Y Y Y Y Y Y 3 ; 3 Y Y Y 3 8 3 3 Y 4 3 3 8 Y c.Y Y Y 9 Y Y 9 Y Y Y Y Y Y Y Y Y 7 8 Y w.w.Y Y Y Y 8 Y Y Y Y 3 3 3 8 4 3 8 8 Y ; 3 Y 3 Y Y 3 3 7 7 Y 7 3 Y Y Y Y Y P.Y Y Y Y Y 9 Y ",
"Y Y b.b.b.b.P.b.b.b.Y Y b.b.P.b.Y P.P.Y Y Y Y Y Y 7 7 Y Y Y Y Y 7 8 Y Y 3 4 8 7 7 Y Y Y Y Y Y 8 8 3 Y Y Y 8 3 3 3 3 7 Y 7 3 8 Y Y Y Y Y 8 7 8 Y 3 1 8 Y Y 8 8 7 Y Y 7 3 3 7 Y Y Y Y 3 Y Y b.Y Y b.P.c.Y Y Y Y Y P.Y Y Y Y Y Y Y Y Y Y Y w.Y Y 3 3 8 Y Y < 3 4 3 Y 4 3 Y Y 3 Y Y Y Y Y Y Y Y Y 8 8 Y Y Y w.Y w.Y P.P.Y Y Y Y Y 8 Y 7 8 Y w.k.Y Y Y Y Y Y Y Y 8 3 8 4 Y Y 8 7 3 3 Y 8 4 Y 8 Y Y Y Y 9 Y Y Y 9 Y Y Y Y Y 7 Y Y Y Y 8 3 3 Y Y w.Y Y Y 7 7 7 7 3 3 3 3 3 8 4 8 Y 3 8 4 3 8 Y 7 7 Y 8 7 7 Y Y Y Y Y w.P.Y Y Y Y Y Y Y ",
"c.Y b.b.b.b.|.P.b.b.Y Y Y b.b.P.P.Y Y Y Y Y Y Y Y 8 Y Y Y 7 w.8 Y 3 3 4 3 3 3 7 7 Y Y 7 7 Y 7 Y Y 8 7 Y Y Y Y 7 3 3 7 Y 8 3 3 8 Y 8 Y Y Y 8 Y Y 7 3 7 Y Y Y Y 7 Y Y 7 3 3 7 Y Y Y Y 3 9 9 Y Y Y b.b.Y Y Y Y 9 Y Y b.w.Y Y Y Y Y Y Y Y Y Y Y Y Y Y Y 3 1 3 Y 3 Y 8 Y 3 3 Y 4 8 Y Y Y Y Y Y Y Y 8 3 Y k.w.P.k.Y P.P.w.P.w.Y Y w.w.Y 3 3 Y Y Y Y Y Y Y Y 8 Y Y Y Y Y Y 8 8 Y Y Y 3 3 Y Y Y Y Y Y Y Y Y b.b.9 Y Y Y Y Y Y Y Y Y Y Y Y Y 7 Y Y Y Y Y Y Y 7 Y Y Y Y Y 4 4 8 4 3 8 Y Y 3 7 3 8 Y 3 3 Y Y Y Y Y Y Y Y Y Y Y Y Y Y w.Y c.",
"Y Y Y b.b.P.P.P.P.P.Y Y Y Y Y Y P.Y Y Y Y Y 9 Y Y Y Y Y Y 7 7 Y 7 8 3 3 3 3 7 7 8 8 Y 7 Y Y Y Y Y 7 3 7 Y 8 Y Y Y 7 Y Y 3 3 3 3 Y 3 Y Y Y Y 8 8 Y Y Y Y Y Y 7 3 7 7 Y 8 7 3 w.Y k.b.Y Y 3 9 Y Y Y Y Y P.Y b.Y Y Y Y Y P.Y w.Y 7 Y w.P.Y Y Y 8 Y Y 8 3 3 Y 8 Y 8 4 4 Y 4 4 3 4 Y Y Y 8 Y Y Y Y Y 3 Y w.Y Y k.Y Y b.c.P.Y w.w.w.Y Y 3 3 Y Y Y Y Y Y Y w.Y 8 8 Y Y 8 Y Y Y Y Y Y Y 3 Y d.8 Y Y Y Y Y b.b.Y Y b.Y Y Y Y Y Y Y Y Y Y Y Y 7 Y Y Y Y Y Y Y 7 7 7 Y Y Y Y Y Y Y Y Y 8 Y 3 Y 8 7 7 7 Y Y Y Y Y 7 3 7 Y Y Y P.b.Y Y Y c.c.",
"Y w.Y b.P.P.c.Y P.P.Y Y Y Y Y Y P.Y b.Y Y Y Y Y Y Y Y Y 8 7 7 3 3 Y Y 3 3 3 8 Y Y Y Y Y Y 7 Y Y Y Y Y Y Y 8 3 3 Y Y Y Y 8 3 3 3 3 Y Y Y Y Y Y Y Y Y Y Y 9 Y Y Y Y Y Y Y Y Y Y Y Y Y Y Y 3 Y b.Y Y b.b.Y Y 9 Y Y Y Y Y Y Y Y Y Y Y Y Y Y Y Y Y Y Y 3 8 Y 3 3 3 4 8 3 8 Y Y 8 3 Y Y 8 8 ; 8 Y Y Y Y Y Y 7 Y Y Y Y Y Y b.Y Y w.w.Y Y Y 8 8 3 Y Y Y Y Y w.w.Y 3 8 Y Y Y Y Y Y Y Y Y 8 ; Y Y Y Y Y Y Y Y w.b.c.Y Y Y Y Y Y Y Y Y Y Y Y Y Y Y Y Y Y Y Y Y 7 Y 7 Y Y Y 4 8 4 3 Y Y Y 3 3 Y Y Y 8 Y Y Y Y Y 3 3 7 7 Y 7 Y Y P.Y Y Y Y Y ",
"Y Y Y c.c.c.Y b.Y Y Y b.Y Y b.P.P.Y Y Y Y b.Y 7 3 7 Y Y 7 7 Y Y Y 8 3 3 Y Y Y 7 7 Y 3 7 7 Y Y 8 Y Y Y Y Y Y Y 3 3 3 7 8 Y 3 Y 8 3 Y Y Y Y Y 3 7 9 Y Y 9 9 Y Y Y Y Y Y 7 8 Y 8 7 3 Y Y Y Y Y Y 9 9 Y Y Y Y Y Y Y b.w.Y Y Y Y w.Y Y 7 3 w.Y 8 Y 8 3 3 3 3 8 Y Y Y Y Y Y 4 Y Y Y Y 8 Y 3 3 8 Y 8 Y Y 3 7 Y Y Y Y Y c.Y Y Y Y Y b.w.Y Y Y Y 3 8 Y w.Y Y Y Y k.P.Y Y Y Y Y Y Y Y Y Y P.Y Y Y Y P.P.b.Y Y Y b.Y Y Y Y Y Y Y Y Y Y Y Y 3 Y Y Y Y Y Y Y Y Y 3 Y Y Y Y Y Y Y Y 8 8 Y Y ; 3 Y 8 Y Y 7 Y Y Y Y 3 9 Y Y Y Y 7 Y Y Y P.P.Y P.",
"Y Y Y Y Y Y Y c.Y Y Y c.Y Y Y P.Y Y Y 3 , Y Y Y Y Y Y Y Y 3 Y Y Y Y 9 3 9 3 Y Y 7 Y Y Y 8 7 7 7 3 3 Y Y P.P.k.w.Y 3 Y 8 Y 3 7 Y Y Y Y Y Y w.7 3 3 Y Y 7 Y Y 7 7 Y Y Y Y Y 3 3 7 Y Y Y Y b.Y Y 5 Y 3 Y Y 3 3 Y Y w.P.Y w.P.Y Y Y Y w.k.Y 8 4 Y 8 3 8 8 4 Y 8 Y 8 Y Y 8 Y Y Y Y Y 3 8 Y 3 3 Y 3 Y Y Y Y w.Y P.Y Y Y Y 9 Y Y Y Y Y b.Y 3 Y 4 8 Y b.P.P.Y P.Y Y Y b.P.Y b.Y Y P.Y Y Y Y Y 3 Y Y P.b.P.Y Y Y Y b.Y Y Y Y Y w.Y Y Y Y w.Y 3 Y Y Y Y Y P.Y Y Y 3 Y Y Y Y Y Y 8 8 4 Y 8 3 Y Y Y 7 8 7 Y Y Y 9 9 9 Y Y Y Y 5 9 Y Y P.Y P.",
"Y Y Y Y Y Y Y Y Y Y Y Y Y Y Y Y b.P.Y c.Y Y Y Y Y Y Y Y Y Y 3 Y Y Y 9 Y 9 3 Y Y 7 7 8 Y Y Y Y 7 3 3 3 Y Y Y k.Y Y Y Y Y Y 3 Y Y Y Y Y Y Y k.Y 8 Y 7 Y Y Y Y 7 7 7 8 Y 7 Y 7 Y 7 7 Y Y Y Y Y Y b.Y Y Y Y 8 1 3 7 7 w.Y Y w.Y Y Y Y 8 7 8 8 4 8 3 Y 4 3 3 4 Y Y Y Y Y 8 8 Y Y 4 8 Y 4 Y 3 3 3 Y Y 8 Y Y Y Y P.P.c.Y Y Y Y Y Y Y Y Y Y 3 Y Y Y Y Y P.P.Y b.P.Y Y Y Y Y Y Y Y Y Y Y Y Y Y Y Y b.Y Y P.P.P.Y Y Y Y Y w.|.w.Y Y Y Y Y Y Y Y 3 w.Y Y Y Y Y w.3 Y w.Y Y Y 3 7 Y Y 8 8 Y ; 3 Y 3 7 Y 3 Y Y Y Y 9 3 3 9 Y Y Y Y 3 c.b.b.P.",
"Y Y Y c.Y Y Y Y c.Y Y Y Y Y Y Y Y Y Y Y b.c.Y Y Y Y Y Y Y Y Y Y Y Y Y Y Y Y Y Y 7 Y 7 ; 3 Y Y Y Y 7 7 Y Y Y Y k.Y Y Y 7 Y 3 Y Y 7 Y 3 Y Y Y Y Y Y Y Y Y Y 7 3 7 7 Y 3 8 Y Y 7 Y 9 9 3 Y Y Y Y b.b.Y Y Y Y 3 7 Y Y Y Y w.k.Y 7 8 Y 8 3 7 3 Y Y 3 4 Y 8 4 3 4 Y Y Y Y Y Y 3 4 Y 8 3 3 3 8 Y 3 4 Y Y Y Y Y Y w.b.P.Y P.b.Y 9 P.b.Y Y Y Y Y Y Y Y Y Y Y P.Y Y Y P.b.9 Y Y Y Y Y Y Y Y Y Y Y Y Y Y b.P.9 b.b.b.b.b.Y Y : $ Y Y Y Y Y Y Y 7 3 7 Y k.Y Y w.P.7 Y Y Y Y Y Y 7 3 3 4 8 4 ; 3 8 Y 3 7 7 Y Y Y b.Y 3 3 Y Y Y Y Y Y Y Y Y P.",
"Y Y Y Y Y Y 3 5 Y Y b.c.Y c.P.b.Y c.Y Y Y c.b.Y Y Y Y Y Y Y Y P.Y b.Y Y Y Y Y Y Y 8 Y 7 7 7 Y Y Y Y Y Y Y Y w.Y 7 w.w.Y Y 7 Y 3 3 Y 3 Y Y Y Y Y P.Y Y Y Y Y Y Y 7 Y Y 7 Y Y Y 7 Y Y Y Y Y Y Y b.Y Y 3 3 Y Y 7 7 Y Y Y Y k.w.w.Y P.Y 8 Y 3 Y Y 3 3 Y Y 3 4 < 3 Y Y Y Y Y 4 3 3 Y 3 3 3 Y Y 8 8 Y Y Y Y Y Y Y Y b.P.P.P.Y c.b.P.P.Y Y 4 8 Y Y P.9 Y 3 Y b.Y Y b.P.c.Y 9 Y Y P.Y c.Y 9 Y Y Y 9 Y Y c.c.P.b.P.P.P.Y Y ; 3 w.Y 3 P.Y 7 Y Y Y 3 Y 8 Y w.Y P.3 8 3 7 Y 3 7 3 3 3 1 3 4 ; 1 Y 3 3 8 Y Y Y Y Y Y Y Y b.Y Y Y 3 9 b.Y Y P.",
"Y Y Y Y P.Y Y , 5 Y Y Y Y Y Y Y c.Y Y Y Y Y Y c.Y Y Y Y Y Y P.Y Y b.P.Y Y Y Y Y Y 7 Y Y Y 3 ; 8 Y Y 7 Y Y Y 7 3 3 Y k.Y Y 3 Y 8 Y Y w.w.Y w.Y Y Y Y Y w.Y 7 7 Y Y Y Y Y Y Y Y 8 3 Y P.Y Y b.Y P.P.Y Y Y d.Y 7 7 9 9 Y Y Y Y Y Y Y 8 3 Y Y Y 8 3 3 3 ; 3 3 3 3 3 Y 8 8 Y 4 3 3 3 8 8 Y 3 8 Y Y Y Y Y Y Y Y Y Y Y b.b.c.Y Y Y b.P.Y Y Y Y Y Y Y Y 3 P.P.Y b.Y b.c.P.b.Y b.c.Y Y Y Y Y 3 b.b.b.P.b.b.P.Y P.P.P.P.Y Y Y P.Y Y 3 : Y Y Y Y Y Y 8 3 Y Y 3 Y 3 3 8 8 8 7 Y 3 Y 3 ; 3 3 1 ; Y 7 Y 3 Y Y Y Y Y Y Y b.b.Y b.b.Y 3 Y Y Y Y ",
"P.Y Y b.c.Y Y Y c.Y Y Y Y Y c.Y c.Y Y Y Y 3 9 Y Y Y Y Y Y Y b.b.Y Y b.Y Y Y Y Y P.Y Y Y Y P.7 3 Y Y Y Y Y Y 3 3 7 Y 7 3 Y Y : Y Y 7 Y Y c.Y Y Y 3 b.P.Y Y P.Y 9 9 Y Y Y Y Y 3 Y Y Y Y Y Y b.Y P.P.Y Y Y Y Y 3 3 9 Y 4 7 Y Y Y Y 7 3 7 Y Y Y Y 7 Y 3 3 ; 3 1 3 3 8 Y 8 8 8 8 8 8 Y Y Y Y 8 8 8 8 Y Y 7 Y Y Y Y Y Y Y Y Y Y Y Y b.Y Y P.|.Y Y 7 Y P.c.b.Y P.P.b.Y Y Y P.P.P.Y c.Y Y Y Y Y b.Y P..XP.P.Y P.P.b.b.Y b.Y Y Y Y Y ; Y Y Y Y 3 3 7 3 3 Y Y 3 Y Y Y Y Y Y 7 Y Y 3 3 3 Y 3 o * Y Y 7 7 Y Y Y Y c.c.c.Y Y Y Y P.b.Y Y Y Y ",
"b.3 ; Y Y b.Y Y c.Y Y b.P.Y Y Y b.Y b.Y Y 9 3 3 Y Y P.Y Y 9 b.P.P.P.b.P.P.P.Y Y Y Y Y b.Y Y Y 3 3 9 Y Y Y 7 Y Y Y Y 7 7 Y Y 3 7 Y Y Y Y b.b.Y b.b.b.Y Y Y P.b.Y Y Y Y b.Y Y Y 5 9 Y Y Y Y Y Y P.b.Y Y Y Y 9 9 Y Y Y 4 Y Y Y Y Y 7 8 w.Y Y 7 w.Y 3 3 3 < 3 1 1 3 3 Y Y 4 8 Y 8 Y 3 3 Y 3 3 3 8 3 3 Y 7 Y Y Y Y Y Y Y w.Y Y Y Y Y Y Y Y w.9 w.P.P.P.P.Y P.b.P.P.P.Y Y Y P.b.b.P.b.b.Y b.Y b.b.b..XP.P.P.P.P.Y P.9 Y P.P.Y Y Y w.7 Y 7 Y Y 7 Y w.Y 3 Y w.w.P.P.Y Y 8 7 Y 8 Y Y 7 Y 7 3 @ 7 Y Y Y Y 9 Y Y Y c.b.Y Y Y P.b.b.Y Y c.Y ",
"Y Y Y Y Y Y 9 Y Y Y Y Y Y 3 Y b.Y Y Y Y Y Y 3 9 9 b.P.Y Y Y b.P.b.P.b.P.Y Y P.P.Y Y Y Y c.Y Y Y Y 9 8 Y Y Y Y Y Y Y w.Y Y Y Y 3 Y Y Y P.Y Y Y P.Y Y Y Y Y P.P.Y Y 9 Y P.Y Y Y Y Y Y Y Y Y Y Y 9 Y P.Y 5 3 Y c.b.Y 9 8 Y 3 8 Y 8 3 7 Y Y Y 7 8 Y 3 3 1 3 3 3 3 3 3 4 8 4 3 4 8 Y Y 3 Y 8 3 7 3 3 Y Y Y Y Y Y 3 3 7 Y Y Y Y b.Y Y Y 9 Y 7 Y Y Y P.P.P.b.P.P.Y Y P.b.Y Y Y b.b.Y Y Y Y b.Y b.P.P.c.P.P.P.P.P.P.P.Y P.P.P.b.Y Y 3 7 Y Y Y Y Y w.Y Y Y Y Y Y w.Y Y 8 8 8 7 Y 3 7 7 Y Y Y ; 3 Y 3 7 Y Y Y Y b.Y Y Y Y Y b.Y Y b.Y Y Y ",
"Y Y Y Y Y Y Y Y 9 c.Y b.P.9 Y Y b.9 3 Y Y Y Y Y Y Y Y b.P.3 9 Y 9 Y c.P.b.P.P.P.P.Y Y Y Y c.Y Y Y Y 7 Y Y 8 Y Y Y w.w.P.P.Y Y 7 3 Y Y Y Y b.Y Y b.Y Y Y b.b.P.P.Y Y Y Y b.9 3 Y P.Y 5 Y Y P.Y Y Y Y Y Y b.b.Y b.Y P.Y 3 Y 8 3 3 3 Y 7 Y Y Y Y Y Y 7 3 3 3 3 3 8 Y 4 3 3 3 4 3 8 4 8 4 3 3 3 3 4 3 3 Y Y Y Y Y Y 7 Y Y Y Y Y Y Y Y 7 Y Y 9 Y Y P.P.P.Y P.b.b.Y Y b.b.P.Y Y P.Y Y Y b.b.P.b.P.Y c.Y Y b.P.Y P.Y Y P.P.Y P.Y Y w.8 Y P.7 Y w.Y w.P.k.Y 8 7 Y w.Y 8 3 3 Y Y 8 3 7 7 3 Y ; 3 Y Y 3 3 Y Y Y Y Y Y Y Y Y b.Y Y Y Y Y c.",
"9 3 9 Y Y Y 9 Y Y Y Y 9 c.b.Y c.Y Y 9 Y Y Y Y Y Y Y Y 9 Y Y Y Y c.P.b.Y Y b.P.b.c.P.P.b.b.Y 9 Y Y Y 7 Y 3 3 Y Y Y Y k.Y Y Y w.w.3 7 Y Y Y Y Y Y P.Y Y Y Y Y P.Y Y Y Y Y P.b.Y Y 9 Y 3 9 9 Y Y b.Y Y Y Y Y Y Y b.Y b.Y 3 3 3 3 3 8 Y Y Y Y Y Y 8 Y Y k.Y 3 3 < 3 4 3 4 3 3 3 3 3 3 3 3 ; ; 3 3 3 3 3 1 3 8 Y Y Y Y Y 7 Y Y 9 Y Y Y 7 k.Y 3 Y Y Y Y P.P.P.b.Y b.Y Y Y b.Y Y Y Y c.Y Y c.b.P.Y Y Y Y Y P., 3 P.Y 9 Y b.Y Y P.Y Y Y Y w.Y Y 3 Y k.w.w.k.w.Y 8 Y Y Y 7 Y 7 8 8 7 3 3 3 Y ; 7 Y 3 3 3 Y Y Y Y Y Y Y Y b.P.b.Y Y Y Y Y ",
"Y Y 9 Y Y Y Y Y Y Y Y 9 P.Y Y P.Y Y Y Y Y Y Y 5 Y 9 3 9 Y Y Y P.Y Y b.P.P.Y b.P.c.P.Y Y b.Y Y 9 3 Y Y Y 7 Y Y 7 Y Y Y Y Y Y P.Y k.7 Y Y Y Y Y Y Y c.Y Y Y Y Y P.c.Y Y Y Y Y b.Y Y 3 Y Y Y Y Y Y Y Y Y Y Y Y Y Y b.Y 3 3 8 3 3 3 Y w.w.Y Y 7 3 Y Y Y Y Y Y 8 3 3 3 3 4 3 3 3 Y 4 3 4 3 3 1 3 3 3 3 3 3 3 3 7 8 Y 8 8 Y Y 7 3 3 9 Y Y Y Y 4 Y Y Y b.Y Y c.b.b.Y b.Y Y P.P.P.b.Y P.Y Y b.Y P.Y P.Y c.P.Y P.Y P.Y Y Y P.Y Y Y P.P.Y Y Y P.Y 3 ; Y Y Y Y Y Y Y Y Y Y Y Y 7 Y Y Y Y 7 Y Y 3 3 Y 7 3 9 Y Y Y Y Y Y c.Y b.b.c.b.Y Y Y Y ",
"9 Y Y Y Y Y Y Y Y Y Y Y Y Y Y b.P.b.Y Y Y Y Y 8 3 < 3 4 3 3 Y d.d.P.P.Y P.c.Y Y Y c.Y Y Y Y Y Y Y Y 9 3 8 Y Y 7 Y Y Y Y Y Y c.c.Y Y 3 Y Y Y Y Y Y c.Y b.Y Y Y P.Y Y Y Y Y Y Y Y Y Y 7 7 Y Y Y Y Y Y Y Y Y Y Y Y P.9 3 w.w.w.Y 8 8 Y Y Y Y Y 3 Y Y Y Y Y Y Y Y Y 4 3 3 3 4 Y 3 3 8 8 3 4 3 3 4 3 3 3 3 3 3 3 Y Y 8 Y Y 3 Y Y 7 3 3 3 3 3 ; ; Y Y c.Y Y Y P.P.Y c.b.Y P.P.P.P.|..XY Y Y Y Y Y P.P.b.c.P.Y Y P.P.Y Y Y Y Y Y b.Y 9 3 3 Y Y Y Y Y Y Y Y Y Y Y Y Y Y Y Y Y Y Y Y Y Y Y 8 Y 3 3 Y 7 9 Y Y Y c.Y b.b.b.Y 9 Y b.Y 9 Y Y ",
"Y Y Y Y 3 Y Y Y Y Y Y Y c.Y Y Y c.P.P.Y b.Y 7 Y 3 ; 1 Y 1 ; 3 3 P.Y P.b.Y b.Y Y Y b.b.Y b.Y Y Y Y Y Y Y Y Y 7 Y Y Y Y Y b.Y c.Y Y w.3 3 c.Y Y Y Y Y b.Y c.b.b.P.b.P.Y c.Y b.Y Y Y Y Y Y Y w.P.b.Y Y Y b.b.Y Y Y 3 Y Y Y w.Y Y Y Y Y Y Y Y Y Y Y Y Y Y Y Y Y Y Y Y 4 3 3 8 4 < 3 4 8 8 8 8 3 3 1 Y Y 3 3 7 3 3 Y w.Y 3 8 Y Y Y Y 7 3 ; 3 Y Y Y Y Y c.Y Y Y Y P.P.Y Y P.P.b.Y b.P.b.b.b.b.Y b.P.Y Y b.b.Y P.Y - 9 Y Y P.b.Y 9 Y P.Y Y P.w.Y k.P.Y 7 Y k.w.w.w.Y Y Y Y Y 3 7 Y Y Y Y 3 Y 8 3 Y Y 9 Y Y Y b.Y c.c.b.Y 3 Y Y Y Y 3 Y ",
"9 Y 7 Y Y Y Y Y Y Y Y Y Y c.Y Y c.Y 5 Y c.c.Y Y 3 3 3 Y 3 3 ; 3 Y Y Y P.9 Y P.Y Y b.b.b.P.P.b.b.Y Y Y Y Y Y Y Y Y Y Y Y Y b.b.P.Y b.Y 3 3 c.Y Y Y Y Y Y Y b.P.P.P.b.P.Y Y P.Y Y Y Y Y w.Y P.Y Y P.Y Y Y Y b.Y 3 Y P.Y Y Y Y Y Y Y 7 Y Y 8 Y Y 4 8 8 Y Y Y Y 7 Y Y Y Y Y Y 3 ; 3 Y 4 Y Y 8 1 ; 4 8 7 3 3 3 7 8 3 Y Y Y w.Y Y 7 Y Y Y Y 8 Y Y Y Y b.Y Y Y Y Y Y b.Y Y Y P.P.P.P.P.P.c.P.Y Y P.P.P.P.c.P.P.P.3 Y |.Y P.P.b.P.9 9 Y P.P.b.Y 3 w.w.P.Y Y k.w.w.P.Y Y Y Y Y 8 3 Y Y Y Y Y Y 7 3 7 Y 7 Y b.c.b.Y Y b.P.c.Y Y Y Y c.Y 9 ",
"7 Y Y 3 3 Y 9 Y Y c.Y Y c.Y b.Y Y Y Y c.Y c.Y Y 3 3 3 3 3 3 3 3 Y Y Y Y 3 3 Y Y b.Y Y P.P.Y Y c.b.Y Y Y Y Y Y Y Y Y Y Y Y Y P.P.Y Y Y Y 3 Y Y Y Y Y Y Y b.9 Y c.P.Y P.P.Y P.c.Y Y w.Y Y Y Y Y Y Y 9 9 Y Y Y 3 c.b.Y w.w.Y Y Y Y Y Y Y 3 3 4 8 4 Y 3 Y Y Y Y 7 Y Y 4 3 Y Y 3 1 3 8 3 8 Y 3 3 ; 3 3 3 8 7 3 3 Y $ 1 Y Y Y Y Y w.Y Y Y w.Y Y Y w.Y b.Y Y P.Y w.Y Y Y Y b.b.P.b.b.P.Y P.P.Y b.Y P.|.P.b.P.{.P.P.P.P.Y P.b.b.P.Y 3 Y b.P.Y Y Y Y w.P.P.Y Y Y Y Y Y Y Y Y Y Y Y w.Y Y Y Y Y Y 3 3 3 9 Y Y Y Y Y Y Y Y Y Y Y b.Y 5 Y b.",
"Y 7 8 Y Y Y Y Y Y Y Y Y Y Y Y b.Y 9 Y Y Y b.3 3 Y 8 7 7 3 3 3 Y 8 3 3 Y Y Y Y Y Y 9 Y P.P.P.b.Y Y Y Y Y Y Y Y Y 9 3 Y b.Y b.Y Y Y P.Y Y Y 3 Y 9 Y Y Y Y Y Y Y c.b.Y Y P.b.P.P.b.Y Y w.w.Y k.Y Y Y 3 3 3 Y Y Y P.Y Y Y Y Y Y Y Y 7 3 Y 3 8 3 3 3 3 Y Y Y Y Y Y Y 3 4 3 3 3 3 3 8 4 3 3 4 4 ; ; < 3 7 Y Y Y Y Y Y 8 Y Y w.w.Y Y Y Y Y Y Y k.w.Y P.P.P.Y Y P.P.Y Y b.b.b.P.P.P.Y P.9 P.b.P.Y Y Y P.Y P.Y P.b.Y c.Y Y P.P.b.b.Y Y Y Y Y Y 9 Y Y Y k.w.P.Y Y Y Y w.w.Y Y w.Y Y 8 Y Y Y Y Y Y Y 3 ; 9 Y Y Y Y b.c.Y Y Y Y b.Y 9 Y Y P.",
"Y 9 Y Y Y Y Y Y Y Y Y Y Y Y b.Y 5 Y Y Y Y Y Y Y Y Y Y Y 8 3 7 Y 3 3 Y 7 Y Y Y Y P.Y P.b.P.P.P.P.P.Y Y Y Y Y Y Y 9 Y Y Y Y Y Y Y Y Y Y Y Y 3 9 Y Y Y Y k.Y Y Y Y Y Y Y b.P.b.P.P.Y w.P.P.Y b.Y Y Y 9 5 Y Y 3 Y P.Y Y Y w.Y Y Y 3 3 7 7 3 Y 3 < 4 8 Y Y Y Y Y 3 7 8 4 3 3 3 3 3 8 8 8 Y 3 8 1 ; < 4 7 8 w.w.w.w.Y Y Y Y Y Y P.w.Y Y Y Y Y k.P.w.Y P.P.Y Y P.P.P.Y Y w.P.P.Y Y P.P.P.P.P.P.P.Y Y Y Y b.P.P.P.P.P.Y Y P.P.P.Y Y b.Y Y Y Y Y Y Y Y Y k.Y Y Y 9 7 b.b.Y Y Y Y Y Y Y Y Y Y Y Y w.3 : Y 9 Y c.Y b.Y b.c.Y Y P.Y Y Y Y Y ",
"9 Y Y Y Y Y Y Y Y Y Y Y Y Y Y Y 3 Y b.Y Y Y Y Y 8 Y 3 Y Y Y 3 Y 9 3 Y Y 3 Y P.b.P.P.Y b.P.P.b.P.P.P.P.Y Y Y Y Y Y Y Y Y Y 3 Y Y Y Y P.b.P.Y 9 Y Y Y Y 3 Y 8 7 Y Y P.b.b.P.P.P.c.Y Y Y P.P.Y Y Y Y Y Y Y 9 Y Y Y Y Y Y c.b.Y Y Y 3 3 Y Y Y 3 3 8 Y Y Y 8 3 3 7 8 8 3 3 3 < 3 Y Y Y 8 8 8 3 8 3 4 Y Y Y Y Y Y Y Y Y 7 7 Y Y Y w.Y Y P.P.Y w.k.P.k.P.Y Y Y Y Y Y P.Y Y Y Y Y Y P.P.P.b.P.P.P.Y Y Y P.P.P.P.P.Y b.Y Y Y Y P.Y Y b.P.Y Y b.Y Y Y Y w.w.Y Y Y Y 9 b.b.b.Y Y Y Y Y Y Y Y Y Y Y Y 7 3 Y Y Y b.Y Y Y Y Y Y Y c.Y Y Y 3 5 ",
"9 Y Y Y Y Y Y Y Y Y c.c.9 c.c.Y Y w.Y Y Y Y 1 ; 1 7 8 8 Y 3 3 9 Y 7 3 Y 3 3 Y b.b.Y Y b.Y P.b.P.P.c.b.Y Y Y Y Y Y Y Y Y b.Y Y Y Y Y Y Y Y Y Y 3 k.8 3 ; 1 = 1 3 Y P.P.b.P.P.b.w.Y P.P.Y Y Y Y Y Y c.9 Y P.Y b.Y Y P.b.Y Y 9 9 Y Y Y 8 7 3 3 1 8 8 8 3 3 3 ; 3 Y Y Y Y 8 3 3 3 3 Y Y Y Y 3 3 Y 4 Y 8 Y w.Y Y Y Y Y 3 : Y Y Y Y Y k.w.P.k.w.P.P.w.w.w.Y Y Y Y Y Y Y Y Y Y Y Y P.P.P.b.Y P.P.Y Y b.Y Y b.{.Y Y b.Y Y c.Y Y Y c.P.P.Y Y c.Y Y Y Y Y Y 9 Y Y Y Y Y Y P.P.Y 9 b.P.Y Y 3 Y Y 3 Y Y 3 Y c.Y Y b.Y Y Y Y Y Y Y Y 5 Y Y Y ",
"9 3 Y Y Y Y Y Y Y Y Y Y Y Y Y Y Y Y Y Y P.Y o 1 1 Y w.Y Y Y Y Y Y Y Y 3 3 3 Y Y Y Y Y Y Y Y Y P.P.P.b.Y Y Y Y Y Y Y Y Y Y Y c.3 Y Y Y Y Y 9 Y 5 7 3 3 1 1 4 7 3 Y P.P.P.|.P.P.Y 9 c.Y Y c.Y Y Y Y Y 3 P.P.b.P.Y Y Y Y b.Y 3 Y 3 7 Y 7 8 3 3 3 4 3 3 Y 8 Y Y 3 3 8 Y 4 3 3 ; 3 3 Y Y 3 3 3 3 8 8 3 Y Y Y Y Y Y Y Y Y 7 3 Y Y Y 7 Y w.Y P.k.Y P.Y w.w.Y Y Y 8 Y Y Y Y Y Y Y Y P.P.P.Y Y {.|.P.Y 3 Y P.P.P.P.b.c.Y Y P.Y Y Y Y Y Y Y b.b.Y Y Y Y Y 3 Y Y Y Y 9 Y P.Y b.Y Y P.P.Y Y Y Y 8 7 3 3 : 3 b.b.Y c.Y Y b.Y b.Y Y Y 3 Y Y P.",
"Y Y b.Y Y Y Y Y Y Y Y Y Y 9 ; Y Y 9 Y b.Y Y ; ; ; Y w.P.b.Y Y Y Y Y 3 3 3 : 3 Y Y c.Y Y P.Y b.P.b.P.P.Y Y P.Y Y Y 9 Y Y 9 Y Y Y Y Y P.b.b.Y 9 3 ; 8 Y 4 Y Y Y Y Y w.P.P.P.P.|.P.b.Y 3 Y Y c.Y P.Y ; 9 Y Y P.b.Y Y Y Y Y Y b.9 3 8 3 3 7 3 3 Y Y 8 Y Y Y 7 7 7 Y Y 3 3 8 3 ; 3 Y 8 Y 3 ; 3 4 3 8 3 8 8 7 Y Y Y Y Y Y w.Y Y Y Y Y Y Y P.k.Y Y Y w.Y w.w.Y Y Y Y 8 Y 7 9 Y Y Y Y Y P.b.Y c.P.P.P.3 3 P.Y Y b.P.P.Y Y Y Y P.Y b.Y Y Y 3 b.Y Y Y Y 3 Y b.P.b.Y Y Y P.Y Y b.Y c.Y c.9 9 Y Y Y Y Y 3 3 Y Y Y Y Y Y Y b.Y 3 3 Y 9 Y 9 Y ",
"Y Y P.b.Y b.Y 9 Y Y Y Y 9 Y 3 9 9 9 Y Y 3 Y d.; 3 3 3 Y P.Y b.b.Y Y Y Y 3 3 9 3 Y Y Y Y Y Y Y Y Y P.P.b.b.c.b.Y 9 Y Y Y Y Y Y Y Y V.V.b.b.Y 3 3 9 Y Y Y Y 8 w.Y w.P.Y b.b.P.b.P.b.b.Y Y Y Y Y Y 3 Y b.Y Y c.Y P.b.b.Y Y Y b.Y Y Y 7 8 8 7 8 8 Y Y Y 8 Y Y Y 7 7 Y 8 3 3 3 3 3 3 Y Y Y 3 4 4 3 3 Y 8 Y 7 7 Y 8 Y Y 3 7 Y Y w.w.Y Y 8 Y P.Y Y Y Y Y 7 Y w.Y 8 Y P.Y Y Y Y 5 b.b.Y Y |.Y - Y P.P.Y 9 Y Y Y c.c.Y P.P.P.P.Y P.Y Y Y Y Y Y Y Y Y Y Y Y c.Y P.Y 3 Y Y Y Y Y Y Y Y b.3 Y Y Y Y Y Y 7 3 Y Y Y Y Y Y Y Y Y 3 3 3 9 9 Y Y ",
"Y Y Y Y b.Y Y Y Y Y Y Y Y 3 8 4 3 9 3 9 9 3 Y 3 3 Y 5 Y Y 9 Y P.P.Y Y Y Y 5 3 5 Y Y Y Y c.Y 9 Y c.Y Y c.Y c.P.P.c.Y Y Y Y Y 3 3 3 Y P.Y Y Y Y 9 Y Y 9 9 b.Y 9 Y P.P.Y b.P.b.b.b.b.b.Y Y Y Y 3 6 c.c.Y P.Y 9 Y Y b.b.b.b.Y Y Y Y Y 7 7 8 7 3 3 Y w.Y Y Y Y Y Y Y Y Y Y Y 3 7 3 3 4 8 3 8 Y 3 3 8 Y Y Y Y Y 7 3 Y Y Y Y 7 Y w.Y Y Y 7 Y Y Y Y Y Y Y 3 Y w.P.P.w.Y Y Y Y 9 Y c.Y P.Y Y P.3 3 P.P.c.P.P.Y Y b.Y Y Y c.P.P.Y Y Y Y Y Y Y Y Y Y w.b.b.P.b.P.P.P.Y Y b.P.Y b.Y Y Y Y 7 7 Y Y Y Y Y Y : 8 Y Y Y Y Y Y Y Y Y 9 9 3 3 Y 9 ",
"Y Y Y Y Y Y Y Y Y 5 Y Y Y 3 Y Y Y Y 3 Y Y Y 3 3 3 Y Y Y Y c.Y b.Y P.c.Y Y Y Y 9 5 3 Y Y c.Y Y Y Y Y Y Y Y Y Y b.Y Y Y Y Y Y 6 Y 6 3 Y Y b.Y 3 3 3 Y Y Y Y Y 3 Y Y P.P.P.P.P.b.Y P.P.Y Y Y Y c.P.c.P.Y Y Y Y 5 Y Y Y Y Y Y Y Y Y Y 3 Y Y Y 8 3 Y Y w.Y Y Y Y Y Y Y Y w.8 3 3 ; 1 3 3 3 4 Y 4 Y Y 8 Y Y Y Y Y Y Y Y Y 8 Y Y Y 7 Y w.3 Y Y Y Y Y Y 3 3 Y Y Y w.k.w.Y Y Y 9 Y Y Y 3 b.Y P.P.Y 3 Y P.P.b.P.b.c.b.Y P..X|.P.b.Y P.c.3 3 Y 9 Y w.b.Y Y P.Y P.Y Y Y Y Y P.Y Y Y Y Y Y Y 7 Y Y Y Y Y Y Y Y 8 Y Y Y Y 9 Y Y Y 9 9 3 3 3 Y ",
"Y Y Y Y b.Y Y Y Y 3 Y w.Y Y Y Y Y b.Y 3 9 9 Y 3 3 9 Y Y Y Y b.Y Y Y P.b.P.c.Y Y 5 3 3 9 Y Y Y Y Y Y P.P.P.b.Y Y Y Y Y Y Y Y Y V.P.P.Y Y Y 9 9 Y 3 3 Y Y Y 9 Y 9 Y Y b.Y Y P.P.P.Y P.Y 3 3 Y P.V.Y Y Y Y Y b.Y Y 9 Y Y 9 Y Y Y Y Y Y 7 Y Y 3 8 Y Y 9 Y Y Y Y Y Y Y Y Y Y 3 3 3 3 1 3 1 3 8 3 Y Y Y 3 4 Y 3 Y 8 7 Y Y Y Y Y Y Y 7 3 3 Y Y Y Y Y 8 1 3 Y Y 8 Y Y P.Y Y Y Y Y Y Y Y Y Y P.P.P.3 3 P.P.Y Y Y c.P.Y b.P.P.P.P.b.b.Y b.P.P.b.Y P.Y Y c.b.b.Y Y Y 9 Y Y b.b.Y Y Y Y Y w.3 Y Y Y Y Y Y 3 3 Y Y Y Y Y Y Y Y Y 9 9 Y Y 3 Y ",
"Y Y Y Y Y Y 9 Y Y Y b.Y 3 3 7 3 3 3 Y Y 3 ; Y 3 3 Y 3 Y Y Y Y Y Y Y Y Y Y Y Y Y Y 3 3 3 9 Y Y Y Y Y Y b.b.b.b.Y Y Y Y Y Y Y V.Y V.V.Y Y Y Y Y Y Y Y Y Y Y Y b.Y b.Y b.Y Y b.P.b.P.Y Y Y 3 c.Y Y Y 3 6 Y Y Y Y Y Y Y b.Y Y b.Y Y Y Y Y Y Y Y Y Y 7 Y Y Y Y Y Y Y Y Y Y Y 8 3 3 3 3 4 3 3 3 3 3 3 3 8 3 8 Y 3 Y Y Y Y Y Y 7 Y Y Y 3 3 3 3 Y Y Y 7 Y 7 Y Y Y Y w.Y P.w.P.Y Y P.Y Y Y Y 3 Y P.Y b.P.P.Y c.P.9 Y P.Y Y b.Y P.c.5 Y P.Y b.|.Y Y Y Y Y c.Y Y P.b.Y 9 Y c.b.Y 3 Y k.Y w.7 Y Y Y Y Y Y 3 3 Y 3 Y Y b.Y Y Y 9 9 Y Y 9 Y Y ",
"Y Y 9 Y 9 3 9 Y 9 b.b.3 , 7 7 7 7 ; 3 3 9 Y ; 3 9 3 Y Y b.Y Y Y Y Y Y Y 9 Y Y Y Y Y 9 3 3 3 9 Y b.Y P.Y Y P.P.Y Y 9 Y Y Y Y Y Y Y Y Y Y P.Y Y Y 9 Y Y Y Y Y b.P.|.|.P.b.c.Y Y V.c.Y V.P.Y Y Y Y Y 5 Y Y Y Y Y Y c.Y Y Y Y b.Y Y Y Y Y Y Y Y Y Y 8 w.b.Y Y Y c.Y Y Y Y Y Y 8 3 8 Y Y 4 8 Y 8 3 3 3 8 3 3 8 Y Y Y Y Y Y 3 Y Y Y Y Y 3 3 8 Y Y 3 3 3 Y 7 Y Y Y 3 7 Y Y 9 3 Y Y Y Y Y Y 3 3 Y c.b.b.P.Y Y P.Y 5 9 Y Y b.Y b.Y 9 P.P.Y P.P.Y V.Y Y Y Y Y Y Y b.Y Y Y b.Y Y Y Y Y Y Y 7 Y Y Y Y Y Y 8 3 Y Y Y Y Y Y Y Y 3 Y Y Y Y b.b.",
"Y 9 Y Y 9 Y Y 3 Y Y 3 3 7 7 3 3 3 Y 3 3 9 ; $ , Y 9 Y Y Y Y b.Y Y Y Y Y Y Y Y Y Y b.Y 9 3 3 3 3 Y Y b.c.c.c.Y Y Y Y Y 9 9 Y Y Y Y Y Y 3 7 Y 3 Y 9 3 3 Y b.Y Y P.|.P.b.Y Y P.P.Y Y V.c.Y Y Y Y Y Y 3 Y Y 3 c.P.Y Y Y Y Y Y b.Y Y Y Y w.Y Y Y Y Y Y 7 P.b.c.Y 9 9 Y Y 7 8 Y Y 8 8 Y Y Y Y Y Y 3 1 3 3 3 Y 8 8 Y Y Y Y 3 3 Y Y Y w.Y Y Y Y 8 Y 8 Y Y Y Y Y 7 7 3 Y Y Y Y 3 9 Y Y Y Y Y Y 7 w.w.Y Y Y Y 3 Y Y Y 9 Y Y Y P.Y Y Y Y P.Y b.P.c.P.c.c.Y Y Y Y b.b.P.c.Y P.Y Y Y Y 3 Y Y 3 Y Y Y Y Y 9 7 3 Y Y Y Y Y Y Y Y Y Y Y Y 9 9 Y ",
"Y Y Y 9 Y Y Y Y 4 8 Y 3 7 : ; 7 7 3 Y 8 3 3 Y 5 Y Y Y b.c.9 9 Y 9 Y Y Y Y Y Y Y Y Y Y Y Y ; 3 3 3 4 Y Y b.b.Y Y Y Y c.b.9 5 Y Y Y 4 3 4 Y 3 3 Y Y 9 9 9 Y b.Y 9 |.P.w.b.P.P.Y Y Y P.P.b.Y 9 Y 6 Y Y Y Y Y |.P.Y c.Y Y b.Y P.P.b.b.P.P.Y Y Y Y Y c.Y P.Y Y b.c.Y 3 Y 3 Y Y Y 8 Y Y Y Y 8 3 3 3 ; 3 3 3 3 3 3 3 Y Y 7 Y Y Y Y 7 Y Y Y d.Y Y Y Y Y Y Y Y Y 3 9 Y Y b.Y Y Y Y 9 Y Y k.w.8 Y Y Y k.Y w.Y 7 P.Y Y Y Y Y 9 Y Y Y Y 9 Y Y b.Y Y Y b.P.Y Y Y P.P.c.Y b.c.b.Y Y Y Y Y Y Y Y Y Y Y Y Y w.w.: 3 w.Y 7 7 Y Y Y Y Y Y c.Y 3 Y ",
"Y 9 9 3 9 Y 3 3 8 4 Y Y 3 1 3 Y 3 3 8 4 Y 3 3 Y 3 Y Y 9 Y Y 3 3 Y b.Y Y Y Y 9 Y Y Y Y Y P.3 3 3 3 3 Y Y Y Y Y P.c.Y Y b.Y 3 9 Y 3 4 ; 3 3 3 3 Y Y 9 Y Y 5 Y b.3 3 Y b.Y 5 Y Y Y b.Y Y b.Y Y Y Y Y Y Y 6 Y P.Y Y Y b.c.Y P.P.P.Y Y Y c.Y Y Y Y P.Y Y b.Y Y Y Y Y 3 7 Y 3 3 7 3 3 7 Y Y Y 3 8 3 3 3 Y 4 3 4 3 3 Y Y 7 Y 8 Y Y Y Y Y Y Y Y 3 Y Y 7 Y Y Y Y 3 9 Y Y Y Y 9 3 b.Y 9 Y w.P.Y Y Y w.P.Y Y Y Y Y 9 Y b.b.b.c.5 Y Y c.9 Y Y Y Y Y Y Y Y Y b.Y Y P.P.Y Y Y 5 9 Y Y Y 9 Y Y Y Y Y Y Y 3 7 Y 3 3 Y 7 Y 7 7 Y Y Y w.Y Y b.Y Y ",
"Y Y 3 3 9 3 3 3 3 4 Y Y 3 ; 8 7 3 Y Y Y 3 3 9 9 Y Y Y Y Y Y Y 9 Y b.Y Y Y Y Y 9 Y c.Y Y Y Y 3 3 1 3 3 Y Y Y P.b.Y Y Y Y Y 9 3 3 Y 4 1 3 8 3 3 7 3 c.Y Y Y Y b.Y Y Y Y 3 3 P.P.P.b.Y Y Y Y 3 Y Y Y 6 5 Y b.Y Y Y Y Y P.9 Y Y Y b.Y Y Y Y Y Y Y Y P.c.P.c.Y Y Y Y Y Y Y Y Y Y 7 7 8 Y Y Y 3 3 3 3 8 8 3 1 Y 8 3 8 Y Y 7 Y Y Y Y Y Y Y 3 3 3 3 8 8 Y Y w.Y Y 3 Y Y c.Y Y Y Y b.Y 7 3 Y Y Y Y Y Y Y w.Y Y Y Y P.Y Y Y Y Y Y Y P.Y Y Y Y 9 Y P.Y Y Y b.Y Y c.b.Y Y Y P.Y 9 Y Y Y 9 Y Y Y Y Y 8 7 w.Y Y 7 : 7 Y Y Y Y Y Y Y Y Y Y Y Y ",
"Y Y 3 3 9 3 4 3 3 8 Y Y 3 = 3 3 3 1 8 Y Y Y 3 Y Y Y Y Y Y Y Y Y Y Y Y b.Y Y Y Y 9 Y b.Y 3 Y 3 < ; 3 3 3 3 9 Y b.Y Y P.Y Y Y 3 3 Y 8 % < Y 3 8 7 3 Y b.b.Y Y Y 9 9 Y 3 3 Y Y b.P.P.b.P.P.b.Y Y Y 3 3 Y Y Y Y c.Y Y P.{.P.Y .XP.Y 3 Y P.P.b.Y b.Y Y P.P.P.P.3 Y P.Y 7 7 7 w.Y 7 7 Y Y Y 7 3 3 3 3 3 8 3 3 3 4 3 7 Y 8 Y w.Y Y Y Y Y Y 3 3 3 1 ; Y Y Y Y Y Y Y Y w.Y b.Y Y Y b.Y Y Y 8 w.Y Y 7 Y Y 3 P.Y Y b.b.b.Y Y P.Y Y b.c.P.Y Y Y Y Y Y Y Y Y Y 9 Y P.c.Y c.b.b.5 Y Y Y 3 9 Y Y Y 4 3 3 Y w.Y Y Y 3 3 7 Y Y Y Y Y Y Y Y Y Y Y ",
"Y 9 3 3 3 3 4 3 3 8 8 8 : * 1 3 : Y Y 3 Y 3 3 9 Y Y Y Y Y Y b.Y Y 9 Y b.Y b.Y 9 Y Y Y Y Y Y 3 3 3 3 Y Y Y Y Y Y P.Y Y Y Y Y 9 3 4 4 ; 3 3 8 Y Y Y Y b.Y 3 Y Y Y Y Y Y Y Y 9 Y P.b.P.b.P.P.Y P.Y Y Y Y Y P.Y Y P.Y Y P.c.Y P.b.3 Y Y Y P.b.P.P.Y Y Y b.P.P.Y P.P.Y 9 Y 7 3 Y Y Y Y Y Y Y Y Y 3 1 3 4 Y Y 4 Y Y Y Y Y Y Y Y Y Y Y Y Y Y 3 3 3 3 Y Y Y Y Y Y P.b.Y Y P..XP.Y Y b.P.Y Y Y w.Y Y Y 8 Y Y Y Y Y b.b.Y Y Y P.Y Y P.Y Y Y Y Y b.Y Y Y Y Y Y b.Y Y 5 Y c.c.9 Y c.Y 9 Y Y Y Y Y Y 3 Y Y Y 8 Y 3 7 Y Y Y Y Y Y Y Y Y Y Y Y ",
"Y 3 3 3 3 8 4 4 3 3 3 4 3 3 3 3 3 ; 3 Y Y Y Y 9 Y 9 9 9 Y Y Y Y Y 8 3 Y w.Y Y 7 Y b.k.Y Y Y 8 7 Y Y Y Y b.Y Y Y Y c.Y Y b.Y Y Y Y 8 3 Y Y Y Y Y Y Y Y Y c.Y b.P.P.Y Y 9 Y 3 Y b.P.P.P.P.P.b.P.P.Y P.Y 9 Y Y b.b.3 Y 5 3 Y 9 Y Y 9 b.Y w.Y P.b.P.Y Y Y Y P.P.Y Y 9 Y Y 3 3 Y Y Y Y Y Y Y Y Y 3 3 3 3 Y Y 3 8 Y 9 Y Y Y Y Y Y Y Y Y Y Y 3 3 Y Y 3 Y Y Y Y Y Y Y Y Y Y P.P.Y Y Y Y Y k.Y Y 8 8 Y 7 Y Y Y Y 3 Y Y Y P.3 3 Y Y Y Y Y Y Y Y Y 9 9 Y 9 Y Y b.Y 3 Y c.b.Y Y 9 Y Y Y Y Y b.Y 3 Y Y Y 3 9 Y Y 3 7 Y Y Y Y 8 Y Y Y Y Y 8 k.",
"8 4 8 Y 4 4 3 8 8 3 3 3 < 3 3 4 3 ; 3 3 7 Y Y Y Y Y Y Y Y Y Y Y Y Y 3 Y P.Y Y w.3 7 Y w.Y 7 Y Y 3 Y Y Y w.Y Y Y b.|.Y b.Y Y Y Y Y 8 8 3 Y Y Y Y Y Y Y Y Y Y P.Y Y 9 3 Y 9 9 Y Y P.b.Y P.P.P.c.P.Y 9 Y 3 P.P.b.b.b.Y Y Y b.Y Y Y Y w.w.Y Y Y b.P.P.P.Y Y Y c.3 Y w.w.Y Y Y Y Y P.Y Y Y Y 3 Y Y 3 Y Y 7 3 3 3 Y Y Y b.Y Y w.Y 8 8 3 3 Y Y Y w.Y : 3 3 Y P.Y Y 3 7 w.Y Y Y Y Y 7 Y w.Y w.Y Y 7 Y Y Y Y Y : ; ; Y Y Y 9 3 Y 3 Y Y Y Y 3 3 9 9 9 Y Y Y Y b.Y Y Y Y b.Y Y Y Y Y Y Y Y b.Y Y Y 7 Y 7 7 7 Y 3 Y w.Y Y Y 8 Y Y Y Y Y Y k.",
"4 8 Y 3 8 8 3 3 3 3 3 3 3 1 4 8 Y Y Y 3 7 Y 3 Y c.b.Y c.Y b.b.Y Y Y 3 Y Y 8 Y Y Y : Y Y Y Y 7 3 Y Y Y Y w.k.Y ; , Y Y Y Y Y Y Y Y Y Y Y Y Y Y 9 7 Y b.Y b.b.b.Y P.P.c.Y 9 Y Y Y b.P.Y P.P.b.P.P.b.b.b.P.Y b.Y Y Y 9 Y Y Y P.Y 3 Y Y Y Y Y Y Y Y Y P.Y 3 3 6 P.Y Y b.b.b.Y Y Y Y Y Y Y Y Y Y 3 3 Y : ; 7 Y 8 Y Y Y P.Y w.w.P.Y Y Y 8 7 Y 8 Y 3 8 Y 3 3 Y Y Y 3 $ Y Y Y 7 Y Y 7 3 3 Y k.Y w.Y 8 Y 7 3 : Y 3 ; ; 3 9 Y Y Y 3 w.P.Y Y 3 3 Y Y 3 Y Y Y Y Y Y b.Y Y Y Y Y Y P.Y Y Y Y 3 3 Y Y Y 3 Y 9 Y 7 3 Y Y Y Y 7 7 7 Y Y Y Y 7 Y ",
"8 8 Y Y 3 4 4 8 4 3 3 8 4 3 3 Y Y 7 Y 8 7 Y 9 Y c.Y Y Y Y Y Y Y Y Y Y Y Y 8 Y Y Y 3 3 7 Y Y 3 3 7 3 7 Y Y w.Y Y 3 9 Y 9 Y Y Y Y Y Y 8 Y Y Y Y 7 9 Y Y Y b.c.Y Y b.Y P.P.Y Y Y b.P.b.Y b.Y b.P.P.P.P.b.Y P.Y b.Y 9 Y Y |.Y b.P.Y Y Y Y Y Y b.Y b.Y Y P.3 2 3 P.Y b.|.Y P.P.Y 5 3 Y Y Y b.|.b.Y Y Y Y Y Y Y Y Y Y Y Y Y P.Y w.w.Y Y Y 3 3 Y 3 3 3 Y Y 3 7 Y Y Y Y Y Y Y 7 Y 7 3 3 3 3 w.Y Y Y Y Y P.Y 7 Y Y Y Y Y 3 3 Y Y Y Y Y Y Y b.3 3 9 Y P.Y Y Y b.Y b.Y Y Y Y Y Y Y Y Y Y Y Y 9 3 3 Y w.Y 3 7 8 3 3 Y Y Y Y Y Y Y Y Y 3 8 Y ",
"Y 8 Y Y 4 8 8 4 8 8 3 Y Y 3 8 Y Y 7 7 Y Y 7 9 Y Y Y c.Y Y b.b.Y 9 Y Y Y Y Y Y Y Y Y Y Y w.Y 8 Y 3 3 3 7 Y Y Y 7 Y Y Y 3 9 b.Y Y 8 Y Y Y Y Y 7 7 Y Y Y Y Y Y Y Y Y Y P.P.P.b.Y b.Y b.P.b.c.Y Y P.P.P.P.b.P.P.b.b.Y Y 9 P.Y Y Y Y Y Y Y Y Y Y Y b.c.Y Y Y Y Y P.Y b.|.b.Y P.Y 5 Y Y Y Y Y P.Y Y Y Y Y 7 Y Y Y 9 Y Y Y Y Y Y Y w.w.Y Y Y 3 Y Y 3 3 Y Y Y 7 3 ; Y Y Y Y Y Y 7 8 3 3 Y 8 7 Y Y 3 3 Y P.Y 7 Y Y Y Y Y 3 Y Y Y Y Y w.Y Y w.Y 3 Y Y Y Y Y Y Y Y P.b.Y Y Y 9 Y b.Y P.P.c.b.Y Y 8 3 Y k.7 3 3 3 8 8 Y Y 8 Y w.Y Y Y Y Y Y ",
"Y Y Y Y 8 Y Y 8 8 8 4 Y 8 3 Y Y Y 7 Y Y Y Y Y 9 Y Y Y Y 9 Y Y Y Y Y Y Y 8 3 3 Y Y Y Y Y 8 Y Y 8 Y Y 1 3 Y Y Y Y Y 9 Y Y 9 Y Y Y Y Y Y Y Y Y 3 7 Y Y Y b.b.Y 9 Y Y Y c.b.Y P.P.b.P.Y b.Y Y Y Y b.b.P.b.P.P.P.P.b.Y Y Y Y Y Y Y Y Y 3 Y 7 3 Y 9 Y b.Y Y P.b.Y P.b.Y |.b.Y Y P.b.Y c.Y Y b.Y Y Y Y Y 7 7 Y Y Y 7 9 Y b.b.Y w.Y Y Y w.w.Y Y Y Y Y Y Y Y Y Y 3 ; 3 Y 3 7 3 3 Y Y 7 3 3 3 3 3 < 3 3 3 3 Y 3 Y 3 8 Y 1 3 Y 3 Y Y Y Y w.Y k.k.Y P.Y 9 Y Y Y Y Y Y Y Y Y Y Y Y b.Y Y Y b.Y Y Y Y Y Y 3 Y 8 1 ; Y Y Y Y Y Y w.w.Y P.Y Y 8 ",
"Y 8 Y 8 8 Y Y Y Y Y Y 3 7 3 3 3 Y 3 Y Y 3 4 Y Y Y Y Y Y Y Y Y Y Y Y Y 8 Y 7 Y Y Y Y Y 8 8 Y Y 3 3 3 Y 3 4 Y Y Y Y Y Y Y 3 Y Y Y Y Y Y Y Y Y 3 Y Y b.Y Y Y P.Y Y 3 Y Y Y b.b.Y b.b.Y Y Y Y Y c.9 P.P.b.P.b.P.P.Y b.P.P.P.Y Y Y Y Y 7 Y Y 3 Y Y 7 Y Y Y P.P.Y b.Y Y P.Y Y Y b.b.Y P.b.Y Y b.Y Y Y Y Y 3 Y Y Y 7 7 Y Y Y w.Y Y Y Y Y Y Y Y 7 : Y w.Y Y Y Y Y 7 3 7 8 7 3 ; 3 3 4 3 3 3 Y 3 ; < 3 3 Y Y Y 3 7 8 : 3 3 3 3 3 Y Y Y w.Y Y Y Y Y Y Y Y Y Y Y Y Y P.Y Y Y Y Y Y 7 Y w.k.w.Y Y Y Y Y Y Y 3 4 = 3 k.Y Y Y Y w.w.Y k.k.Y Y ",
"Y Y Y 3 8 Y Y Y 8 Y Y 3 7 : 7 3 8 8 8 8 Y Y 9 Y Y 9 Y Y Y Y Y 5 Y Y 7 3 3 7 7 Y Y 7 Y Y Y Y Y 8 8 8 3 Y 8 Y Y Y 5 Y Y Y Y Y Y Y Y Y Y Y Y Y 9 Y Y Y Y Y Y Y b.Y 3 Y Y b.Y Y Y Y b.b.Y b.b.Y Y Y Y b.P.b.P.Y Y Y P.Y b.P.P.c.b.Y Y Y 3 7 Y 8 7 8 Y Y Y b.P.Y P.P.Y Y Y Y c.b.b.P.Y Y Y Y Y Y b.Y Y 9 9 9 Y 3 Y Y Y Y Y Y Y Y Y w.Y Y Y Y 7 3 : Y Y Y Y Y Y 3 ; Y 7 8 Y 3 3 8 3 3 3 Y Y Y ; 1 Y 3 8 Y 8 7 Y Y Y P.3 7 7 7 Y Y Y Y w.Y 7 Y Y Y 8 Y w.Y P.c.P.P.Y Y Y Y Y b.7 Y Y Y w.Y Y Y Y Y Y 8 4 3 3 3 8 3 Y Y Y Y Y Y Y Y Y Y ",
"Y Y w.3 Y Y Y Y Y Y Y 7 Y Y Y Y Y Y Y 3 8 3 Y Y Y 9 Y Y Y Y Y Y 3 Y Y Y 7 Y Y 7 Y Y Y Y w.Y 3 Y Y Y Y Y Y Y 3 8 Y Y 5 3 5 Y Y Y Y 9 9 Y 9 3 P.Y Y Y Y Y Y Y Y 9 b.P.3 Y Y Y Y Y Y Y Y Y Y 9 9 9 Y Y Y Y Y b.Y Y Y Y b.Y Y Y |.P.Y w.Y 3 Y Y Y 8 Y Y P.b.Y Y b.Y Y Y Y Y Y Y Y Y Y b.c.Y Y Y P.b.Y Y Y Y Y Y Y Y Y w.Y k.Y Y Y Y Y 7 7 Y w.Y 7 3 3 Y Y Y Y Y : 3 Y 8 Y 3 3 Y 8 3 1 3 3 Y 3 4 Y d.3 1 ; Y Y P.P.w.Y 3 7 Y 3 7 3 Y Y Y Y Y 7 Y 7 Y w.Y P.P.P.P.b.Y Y Y b.Y ; 3 3 Y Y Y Y Y Y Y 3 3 4 4 8 3 3 7 8 Y Y 8 Y 7 Y P.P.Y ",
"7 8 Y Y Y Y Y Y 8 Y Y 3 Y Y Y Y Y 8 Y 8 8 Y 3 9 Y Y 9 9 Y Y Y Y Y 8 8 Y Y Y Y 7 7 7 Y 3 8 8 Y 3 3 Y Y Y Y Y 8 8 Y Y Y Y 5 5 Y Y Y Y Y 5 3 Y Y Y Y Y Y Y Y Y Y Y Y Y Y 3 Y Y Y 9 9 Y Y 9 Y 9 3 3 Y 3 Y P.Y P.c.Y b.Y Y Y b.Y c.b.w.Y Y w.7 Y Y Y Y Y P.Y Y Y Y b.Y 3 Y Y 3 Y P.b.c.Y c.c.Y Y b.b.w.Y 9 Y b.Y Y Y Y Y Y w.Y 7 Y Y Y 3 3 3 3 7 3 3 3 3 Y Y Y Y Y 3 3 3 Y 3 3 4 Y Y 3 ; Y Y 3 4 3 Y Y 8 3 3 w.Y Y P.7 3 3 Y Y Y 3 8 Y Y Y Y Y Y Y P.Y b.P.P.P.P.P.b.Y Y Y Y Y 3 3 w.Y Y w.k.Y 7 7 4 3 3 4 3 8 Y Y 7 Y Y Y Y Y Y Y Y ",
"Y Y Y w.w.Y ; 3 Y Y Y Y Y Y Y Y Y Y 8 Y Y 3 9 Y Y Y 9 9 Y Y Y Y 3 Y Y Y Y Y Y 8 Y 7 Y Y 3 8 Y Y 3 Y Y d.Y 8 8 Y Y Y Y Y Y Y Y 3 Y Y Y 3 Y b.Y Y Y Y c.Y Y Y Y Y 9 Y Y Y c.b.b.Y Y 9 Y Y 3 Y Y 5 3 3 9 Y b.c.Y Y P.b.Y b.Y Y Y Y Y Y Y w.Y 3 Y Y Y Y Y b.Y Y b.b.9 9 Y Y 3 P.P.P.P.Y Y Y Y b.Y c.Y Y Y Y c.Y Y Y Y Y Y Y w.w.b.7 3 7 8 3 3 3 3 3 9 Y 3 Y Y Y 8 Y 8 3 3 4 8 3 1 Y 3 3 Y Y 3 3 1 3 Y 4 Y 3 3 3 3 Y 7 Y w.7 7 7 Y 7 Y Y Y w.P.Y 7 Y Y Y Y Y Y P.b.b.Y Y 3 9 8 Y Y Y w.Y 7 Y 7 Y 7 8 3 3 3 ; 3 Y 8 7 8 Y Y Y Y P.Y Y ",
"8 7 8 Y Y 8 3 Y Y Y Y Y Y 7 Y Y Y Y 8 8 Y 9 7 9 9 Y 9 7 Y Y 3 3 Y Y Y 7 3 Y Y 7 Y Y Y Y Y 8 Y Y Y Y Y Y Y Y 3 3 9 9 9 Y Y Y Y Y Y 3 Y P.Y 3 3 Y |.P.Y Y Y P.Y Y Y w.9 Y Y b.P.b.Y Y Y Y Y 9 9 9 Y Y Y Y b.Y c.Y b.P.P.P.Y b.Y Y Y Y 9 Y w.Y 8 3 Y Y Y Y Y Y P.k.Y Y Y Y Y P.P.P.P.b.P.Y Y w.Y Y Y Y Y b.Y b.Y Y Y Y Y Y Y P.P.Y 7 3 7 Y Y 3 Y 7 3 Y 3 : 7 8 Y Y Y Y 3 3 3 Y 3 Y 3 Y Y 8 Y 3 : 1 3 3 8 8 3 3 $ 1 1 3 3 1 : 3 Y Y Y 3 3 Y k.Y Y 8 Y 7 7 3 3 Y Y Y Y 7 9 3 Y Y Y Y P.Y 3 3 8 Y 7 3 3 7 Y 3 3 Y Y Y Y 8 Y Y Y w.w.Y ",
"Y Y Y Y Y Y w.Y Y Y Y Y 3 3 7 Y Y Y 3 3 Y 8 7 8 7 Y Y Y Y 7 Y Y Y Y Y Y Y Y 7 Y Y Y Y Y Y Y Y Y Y Y Y Y Y 7 7 3 3 3 7 Y Y 7 3 3 3 3 Y Y Y Y Y 9 P.P.Y Y Y Y Y Y Y w.Y Y Y Y Y P.Y Y P.P.{.c.Y Y b.Y Y Y b.P.c.Y Y P.b.b.P.P.Y Y Y 9 Y Y 3 Y 3 7 Y Y Y Y Y Y Y P.Y Y w.Y w.w.b.P.P.Y Y w.P.Y w.8 Y Y Y Y b.Y Y Y Y Y Y P.Y Y w.Y Y Y Y Y Y Y Y 3 3 3 1 ; 1 Y Y Y Y Y Y Y Y * 3 Y 3 8 Y 3 8 ; 3 Y Y 8 3 Y 1 Y 3 ; ; Y Y Y Y 4 Y Y Y 4 Y Y 8 Y Y 8 3 3 3 Y : 3 Y Y Y Y 7 Y P.Y Y 3 6 Y Y Y 8 3 Y 7 3 3 7 3 3 Y Y Y Y Y 8 Y Y k.w.Y ",
"Y Y Y 3 Y Y Y Y Y Y Y Y Y Y Y Y Y Y Y 8 Y 7 Y 8 7 Y Y 7 7 Y 8 Y Y 7 Y Y 7 Y P.Y 7 Y 7 7 Y Y Y Y Y Y Y Y Y Y 7 7 3 7 Y Y Y 7 Y 3 3 Y Y Y 9 9 Y Y Y c.Y Y Y Y 7 Y w.Y Y Y Y Y Y b.b.b.P.P.P.Y b.P.9 Y b.Y Y Y P.Y Y 9 Y Y Y Y P.Y Y Y 3 3 9 7 8 Y Y Y 8 Y Y 8 Y Y Y Y Y Y Y w.P.P.Y Y |.Y w.w.k.Y w.Y b.Y Y Y Y Y b.Y Y Y Y 3 8 7 Y Y Y Y Y Y k.Y 3 7 3 3 ; 3 Y 3 7 Y Y Y 8 ; 3 3 8 Y 4 Y Y 3 3 Y 7 8 7 Y ; 8 Y Y Y 8 3 Y Y Y Y Y Y Y Y 3 Y Y Y Y Y 8 Y k.3 3 8 Y Y Y Y Y w.b.Y P.Y Y w.Y Y 7 7 7 7 3 3 7 3 3 Y Y 3 Y 3 7 Y w.Y Y ",
"3 Y Y 8 Y Y 8 Y Y Y Y Y Y 7 7 8 7 Y Y Y 7 3 3 8 Y Y 8 7 8 8 7 Y Y Y Y Y Y Y Y Y 7 Y Y Y Y Y Y 7 Y Y Y Y Y Y Y 7 3 7 3 Y Y 7 Y Y 7 3 Y b.P.Y Y Y Y 9 Y Y Y b.Y Y Y Y Y Y Y Y b.Y b.c.P.P.b.c.c.P.Y Y Y Y Y Y Y Y Y Y Y Y Y b.c.b.b.Y 3 3 w.Y Y Y Y P.k.Y Y Y Y Y Y Y Y 7 Y P.Y Y Y Y b.Y Y Y Y Y Y Y Y c.Y Y Y Y Y b.Y Y Y Y Y w.Y Y Y Y Y Y Y Y 3 3 3 8 ; : 3 3 1 3 3 1 Y Y Y 3 3 3 3 Y Y Y ; 3 Y Y Y Y 8 Y Y Y Y Y 3 3 3 Y Y Y Y 3 Y 3 Y Y Y Y Y Y Y 1 3 Y Y Y Y Y Y 8 Y c.P.b.P.b.k.Y Y Y Y Y 7 7 3 7 3 3 Y Y Y 7 Y 3 3 Y Y Y ",
"4 8 3 Y 8 7 7 8 Y 3 7 8 Y 3 7 Y Y Y Y 8 3 Y 7 Y Y Y 7 Y 7 7 Y Y 7 Y 3 7 Y 8 Y Y Y Y Y P.Y Y 8 Y Y Y 7 Y Y Y Y Y 7 7 3 7 Y Y 7 7 Y 7 Y Y Y Y Y Y 9 Y Y 9 Y b.P.Y Y Y Y Y Y Y Y Y Y Y Y c.Y Y Y Y b.c.3 Y c.Y Y Y Y Y Y Y Y b.b.P.b.Y Y Y Y Y Y 7 3 8 Y Y Y 7 3 Y Y Y Y 7 Y Y Y Y Y Y Y Y Y Y Y w.b.b.c.b.Y Y Y Y Y b.Y 9 8 Y Y Y Y Y 7 7 3 3 3 8 Y 7 3 3 7 3 Y 7 3 Y 3 : 3 3 7 3 3 1 3 8 3 Y 3 Y Y 8 w.d.4 Y Y Y Y Y Y 3 ; 3 8 Y 8 Y 8 Y Y 3 Y Y Y w.Y 3 Y Y Y Y Y Y Y 7 7 Y b.b.Y P.Y 3 Y Y Y 7 Y w.8 7 8 3 3 Y Y 7 Y Y 3 3 Y Y ",
"4 3 8 Y Y 8 8 Y Y 7 7 Y 8 3 3 Y Y Y 3 7 3 Y 8 3 7 Y Y Y 7 Y Y 7 Y 7 9 3 3 7 Y Y Y Y Y Y Y Y Y Y Y Y ; Y Y Y Y Y 3 3 7 9 9 9 9 w.Y 7 Y Y Y Y c.Y Y 9 Y Y 9 w.Y 3 Y Y Y 9 Y b.Y Y P.Y Y Y Y Y Y Y Y c.c.Y Y Y Y Y Y Y Y P.Y P.P.P.Y Y Y 9 Y Y Y 3 3 3 3 Y Y 3 3 Y Y Y Y Y Y Y Y b.Y Y Y Y Y Y Y w.Y Y Y Y 9 Y Y Y Y Y Y Y 3 7 3 7 7 7 Y 8 3 3 3 7 Y Y 7 7 Y 7 8 Y 3 Y w.7 7 3 3 8 4 Y Y 8 3 3 3 7 Y Y k.Y Y Y Y Y Y Y Y 8 3 3 3 3 Y Y Y Y 3 3 Y Y Y Y Y Y Y Y Y Y Y Y Y Y 9 Y P.b.b.w.k.Y Y 7 3 7 k.w.w.Y Y 3 1 Y Y Y 3 Y Y 3 3 Y ",
"7 3 7 8 Y 8 Y 8 3 3 Y Y 3 3 Y 3 Y Y Y Y 8 Y 3 3 3 3 Y 7 7 Y Y 3 3 Y Y 9 Y Y Y Y Y Y w.Y Y Y Y Y Y Y Y Y Y Y Y 9 3 7 Y 9 3 Y Y Y b.P.b.Y P.P.Y Y Y 8 8 k.Y 3 3 7 8 Y Y Y c.Y Y Y Y Y Y c.Y Y Y Y Y Y P.Y 3 9 Y Y Y Y P.P.Y Y c.b.b.Y Y 5 3 b.Y Y Y Y Y Y Y Y Y Y Y Y Y Y Y Y Y Y Y Y Y Y Y Y b.w.9 Y Y 3 7 Y Y w.w.Y Y Y 7 ; 3 ; 3 w.Y Y Y : Y Y Y Y Y Y Y Y Y Y Y 7 Y Y Y 7 Y Y 3 7 Y Y Y : ; 3 8 Y Y 8 Y Y Y Y Y 7 8 Y Y 3 3 Y Y Y Y Y Y 8 Y 8 7 Y Y Y Y 8 8 Y Y Y 7 Y Y w.P.Y Y Y Y Y Y Y Y k.Y Y w.Y Y 3 3 3 Y Y Y 3 8 8 4 8 ",
"Y Y Y 8 8 3 3 Y Y 3 3 3 3 3 7 3 Y Y 7 Y 8 Y Y 7 7 7 8 7 Y Y Y 3 3 Y 5 9 Y Y Y Y P.Y Y Y Y Y Y Y Y Y Y Y Y Y Y Y 3 3 Y 3 9 Y Y 5 9 Y Y Y Y b.b.Y Y Y 7 Y Y 7 3 3 Y Y Y Y c.b.Y 9 3 P.P.P.Y Y Y Y Y Y Y Y 3 3 Y Y Y Y Y P.b.Y b.w.w.P.Y 9 Y Y 9 b.Y Y Y 8 3 Y k.Y Y Y Y Y Y Y Y Y Y 3 Y Y Y Y w.w.w.Y Y 7 Y Y Y Y Y w.P.k.3 Y P.3 ; w.w.Y Y 3 7 Y Y 8 Y Y 7 Y Y Y Y 7 7 Y Y Y 7 Y Y Y 3 8 Y Y 3 3 3 Y Y Y Y Y Y Y Y Y 7 3 3 3 8 Y 8 Y Y Y Y Y Y 3 8 Y Y Y 3 8 Y Y Y Y Y Y Y Y Y Y Y Y Y Y Y Y Y Y Y Y w.Y Y Y 3 7 Y Y 7 8 3 3 Y 3 ",
"Y Y Y 3 Y 3 ; Y 3 8 3 1 8 3 3 Y Y Y 7 Y 8 Y Y Y 7 8 7 3 Y Y 7 7 7 Y 3 3 Y Y Y P.w.Y Y Y Y Y Y Y Y Y Y 7 Y Y 8 Y Y 3 3 Y Y Y Y b.Y Y 9 Y Y Y Y Y 3 3 Y Y Y 8 7 8 Y Y Y Y Y Y Y Y 5 P..XP.9 Y Y 3 3 Y Y Y Y Y Y c.Y 5 Y Y Y Y b.b.b.b.b.Y Y 9 3 Y 9 3 Y Y 7 3 Y Y 9 Y Y Y Y Y Y 7 Y 3 7 Y 7 Y Y Y Y Y Y Y Y Y Y Y 7 8 7 Y Y Y w.Y : 3 Y Y 3 Y 7 Y 7 7 Y Y Y Y Y Y Y 3 7 8 Y Y 7 3 8 Y Y 8 8 3 3 Y Y 3 Y Y Y 3 8 Y 3 Y Y 3 : 3 Y 3 3 Y Y Y 8 Y Y 8 8 3 3 3 3 Y Y Y 7 Y Y 8 Y Y Y Y w.Y Y Y Y Y Y Y Y Y Y Y w.w.P.Y Y Y 3 Y 4 3 8 Y ",
"Y Y Y Y Y 7 3 8 Y 3 3 3 3 7 Y 3 3 3 Y 7 3 Y Y Y Y 7 3 3 Y Y 7 8 Y Y 9 3 9 Y Y Y Y Y 8 Y Y Y Y Y Y Y Y Y Y Y 3 Y Y 3 3 Y Y Y c.Y Y Y 9 3 Y 9 Y b.Y 3 Y Y Y Y Y 7 7 3 Y 9 Y Y b.Y 3 Y Y P.Y Y Y Y Y Y Y P.P.Y Y P.Y Y Y 3 Y Y Y P.P.Y Y Y Y Y Y Y 9 Y Y Y Y 8 Y Y Y Y Y Y Y w.w.7 Y 3 7 Y Y Y 9 Y w.Y 3 3 7 Y Y Y 3 3 Y Y Y 8 Y Y 7 Y Y Y 3 3 Y Y Y Y Y Y Y Y Y Y Y Y Y Y Y Y 7 7 7 7 Y Y Y P.Y 7 Y 7 3 Y Y Y 7 7 Y Y Y 1 3 3 3 3 Y w.Y Y 3 Y Y 8 Y 8 3 8 Y 3 Y 3 3 Y Y 7 Y Y Y Y P.Y Y Y Y Y Y Y Y 3 Y Y Y Y Y Y Y Y 3 3 Y Y Y Y ",
"Y 8 Y Y Y Y 3 Y 3 4 Y Y 8 7 3 Y Y 3 8 8 Y 7 Y Y 3 7 8 Y Y Y Y Y Y Y 9 Y 9 3 Y Y Y Y Y Y Y Y Y Y Y Y Y Y Y Y Y Y Y Y 3 3 Y Y Y Y Y Y b.Y 3 3 3 3 Y Y Y Y Y Y Y Y Y Y 7 Y Y Y b.Y Y Y Y c.Y Y Y Y Y V.Y Y Y b.c.Y P.Y Y 9 3 Y Y b.P.|.Y Y Y Y c.P.P.9 7 3 8 Y Y w.Y Y Y Y Y 3 Y Y Y 7 3 Y Y Y 9 9 Y 8 : 3 3 Y Y 3 Y k.Y Y 8 8 Y Y 7 7 Y Y 7 Y Y k.Y Y Y Y 7 Y Y Y Y Y Y Y Y Y Y 7 7 7 7 Y Y Y Y Y 7 Y 7 7 Y 8 7 3 7 7 Y Y 3 7 Y 7 8 Y Y Y Y Y Y Y 8 3 3 3 8 8 Y Y 7 7 3 7 7 Y 3 7 Y Y Y Y Y Y Y Y Y 3 Y Y Y Y Y Y P.Y 7 3 Y Y Y Y ",
"8 Y Y 7 Y Y 8 8 4 Y 3 8 8 3 3 4 3 Y 3 7 7 7 3 Y 3 Y Y Y 8 Y Y Y 8 3 Y 3 7 9 Y Y Y Y Y Y Y Y Y Y Y Y Y Y Y Y Y Y Y Y Y 9 9 Y Y Y Y b.Y Y Y Y 9 Y Y 7 Y Y Y Y Y Y Y Y Y Y Y Y Y Y Y Y 9 Y c.c.9 Y Y Y Y Y Y Y b.Y Y Y Y Y 3 3 Y P.Y k.P.P.b.Y Y b.b.Y 9 Y 7 7 Y Y Y Y 7 9 Y Y 3 7 Y Y Y Y Y Y 9 9 Y Y : 8 3 Y Y Y Y Y Y Y Y Y 7 Y Y 7 Y Y Y Y Y Y 7 9 9 Y Y Y Y Y 3 Y 9 3 Y Y Y 8 3 3 3 8 Y Y 8 8 Y Y 7 7 7 3 8 7 8 8 8 8 3 Y Y 8 3 3 3 Y Y 8 8 8 7 3 3 3 Y 8 Y Y Y Y 3 7 Y 7 Y 3 Y Y Y w.Y Y Y Y Y Y Y Y 7 Y Y 3 Y P.Y Y Y Y Y Y ",
"8 Y 8 Y 3 Y 3 ; Y 4 3 4 3 3 4 4 7 7 3 7 Y Y 8 Y Y 7 3 3 8 7 Y 8 Y 3 3 3 7 Y Y Y 8 4 Y Y Y Y Y Y Y Y Y Y 9 Y Y Y Y Y Y Y 3 9 Y Y Y Y Y Y Y Y Y c.Y Y Y Y 3 Y 7 Y Y 7 Y Y 9 9 Y Y Y Y Y Y c.P.Y 9 Y Y Y b.Y Y Y Y Y Y P.3 Y Y 3 Y Y Y 3 Y P.Y 9 Y Y Y Y w.7 Y Y Y Y Y 7 Y Y 7 Y 3 3 3 8 Y 9 w.Y 9 Y Y Y ; 3 Y Y Y Y Y Y w.w.7 Y 7 7 7 Y 7 Y Y Y Y Y 9 Y Y Y c.c.9 3 5 Y 3 Y P.P.Y 3 3 8 3 3 Y Y Y Y 7 3 Y 7 7 Y Y Y 3 3 Y Y 4 Y Y Y 3 3 Y Y 8 8 8 3 3 3 3 Y d.Y 7 Y 7 Y 7 Y 7 7 7 Y Y Y Y Y 3 Y Y Y Y Y Y 7 8 Y Y Y Y Y P.k.Y 7 Y ",
"8 4 3 Y Y 4 Y ; 3 4 3 Y Y 3 3 3 Y 3 3 8 7 8 Y 7 8 Y 8 8 7 3 7 Y 3 7 7 Y Y 8 8 8 3 Y Y Y Y Y Y Y Y Y 3 Y Y Y Y Y Y Y Y c.Y Y Y Y Y 9 Y Y Y Y 9 Y Y Y Y Y 3 Y Y Y Y Y 7 Y 5 5 Y Y Y Y Y Y Y Y Y Y 3 Y Y b.Y Y Y 8 Y Y w.7 Y Y 3 k.Y Y 4 Y Y 3 Y Y Y Y Y Y Y Y Y Y Y 7 Y Y 7 3 4 Y Y Y 3 Y Y Y Y Y Y Y 7 ; 3 8 Y Y 3 Y Y Y P.Y Y Y 7 3 Y Y Y Y Y Y Y Y Y Y Y P.Y Y Y Y 9 3 Y Y Y Y 3 3 Y Y 3 3 7 3 7 7 3 7 Y 8 Y 8 8 3 3 8 Y 4 3 Y Y Y Y 3 3 Y Y Y 4 3 3 3 3 3 7 8 Y Y 8 Y Y 7 8 Y Y Y Y Y Y Y Y Y Y Y P.Y Y Y Y Y 7 7 Y Y Y Y w.Y ",
"4 3 8 4 Y Y 3 3 3 Y Y Y Y 4 3 3 8 Y Y Y Y 7 7 7 7 8 Y Y 7 7 3 3 7 7 8 Y Y 8 8 8 3 Y 8 8 Y Y Y Y Y 7 Y Y Y Y Y Y Y Y c.b.Y Y Y 9 Y Y 9 Y Y Y Y Y Y Y 3 Y Y 8 7 Y Y w.Y 9 3 3 Y Y Y Y Y Y Y Y Y Y Y Y Y Y Y Y Y 8 3 Y Y Y Y Y 3 Y Y Y Y Y 7 Y Y Y Y Y Y Y Y Y Y Y Y Y Y Y 3 3 3 4 Y Y Y 3 Y Y Y Y Y Y Y 7 3 Y 3 Y Y 3 Y Y Y Y Y Y Y Y 7 Y Y Y Y Y Y 3 Y Y Y Y P.Y Y b.Y Y Y Y Y Y 3 3 3 8 8 3 3 3 3 8 8 Y Y Y Y 8 Y 4 4 3 8 3 Y 8 4 Y 8 Y 4 4 8 3 3 3 3 3 3 8 Y Y Y Y Y Y 7 8 Y Y Y Y Y Y Y Y Y Y Y Y Y w.Y Y Y Y Y Y 3 8 Y Y Y w.",
"3 3 8 Y Y Y 1 Y 4 4 4 Y Y Y 3 3 3 : 3 Y 3 7 7 7 8 Y 8 7 7 3 7 3 8 8 7 Y 8 7 7 3 Y Y 3 8 Y Y Y Y Y Y Y Y Y Y Y Y Y Y Y b.P.Y Y Y Y b.P.Y Y Y Y Y w.Y 7 Y 7 7 Y Y Y Y Y Y Y Y Y Y Y Y Y Y Y Y Y b.P.9 Y Y Y Y 3 Y 7 7 Y Y Y Y Y 3 Y Y Y Y Y Y Y Y Y 9 7 7 Y Y Y Y Y 8 Y Y 3 3 8 8 Y Y Y Y 9 3 Y Y Y Y Y Y 4 Y 8 8 Y 4 8 Y 8 3 Y 8 Y Y Y Y Y Y Y Y Y 9 9 9 Y Y P.Y Y Y 9 9 Y Y Y 3 3 4 3 Y Y 3 3 8 8 7 3 Y Y Y Y 8 Y 3 8 3 3 3 3 3 3 3 8 3 4 4 3 ; 3 4 3 3 3 Y Y Y Y Y Y 7 Y Y 7 Y Y 7 Y Y Y Y Y Y Y Y Y Y Y Y w.Y Y 7 7 7 8 7 Y Y ",
"3 Y 8 8 4 Y 8 Y 8 4 3 ; 3 Y 8 8 3 3 3 7 3 8 Y Y Y 8 7 3 8 7 7 Y 8 8 8 Y 7 7 Y 8 4 8 3 3 Y Y Y Y Y Y Y P.P.Y b.P.P.Y Y P.b.P.P.Y Y b.b.b.P.Y 9 Y w.Y Y 7 Y Y Y Y 7 Y Y b.Y Y 9 Y Y Y Y Y Y Y Y Y Y Y 9 Y Y Y Y Y Y 7 Y 7 7 7 Y 3 Y Y Y Y Y 9 Y b.Y Y Y 7 Y Y Y Y Y 8 Y Y 7 Y Y d.8 Y Y Y Y Y Y Y Y Y Y Y Y 3 Y Y 3 3 8 Y 3 3 Y 7 7 7 Y Y w.Y w.Y Y Y Y Y Y Y Y Y Y Y 3 9 Y Y Y 8 3 8 3 3 3 3 3 Y Y Y Y 7 Y 8 7 7 3 Y 3 3 8 3 3 3 3 3 Y 3 Y 4 8 3 3 4 Y 3 4 8 Y Y Y Y Y Y 7 8 Y Y Y 8 Y Y w.Y Y Y Y Y Y Y Y Y w.Y 8 Y 3 3 7 Y Y Y ",
"Y Y 9 Y Y Y Y 3 8 Y 8 4 4 4 4 8 3 4 8 8 Y Y 8 4 8 Y 3 Y 4 3 4 3 8 8 1 = 8 Y 6 8 4 3 4 4 8 7 7 Y Y Y Y Y Y Y P.Y Y Y Y Y Y b.Y P.Y Y Y Y w.Y Y b.c.Y Y Y Y Y 3 8 Y 3 Y Y Y Y Y 3 Y Y b.Y Y Y w.Y P.c.9 5 b.Y Y Y Y b.b.c.9 Y Y 3 7 Y Y w.Y Y 3 Y Y Y Y Y Y 3 3 9 9 7 Y Y Y Y 7 Y 7 7 w.Y 8 Y Y Y Y 8 Y Y Y 4 Y 8 3 3 Y Y Y Y 8 8 Y Y Y w.k.k.P.P.Y Y Y 9 3 Y Y Y 5 Y 3 Y Y 8 Y Y 3 3 3 3 3 3 3 Y Y 3 4 Y Y Y 8 8 3 Y 8 3 Y 8 3 3 3 3 Y 8 Y Y 4 8 3 3 8 4 3 4 Y Y 8 8 Y 3 Y 8 Y Y Y Y Y Y Y Y Y Y Y 3 3 8 Y Y Y Y Y 3 3 ; 7 Y Y Y ",
"5 3 3 Y Y 8 3 Y 8 7 8 3 Y 3 4 4 3 3 3 4 4 8 Y Y Y Y 4 4 4 4 4 3 3 3 3 3 Y Y Y 8 8 4 4 8 8 Y Y Y Y Y P.Y Y 3 Y P.P.Y Y Y Y 3 Y b.Y Y Y Y 9 Y P.b.5 Y Y Y Y Y Y 3 Y 3 Y Y Y Y 3 Y 9 Y Y Y b.b.Y Y Y Y Y Y Y Y Y Y Y Y b.Y P.b.Y 3 7 Y Y Y Y Y w.w.Y Y Y Y Y Y Y 3 9 Y 7 Y Y Y 3 3 Y Y 3 Y Y Y 7 7 Y 3 4 Y 4 4 Y 8 3 4 8 3 Y Y Y 4 4 Y Y Y Y Y w.P.Y Y Y Y 5 Y Y Y Y Y Y 4 Y Y Y 3 3 3 3 4 4 3 3 8 3 ; 3 Y Y Y 8 Y 3 4 8 4 3 4 3 3 3 3 Y Y 3 Y 8 3 3 3 3 3 Y 4 8 Y Y 8 4 3 Y Y 8 3 Y Y Y Y Y Y Y 8 4 8 3 3 4 Y Y Y Y Y 8 3 7 Y Y 7 ",
"3 3 3 3 3 7 Y 3 3 3 Y 3 3 8 3 4 8 8 Y 7 8 Y 8 8 8 3 Y 8 Y Y 8 4 3 4 8 Y 8 8 8 3 4 3 3 8 Y Y Y Y Y P.w.Y Y Y Y b.b.3 Y 9 9 9 Y 9 Y Y Y c.Y Y Y Y 9 Y c.Y Y 9 8 3 3 8 Y w.8 3 Y Y Y Y c.Y Y Y Y Y Y Y Y Y Y 9 Y Y Y Y Y 9 b.Y Y 3 7 Y 7 Y Y 7 Y Y 3 8 Y Y Y Y 9 9 8 7 Y Y Y Y Y Y w.w.Y 8 Y Y Y 7 Y 3 3 8 3 8 3 Y Y 8 Y Y Y Y 8 8 8 3 Y Y 7 Y Y P.Y Y Y Y Y Y Y Y Y Y Y 3 8 Y 8 3 4 3 3 3 3 3 3 3 3 3 Y 3 Y Y 8 Y 3 8 3 3 3 Y 4 3 4 Y Y 8 4 3 4 Y 3 3 8 3 3 Y Y Y 8 4 Y Y Y Y w.Y 8 7 Y Y Y Y 8 8 Y 8 Y 8 4 Y 3 Y Y 4 Y 8 3 Y Y Y ",
"9 3 3 3 8 1 3 3 3 4 8 1 3 8 3 4 Y Y 8 7 Y Y Y Y 4 Y 4 Y Y 8 4 4 3 3 9 Y 3 3 Y 3 3 3 3 4 8 8 Y Y k.P.P.Y Y b.P.P.Y 9 Y Y 9 Y 9 Y Y Y Y c.Y c.Y Y 9 9 Y Y Y Y Y Y 3 7 Y w.Y Y Y Y w.Y Y Y Y Y 9 9 Y Y Y Y Y Y c.b.Y Y Y Y Y Y Y 3 3 Y 7 Y Y Y 3 Y Y Y Y Y Y Y Y 9 3 7 7 Y Y Y Y P.P.Y Y Y 7 Y Y 3 8 3 3 3 3 3 1 4 Y Y 8 3 8 Y 3 3 Y 3 Y Y 8 Y Y Y Y Y Y Y Y 5 Y 5 Y 3 3 8 3 3 8 4 8 Y 8 3 3 3 4 Y < ; 3 1 3 8 8 4 Y Y 4 3 3 3 3 Y 4 Y 8 4 8 4 Y Y 3 3 3 3 3 4 Y 4 8 8 4 8 Y 7 Y Y Y 3 3 Y 3 Y 8 Y Y 3 3 Y Y 3 3 8 4 3 3 8 7 Y 8 Y ",
"9 Y 7 Y Y 7 1 3 3 3 3 3 3 3 3 3 Y 3 3 7 3 Y 8 Y Y 8 3 Y Y Y Y Y 4 Y 9 Y Y Y 8 3 3 3 3 3 3 Y Y w.Y Y Y Y Y Y P.Y 9 9 9 9 5 Y Y 3 9 Y Y Y Y Y Y Y Y b.b.Y b.9 Y Y 9 9 w.Y Y Y Y Y Y Y Y Y Y Y Y Y Y Y b.c.Y 9 Y Y Y Y Y Y Y Y Y Y 3 7 Y Y Y 7 Y 3 Y Y Y Y Y Y Y 3 : 7 Y Y Y Y Y Y Y Y Y 8 7 3 3 Y 7 Y 3 3 4 4 8 3 4 Y 3 3 4 8 3 4 Y Y 3 3 3 3 Y Y Y Y 3 3 Y 6 Y 6 Y Y ; ; 3 ; 3 4 4 4 4 8 8 3 3 3 3 < < 3 4 8 8 8 Y Y 8 Y Y 3 8 3 4 8 Y 4 Y 3 Y 4 Y 8 8 3 4 3 3 3 3 4 8 4 7 3 3 3 8 Y Y Y Y Y 3 Y Y 1 3 Y Y 4 Y 4 3 3 3 7 Y Y Y Y ",
"3 3 3 3 Y Y 8 3 3 < ; 3 3 3 3 Y Y 3 3 Y 9 3 3 Y Y Y Y Y Y 4 Y Y 4 3 Y Y 3 3 8 Y 8 3 3 3 Y Y Y Y Y Y Y Y P.Y P.Y Y 9 9 9 Y Y Y 9 3 3 Y Y Y Y Y Y b.b.b.Y Y Y 7 Y Y w.w.Y Y Y Y Y Y Y Y Y Y 5 Y Y Y Y Y c.b.9 3 9 Y Y Y Y Y Y Y Y 7 3 Y Y 3 Y Y 3 Y Y Y Y Y Y 9 Y : 3 Y Y k.Y Y Y Y Y Y Y w.Y 3 Y 7 3 Y 3 3 Y 3 3 3 3 3 3 Y Y 3 4 Y Y 7 3 3 Y k.P.Y 7 Y Y 3 4 4 8 6 6 3 ; Y 3 1 3 3 4 8 Y 4 3 3 3 3 3 3 4 3 Y 3 3 8 4 Y 3 4 Y 4 3 4 8 8 3 Y Y Y Y Y Y 8 3 3 3 3 3 3 4 4 3 3 3 7 3 3 3 Y 3 Y Y 3 Y Y Y Y Y Y 8 Y Y 4 3 3 Y Y Y Y Y ",
"3 3 3 3 Y 8 Y 8 4 ; 3 8 8 8 4 8 3 3 Y Y 9 Y 3 6 Y 6 6 6 3 Y 3 5 Y 3 Y 8 Y 8 8 Y 7 7 Y 7 Y Y Y Y Y Y Y Y Y b.b.9 Y 9 9 Y 9 3 3 Y 5 9 Y b.Y Y 9 9 Y Y Y 9 Y Y Y , Y Y Y Y Y Y Y Y Y Y Y Y Y Y Y 9 Y Y Y Y Y Y 3 Y Y Y Y Y Y c.Y Y Y 3 9 Y Y Y Y Y Y 3 Y Y Y Y 3 Y 8 3 Y Y Y d.Y b.Y Y Y Y 7 Y Y Y 8 Y Y Y Y Y 3 4 4 3 8 3 Y 3 3 Y 4 7 3 Y 3 7 P.Y 8 8 3 3 8 < 3 3 4 Y 8 3 4 Y 8 3 3 Y 8 Y 8 3 1 3 1 3 3 3 3 Y 3 ; 3 4 Y 4 4 8 4 4 3 3 3 3 Y Y 4 Y Y 3 3 3 8 4 4 3 3 3 3 3 3 4 4 4 4 4 8 3 Y Y Y Y Y Y Y 9 Y 4 4 4 8 4 3 3 8 Y Y w.",
"3 3 3 Y Y 3 1 3 1 8 3 Y 8 Y 3 4 3 Y 9 Y 9 Y Y Y Y Y 6 3 Y Y Y 6 3 3 Y Y Y Y Y 3 Y Y 7 3 3 9 5 Y Y Y P.Y Y Y b.Y Y 3 Y Y Y 9 Y Y 9 3 Y Y Y c.Y Y Y Y 9 P.Y Y Y 9 ; w.b.b.b.Y Y b.Y Y Y 9 9 Y 9 3 3 9 Y Y Y Y Y Y Y 9 Y 5 Y Y c.Y Y 3 3 Y Y Y Y 3 Y Y Y Y 7 7 7 3 8 8 3 Y Y Y Y Y Y Y 9 Y Y Y Y Y Y 3 4 Y Y d.P.Y 8 3 8 8 4 3 Y 8 3 Y 7 8 Y 3 Y 7 7 Y Y 3 8 3 < 1 3 3 3 8 3 3 4 Y 3 4 3 3 8 3 3 3 3 4 3 3 1 3 3 3 3 3 4 Y 8 Y 4 4 3 3 3 3 3 4 3 8 Y 3 3 3 3 8 8 4 3 3 3 3 3 3 3 3 3 3 3 4 Y Y 8 Y Y Y 9 Y Y Y Y 3 3 3 3 Y Y 8 Y Y ",
"3 6 3 Y Y 3 ; 1 1 3 4 8 8 3 4 8 3 3 9 Y Y Y Y Y Y 6 5 3 3 Y Y Y 6 8 Y Y Y 8 4 3 Y Y 3 3 Y Y 9 Y Y Y Y Y 9 Y b.b.Y Y Y Y 9 9 3 Y Y Y Y 9 Y b.Y Y Y Y Y 3 3 Y Y Y Y Y Y w.P.Y Y c.Y Y Y Y Y 9 9 3 3 3 9 9 Y Y Y Y Y 5 Y 3 Y Y Y Y Y 9 3 Y 9 Y 3 6 Y Y Y Y 1 3 3 3 3 4 3 Y 4 4 Y Y Y Y 9 Y Y Y Y Y 3 3 3 8 Y Y Y Y Y 4 ; 8 Y Y 4 3 8 7 3 8 Y 3 Y Y Y 8 8 Y Y 4 3 3 3 3 4 3 3 3 Y 8 4 Y 8 8 8 3 4 4 Y Y 4 3 3 3 4 3 3 3 3 4 4 4 3 8 4 3 4 3 3 4 Y 4 3 3 3 1 3 3 3 3 3 3 7 3 3 3 3 Y 8 3 3 Y Y Y 8 Y Y 8 3 3 Y 8 3 3 3 3 3 3 7 Y Y Y ",
"3 3 3 3 5 3 1 1 3 3 1 4 3 3 3 4 Y 9 9 Y 9 Y 9 Y Y 6 3 3 3 3 3 3 Y Y Y Y Y Y 3 8 8 Y Y 7 Y Y Y Y Y Y 3 Y Y 9 Y Y 3 Y 9 Y 9 9 Y Y b.Y 3 9 Y Y Y Y Y Y Y 3 c.Y Y Y 9 Y Y b.Y Y Y Y Y P.Y Y b.Y 5 3 3 3 3 3 5 Y Y Y Y Y Y Y Y Y Y Y 9 3 ; 9 Y Y Y 5 Y Y Y 7 3 3 3 3 3 3 3 3 3 3 3 3 9 Y Y Y Y Y Y Y 3 3 3 8 8 3 3 8 8 3 3 Y 8 8 4 3 8 3 3 7 Y 8 Y 8 3 Y Y Y 8 3 3 3 3 3 8 Y 8 3 3 3 8 Y 4 3 4 Y Y 4 3 3 Y 8 8 Y 8 3 3 3 3 3 3 3 3 4 4 3 8 3 Y 8 3 3 8 4 3 3 3 3 3 3 3 3 7 8 3 3 3 3 8 3 3 4 Y Y Y 3 3 8 8 8 3 4 4 Y 3 3 Y 3 3 Y Y 3 ",
"6 3 3 3 3 4 8 3 4 3 3 3 3 3 Y 3 Y Y 3 9 3 9 3 3 6 6 3 3 3 3 Y ; 3 4 4 Y 3 3 8 Y 8 3 8 8 3 5 Y Y Y Y 9 Y Y 9 Y Y Y 9 9 Y Y 9 b.b.Y 3 Y 3 9 9 9 Y Y Y Y Y Y Y 9 Y Y Y b.Y Y Y Y Y Y Y Y b.b.Y Y Y Y Y 3 3 3 9 5 Y Y Y Y 5 Y Y Y Y Y 3 3 ; 3 Y Y 3 3 6 3 8 3 3 3 : 3 8 Y 3 8 8 3 3 9 9 9 7 7 7 Y 7 3 3 Y Y 3 4 3 3 8 3 3 8 8 8 Y 3 3 Y Y Y 8 8 7 Y Y Y 8 8 Y 4 3 3 3 3 8 4 4 3 3 3 3 < 3 3 3 4 8 4 3 3 4 Y 8 4 Y 3 3 8 4 3 3 3 4 3 3 3 3 Y Y Y 3 3 8 4 4 3 3 3 3 3 3 7 3 3 3 3 3 3 3 3 3 3 8 8 8 = ; ; 8 8 8 3 4 3 3 3 8 Y 7 3 Y Y ",
"3 3 3 3 6 3 8 3 3 3 3 Y 3 Y Y 8 Y Y 4 4 3 Y 3 3 3 4 4 3 3 3 Y 3 4 3 3 8 3 3 4 3 3 3 4 Y 3 8 4 8 Y Y 3 3 Y Y Y 3 9 Y Y Y Y Y Y b.P.P.Y Y Y 3 Y 3 3 Y Y Y 9 3 Y Y Y Y Y b.Y Y Y P.Y Y b.P.b.Y Y Y Y 9 3 3 Y 6 6 Y 5 Y 3 Y 6 6 5 5 9 Y Y 3 3 Y Y Y 3 3 3 3 3 3 3 3 3 3 4 8 4 3 3 3 3 3 Y 9 9 9 Y Y Y 9 9 Y Y 9 8 4 4 8 3 8 Y 4 3 3 4 3 3 3 3 Y 4 8 8 8 8 3 Y 4 4 8 8 8 Y 8 Y 4 4 4 3 3 3 8 3 8 4 4 3 3 3 3 4 4 4 3 3 3 3 3 3 Y Y Y Y Y Y Y Y Y 3 3 3 3 3 3 3 3 3 3 3 4 3 3 3 4 3 6 4 3 3 8 8 4 4 Y 3 3 3 3 4 8 8 Y 3 8 3 3 Y Y 8 Y ",
"3 3 3 3 Y Y Y Y 3 3 8 3 3 8 Y 4 Y 8 4 3 3 4 Y Y 8 4 3 3 3 3 3 3 3 3 3 3 8 4 4 3 3 8 Y 3 3 Y 4 3 3 Y Y 5 6 Y Y 3 9 Y 9 9 Y Y Y Y Y Y Y 9 Y Y Y Y Y Y Y Y Y 3 3 6 5 Y Y Y Y 9 Y Y Y Y b.b.c.Y Y Y Y Y 3 3 3 3 5 6 6 3 3 Y 6 6 5 5 Y 9 Y 5 Y Y Y Y Y Y 3 3 3 3 3 3 3 3 4 3 3 3 3 3 3 3 3 3 Y 9 9 Y Y Y 9 9 Y 3 3 3 3 8 8 8 3 3 4 Y 8 3 3 3 4 Y 4 3 3 8 8 4 Y 8 4 8 Y 8 8 Y 4 4 Y 4 Y 3 3 3 3 4 4 3 4 4 3 3 3 3 3 3 3 7 3 8 7 Y Y Y Y Y Y Y c.Y 5 9 3 9 3 3 3 3 3 3 3 4 3 3 Y 3 3 3 3 3 3 3 4 8 4 3 Y Y 4 3 4 3 4 Y Y Y 4 3 Y Y Y 4 ",
"9 3 3 7 Y Y Y Y Y 3 8 3 3 8 3 1 3 8 4 3 8 Y Y Y 3 4 3 3 4 4 3 8 3 3 3 3 4 4 3 3 3 3 4 3 1 8 8 4 3 3 3 3 6 5 6 Y 9 Y 9 Y Y 9 Y 9 9 9 3 9 b.Y 3 Y Y 5 Y 5 Y Y 3 3 Y Y c.b.b.Y Y Y Y Y Y c.c.Y Y Y Y Y 3 3 3 6 Y 6 Y ; 6 Y Y Y 3 5 9 3 9 9 Y Y Y Y Y Y 3 3 3 Y 9 : 4 4 8 Y 4 3 3 4 3 3 3 9 9 9 Y Y Y Y 9 3 Y Y 8 8 Y 8 Y 8 4 8 Y Y 3 3 8 Y 3 Y 8 3 3 3 3 3 3 3 8 4 Y 8 4 8 8 3 Y 4 4 4 8 3 8 3 3 3 4 4 4 4 8 3 3 4 8 Y Y Y 7 7 Y Y Y Y Y Y Y Y Y 5 9 Y 3 3 3 3 3 3 4 4 3 3 3 3 Y 3 3 3 3 8 4 4 4 3 8 8 4 4 3 3 3 4 8 4 Y 4 Y Y Y 4 ",
"3 3 Y Y Y Y Y Y 8 Y Y 3 3 8 3 3 8 8 3 4 3 3 Y Y 4 Y 3 3 3 4 4 8 4 4 3 3 4 3 4 Y Y 3 3 3 3 3 3 Y 3 3 3 3 Y 6 3 9 Y 9 Y b.9 Y Y Y Y Y 3 3 3 Y 3 3 5 3 3 3 3 3 3 6 5 Y V.Y P.P.P.Y Y 9 b.c.b.Y Y Y Y 3 3 9 Y Y 6 Y 3 3 Y 6 Y 3 3 3 5 5 3 Y Y 9 9 Y 9 3 3 3 9 Y 3 3 3 3 8 Y 4 < 3 4 3 3 3 5 6 Y Y Y Y c.Y Y Y Y Y 3 Y 3 ; Y Y 8 Y 4 3 8 Y 8 3 3 4 8 Y 3 8 8 Y 8 Y Y Y 4 4 8 Y Y 4 3 Y Y 8 3 4 3 3 3 4 4 Y 8 3 8 Y Y Y Y 7 7 7 9 Y b.Y Y Y Y 9 Y P.5 9 Y Y Y 3 3 3 3 3 3 3 3 3 3 6 6 Y 3 8 8 3 3 4 3 3 3 4 4 3 3 3 4 8 3 Y 3 3 3 Y Y ",
"3 3 9 Y 9 Y Y Y Y Y Y 4 3 3 Y 4 3 Y 8 3 3 3 4 8 Y 8 8 3 3 4 8 3 3 4 3 3 8 3 4 3 3 3 3 3 3 4 8 Y Y Y 3 3 3 3 3 3 Y Y Y Y Y Y Y 9 b.Y b.9 Y 3 3 3 3 3 3 3 3 3 3 5 3 Y Y Y P.P.P.Y Y Y Y b.P.P.Y Y Y 9 9 9 3 Y Y Y 2 Y Y 3 3 Y 6 3 3 3 5 Y Y 3 3 Y Y P.Y Y 9 Y 3 ; 1 3 3 8 3 3 3 4 3 3 Y Y Y Y 6 6 5 Y Y Y Y Y 4 4 3 ; 3 3 3 8 4 3 4 Y 8 Y 8 Y Y 8 ; 3 3 4 Y Y Y Y 4 Y Y 8 8 8 8 3 Y Y Y Y Y 3 4 4 3 3 4 Y Y Y 4 4 Y Y Y 3 8 8 9 Y Y Y Y Y 3 3 Y P.3 Y Y Y 3 3 7 3 3 3 3 3 Y Y Y 3 6 3 4 4 8 3 4 8 3 3 4 8 3 3 3 3 3 3 4 8 3 8 Y Y ",
"3 3 9 3 3 Y w.Y w.w.Y 7 3 3 8 4 3 8 Y 1 8 Y Y 3 Y 4 Y Y Y Y 4 3 3 3 Y 3 3 3 Y Y Y 4 Y 4 8 Y Y 3 Y Y 3 3 3 3 3 5 3 9 Y Y P.Y Y Y Y b.Y Y 9 Y Y Y Y 5 Y Y Y Y 3 6 Y P.V.P.P.Y Y Y Y Y Y 3 Y Y Y Y Y 9 Y 3 ; 3 Y 5 ; Y 3 3 3 3 3 3 3 3 3 3 6 Y Y 3 Y Y Y Y 9 Y 3 , 3 3 3 3 3 3 3 3 3 Y Y 3 5 9 Y Y Y Y 3 3 Y Y Y 3 Y 3 3 3 Y 3 4 3 8 4 3 4 3 3 3 Y 3 8 3 3 Y 7 3 3 Y Y 3 Y Y 3 Y 4 3 3 Y Y Y 3 3 8 3 3 3 4 Y 4 3 Y k.Y Y Y 7 Y Y Y Y Y 9 Y c.9 Y Y b.Y Y Y 9 3 3 3 3 3 3 3 3 Y Y Y 3 3 3 3 3 3 3 Y 4 3 3 4 3 3 4 4 3 3 3 Y Y 8 3 Y ",
"3 9 3 3 9 Y w.Y Y P.Y 9 9 3 Y Y 9 Y Y 7 8 8 Y 4 Y 3 8 Y Y Y 8 8 3 3 6 6 3 Y Y 8 8 8 8 Y Y 3 3 3 3 Y Y Y Y Y 9 3 3 3 3 9 Y Y Y Y 9 Y Y 9 Y 9 b.Y Y Y Y Y Y Y Y 5 c.P.P.Y Y P.Y Y Y 3 Y Y c.Y b.b.c.Y 3 3 ; 3 8 3 < 4 3 3 6 Y 3 3 3 3 3 3 6 Y 9 3 Y Y Y Y 9 Y Y 3 3 3 3 8 3 3 3 Y 3 Y b.3 5 3 3 3 9 Y Y Y Y Y Y 7 7 7 Y 3 8 7 Y 3 Y 8 4 4 3 3 3 Y 3 Y Y 9 Y 7 Y Y Y 8 8 8 Y 3 4 Y 4 8 Y 8 8 3 Y 8 7 7 3 Y 8 Y 8 8 8 3 Y d.Y Y Y Y Y Y 9 3 Y c.c.Y c.c.Y Y Y 9 3 9 Y 3 3 3 3 3 3 3 3 3 3 3 7 7 3 8 8 8 3 4 3 4 3 3 3 3 3 8 Y Y Y Y ",
"3 9 9 Y Y 7 Y Y 7 Y Y Y Y 3 Y Y 9 7 Y 7 8 7 Y 4 8 4 4 4 Y 4 3 3 4 3 3 3 5 Y 3 8 Y 8 Y 8 3 3 3 4 4 Y Y Y Y 3 Y Y 3 3 3 3 9 Y Y Y Y Y Y 3 3 9 5 Y Y 3 Y Y Y Y 6 Y V.V.P.b.Y P.Y c.Y 3 3 9 Y b.b.Y Y Y 3 3 3 3 4 ; 4 3 3 6 3 3 3 3 3 3 3 3 6 3 3 Y 9 Y Y Y 9 9 Y 3 3 Y 3 3 4 3 3 Y 9 3 Y Y Y 3 3 9 3 9 Y Y Y Y Y 7 Y Y 8 7 Y Y Y 3 7 Y Y ; 3 Y 3 3 Y 3 3 Y 3 3 3 8 Y 8 3 8 Y Y 4 3 8 8 8 8 4 8 Y Y 8 7 3 3 8 3 Y 8 Y 3 8 3 8 8 9 Y Y Y Y Y 9 Y P.Y 9 Y Y Y Y Y 9 5 3 9 9 9 9 Y 3 , ; 3 3 3 7 Y Y 3 3 Y 4 3 8 Y 3 3 8 3 3 Y 8 8 Y Y ",
", 3 9 Y 3 Y Y Y 7 3 Y Y 9 Y Y Y Y 3 7 Y 8 8 Y 8 3 8 8 Y 4 3 8 8 3 3 3 3 3 6 Y 7 7 7 Y Y 3 3 3 3 3 3 Y 9 3 9 9 Y 9 Y Y Y Y Y 9 Y Y b.Y 9 3 Y Y 3 3 Y Y 5 Y Y Y Y Y Y P.P.Y P.Y Y Y Y Y Y Y Y Y Y Y 3 Y 3 3 3 3 3 Y 3 5 3 3 6 Y 3 Y Y Y 3 3 Y 3 3 3 Y Y 9 Y 9 9 3 4 Y 1 3 Y 8 9 Y Y 9 3 9 9 Y Y Y 9 3 3 Y Y Y Y 7 Y 3 3 7 8 Y 7 3 3 Y P.; 3 Y 8 Y 9 3 9 9 3 3 3 Y P.Y 3 3 Y 8 3 3 4 8 3 4 Y Y Y 8 Y 8 3 3 3 8 4 Y Y Y Y 4 3 Y Y 3 9 9 Y Y Y Y b.Y Y Y Y Y Y Y Y 3 Y Y 9 3 9 Y Y 3 ; 3 1 3 3 7 Y Y Y 3 Y 8 Y 4 3 3 8 8 8 Y Y Y Y Y ",
"3 3 3 3 9 Y Y 7 Y 3 7 Y Y Y Y Y Y Y Y Y 7 7 Y Y 3 Y Y 8 3 8 Y Y 3 3 3 6 3 3 3 Y Y 3 8 k.3 ; ; 3 4 8 9 9 3 Y Y 3 3 Y Y Y P.9 Y Y 9 Y Y Y 9 Y Y 5 Y Y Y Y 5 Y Y Y Y P.V.Y Y Y Y Y b.P.b.P.P.Y Y Y 3 3 9 9 3 3 3 3 3 < 3 3 3 3 3 3 3 Y Y Y Y 3 3 3 9 Y 5 3 3 Y 9 9 4 3 3 3 Y Y 9 3 9 3 Y 9 9 Y Y 3 3 3 9 9 Y Y Y Y 8 Y 7 8 Y 7 7 7 3 3 3 3 3 4 4 Y Y 9 Y 9 Y 3 8 Y 3 3 3 Y 3 3 8 3 3 3 4 3 Y Y 7 8 Y 7 3 3 3 8 Y Y Y Y Y 4 3 Y Y Y Y Y Y Y Y c.Y Y P.Y b.Y Y 9 Y 9 Y Y 3 3 3 3 3 9 3 3 8 7 3 3 Y 8 7 3 Y Y Y 8 3 4 3 4 3 3 3 Y Y Y ",
"; 3 3 Y Y Y Y Y Y Y Y 9 Y Y Y Y Y Y 8 Y 3 3 Y Y Y 3 4 Y 3 Y 8 Y 8 3 3 3 3 6 3 7 w.8 Y Y 7 ; ; 3 Y Y Y Y Y Y Y 3 Y Y Y Y Y Y Y Y Y 9 Y Y Y Y Y Y Y Y Y Y Y 6 5 Y V.Y < Y b.Y Y Y b.P.P.P.P.Y Y Y 9 3 3 5 3 8 ; 3 3 3 3 3 3 3 3 3 3 6 Y 5 Y 3 Y Y 3 3 5 3 5 9 Y Y 8 Y Y Y 8 Y Y 9 9 3 Y Y Y Y 9 9 3 9 Y 9 3 Y 7 Y 3 Y Y 7 Y w.Y 8 7 3 1 3 3 4 3 Y Y Y Y Y Y 3 3 3 7 Y 3 3 Y 8 3 3 Y Y 3 3 8 8 7 Y Y 8 3 3 3 4 Y 8 8 4 8 8 8 8 Y 3 Y Y Y Y Y Y Y Y Y Y Y b.Y Y Y c.Y 9 Y 3 9 3 9 3 3 ; 1 Y Y 3 8 7 8 3 7 Y Y 8 3 Y 8 3 3 7 3 Y Y Y ",
": 3 7 Y Y Y Y Y Y Y Y 9 7 Y Y Y Y Y Y Y Y 8 8 Y Y 3 8 3 7 7 Y 3 3 Y 3 3 3 9 3 Y Y 7 3 Y Y > ; , Y Y Y Y P.b.Y b.P.P.P.P.P.Y 9 Y Y 3 9 Y Y Y Y Y Y 3 Y c.b.Y Y Y Y Y Y Y Y Y Y c.P.P.P.P.P.b.P.P.9 9 3 Y Y Y ; Y 3 3 ; ; 3 3 3 Y Y 9 3 3 3 3 3 ; 3 Y 3 3 3 3 3 3 9 9 Y Y 7 Y 3 Y Y 9 9 Y Y Y Y c.9 Y Y 3 9 3 3 3 3 ; 3 4 Y Y Y Y 7 3 3 3 Y 3 3 9 Y Y 3 Y 3 4 6 Y 3 3 Y 8 8 4 3 < 3 3 3 3 4 3 3 Y Y 3 1 < 3 3 3 Y Y Y Y Y Y Y Y Y Y Y Y Y Y Y Y b.Y 9 Y b.b.Y Y Y Y Y 9 3 9 9 3 , 3 ; < 3 3 Y 3 3 3 7 3 Y Y 8 8 Y 8 3 Y 3 3 Y k.Y ",
"3 3 3 Y 3 Y Y Y 7 7 7 Y 7 7 Y Y Y Y Y Y Y Y Y Y Y 8 7 7 Y Y Y Y w.Y Y 9 9 3 3 Y Y Y Y 5 b.9 3 3 Y 3 9 P.Y Y b.P.Y P.P.P.P.b.Y b.Y 3 Y 9 Y Y Y Y Y Y c.b.b.P.b.Y Y Y Y Y Y Y b.c.b.b.P.P.P.P.P.P.Y Y 9 Y Y 3 3 Y Y Y 4 3 3 3 Y Y 9 Y Y 3 3 3 8 3 3 Y 3 3 3 3 3 3 9 3 3 Y 3 3 3 9 Y 9 9 Y Y Y Y Y 9 3 7 3 Y Y 3 3 8 3 ; 3 Y Y w.Y 3 3 3 3 Y 9 3 3 3 3 3 6 6 6 5 Y Y 3 3 3 7 4 3 3 < ; 3 4 8 3 3 4 < 3 3 3 3 3 8 Y Y Y Y Y Y 8 Y Y Y Y Y Y Y Y c.b.5 Y Y Y Y Y Y Y 3 Y Y Y Y 3 3 3 3 3 Y Y 1 3 3 3 3 3 3 3 Y 8 Y Y 8 Y Y Y 3 7 Y Y ",
"3 3 3 3 Y 7 3 Y 3 7 3 Y Y 3 3 Y Y Y Y 3 Y Y 3 : 3 3 3 3 Y Y Y Y Y Y Y Y Y 9 3 3 Y Y Y 3 Y P.Y Y 3 3 Y P.Y Y P.P.Y P.P.P.c.b.b.b.Y Y Y Y Y Y Y Y Y Y Y c.Y Y c.Y Y Y Y 9 Y Y P.P.P.P.P.P.P.b.b.P.b.Y Y b.Y , b.Y Y Y 3 Y 8 Y Y 3 9 9 Y 5 3 Y Y 3 3 3 3 3 4 4 8 3 9 9 Y Y 3 3 9 3 9 9 9 Y Y Y Y Y Y 3 Y Y 8 9 3 3 3 3 3 3 Y 7 Y Y 3 3 Y Y Y 9 3 3 5 3 Y 3 3 3 3 3 Y Y 8 3 Y Y 3 3 < ; ; < 3 4 3 3 < 3 4 8 3 3 4 3 3 7 7 8 Y Y Y Y Y Y Y Y Y Y Y b.Y Y Y b.b.c.Y Y Y Y 9 3 Y Y 9 3 9 Y 3 Y 3 % $ 4 Y 7 7 7 3 3 3 7 Y Y Y Y 3 8 Y 3 ",
"8 3 Y 7 3 7 Y Y Y Y 7 8 Y 3 8 7 Y Y Y Y 8 8 3 3 ; 7 3 3 Y 7 Y Y Y Y Y Y 9 Y 9 Y Y Y Y b.Y c.b.Y 3 Y b.P.Y Y Y b.Y P.P.P.Y b.c.Y Y P.Y b.Y 9 Y Y Y Y P.Y Y Y P.Y Y Y Y Y P.P.b.b.P.P.P.P.P.b.b.P.Y Y c.P.Y 3 P.Y 3 > 3 4 Y Y 8 Y Y 3 3 3 7 3 8 3 3 4 3 3 8 Y 3 4 3 9 Y 3 9 9 Y 9 9 9 9 5 Y Y Y Y Y 7 Y Y 8 8 Y Y 3 3 4 Y Y 3 7 Y Y Y Y Y Y 9 9 Y 5 3 3 3 3 3 6 3 3 d.Y 8 8 3 3 ; 3 ; ; = 1 3 3 3 3 3 4 8 4 8 3 8 8 7 3 8 8 7 Y Y Y Y Y Y Y Y Y Y b.Y Y b.Y b.Y c.Y Y Y 9 3 Y Y 9 3 Y Y 3 3 3 % 3 3 8 8 7 3 7 Y Y Y 3 Y Y 8 Y Y 3 ",
"Y Y Y Y Y Y Y Y Y Y Y Y 3 8 Y 7 7 Y Y 7 8 Y 3 1 ; : 3 7 Y 7 Y Y Y Y Y 9 Y 9 Y 9 9 Y Y Y Y Y Y Y Y Y Y Y c.Y Y |.b.b.Y Y Y Y b.Y Y c.Y c.Y Y Y Y Y Y Y P.P.P.P.Y 3 Y Y Y Y b.b.Y Y P.P.P.b.b.P.w.Y b.Y Y 9 P.Y 9 Y Y Y 3 3 3 Y 3 3 Y 3 9 3 3 3 4 4 4 3 3 < 3 3 3 Y Y 9 Y Y Y Y Y Y 9 Y Y Y Y Y 3 Y 7 8 7 Y Y Y Y 4 4 4 3 3 3 Y 8 Y Y Y Y Y 9 9 3 3 3 3 3 Y Y 6 Y Y V.Y Y 8 3 3 < ; 1 3 ; ; 3 3 3 3 3 3 3 8 8 3 4 Y 7 7 8 3 7 Y Y 7 Y Y Y Y Y Y Y Y Y Y Y Y Y Y Y b.Y 9 9 9 Y Y Y Y Y 3 3 4 4 3 ; 1 3 3 7 3 7 Y w.w.Y Y Y Y w.Y : ",
"8 8 d.Y Y Y 8 Y Y Y 7 3 3 7 Y Y 8 8 7 7 Y Y 3 ; ; 3 Y 3 7 3 3 Y Y Y Y 9 9 Y Y Y Y Y Y 5 9 Y Y Y Y Y Y Y b.P.P.P.b.b.Y Y Y Y Y Y Y Y Y 9 Y Y Y Y Y Y Y Y P.Y Y Y Y b.Y Y Y b.b.P.Y P.P.|.P.P.b.b.b.c.Y Y Y Y Y Y Y 3 3 ; ; ; 3 3 3 3 Y 9 3 3 3 3 8 Y 4 3 ; < 3 3 Y 9 Y Y Y Y Y Y Y Y 9 Y Y Y Y Y Y Y Y 7 8 Y 8 8 3 Y Y 4 3 7 Y Y Y Y Y Y 9 9 Y Y 3 5 Y 3 Y Y Y 3 3 3 4 Y 8 3 3 3 3 3 3 < 3 3 3 3 3 4 3 3 3 4 Y Y Y Y 7 7 7 Y Y Y Y Y Y Y 9 9 Y Y Y Y Y Y b.Y Y c.b.Y Y 9 Y Y 9 Y Y 9 8 Y Y 3 Y 3 ; : 3 : 3 3 3 Y Y Y Y Y 3 Y Y 3 ",
"4 Y k.Y Y k.Y Y 7 Y Y Y Y k.w.7 3 8 Y 8 3 3 ; 1 3 Y 3 8 4 3 3 8 Y Y Y Y 3 Y Y Y Y Y Y 3 Y Y Y Y Y Y Y Y Y P.P.c.Y Y Y Y P.Y Y 9 Y b.P.Y Y Y b.P.P.Y Y Y Y Y Y c.Y c.Y Y P.P.Y Y Y b.P.P.b.b.P.Y P.b.Y Y 3 3 3 3 3 3 3 7 3 3 3 3 3 7 3 3 3 < 3 3 4 8 3 3 3 3 6 3 Y 9 3 9 9 Y Y Y Y Y 9 Y Y Y Y Y 9 Y Y 5 3 3 7 Y 8 3 3 Y Y 3 3 Y Y Y 9 Y Y Y 3 Y Y 9 Y 9 9 Y Y 3 3 3 1 3 3 3 1 3 3 3 3 3 3 3 3 3 3 3 3 3 3 3 4 Y Y Y 8 4 Y Y 8 Y w.Y 3 7 7 7 Y 7 Y Y 9 3 Y Y Y Y Y Y Y Y Y Y Y Y Y 9 5 3 3 8 3 3 3 Y 3 3 3 9 3 Y 9 Y Y Y Y 3 3 3 ",
"8 Y Y Y Y Y Y Y Y Y P.Y Y Y 7 Y Y 3 4 Y Y 1 3 4 3 8 3 Y 3 3 4 4 3 Y Y Y Y Y 7 Y Y Y Y 3 Y Y Y Y Y Y Y 3 Y b.Y Y P.b.P.Y c.P.Y Y Y P.P.Y P.P.Y P.P.Y Y Y Y b.c.b.c.Y Y Y Y Y b.Y Y c.b.Y Y Y Y Y c.Y 3 ; 3 1 7 Y Y Y Y 7 3 3 3 3 3 7 3 3 3 3 3 3 3 3 3 3 3 4 Y Y 3 9 9 9 Y Y Y Y Y 9 9 Y Y Y 9 Y Y Y 3 Y 5 3 Y Y 7 ; 1 3 3 9 Y Y Y Y 9 9 3 Y Y 9 Y Y Y 9 3 Y Y 3 2 3 Y 3 3 3 3 3 3 3 3 3 4 3 3 3 3 3 3 3 3 3 3 3 3 3 8 8 8 Y 7 8 3 Y Y Y 7 Y Y 3 Y b.Y 9 Y b.Y Y Y P.Y Y Y Y Y 9 9 Y Y 3 3 3 3 ; 3 3 3 5 3 9 3 3 Y 3 Y 8 3 3 3 4 ",
"8 3 8 Y Y 8 Y Y 3 Y k.Y Y 8 7 8 Y 3 3 Y 8 Y Y 8 3 Y Y Y 3 3 Y 8 3 Y 7 Y Y Y Y Y Y Y Y 5 Y Y Y Y Y Y Y 3 Y Y Y Y Y P.P.Y 9 Y c.Y Y P.Y Y P.Y Y P.b.b.Y Y Y Y P.c.P.{.P.P.Y Y b.Y P.b.Y P.P.Y Y Y Y Y 9 3 Y Y 8 Y 8 3 8 Y 8 3 3 3 8 Y 3 3 3 Y 3 1 3 3 ; 3 3 6 6 6 3 3 5 9 Y Y 3 3 9 3 9 9 b.b.Y Y Y Y Y Y 5 3 3 3 Y Y Y Y Y 3 Y Y Y Y 3 3 9 Y Y Y Y Y Y 9 5 6 Y ; 2 3 3 3 3 3 7 Y 3 3 4 3 3 3 1 4 3 3 1 3 3 3 3 3 3 3 3 Y 3 3 3 3 3 3 3 Y 3 3 Y 7 Y 9 Y b.Y Y Y Y Y Y Y Y Y Y Y Y Y Y 3 3 3 3 Y 3 3 3 3 6 Y 3 3 ; 3 3 3 8 3 3 3 Y ",
"8 3 4 4 Y 3 Y 3 3 Y Y Y Y Y Y 3 Y Y Y 8 Y 3 3 Y Y 8 8 8 3 3 4 3 3 3 7 Y Y Y Y 5 Y Y 5 5 6 Y Y Y Y Y 9 Y Y Y Y Y Y Y 3 3 Y Y Y P.Y Y Y P.Y Y b.P.P.b.b.b.Y Y Y Y P.P.P.P.P.P.Y 9 Y P.b.b.P.P.P.b.Y Y 3 9 Y Y Y Y Y Y Y Y Y Y Y Y Y Y 7 7 3 3 3 3 3 3 3 3 3 6 3 6 3 3 3 Y Y 9 3 9 9 9 9 Y Y 3 Y Y 9 Y Y Y Y Y 3 3 7 7 Y Y Y 9 9 Y Y Y Y 9 b.9 9 Y Y Y Y 3 3 6 Y 3 3 Y 3 3 7 ; 3 3 < 3 8 4 3 3 ; ; 3 3 3 3 3 3 3 3 3 3 3 3 3 3 3 3 8 3 8 3 3 7 Y Y Y Y Y Y 9 Y Y Y Y Y Y Y Y Y 9 Y Y Y Y Y Y 3 3 3 3 3 3 3 Y 3 3 ; + 9 3 3 3 3 3 3 ",
"4 Y 3 3 4 3 3 Y Y 7 Y Y Y Y 7 7 Y Y Y Y Y 8 3 Y Y 8 8 Y 3 3 3 1 ; 3 8 Y Y Y 8 Y 3 3 Y 3 Y Y Y 5 6 Y Y 9 Y Y Y Y Y 3 9 Y Y Y Y b.Y Y Y Y Y b.Y c.Y Y c.Y Y Y Y Y Y Y P.P.P.Y Y 9 3 Y c.Y Y b.b.b.Y Y 3 b.Y 8 Y w.Y Y 7 Y Y Y 3 7 Y 7 3 3 3 ; Y 3 3 8 3 Y Y 5 Y Y Y Y 9 9 9 9 Y 9 9 Y 9 Y Y Y Y Y 3 3 5 Y Y 6 Y Y Y Y Y 7 3 9 Y Y Y Y Y Y Y 9 Y Y 9 9 9 3 3 3 3 3 3 3 Y Y 7 3 : ; 3 ; 3 4 3 3 1 ; 3 3 3 3 < 3 4 3 4 3 3 3 3 3 3 8 3 3 7 Y Y 3 Y w.Y Y Y 3 3 Y 9 Y Y Y 9 9 Y Y b.b.Y Y Y Y 3 3 3 3 3 Y 3 3 3 , 3 3 ; ; ; < $ @ 3 3 ",
"4 8 Y 8 8 Y Y Y Y Y 3 Y 7 Y Y Y Y 8 Y 8 8 7 3 3 8 Y 8 Y 3 3 3 1 3 ; 1 8 Y Y Y Y 3 3 3 Y Y Y Y Y Y Y Y Y Y 3 9 Y 9 Y 9 b.P.Y Y c.P.b.Y Y c.P.Y Y Y Y c.Y Y 5 Y Y Y b.c.c.Y Y Y Y Y Y Y Y b.b.c.c.b.Y Y Y c.Y Y Y 9 9 8 7 Y Y 3 3 9 3 3 Y Y Y 7 3 3 Y Y Y 9 3 Y Y Y Y Y Y 9 9 Y Y Y 3 Y 9 3 Y 9 3 Y Y 6 5 Y 3 3 Y 7 Y Y Y Y Y Y 5 Y Y Y b.b.9 9 P.Y 3 3 3 3 Y > 3 3 6 Y Y Y Y Y 3 3 7 3 3 3 3 3 3 4 8 3 Y 3 < 4 4 3 3 3 4 4 4 8 3 3 3 3 Y Y 8 3 8 7 Y 3 3 9 3 Y Y Y Y Y 9 Y Y Y Y Y c.c.P.Y 9 Y 3 3 Y 5 Y 3 9 9 3 Y Y 3 ; $ $ ; 3 ",
"4 3 Y Y Y Y 7 Y 7 7 Y Y Y Y Y Y Y 8 8 Y 7 8 3 4 3 8 Y 8 3 3 3 4 3 3 3 8 Y Y Y Y 3 3 3 Y Y Y Y Y Y Y Y Y Y Y Y Y Y Y Y b.Y b.b.Y b.Y Y Y P.P.c.Y Y P.P.P.c.Y 5 Y b.b.Y Y b.P.P.Y 3 Y P.c.Y c.c.Y b.9 Y P.Y Y Y b.Y Y 3 3 Y 7 8 Y 3 Y Y Y Y Y Y 9 5 9 Y Y Y Y Y Y Y Y 9 9 Y Y 3 9 Y 9 Y Y 9 9 3 Y Y Y 5 3 5 6 3 5 9 9 9 Y 9 9 9 3 9 3 Y b.Y Y Y 7 Y 7 3 3 3 3 3 3 ; 6 Y Y Y 9 Y 7 3 8 : ; 3 8 3 3 3 8 Y Y Y 3 4 8 4 4 4 3 8 3 3 3 3 3 3 8 3 Y 3 1 3 1 3 3 7 Y Y 8 Y Y Y Y Y Y Y Y Y b.Y Y b.b.Y Y 3 9 3 3 9 Y 9 Y Y Y 6 3 Y 2 ; 3 ",
"4 Y Y Y 8 Y Y Y Y w.w.3 Y Y Y Y Y 8 Y Y 7 8 8 8 4 Y 3 3 Y 4 3 Y 8 Y Y 3 Y Y Y 3 6 Y Y 3 5 Y Y Y Y Y Y Y 3 9 9 Y b.Y P.Y Y P.P.P.Y Y Y Y Y Y 9 3 Y Y P.b.c.Y Y c.b.b.P.P.P.P.9 Y 5 Y b.Y Y Y Y c.Y Y Y Y Y Y 9 c.b.Y : 7 Y 7 Y w.Y Y Y Y Y Y P.9 3 9 Y Y Y Y c.Y Y Y Y 9 Y Y 5 9 Y 9 Y Y Y 9 Y Y Y 6 Y 5 3 Y Y Y Y Y 9 Y Y Y 3 9 Y 9 Y Y 9 3 Y Y 3 7 7 3 7 3 3 3 ; 3 5 3 9 9 Y 9 3 3 Y ; ; Y 3 3 3 3 3 3 Y 8 8 4 8 Y Y 8 8 3 3 4 3 3 3 Y 3 8 8 8 3 3 3 3 3 Y 3 8 Y Y Y Y Y Y Y Y Y Y Y Y Y b.Y Y Y 9 3 Y 9 3 3 3 3 9 5 3 3 3 Y Y ",
"3 8 Y Y 3 Y Y Y Y Y Y Y 7 Y Y 7 Y Y Y Y Y Y Y Y 8 3 8 Y 3 3 3 3 Y 3 Y Y 8 Y Y 3 Y Y 5 Y Y Y Y Y c.Y Y Y Y 3 9 Y b.Y Y 9 P.P.P.P.Y 9 Y Y 9 9 Y 9 Y b.P.b.Y Y P.P.P.P.b.P.|.P.Y Y P.Y Y b.c.Y b.Y Y b.b.c.Y Y b.Y P.Y 3 3 Y Y Y Y Y Y Y Y Y Y b.Y Y b.Y Y Y Y Y Y Y 9 Y Y Y Y 5 9 Y Y b.b.Y Y 9 9 Y Y Y Y Y Y Y Y Y Y Y Y 3 3 9 9 Y Y Y Y Y Y Y Y Y Y 7 7 7 3 3 Y 3 3 Y 3 3 3 3 3 3 3 3 3 3 4 8 3 4 3 3 3 3 Y 8 4 Y 8 Y 8 Y Y d.d.Y 3 3 3 3 3 3 3 3 8 3 3 Y 3 8 8 Y Y Y 7 Y 9 Y 9 Y Y Y P.b.b.Y Y Y Y Y 9 Y Y Y 5 3 9 Y 3 3 6 6 Y ",
"3 4 4 Y 3 Y Y Y Y Y Y Y Y 8 7 Y Y 7 7 Y Y Y Y Y Y 3 4 4 4 3 4 3 3 Y Y 3 Y Y Y Y Y Y Y 3 Y Y Y Y 3 Y Y Y Y 5 3 Y Y 9 9 3 3 Y Y Y Y 9 3 3 9 Y Y Y Y Y Y Y Y Y P.b.w.b.b.b.b.Y P.P.c.Y c.Y Y Y Y 9 Y Y P.P.Y b.P.Y Y Y 3 8 Y Y 3 7 9 Y Y Y Y 9 Y Y Y Y Y Y Y Y P.Y P.Y Y Y 5 Y Y 9 Y Y b.Y 3 3 3 9 Y Y 3 Y 5 Y Y Y Y Y Y Y 9 Y Y Y Y Y Y Y Y Y Y Y Y Y Y Y 3 3 3 Y 3 ; 9 3 3 9 9 3 3 7 3 3 1 1 3 4 3 3 3 3 < 3 4 3 Y Y 4 Y Y Y Y Y Y Y 3 3 3 8 7 Y w.3 3 3 3 7 3 3 3 7 Y Y 9 3 9 Y Y b.Y Y Y Y Y Y Y 9 Y Y 3 3 Y Y 9 Y 5 3 3 5 Y Y ",
"4 4 3 4 Y 3 7 Y Y Y 7 Y Y Y Y 3 Y Y 3 Y Y Y Y 8 3 3 3 3 3 3 8 8 3 3 Y Y Y Y d.Y 3 5 Y Y Y Y Y Y 3 6 b.Y 9 Y Y Y 9 3 3 9 5 Y 3 3 9 9 Y Y Y 9 Y Y Y Y b.Y Y Y P.P.Y Y b.Y Y Y Y Y Y Y Y Y Y Y Y Y 9 Y Y Y P.P.Y Y Y Y Y Y Y P.3 3 3 3 Y Y Y b.Y Y 9 3 Y Y Y Y Y Y Y 9 Y Y Y Y Y Y Y Y Y Y 3 3 Y 9 3 5 3 3 Y Y 5 Y Y Y Y Y b.Y Y Y 5 Y Y Y 3 3 9 3 7 Y Y 8 3 Y 3 Y 3 3 Y Y Y 9 3 Y Y 8 Y 3 3 3 ; 3 3 4 Y 4 3 3 3 3 Y Y Y 8 8 Y 8 Y Y Y Y 8 3 3 8 Y 7 3 3 3 3 3 7 7 9 Y 9 Y 9 Y Y Y Y c.Y Y 9 Y 9 5 9 3 3 3 3 9 9 9 3 9 5 5 3 3 3 Y ",
"Y 6 Y Y Y Y 7 Y Y Y 3 Y Y Y Y Y 3 3 Y Y 8 7 8 8 Y Y Y Y 7 3 7 8 3 3 3 Y Y Y Y Y 9 9 3 Y Y 9 Y b.Y 5 Y Y Y Y Y Y 9 3 3 3 Y Y Y Y 3 b.b.b.Y Y Y c.Y c.Y b.P.Y Y Y Y Y Y Y Y Y P.P.Y Y Y b.Y Y c.Y 3 b.Y Y Y 3 Y Y c.Y 9 |.Y Y Y Y 5 Y Y Y Y Y 9 9 Y Y Y Y Y Y Y c.Y 3 9 Y Y Y c.Y Y Y Y Y Y 3 Y c.Y Y 3 3 Y 3 > 9 9 Y Y Y Y Y Y Y Y Y Y 9 9 3 3 7 Y Y Y 3 9 Y 3 Y Y 9 Y Y 9 Y 9 Y 3 3 9 3 3 3 < ; 3 4 3 Y Y 4 3 8 8 Y Y Y Y 7 8 Y Y Y Y Y Y 3 7 3 3 9 9 3 9 9 3 3 Y Y 3 3 9 Y Y Y Y Y c.c.Y Y Y 9 9 Y 3 3 3 Y Y Y Y 3 3 5 > 3 3 Y ",
"Y Y 6 Y 5 Y Y 8 Y Y Y Y Y Y Y Y 7 7 7 Y Y 7 7 Y 7 7 Y Y Y 7 7 7 1 3 3 3 3 5 Y 3 Y Y 3 9 9 9 Y Y b.Y Y Y b.Y Y Y Y Y 3 9 Y b.Y Y 9 Y Y Y Y Y Y Y Y Y Y Y Y Y Y 9 9 9 9 Y Y 9 b.Y b.Y Y Y Y Y P.Y 9 P.Y c.Y Y Y P.b.Y Y P.Y Y Y Y Y Y 5 5 Y Y 5 Y Y 9 Y Y 3 3 5 Y 9 9 Y Y Y Y Y Y Y Y Y Y Y 3 Y b.P.c.Y 3 6 3 3 5 P.Y 9 9 Y Y 9 Y Y Y 9 3 9 9 Y Y Y Y Y Y 3 Y 5 3 3 3 3 3 3 9 3 9 Y 7 9 9 3 3 3 3 ; 3 = Y 3 3 3 4 Y Y 3 3 8 7 3 7 8 3 3 Y Y 9 3 3 9 Y 9 9 3 3 Y 3 9 9 3 Y Y Y Y Y c.Y Y Y Y Y Y 5 3 3 9 3 9 5 Y 9 3 3 3 Y 3 3 3 3 ",
"Y Y 5 6 Y Y Y Y Y Y w.Y Y Y Y Y Y Y 7 7 Y 3 7 Y Y 3 Y Y Y Y Y Y 3 3 6 3 Y 6 Y Y 9 Y 5 Y 9 Y 9 9 9 Y b.Y Y Y Y Y Y Y 9 9 Y Y 9 5 3 b.P.b.Y Y Y Y Y Y Y Y Y P.P.P.b.Y Y Y Y Y b.Y Y Y Y Y P.b.P.3 9 Y 3 P.Y Y Y Y b.9 3 Y Y Y 3 3 3 Y Y Y 6 Y 9 9 Y Y Y Y 9 9 9 5 3 3 9 9 Y Y 9 Y Y Y Y Y Y Y P.Y Y Y P.Y 6 Y 5 3 Y Y 9 9 Y Y 3 Y Y 9 3 Y 9 Y b.c.9 Y Y Y c.Y 9 3 3 3 ; Y Y 3 3 3 Y Y Y 9 3 3 ; 3 3 3 3 ; 3 3 3 3 3 3 3 3 3 7 7 Y w.3 3 Y Y 5 3 3 Y 9 3 Y Y 9 b.3 9 3 3 9 Y 9 9 Y c.Y Y Y Y Y 5 3 3 Y Y Y Y Y 3 3 Y 5 3 Y Y Y 3 6 ",
"Y Y 6 5 Y Y 8 8 3 Y Y Y Y Y Y Y Y Y Y 8 3 Y Y Y P.7 Y Y Y Y Y Y 3 Y 3 3 ; 6 6 9 9 9 Y Y Y Y Y P.Y 3 Y Y 9 Y Y Y Y Y Y 9 9 Y 9 Y Y b.P.P.Y Y Y Y Y 9 Y 9 Y b.b.Y Y Y P.P.Y Y P.Y Y Y Y Y c.P.Y Y Y 3 Y P.b.Y 9 3 Y 3 3 Y Y Y Y Y Y Y Y Y Y Y Y Y Y Y Y Y Y Y Y Y Y 3 9 Y Y Y Y Y Y Y b.b.b.b.Y Y Y Y Y Y Y Y Y Y Y Y 9 9 Y Y 9 Y Y Y 9 9 9 9 7 Y 9 Y Y Y Y Y Y 9 3 3 , Y 9 3 9 9 3 3 Y 9 3 3 3 3 8 3 3 3 3 Y Y Y 3 3 3 3 3 7 Y 3 7 Y 7 3 Y 3 3 3 3 3 3 3 9 9 Y 3 Y 9 Y 9 Y Y 3 Y Y Y Y Y Y Y Y Y Y Y Y Y 3 3 9 Y Y 9 3 Y Y Y Y Y ",
"3 Y 3 3 5 Y 3 8 Y 7 7 Y Y Y Y Y Y Y Y 7 7 Y Y Y Y Y Y 8 Y Y 3 3 Y 4 Y 3 > 3 Y Y 3 Y 9 3 3 3 Y P.Y 3 9 Y 9 Y 3 Y Y Y Y 9 Y Y Y Y Y Y Y P.Y Y Y Y 9 Y Y 9 Y Y Y Y b.P.Y P.Y Y Y Y Y 9 Y c.Y Y Y c.P.3 Y Y Y Y Y Y Y Y 9 b.9 Y Y Y Y P.Y Y Y Y Y Y Y Y c.Y Y b.Y Y Y 3 Y Y Y Y b.b.Y Y Y Y 3 Y Y Y 3 4 Y Y Y Y 5 3 3 3 9 9 9 9 Y Y Y 9 Y 9 Y Y 9 Y Y 9 3 Y Y b.Y 9 Y 3 3 9 3 3 9 3 Y Y 9 3 3 3 3 3 3 Y 3 3 ; 1 Y 3 3 Y Y Y 8 3 3 3 7 Y 7 Y Y Y Y 3 3 Y 3 9 9 Y Y , 9 Y Y Y Y Y Y Y Y Y Y Y 3 9 Y b.Y 3 3 3 3 9 9 3 9 Y Y Y Y 5 5 Y ",
"3 Y 3 3 6 Y 9 Y Y 7 Y Y Y Y Y 3 7 7 Y Y 7 Y 9 9 Y Y 3 3 3 8 3 3 Y 3 Y 3 5 Y Y 3 Y Y 9 ; 3 9 Y 3 3 9 Y Y Y b.Y Y Y Y Y 9 9 Y Y Y 9 3 9 Y 9 Y Y Y 9 9 3 Y Y Y Y Y Y Y Y 9 Y Y Y 3 5 9 Y Y Y Y Y c.3 3 Y Y Y Y Y Y Y Y Y Y b.Y c.P.b.c.Y Y Y Y Y Y Y c.b.Y Y Y Y Y Y Y Y Y 9 3 3 Y Y Y Y Y Y 3 3 9 9 5 Y Y Y Y Y Y 3 3 3 , 3 9 9 Y 9 9 Y 3 Y b.b.Y b.Y Y Y Y Y Y Y Y Y 3 Y Y Y 9 3 Y 9 3 3 Y 3 Y 3 3 Y Y 3 3 3 3 3 3 3 w.Y 3 3 Y 9 3 7 Y Y Y Y 3 3 3 Y Y 3 Y Y Y , 9 Y Y b.Y Y Y Y Y Y Y Y Y Y P.b.b.b.b.Y 3 9 3 9 3 3 Y Y Y Y 5 Y ",
"5 Y 3 Y Y 5 Y Y 9 3 3 9 9 Y Y Y Y Y Y 9 Y Y Y Y Y Y 3 Y Y 6 Y 6 6 6 3 3 9 3 5 3 3 3 Y 5 2 Y Y 3 3 3 Y Y c.Y 9 Y Y Y 3 9 Y Y Y 9 3 9 Y Y Y Y Y Y 9 3 3 Y 9 9 Y Y Y Y c.Y Y Y Y 9 9 Y Y Y Y Y c.9 , Y Y Y Y 9 Y Y 9 Y b.Y Y Y b.P.Y Y b.9 Y 9 Y Y Y b.Y Y Y Y Y 9 Y Y 9 Y 5 , 3 3 3 Y Y Y Y Y Y Y Y Y Y Y Y Y Y Y 9 Y 9 3 3 3 7 Y 7 9 Y Y Y Y Y Y Y b.Y Y Y Y Y Y Y Y 3 9 Y Y 3 Y 3 3 3 9 Y 9 3 3 , ; Y Y 9 3 Y Y 3 Y 9 3 3 3 3 9 3 3 Y 9 Y Y Y 3 3 3 3 Y Y 3 Y ; Y Y Y Y 9 Y Y Y Y Y Y Y c.c.Y Y Y Y b.Y 3 9 Y Y Y 9 Y Y 9 Y Y Y ",
"3 6 3 3 3 3 9 Y Y 3 3 3 3 9 3 Y Y Y 9 Y Y 9 Y Y Y 3 3 3 6 Y 6 Y Y 5 3 3 3 9 3 3 3 3 5 Y 3 Y 9 3 9 3 3 9 Y 9 3 Y Y Y Y Y P.b.9 9 3 9 Y 9 9 Y Y Y Y Y 9 Y 9 9 Y Y Y Y Y Y Y 9 Y 9 Y Y Y P.b.b.Y 9 3 Y Y Y Y Y 9 9 Y Y Y P.Y 3 Y Y Y Y c.Y Y Y 9 Y Y Y Y Y Y Y b.Y Y 3 9 Y 9 3 5 5 3 9 9 3 3 9 9 Y Y Y Y Y Y Y Y Y Y Y 9 3 7 3 3 : 3 Y Y Y 9 Y Y Y Y Y Y Y c.Y Y 9 Y Y 3 Y 3 , 3 Y Y Y 3 3 Y Y 3 3 3 9 3 3 Y 9 3 3 9 9 9 Y 3 3 3 ; 3 3 3 Y Y Y 9 3 3 9 3 9 3 3 Y ; Y Y Y Y Y Y 9 3 Y b.Y Y b.Y Y Y Y Y Y Y Y Y Y Y Y Y 9 Y Y Y 3 , ",
"3 3 3 3 3 3 3 9 3 3 9 Y 3 Y Y 9 Y Y 9 Y 3 9 Y 3 3 3 9 3 3 6 3 3 Y 6 3 3 Y Y 9 Y Y 3 3 P.5 Y Y 3 9 Y Y Y Y Y Y Y Y Y Y P.b.Y 3 3 Y 9 9 9 Y Y P.Y 3 Y 9 Y Y 9 9 Y Y Y Y Y 9 9 3 9 Y 3 Y Y Y Y P.3 Y b.Y Y Y Y 9 9 Y Y Y Y Y Y Y Y Y Y Y Y Y Y Y Y Y Y 3 Y Y b.Y Y Y Y Y Y Y 9 Y 3 9 3 3 9 3 Y 3 Y Y Y 9 Y Y Y Y Y Y Y Y Y 7 3 3 ; 3 3 9 3 Y Y Y 9 Y Y Y Y Y Y Y Y Y Y Y 9 Y 9 Y Y 9 Y 9 3 Y 3 3 9 P.b.Y 3 3 9 3 3 Y 9 Y Y Y 3 3 3 , , 3 3 Y Y Y Y 9 Y Y 3 Y Y 9 3 Y Y 9 Y Y Y Y Y P.Y 9 Y Y Y c.P.3 Y Y Y Y Y Y Y 9 Y Y Y Y Y 3 3 ",
"6 Y Y 3 3 3 3 3 9 3 3 Y 9 9 9 3 9 3 3 Y 3 Y Y 9 3 9 Y 9 3 2 3 3 Y Y 3 Y 9 Y Y Y Y 3 Y Y Y Y Y Y 9 3 Y Y Y Y Y Y Y Y Y c.Y Y Y 9 Y 9 9 Y 3 3 Y Y 3 3 Y 9 Y Y 5 3 9 3 3 9 Y Y 9 9 Y 3 9 Y 9 Y Y ; Y b.Y Y Y Y 9 9 Y Y Y Y 9 Y Y Y Y Y Y Y Y 9 Y Y Y Y 9 Y Y Y Y Y Y Y Y b.Y Y 9 Y 3 Y Y 9 Y Y 9 9 Y Y Y Y Y Y 9 Y Y Y Y Y k.Y 3 Y 3 3 , 3 3 9 3 3 9 Y Y Y 9 3 Y Y Y Y 9 Y Y Y Y Y 3 9 Y 3 9 3 Y Y Y 9 Y Y 3 Y 3 Y Y 3 Y Y Y 9 3 , 3 3 3 9 3 9 Y Y Y 3 9 Y Y Y 3 3 Y Y P.b.Y Y Y b.b.Y Y Y Y Y Y b.Y 9 9 9 Y 9 Y Y Y Y Y Y Y Y 9 9 ",
"Y Y Y 3 3 3 3 3 9 9 3 3 3 Y 9 9 Y 9 Y Y ; Y Y Y Y Y Y 9 3 3 3 Y 3 Y 9 Y 3 3 Y Y 3 3 5 3 5 3 3 Y 9 3 9 9 Y Y Y Y Y Y c.Y Y c.Y 9 Y Y 9 9 3 3 3 Y Y Y Y Y Y Y 5 9 9 5 5 9 Y Y 9 Y Y Y Y Y Y Y Y Y Y b.Y Y Y Y 3 Y 9 Y 9 3 9 3 Y Y Y Y Y Y Y Y Y Y Y Y b.Y Y 9 9 Y Y Y Y 9 Y Y Y b.3 9 3 Y Y Y Y Y 9 9 Y Y Y Y Y Y Y Y Y Y Y Y Y 8 Y 3 3 3 3 3 ; 3 3 Y Y Y Y Y Y Y Y Y Y 9 Y Y Y Y 9 Y 3 9 Y Y 9 Y 3 3 Y Y Y 3 9 3 9 3 3 9 3 Y Y 9 , 3 3 3 3 3 Y Y Y Y Y Y b.P.3 3 c.P..XY Y Y 9 Y Y Y Y Y Y Y b.c.Y Y Y Y 9 Y Y Y Y Y 9 Y Y Y 3 9 ",
"5 3 Y 3 3 3 3 3 Y Y 3 9 Y Y Y Y 3 Y b.Y b.Y 9 9 Y Y Y Y 3 3 Y Y 6 6 Y Y Y , 5 3 9 3 Y 3 3 Y 9 3 3 3 3 9 Y Y b.b.Y Y 9 Y Y Y Y Y Y Y P.9 9 Y Y 3 Y Y b.Y 9 Y Y Y Y Y 5 9 9 9 3 3 Y Y Y 9 Y Y Y 3 b.b.Y 9 Y c.Y Y 9 Y Y 9 3 Y Y Y Y b.5 Y Y Y 3 Y Y Y b.Y Y Y 9 Y Y Y Y Y 3 Y 3 9 Y Y 5 3 Y 5 Y Y Y Y Y Y Y 9 Y Y Y Y Y Y Y Y 9 Y Y c.Y Y Y 3 3 > 3 3 3 Y Y Y Y Y Y Y Y Y Y 3 Y 9 3 Y 3 Y 3 $ Y Y Y Y 9 9 Y 9 9 ; 9 Y 9 b.9 5 5 3 3 3 6 3 ; ; 3 Y 9 c.P.Y Y Y 3 9 Y Y Y 5 Y Y Y Y Y Y Y P.Y c.Y Y Y c.Y 9 Y 9 Y Y Y Y 9 Y 9 Y Y b.",
"3 3 3 9 3 3 3 Y Y Y Y ; , 9 Y Y 3 9 3 3 9 Y 9 3 3 3 9 Y Y 5 3 3 Y 3 Y 6 Y Y 3 Y Y Y Y 3 9 Y 5 3 3 9 3 Y Y Y Y 9 9 Y Y Y Y 3 3 Y Y Y Y 9 Y 3 3 3 3 9 Y Y Y Y c.Y Y 3 Y Y 9 Y Y 3 9 3 Y Y 9 Y Y Y b.Y Y Y Y b.Y Y Y Y Y Y 3 9 Y Y Y Y b.9 9 Y 9 3 Y Y Y Y Y Y 3 Y Y Y Y Y 3 9 Y 9 9 9 3 5 6 3 5 Y Y 9 Y Y Y Y Y Y Y 9 P.b.Y Y Y Y Y Y Y b.Y Y Y 3 3 5 Y Y Y 3 6 6 Y Y Y Y 9 3 3 3 3 9 3 Y 6 . 3 Y Y 9 9 9 9 3 3 Y Y 3 P.b.Y 3 Y 3 3 3 3 Y 3 3 3 3 Y Y Y Y Y Y Y Y Y Y Y Y Y Y Y 3 Y b.Y Y c.b.Y 5 9 Y Y Y Y Y 9 Y Y Y Y Y Y 3 9 9 ",
"3 9 Y Y 9 9 9 3 Y Y , 3 3 3 3 9 Y Y ; Y 9 9 Y 3 3 3 3 5 5 6 Y Y 3 5 3 3 3 Y 9 Y Y Y Y Y Y 9 9 3 3 Y Y Y 9 Y 3 3 Y Y Y Y 5 3 5 3 3 Y Y 9 Y 9 3 3 3 9 9 b.P.Y Y V.Y Y 6 3 3 9 9 9 3 3 3 3 9 Y Y Y Y P.Y b.b.Y Y Y Y Y Y Y Y Y Y Y Y Y P.Y Y Y Y 5 3 3 9 Y Y 9 Y 3 9 Y Y Y 3 9 Y Y 3 9 3 3 Y Y 5 Y Y 9 9 Y Y Y Y b.Y Y P.Y Y Y Y Y Y Y Y Y P.b.P.b.Y c.c.Y Y Y Y 6 3 3 Y Y Y Y 3 3 3 9 3 Y Y 3 3 Y 9 Y Y Y Y Y 3 3 9 Y Y b.b.3 Y Y Y Y 5 3 ; $ 3 3 3 3 Y b.9 Y Y Y Y Y 9 Y Y Y Y 5 9 Y Y Y c.9 3 Y Y Y Y Y 9 Y 9 Y Y Y Y Y Y 9 5 Y ",
"Y 9 9 3 9 9 Y Y Y 9 3 3 3 3 3 3 9 3 3 3 3 Y 9 Y 9 3 3 9 3 3 6 Y 3 Y Y 6 3 Y Y Y Y Y Y Y Y Y Y 3 3 Y Y Y Y Y Y 9 9 Y 3 3 3 Y 9 3 3 Y b.Y 3 3 3 3 9 Y Y Y Y P.Y 3 Y Y 6 5 3 9 9 3 3 3 , 3 9 Y Y Y 9 P.P.Y Y b.P.Y 3 Y 9 3 Y Y Y Y Y b.Y c.Y Y Y 9 9 9 3 Y Y 9 Y Y Y Y b.b.Y 3 3 9 3 Y 5 3 Y Y Y Y Y Y Y Y Y Y Y Y Y Y b.b.Y Y Y Y Y Y b.Y P.P.b.b.Y Y c.9 Y 6 6 3 3 3 Y Y Y , 3 9 Y Y Y 9 9 Y 5 3 9 9 9 Y Y Y 3 5 3 3 9 Y Y Y Y Y Y 6 Y 3 Y Y Y 3 3 ; , 9 Y Y 3 Y 9 Y Y Y Y 9 5 Y Y Y Y Y b.9 , 9 Y Y c.Y Y Y Y Y Y Y Y 9 Y Y Y 3 ",
"3 9 9 9 9 3 3 Y Y 9 3 3 9 3 3 , 3 3 9 3 Y 3 3 Y Y 9 , Y 6 3 3 6 Y 3 3 3 3 5 Y Y 9 Y Y Y Y Y Y Y Y Y Y Y 9 3 3 3 9 3 9 , 3 9 Y Y 3 Y 9 9 3 9 Y 3 3 3 Y P.Y Y P.Y Y Y Y Y 9 Y Y 9 3 Y 9 3 3 9 Y b.Y Y Y Y Y b.Y Y 3 3 Y 3 Y Y Y 9 Y Y Y Y Y 9 5 Y Y Y Y Y Y 9 3 Y 9 9 9 Y Y 9 9 3 3 3 3 3 3 6 Y 3 Y Y Y Y 3 Y Y 9 Y Y Y b.Y Y Y Y Y Y Y Y Y Y P.Y Y Y 9 9 9 3 3 3 3 5 9 Y c.Y Y 3 3 ; 3 5 9 3 3 9 5 Y 9 Y Y Y Y 5 3 3 3 Y Y Y 3 3 3 6 3 5 6 6 3 3 5 Y 9 3 9 Y 3 Y Y Y Y 9 Y 9 9 9 Y Y Y Y Y Y 9 Y Y Y c.c.Y Y Y Y Y Y Y 9 Y 5 9 Y ",
"Y Y Y 3 3 Y 3 3 Y 3 ; 3 Y 3 3 3 3 9 3 3 3 5 Y Y 9 Y Y Y 3 Y 3 Y Y Y Y Y 5 Y Y Y Y Y Y Y Y Y Y 9 3 3 3 3 3 3 3 9 Y 3 9 Y Y 3 9 Y Y Y Y Y 9 9 Y 9 9 9 Y Y b.b.Y Y P.Y Y Y Y Y Y Y 9 3 9 Y 9 9 Y b.Y Y Y Y b.c.Y Y Y Y Y Y Y Y Y Y 9 Y Y Y Y Y Y 5 Y Y Y Y 3 3 3 9 Y 9 9 Y Y Y Y 9 Y 3 3 5 3 Y Y 6 Y Y Y Y Y 9 Y Y Y Y Y b.Y b.Y Y Y Y Y Y Y Y Y b.Y w.Y Y Y 3 3 3 3 3 3 Y Y Y Y Y Y 3 3 Y 9 Y 3 3 Y Y Y 9 Y 3 3 9 3 3 Y 3 3 9 Y Y 3 6 3 3 5 3 3 3 Y 3 3 Y Y 3 3 Y Y 9 Y Y 9 3 3 3 3 9 Y Y Y Y Y Y Y Y Y Y Y b.Y Y Y Y Y Y Y 5 Y Y ",
"Y Y 5 3 2 3 3 3 3 Y 6 Y 6 3 3 3 3 9 9 3 9 Y Y Y Y 3 3 3 3 6 6 Y 6 3 Y Y Y 6 Y Y Y 9 Y Y Y Y Y 3 3 3 3 3 6 3 3 3 3 3 9 Y Y 9 Y Y Y Y Y Y 9 Y Y Y 9 9 9 Y Y Y c.Y Y Y Y Y Y Y 6 Y Y 9 9 Y Y 3 9 Y Y 9 b.Y Y Y Y P.Y Y Y Y Y Y Y Y 3 9 Y P.Y Y Y Y Y 3 5 6 3 3 Y 5 9 Y Y Y Y 9 9 Y Y Y 9 3 Y Y Y Y Y 8 7 8 Y 7 Y Y Y 9 Y Y Y Y Y Y Y Y Y Y c.Y Y Y Y Y Y Y Y 6 Y 3 3 5 9 9 Y Y Y Y Y Y Y 5 3 3 Y 5 6 3 Y Y 3 ; 3 3 3 Y 9 3 9 9 Y 3 3 5 9 3 7 3 9 9 Y b.3 Y Y 9 Y 3 Y Y Y Y Y 3 3 3 3 Y 9 9 Y Y Y Y Y Y Y Y Y Y Y Y Y Y Y Y 6 3 Y Y ",
"3 3 3 3 3 3 3 3 3 6 3 3 3 3 Y Y 3 3 3 3 9 , 3 9 3 3 3 3 6 6 3 Y Y 6 Y 5 Y 3 3 9 9 Y 9 5 Y Y 3 ; 3 3 3 3 3 3 3 3 3 3 9 Y Y 9 9 Y Y Y Y Y Y Y Y Y Y 9 Y Y Y Y Y 6 Y Y 3 Y Y Y Y 6 Y Y Y Y 3 3 Y Y Y , Y b.Y Y Y Y P.b.Y 9 Y Y 9 Y 3 3 Y Y Y Y Y b.5 9 Y Y Y Y 6 Y Y Y Y Y Y 9 9 3 Y Y Y 9 9 Y 3 Y Y 7 7 Y Y 7 Y 9 Y Y Y Y b.Y Y Y Y Y Y Y Y Y Y Y Y Y Y Y Y Y 6 6 6 5 9 3 Y Y Y Y Y Y 3 ; , 3 Y Y 3 Y Y Y Y 3 3 Y 3 3 3 9 Y Y 3 3 Y Y Y 9 9 9 Y 5 6 Y 3 3 Y , 3 3 3 c.Y Y 9 3 3 3 Y Y 3 9 9 Y Y Y Y c.P.Y Y Y c.Y Y Y Y Y 6 3 5 Y ",
"3 3 > Y Y 3 Y 6 3 3 3 Y 6 3 Y 3 > 9 3 > 9 9 3 3 Y 3 3 Y Y 3 3 5 Y 5 3 5 3 Y Y Y 9 3 Y Y Y 5 3 3 3 6 3 6 3 Y 3 3 9 9 Y Y 9 3 3 9 Y 3 Y Y Y Y Y Y Y 9 9 Y Y Y Y Y Y 6 3 3 Y Y Y Y Y 9 Y Y 3 3 9 Y b.3 9 Y Y Y Y Y Y c.c.Y 9 Y 9 Y Y 3 Y Y Y Y Y Y Y Y Y Y Y Y Y Y Y Y Y Y Y Y 3 5 Y b.Y 3 9 5 3 Y Y 7 3 3 7 Y Y 3 Y Y Y Y b.Y 9 Y Y Y Y Y Y Y Y Y Y Y Y Y Y Y Y 6 3 Y Y 9 P.Y Y Y Y Y 9 3 , Y Y Y Y 3 3 Y Y Y Y Y Y Y 9 Y , ; 3 3 3 Y Y 9 9 Y 9 3 3 Y 9 Y 3 ; 3 Y Y Y Y Y 3 Y 3 3 3 3 5 Y Y Y Y 9 b.Y Y b.Y Y Y Y 9 Y Y Y Y 6 Y Y ",
"Y Y Y Y 3 3 6 Y Y 3 5 3 6 Y 6 3 3 Y 3 ; 3 Y , 3 9 3 5 Y 5 6 3 5 3 5 6 6 6 6 Y Y Y 3 Y Y Y 3 3 3 6 6 3 6 5 Y 3 3 9 3 3 9 3 3 3 Y 3 3 Y Y 9 3 3 Y 9 9 Y Y Y Y Y Y Y Y 3 3 3 Y Y Y Y Y Y 9 Y Y Y Y b.3 5 b.Y Y Y Y Y Y Y c.Y Y Y Y Y 9 Y Y Y Y Y Y Y Y 5 5 6 6 Y Y Y 9 Y Y Y 9 3 3 Y Y Y 3 3 9 9 Y Y Y 7 7 3 7 9 9 Y Y 9 Y c.Y Y Y Y Y Y b.Y Y b.Y 5 Y Y Y Y Y Y V.Y Y b.b.b.Y Y Y 3 9 Y Y 9 Y Y Y Y > 3 9 Y 9 Y Y Y Y Y Y 3 , 5 Y Y Y 3 Y Y 9 Y Y 3 Y Y Y 3 , Y Y 6 Y Y 5 3 Y 3 5 3 3 9 Y Y Y Y 9 5 Y Y Y Y Y b.Y Y Y Y Y Y Y 6 Y ",
"Y 3 ; 3 6 6 3 6 Y Y Y ; & Y 6 Y Y 7 Y Y 9 Y 3 3 Y Y 9 9 5 6 3 3 Y Y 6 Y Y 3 5 3 3 9 5 Y Y 6 6 3 Y Y 3 3 3 3 3 3 3 9 3 3 3 3 9 Y Y 3 Y Y 3 3 3 9 3 3 Y 9 Y Y Y Y Y Y Y 3 3 6 Y Y Y Y Y Y Y Y Y Y P.3 Y P.b.Y 9 Y 5 Y Y Y Y Y Y Y Y Y 9 Y Y Y Y Y Y Y Y 3 5 5 3 6 5 9 Y 9 Y Y 3 3 Y 9 Y 9 9 9 9 9 9 Y Y Y Y Y 9 3 Y 9 Y c.Y Y P.b.Y Y Y Y 9 Y Y 5 Y Y Y Y Y Y Y c.Y 6 3 Y Y Y Y 9 Y Y Y Y 9 Y Y 6 Y Y 3 Y 3 9 Y Y 9 3 3 3 b.P.Y 9 Y Y 9 9 9 Y b.Y Y 9 Y Y 3 3 3 6 3 3 Y 3 5 9 9 Y 9 Y Y Y Y Y Y 3 Y Y Y Y Y Y Y Y Y Y Y Y Y Y Y Y ",
"6 2 3 3 6 3 6 3 Y Y 3 Y 3 6 6 5 Y 9 Y 3 3 3 9 3 5 Y Y 5 9 3 3 > 3 3 Y 5 5 6 3 3 9 3 3 Y 6 3 2 3 Y 6 3 3 3 3 ; 3 3 3 , 3 9 3 Y Y 9 3 Y Y Y Y Y Y 9 Y Y Y b.c.Y 9 Y Y Y Y Y 5 Y Y 9 Y Y 9 Y 5 Y Y b.3 , Y 9 9 3 Y Y Y Y Y b.Y Y Y 9 Y Y 9 Y Y 9 Y Y Y Y Y 5 Y Y 5 Y Y Y Y Y Y Y 3 9 Y 9 Y Y Y Y 9 Y Y Y Y 9 Y Y 3 Y 3 9 9 Y Y Y Y Y Y Y Y 3 3 Y 3 3 Y Y Y Y Y b.Y Y Y Y 9 3 Y 3 9 Y Y Y Y 3 5 5 Y Y Y b.Y 3 Y Y Y Y 3 3 9 9 9 7 9 9 9 Y 9 3 Y Y Y 3 Y 9 3 3 3 3 Y 5 3 6 Y 3 6 Y Y Y Y Y Y b.Y Y Y Y Y Y Y Y 9 9 9 9 9 5 Y Y Y 3 5 ",
"Y 6 3 Y 6 3 Y 6 5 6 Y 3 6 Y 6 3 Y 9 9 Y 3 Y Y 6 3 5 Y 3 3 3 3 3 3 3 9 3 3 9 3 3 3 3 Y Y Y 3 2 ; 3 3 3 3 3 Y ; 3 3 3 3 3 9 3 9 Y 9 Y 9 Y Y 9 9 Y Y Y Y Y Y Y Y 9 Y Y 3 3 3 9 5 Y Y 9 Y Y Y 3 3 Y b.Y ; Y 3 9 3 Y Y Y c.Y c.P.Y Y Y Y P.b.9 Y Y 9 Y 9 3 Y 5 Y Y Y Y c.Y Y Y Y Y 3 3 Y 9 3 9 Y Y 3 9 Y Y Y 9 9 9 9 9 Y Y Y 3 3 3 3 3 Y Y Y Y Y 3 Y Y Y Y Y Y Y Y Y Y 9 3 9 3 9 3 9 3 Y Y Y 9 9 9 Y Y Y Y Y Y Y P.Y Y b.9 9 9 Y Y 9 9 9 9 9 Y 9 3 Y 9 Y Y 9 3 3 3 6 3 Y 3 5 Y 3 5 5 Y Y Y Y Y 9 Y P.Y Y Y Y Y Y 9 3 3 9 5 3 5 Y 9 Y ",
"Y Y 3 Y 3 5 6 Y Y 2 2 3 Y Y 3 3 Y 9 9 5 Y 9 Y Y 3 3 3 3 Y Y 3 3 ; 9 Y Y 9 Y 9 3 3 5 Y Y P.Y 3 > 3 3 3 3 3 Y 3 3 3 Y 9 3 3 3 3 9 Y Y 5 9 Y Y Y 9 Y b.Y 3 9 3 Y Y Y 3 3 3 3 9 Y Y c.Y 9 Y 3 3 9 Y b.P.3 Y 9 9 9 Y Y Y Y Y 9 b.Y Y Y Y Y Y Y Y Y 3 9 3 3 Y Y Y Y Y Y 5 Y Y Y Y Y 3 3 Y 9 3 9 Y Y 3 9 Y Y Y Y Y 3 9 9 Y Y Y 3 3 Y 3 6 Y Y 3 5 Y 6 Y b.Y Y Y Y Y c.Y Y Y Y Y Y 3 9 9 9 9 9 3 3 3 5 Y 9 Y Y Y Y Y Y P.P.P.b.Y Y Y 7 9 9 3 7 3 ; 9 9 9 Y Y Y Y 9 3 5 3 3 6 Y 5 3 3 3 ; 3 Y 3 Y 3 9 9 c.Y Y 3 9 3 3 3 3 Y 9 9 Y 9 Y 9 Y ",
"Y Y Y 3 Y Y Y Y 3 3 3 3 3 3 Y Y Y 3 3 3 3 3 Y Y Y 5 5 Y 9 Y 9 $ ; Y Y Y 9 3 3 9 Y Y 3 3 Y Y ; 3 3 Y 3 3 Y Y Y Y 9 9 9 9 9 3 3 9 Y 3 Y Y 9 Y Y Y 3 Y P.9 Y 3 3 3 Y Y 9 Y Y Y Y Y Y Y Y Y 3 3 9 3 Y b.Y , Y 9 3 Y Y b.Y Y P.P.Y c.Y Y Y Y Y Y Y Y Y 9 9 Y 3 3 Y b.Y 5 5 5 6 3 Y 3 3 9 Y 5 5 Y Y Y 3 Y Y Y 9 5 3 9 Y Y Y Y Y Y Y 5 Y 3 3 3 Y 3 3 Y Y Y Y 9 9 b.Y 5 P.9 Y Y Y Y Y 3 3 Y 9 9 3 9 9 Y Y Y Y Y Y Y Y Y Y Y Y b.Y Y Y Y Y 9 3 3 3 3 9 3 3 9 Y Y Y ; 5 Y 3 3 Y 3 3 3 Y Y 3 3 3 3 3 Y 3 9 Y 3 3 3 3 9 3 9 9 9 Y 9 3 Y Y Y ",
"Y Y 5 Y Y Y Y 3 c.6 6 5 6 6 Y Y 9 Y 3 3 3 3 Y Y 5 Y Y 3 Y 9 Y 3 , 5 3 , 3 Y Y 9 Y 9 3 9 3 3 Y 5 3 3 3 3 3 3 Y Y 9 9 9 Y 9 3 Y 9 Y 9 3 9 Y 9 Y Y 3 Y b.Y Y Y Y Y Y 9 Y Y Y Y Y Y Y Y Y 9 9 3 3 Y Y b.; 3 c.9 9 Y Y Y Y P.P.P.b.Y Y 5 Y Y Y Y 9 9 Y 9 9 Y 9 9 Y Y Y 3 Y Y Y Y 9 3 9 3 Y Y 5 Y Y 3 3 Y Y Y Y Y Y 9 7 Y Y Y Y Y 3 3 6 6 Y 3 Y Y 3 9 3 5 Y 9 9 Y Y Y Y 3 Y Y Y Y 9 9 3 Y Y Y Y 9 Y 9 9 Y Y Y Y Y Y Y Y Y Y Y Y 9 Y Y Y Y 5 3 Y Y 3 Y Y 9 Y Y Y 9 3 Y 3 3 Y Y 6 3 3 3 Y 5 3 3 Y 3 9 b.9 Y Y Y 3 3 Y 3 3 5 9 3 3 9 9 b.",
"Y Y 3 2 3 3 Y ; $ 5 3 3 Y Y Y Y 3 Y Y 3 3 3 9 Y 5 Y Y 5 Y Y 9 3 3 Y Y 3 3 Y 9 3 9 9 Y Y 3 3 Y 9 Y 6 Y Y 6 6 Y Y Y Y Y Y 9 Y Y Y Y 9 Y 9 Y Y Y Y Y Y Y 9 ; 3 3 Y 9 Y Y 9 Y Y P.P.c.Y Y Y Y Y 3 Y Y Y ; Y P.P.Y Y 9 Y Y b.b.P.P.Y c.Y Y Y Y 9 3 3 Y Y Y Y Y Y Y Y Y Y Y Y Y Y 3 3 Y Y 5 Y Y 3 Y Y 3 9 Y 9 9 b.Y 3 Y Y Y Y b.Y Y c.3 Y Y 6 Y 6 6 3 9 Y Y 9 9 9 9 Y Y Y Y 9 Y Y 9 Y 3 3 Y Y 3 Y 9 Y Y 9 Y 3 5 Y 6 Y Y Y Y Y 9 3 Y 9 9 Y 9 9 9 9 3 3 Y Y Y 3 3 9 3 Y 6 6 5 9 Y 3 3 3 3 3 3 3 3 3 9 Y 9 3 3 Y 3 3 3 9 Y 5 Y 9 3 3 3 9 ",
"Y Y c.P.3 3 3 3 , 3 Y 9 Y 5 Y Y Y Y 9 9 Y Y 3 Y Y Y Y Y 3 , 3 3 Y Y Y Y 9 Y 9 Y Y b.9 3 3 Y Y 3 9 Y Y Y 9 Y Y Y Y Y Y Y Y Y Y Y Y 9 3 9 Y Y 3 Y P.Y c.c.9 3 3 Y 9 9 Y Y Y Y c.b.Y c.Y Y Y Y Y 3 Y 9 Y b.b.b.c.Y Y Y Y Y Y Y 6 P.b.3 Y Y 9 3 9 Y Y Y Y Y Y Y Y Y Y Y 6 3 Y Y 3 9 Y Y 9 Y Y 9 Y Y Y 9 5 Y Y 9 3 Y Y Y Y 3 9 Y 3 Y Y 3 3 3 3 Y Y Y Y Y 9 9 3 Y b.Y Y Y Y Y Y Y Y 3 3 3 Y Y 9 9 9 9 9 9 9 3 3 Y Y Y Y 9 9 9 Y b.Y Y Y Y Y 9 Y 9 Y Y Y 3 9 9 3 ; Y Y 3 9 3 3 Y 9 3 3 3 3 3 3 Y Y 3 9 5 3 3 3 3 , 3 9 3 3 Y 9 9 3 3 Y ",
"Y Y 9 Y 3 5 Y Y Y Y b.Y c.Y 3 Y Y Y Y Y Y Y 9 Y Y Y Y Y 9 3 3 Y 3 3 Y Y Y Y Y Y 9 Y Y Y c.Y Y Y 3 Y Y 9 9 9 3 Y Y Y Y Y 9 3 Y Y 3 Y 9 5 9 Y Y Y Y Y Y 3 9 Y 3 3 3 3 Y Y 3 Y Y 3 Y Y Y Y Y Y Y Y Y Y Y P.b.Y Y Y Y 5 Y Y Y Y c.Y Y 3 Y 9 Y 3 Y Y 9 Y 7 Y Y Y Y Y Y 9 Y Y Y Y 9 3 Y Y Y Y Y Y Y 9 9 Y Y Y Y Y Y 3 Y Y Y Y 3 Y Y 3 9 Y 6 Y 3 3 Y Y 9 Y 9 3 9 9 Y Y b.Y 9 5 Y Y Y Y 3 9 Y Y Y Y Y Y Y Y 3 3 3 Y 6 Y Y Y Y Y Y Y Y Y Y Y Y 9 Y Y Y Y Y 3 Y 3 3 ; 9 Y 3 3 9 3 3 , 3 3 9 3 3 Y Y 9 9 Y 9 Y 3 3 3 Y Y 9 9 9 3 9 Y 9 Y Y ",
"Y 3 9 3 3 3 Y 5 9 Y Y Y Y Y Y 3 Y Y Y Y Y Y Y ; 3 9 Y 9 3 Y b.3 3 Y Y Y P.Y Y Y 3 3 Y P.b.Y Y P.9 9 Y 9 5 9 3 Y Y Y Y 9 Y 3 3 9 3 Y Y 3 Y Y Y Y Y Y 9 9 Y Y 3 3 9 3 9 Y Y Y Y Y Y Y Y Y Y Y Y b.Y Y Y Y Y b.Y Y 9 3 Y Y Y Y c.Y P.Y 9 Y 9 9 Y Y 9 Y Y Y Y 9 3 Y Y 9 9 Y 3 3 Y Y Y Y Y Y 9 9 Y Y 9 3 Y Y 3 Y Y Y Y Y Y Y 3 Y Y Y Y 3 3 3 Y Y 3 3 9 Y 9 9 3 9 Y Y Y Y 3 5 Y Y Y Y Y 9 Y Y Y Y Y Y Y Y 6 6 5 Y Y 5 9 Y Y Y Y 9 9 Y Y Y Y Y Y Y Y Y Y Y Y 9 3 Y 9 9 3 3 Y 3 3 , 3 3 3 3 Y 3 9 3 9 3 Y Y Y Y 9 Y 9 9 3 9 Y Y Y Y Y Y ",
"9 Y Y 9 3 3 Y Y Y Y Y b.Y Y Y 9 Y Y P.Y 9 Y Y 9 3 Y Y Y 3 3 Y 9 3 Y Y 9 9 9 9 9 Y 9 Y Y Y Y Y P.Y 3 9 9 Y Y Y 9 Y Y Y Y Y 9 3 3 3 9 Y 3 Y Y 9 Y Y Y 9 3 3 9 Y Y 9 Y Y Y Y b.Y P.Y Y Y Y Y Y Y Y Y c.Y Y 9 Y b.Y Y Y Y Y Y 5 Y Y Y Y 9 9 3 Y Y Y 9 9 Y Y Y Y Y 5 Y 9 9 Y Y Y Y P.5 Y Y 9 Y Y Y Y Y 9 9 Y 3 Y Y Y Y Y P.Y 7 3 3 9 3 5 3 3 Y Y 5 3 3 3 3 , 3 Y 9 Y c.b.Y Y Y Y Y Y Y 9 9 9 5 Y Y Y Y 3 Y Y Y Y Y P.Y 3 9 Y Y Y Y Y Y Y Y Y Y Y Y Y b.Y Y Y Y Y Y 9 3 3 3 3 9 9 3 3 3 Y Y Y 9 3 9 9 Y Y Y Y Y Y Y 3 3 9 Y Y Y Y 9 Y ",
"9 Y 3 9 Y Y Y Y Y Y 3 3 Y Y Y Y Y Y Y b.Y 9 9 5 3 , 3 3 3 3 9 Y 5 Y 9 9 9 Y Y 3 Y Y Y Y Y Y 9 Y Y 9 9 Y Y Y Y Y Y 9 Y Y 9 Y Y Y Y Y Y Y Y 9 9 Y Y Y Y Y Y 9 Y 9 3 9 3 3 3 Y Y 9 Y b.Y 9 Y Y Y Y Y Y Y 9 Y Y Y Y Y Y 5 5 Y Y Y Y 9 Y P.9 3 Y Y 9 9 9 9 Y Y 9 3 Y Y Y 9 Y 9 9 Y Y Y Y Y Y Y Y Y 9 Y 9 3 9 Y Y Y Y Y Y Y Y Y 3 3 3 3 9 3 3 3 Y 5 9 3 3 3 3 , 3 Y Y Y c.Y Y Y Y Y Y Y Y b.Y Y 9 3 3 9 Y Y Y 3 3 Y 3 Y 9 9 Y 9 9 9 9 9 Y Y Y Y Y Y Y Y b.Y 9 , Y 9 3 3 3 Y 3 3 Y 3 3 Y Y 9 Y Y 9 Y 3 3 Y Y 3 Y Y Y Y Y 9 Y Y Y Y Y P.",
"3 Y 3 Y Y Y Y Y Y Y Y 9 Y Y Y 9 Y Y 3 Y 9 P.9 9 9 ; 3 3 3 Y 3 Y Y 3 Y Y Y 3 3 9 5 3 Y 3 3 3 9 3 Y Y Y Y Y Y 9 9 9 Y Y 5 3 Y Y Y 9 Y Y Y Y Y Y Y P.Y Y Y b.Y Y Y 9 3 Y 3 3 Y Y Y Y Y Y 9 b.Y Y Y Y 9 Y Y Y 9 9 3 3 Y Y 3 6 Y Y Y Y Y P.Y Y 9 5 9 5 3 9 Y Y Y Y Y Y Y Y 9 Y 9 5 5 5 Y Y 9 Y Y Y 3 9 Y Y 5 Y Y Y Y 5 5 3 Y Y Y Y 3 Y 3 3 3 3 Y Y Y Y Y 9 3 3 3 Y Y Y Y Y Y Y Y Y Y Y Y P.Y 3 Y 3 3 Y Y Y Y Y Y 3 3 9 9 Y Y Y Y w.Y 7 Y Y Y Y 9 Y Y Y c.Y 9 ; P.Y Y 3 3 9 5 3 Y 7 Y Y 9 9 Y Y Y 3 Y 5 3 Y Y Y 3 Y 9 Y 9 P.3 3 Y Y P.",
"3 Y Y Y Y Y 9 3 Y Y Y Y Y Y Y Y 9 9 9 Y Y Y 3 Y 9 3 3 3 3 3 3 Y 3 3 3 Y Y 9 ; 3 3 3 Y P.Y 9 Y 9 9 Y Y 9 Y 9 3 3 Y Y 6 5 5 3 3 9 Y Y Y Y Y Y 9 Y Y Y Y Y Y Y Y Y Y Y Y Y Y Y Y Y Y Y Y Y b.Y Y Y Y Y Y Y Y Y Y Y Y Y Y Y Y Y Y Y Y P.Y Y P.b.Y Y 3 Y Y 9 Y Y Y Y 7 Y 7 7 Y Y 6 5 6 3 5 Y Y Y ; Y Y 6 Y Y Y Y Y 9 9 9 Y Y Y Y Y Y 9 Y 3 3 Y Y 9 Y Y Y Y 3 3 6 6 3 5 Y Y Y 3 9 Y Y b.Y b.Y 9 9 3 Y Y Y Y Y Y 9 3 3 Y 9 9 b.Y 9 b.Y Y Y Y Y Y 9 Y 9 3 9 Y Y 3 b.Y 3 3 3 3 3 7 Y Y Y 7 7 9 7 Y 3 3 3 9 3 Y Y Y Y Y 3 3 Y 9 9 3 Y Y b.",
"9 Y 9 Y 3 3 9 9 9 9 Y Y Y Y Y Y Y 3 Y Y Y 3 9 3 3 9 Y 3 3 6 Y 3 6 3 3 3 Y Y Y 3 3 3 Y Y b.3 Y Y Y Y Y 9 9 Y Y 3 3 5 5 3 5 3 9 Y Y b.Y 9 Y Y Y c.Y Y Y Y Y Y Y Y Y Y Y Y Y Y Y Y Y Y Y Y Y 9 Y 9 Y b.Y Y Y Y Y Y Y Y Y Y Y Y Y Y Y Y Y b.b.P.P.c.Y b.Y Y Y Y Y Y 3 3 7 7 Y Y 5 Y Y 6 Y Y Y Y Y Y Y Y Y Y Y Y Y Y Y Y Y Y Y 3 3 9 3 Y 9 3 9 Y 3 Y Y 9 Y Y 5 Y 6 5 Y 3 3 9 3 Y Y Y Y Y Y P.Y Y 9 Y Y Y Y Y Y Y Y 3 3 3 Y Y Y 3 9 Y 9 Y Y Y Y 9 Y Y Y Y 9 9 9 9 Y Y Y Y Y 9 3 3 Y Y Y Y 9 9 9 3 3 3 3 3 9 , 3 Y Y 3 Y Y Y Y Y Y Y P.",
"Y Y Y 9 Y 9 9 Y 9 Y Y Y b.b.Y Y Y 3 3 Y Y 3 Y 3 3 9 9 Y Y Y 3 3 3 3 5 Y 3 Y Y 3 3 Y Y 3 3 9 3 9 9 Y 3 Y Y 3 Y Y 3 Y 5 3 5 Y 9 Y Y Y Y Y Y 9 Y Y 9 Y Y Y Y 3 3 9 Y Y 7 5 6 6 Y Y Y Y Y Y Y 9 9 Y Y Y Y Y Y 3 Y Y 9 Y Y Y 6 Y Y Y Y Y Y c.P.Y Y Y Y Y Y Y Y Y Y 9 3 3 Y 7 3 Y Y 5 Y Y 6 3 5 3 3 Y Y Y 5 6 Y 6 Y Y Y Y Y Y Y Y 3 3 P.Y Y 3 3 3 3 Y 9 Y 6 Y 3 3 6 3 3 Y Y 3 3 Y 9 3 Y Y 3 Y 9 3 Y Y Y Y Y Y Y Y b.b.Y Y b.Y 9 3 7 Y 9 Y Y Y Y Y Y Y b.Y Y Y 9 Y Y Y Y 9 Y Y 3 ; 3 Y w.Y 3 3 3 9 3 3 3 3 3 9 3 9 3 9 Y Y Y Y 9 Y Y Y ",
"5 Y b.9 9 P.9 9 9 Y Y Y Y Y Y Y Y Y 9 Y 3 3 9 5 3 3 3 6 3 6 3 2 3 3 3 b.Y 3 Y 3 ; Y Y 9 5 Y Y Y 3 9 5 5 P.Y 3 Y Y c.Y Y 6 3 Y 3 9 Y Y Y Y 3 3 9 Y Y 9 Y 9 3 Y 9 3 9 Y Y 3 6 3 6 5 Y Y Y Y 3 3 Y Y Y Y Y 3 > 9 Y 9 5 Y 3 3 6 Y Y Y c.b.P.P.Y 9 Y Y Y Y Y Y Y Y Y Y Y Y Y 3 Y Y Y 6 Y Y 3 9 Y Y Y Y 3 6 6 3 Y 9 Y Y 9 Y Y Y 3 3 9 Y Y Y 3 3 3 9 6 5 Y 3 Y 6 Y Y 3 3 5 3 3 Y 3 Y Y 3 3 3 3 3 Y b.w.Y Y b.Y b.Y P.c.Y P.b.P.Y Y 7 9 9 3 3 3 Y 9 9 Y Y Y Y 9 Y Y b.Y Y 9 Y P.Y 3 8 3 1 3 Y Y 3 3 3 3 3 3 9 9 9 9 3 Y Y Y Y 9 Y 3 Y P.",
"Y 9 Y Y Y c.Y Y Y Y Y Y 3 9 Y Y b.Y Y Y Y ; 3 Y 3 3 3 5 6 3 3 Y 3 5 9 9 3 Y Y 3 , 9 Y Y 9 , 3 3 3 Y Y Y Y 9 Y b.Y Y V.Y Y 3 9 Y 3 Y Y Y Y Y Y Y Y Y 9 Y Y 9 Y 9 3 3 Y Y Y 3 Y Y Y Y 9 9 3 3 3 9 Y Y P.Y 3 9 3 Y Y 3 Y Y 6 6 6 5 Y Y Y Y Y Y Y Y Y Y c.b.Y Y Y Y Y P.w.Y 3 8 Y 5 6 3 Y Y 9 Y Y Y Y 5 3 6 5 Y Y Y 9 Y Y Y 9 3 3 9 3 9 Y 3 Y Y Y 6 3 Y Y Y Y Y 6 Y 3 3 3 9 3 3 3 Y 9 9 5 3 Y b.Y Y Y Y Y 9 Y b.Y Y b.b.P.P.Y w.Y 9 9 9 9 9 Y 9 9 Y Y Y Y 9 Y b.b.Y 3 Y Y Y Y Y 7 3 3 3 3 Y 9 3 3 3 3 3 Y 3 3 Y 3 9 5 3 Y Y Y Y Y P.",
"6 3 Y Y V.Y Y Y Y 3 3 Y Y 8 3 3 3 6 Y Y 3 3 3 3 3 3 Y 3 3 3 6 Y 3 3 9 3 Y 9 , 3 Y Y Y Y 3 Y Y 3 Y 9 Y Y 3 9 Y Y Y Y Y b.9 Y 3 Y 9 3 Y Y Y 9 3 9 Y c.Y 5 Y 3 3 9 Y Y Y Y Y 3 3 3 Y 5 3 Y 3 3 3 3 6 Y V.3 3 Y 9 9 9 9 Y Y 6 3 5 Y Y Y Y Y Y Y Y Y 9 Y c.Y Y Y Y 6 Y P.P.Y Y Y 9 Y Y 9 3 3 Y 3 6 Y Y 3 3 5 Y Y 9 Y 9 9 Y 3 3 ; 3 3 Y 9 Y 9 Y 9 Y Y 5 6 6 6 Y 3 3 6 3 ; ; 3 Y 3 3 3 6 6 5 ; Y Y Y P.Y 9 9 9 9 Y Y b.b.b.P.P.P.c.Y Y Y 9 3 9 9 5 Y Y b.Y Y 3 Y Y Y Y 9 3 Y Y Y Y Y 9 3 , 3 Y Y 9 3 3 9 3 Y 3 3 Y 3 3 9 , 3 , 3 3 9 b.",
"Y Y Y 3 3 Y Y Y 9 3 3 3 Y 3 3 3 3 3 5 5 6 Y 3 ; 3 ; 3 Y 3 3 6 3 Y Y Y 9 Y 3 , 3 3 3 3 Y 9 Y Y b.b.Y c.Y Y Y Y Y Y Y Y Y b.Y Y Y Y Y b.Y Y Y 9 9 Y c.5 Y Y Y 3 9 9 Y Y Y Y 3 3 3 5 3 9 3 3 9 Y Y Y 3 Y 3 Y Y Y Y Y Y Y Y 6 3 3 Y Y Y Y Y V.Y Y b.Y Y 5 Y Y Y Y Y Y Y P.P.Y Y 3 Y 9 9 3 Y Y 3 3 Y Y 5 5 Y Y Y Y 9 Y Y 3 3 3 3 ; 3 Y 3 Y Y Y Y Y 5 3 3 Y 3 Y 6 3 6 5 3 3 3 4 3 3 3 Y 5 3 3 3 3 Y b.c.9 9 9 9 Y Y P.P.b.P.P.P.b.Y w.b.Y Y 9 3 Y Y Y P.P.Y Y b.Y Y Y Y 3 9 9 Y Y 3 Y 3 , 3 Y Y Y 3 3 9 3 Y Y Y Y Y 3 3 3 3 3 Y 3 3 Y ",
"5 Y Y 3 Y Y Y Y Y 3 3 3 8 Y 3 ; ; 3 3 3 Y 6 3 Y 9 Y 3 3 3 3 3 Y 5 Y 3 5 Y 3 9 Y Y 3 3 5 Y 3 3 Y Y c.b.Y Y Y Y 3 Y Y Y 9 Y b.Y Y b.P.P.P.Y P.|.b.P.Y Y Y 3 3 9 9 3 3 3 3 3 5 6 3 3 3 9 9 3 3 Y Y 5 Y V.5 Y Y Y Y Y Y Y Y 5 Y Y Y Y Y Y Y Y 9 Y b.b.b.c.Y Y Y Y c.Y Y Y Y Y Y 3 Y 3 9 Y 3 3 5 3 6 Y Y Y Y Y Y Y 3 3 3 Y Y 3 Y Y 3 Y 9 3 9 5 Y Y 3 Y 3 3 3 Y 3 3 Y Y 6 Y 4 3 3 3 3 6 3 6 5 3 3 Y P.Y 3 9 3 Y Y b.P.P.P.P.P.c.c.b.b.P.P.P.Y 9 Y c.Y b.b.P.c.P.c.Y Y P.Y 3 Y 3 3 9 Y 3 Y Y 9 3 Y 3 3 3 Y 3 9 Y Y 3 Y Y 3 3 3 9 Y Y P.",
"Y Y Y Y Y 3 9 Y Y 3 Y 4 Y Y ; 3 3 3 3 Y 6 Y Y Y 3 3 9 3 3 3 6 Y 3 3 Y Y Y Y 9 Y 5 3 Y 3 Y Y 5 3 ; Y Y c.Y Y Y 3 P.Y Y 9 c.c.Y Y b..XP.P.b.P.P.b.b.3 3 > Y 3 3 Y 9 3 3 3 3 3 3 3 3 3 3 9 9 3 Y Y 6 Y Y Y Y Y Y Y Y Y Y Y Y Y 5 Y 5 Y Y Y Y Y 9 Y Y Y b.c.Y Y Y Y Y Y Y Y Y Y Y Y Y 5 Y Y Y Y Y 6 Y Y Y 3 5 Y Y Y Y 9 Y b.3 3 Y 3 Y Y 9 9 9 Y Y 6 5 Y 5 Y Y 3 3 3 6 3 8 3 3 3 8 3 3 3 6 3 3 3 Y Y b.Y Y Y Y Y Y P.P.P.Y P.b.P.P.P.P.P.Y Y 9 9 Y Y Y Y Y Y Y Y Y Y b.P.3 Y Y Y Y 5 3 3 Y Y Y 9 9 9 9 Y 3 3 3 Y Y Y Y 3 Y 3 3 3 3 Y ",
"Y Y Y 5 Y 3 3 Y Y Y 9 3 8 8 3 Y 3 3 3 3 3 6 Y 3 3 9 5 9 3 3 Y Y 3 3 Y ; $ 3 9 3 3 Y 5 3 Y Y Y 3 3 3 Y Y Y 9 3 9 3 Y b.9 Y Y Y Y b.P.|.P.|.b.b.b.Y Y 3 ; Y Y Y ; ; 3 9 3 3 ; 3 3 2 3 Y 3 3 Y 3 3 3 Y Y 2 Y b.Y Y Y Y Y Y Y Y Y Y Y Y Y 3 3 Y Y Y Y Y Y Y b.Y Y Y Y Y Y Y Y Y Y Y Y 3 3 Y 6 6 Y 6 3 Y 6 4 Y Y Y 9 3 9 Y b.Y 3 3 9 9 3 Y Y 3 Y Y 3 3 3 Y Y 3 Y Y 3 3 6 3 3 3 3 3 Y Y 3 Y Y 3 9 Y Y Y Y 9 Y Y 3 3 Y Y b.P.Y P.b.Y Y Y V.V.P.Y Y Y c.Y Y Y Y Y Y Y Y Y P.Y Y Y P.Y Y b.b.; 3 Y Y 3 9 9 9 3 Y 9 Y Y 9 Y 3 3 9 9 3 3 Y ",
"Y 6 3 3 > 3 3 c.P.3 3 3 9 3 Y Y Y 3 Y 6 3 3 3 3 9 , 9 3 3 Y Y Y Y 3 3 3 3 Y 7 Y Y Y 6 3 Y Y Y Y Y Y Y Y Y Y , Y 3 b.P.5 9 9 Y Y P.P.P.P.Y b.Y Y Y Y Y c.Y Y Y 3 3 Y 3 3 3 6 Y 3 6 Y 3 Y Y 3 Y Y Y Y Y ; Y Y Y Y Y Y Y 9 Y 5 Y Y 6 3 Y Y Y Y Y Y Y Y 9 Y b.b.Y b.Y P.Y 5 3 Y Y Y Y 3 9 Y Y 3 3 6 Y Y 3 Y Y Y Y Y Y 9 b.9 Y 3 3 3 3 Y Y Y Y Y 9 3 3 3 Y P.P.Y 5 3 3 3 3 3 3 3 3 Y Y 3 5 3 3 3 9 Y Y 9 Y Y Y 3 5 Y P.Y b.Y P.P.Y Y P.Y Y Y Y Y 5 Y c.9 Y Y Y Y Y c.Y Y Y Y Y Y b.Y P.P.3 3 3 , Y Y Y Y Y 9 Y 5 9 9 9 3 , 3 Y 3 Y P.",
"3 Y Y Y Y 5 Y c.Y 9 9 3 Y Y Y Y Y 5 Y Y 3 Y 3 9 3 3 3 3 9 3 3 5 Y Y 9 Y Y Y 9 5 3 3 5 Y Y Y 3 Y Y Y Y Y 3 Y Y Y 9 Y Y Y Y 9 b.Y P.P.b.Y Y Y Y Y Y w.Y Y Y 9 5 3 Y Y 3 6 Y 3 6 Y 3 3 3 Y Y 3 3 Y Y Y Y 3 Y Y Y Y Y Y Y Y Y Y 9 Y 6 Y 6 Y Y 9 Y Y 9 Y Y c.b.b.Y Y V.Y c.3 6 Y Y Y 9 Y 3 9 Y Y Y Y Y Y Y Y Y Y Y Y Y Y Y 7 8 3 3 3 3 3 9 9 Y Y c.6 5 6 Y P.P.3 3 3 3 3 3 3 3 3 3 9 3 6 6 Y 3 3 3 Y Y Y Y Y 9 9 9 Y P.P.b.Y Y P.Y Y Y Y P.Y Y 5 Y Y Y 3 3 Y Y Y b.Y P.Y P.c.Y 3 9 Y Y Y 3 9 9 3 3 Y Y Y Y 3 3 3 Y Y 3 3 Y 3 3 9 9 P.",
"Y Y Y Y Y Y 9 5 9 Y 3 9 Y Y Y 9 3 6 3 3 Y Y 3 3 Y Y Y 9 Y 3 3 Y 5 9 Y 9 Y Y 3 Y Y Y Y Y Y 9 3 Y Y Y Y Y Y 3 Y Y Y Y 5 Y Y Y P.Y Y Y Y 3 3 9 Y Y Y b.Y Y Y Y Y Y 3 Y Y 6 3 6 Y Y 3 3 9 3 3 3 5 5 3 Y Y 3 9 P.Y b.b.Y Y Y Y Y Y Y Y Y 3 3 3 Y Y Y Y Y Y Y Y Y b.Y Y Y c.6 3 Y Y 9 ; Y Y Y Y 5 6 Y Y Y 9 9 3 c.Y Y Y Y Y Y Y Y 3 3 3 Y Y Y Y c.P.3 5 Y 3 Y Y 3 9 3 3 3 3 3 Y 3 Y Y Y Y Y Y Y 9 9 3 9 3 Y Y 9 9 Y P.b.P.P.P.P.Y b.b.Y Y P.P.3 Y Y Y 3 9 3 Y P.Y Y Y b.c.Y P.Y Y 9 Y Y Y 9 3 3 9 9 3 Y Y Y 9 Y 9 Y Y Y 3 9 3 5 Y Y Y ",
"Y Y Y Y Y Y Y Y 3 Y 9 9 Y Y Y Y Y Y Y 3 9 Y 3 5 Y 9 Y Y Y Y 9 Y 3 9 Y 3 Y 9 3 Y Y Y 6 6 Y Y Y 9 Y 3 9 9 9 Y 3 9 9 3 Y P.b.P.P.P.P.Y Y Y Y Y Y Y Y Y Y 9 Y Y Y Y 3 3 3 5 Y 3 3 Y 3 3 3 3 3 9 9 3 3 3 Y Y , P.9 Y Y Y 9 Y Y Y b.Y Y 5 Y Y Y 3 Y Y Y Y c.b.Y b.Y b.P.P.Y Y Y c.Y Y 3 Y Y Y Y Y 3 6 Y Y Y 3 3 Y 9 Y Y Y Y Y 3 3 Y Y Y 3 Y Y 9 Y 9 6 6 3 3 3 Y 3 Y 9 3 3 3 3 Y 3 3 3 3 Y Y Y Y Y Y 3 3 3 Y Y P.Y Y P.P.Y P.P.P.P.b.Y Y Y Y Y Y Y Y Y Y Y c.Y Y 9 Y Y Y Y Y b.Y Y Y 3 Y 9 9 9 9 Y Y 3 Y 9 3 9 Y Y c.Y 3 3 3 9 3 3 9 Y ",
"Y Y Y Y Y Y Y Y Y 3 3 Y 9 Y Y 9 Y Y Y Y Y 6 Y Y 9 Y 9 Y 9 Y Y Y 3 3 3 9 Y Y Y c.Y Y Y 6 Y b.9 Y Y Y Y Y 3 9 Y 3 , 3 P.P.Y 9 Y P.P.Y Y Y Y Y b.Y Y Y Y Y Y Y Y Y 3 3 3 6 3 3 3 3 6 3 , 3 3 Y 3 6 Y 3 6 Y ; P.Y Y Y Y 9 9 Y Y Y Y 5 6 Y Y Y Y Y Y 9 Y Y c.b.Y Y P.P.Y Y c.c.P.Y Y Y Y Y Y P.P.Y Y Y Y Y 5 3 3 9 3 Y 9 3 Y 4 4 Y Y 3 3 3 9 Y Y 9 Y 6 3 5 P.P.Y 3 Y Y 3 3 3 3 3 3 3 6 6 3 Y Y Y Y 9 9 3 9 9 Y c.Y Y Y Y Y Y P.P.P.P.b.Y Y Y Y Y Y Y Y Y Y Y b.c.Y Y Y Y b.P.Y 3 9 Y Y 3 3 Y 9 9 Y 3 9 3 Y Y Y 3 9 3 3 9 Y Y 9 9 3 Y ",
"5 3 3 Y Y Y Y Y 3 3 5 9 9 Y 9 9 Y Y Y Y Y Y 3 3 Y Y Y 3 Y 9 9 9 3 3 9 Y 9 Y Y Y 3 3 Y Y P.Y Y b.3 Y b.Y Y Y 9 Y Y P.P.Y Y Y Y Y Y Y Y Y Y Y Y Y Y Y Y 9 9 9 Y Y 3 3 6 6 6 3 3 2 3 ; 3 Y 3 3 3 3 Y 3 3 Y ; Y P.Y Y Y Y 5 3 3 9 3 3 6 Y Y Y Y Y Y 3 Y Y Y Y Y Y P.V.Y Y Y Y Y Y 3 Y Y c.Y Y Y Y Y Y 9 Y Y 3 Y 3 Y Y 9 , 3 8 Y 4 Y 4 Y 3 9 Y Y Y 3 Y Y 6 P.P.9 3 9 9 Y 3 3 3 3 Y 9 Y 6 3 3 Y Y Y Y Y 3 3 3 9 9 9 Y Y b.P.b.P.P.P.P.Y Y Y Y 3 ; V.Y Y 5 Y c.9 Y Y Y Y Y 3 Y Y 3 3 Y 3 9 3 3 9 9 9 3 Y 3 9 3 9 Y 3 Y 9 3 9 3 9 9 3 Y ",
"Y Y 3 3 9 Y Y Y Y 3 9 c.Y Y Y Y Y Y P.P.Y 3 , $ 3 b.Y Y Y Y Y 3 Y b.Y Y Y Y 9 3 3 Y Y Y 9 Y Y Y b.Y 9 9 9 Y P.P.Y P.Y Y Y Y Y c.b.Y Y Y Y b.Y Y Y Y b.Y 9 Y Y Y 4 8 3 3 8 4 3 Y 3 3 3 9 Y Y ; 3 Y 3 3 6 ; Y Y Y Y b.3 3 Y , 3 3 5 9 Y Y 3 Y 9 9 Y 9 Y Y P.b.Y Y Y Y Y Y Y Y Y Y Y Y Y Y Y b.P.9 9 Y Y Y Y 3 5 Y Y c.3 3 Y Y 4 4 Y Y Y 5 6 Y Y 6 Y 6 3 3 Y Y 5 3 3 Y Y 9 9 9 Y Y 6 3 6 6 Y Y 9 5 9 3 3 3 3 3 3 Y Y Y Y Y Y Y P.b.Y Y Y Y 3 Y P.Y b.3 b.c.Y b.Y Y Y Y 3 , Y 3 Y 9 3 Y 3 3 Y Y Y 9 9 3 9 3 3 9 Y Y Y 3 9 9 Y 9 9 Y ",
"Y 5 9 3 3 Y Y Y Y Y Y Y Y Y Y Y Y 5 Y Y Y Y Y 9 3 Y Y Y Y Y b.9 9 9 9 Y Y Y Y Y Y Y b.c.Y 9 Y Y P.Y 3 Y Y P.b.Y P.Y Y Y Y Y P.Y 3 Y Y Y Y 9 Y Y Y Y b.Y 5 3 Y 3 4 Y 3 3 3 3 3 Y 3 Y Y 3 3 3 3 3 Y 3 6 3 3 Y 3 3 b.Y 5 Y 3 3 9 9 3 5 Y Y Y Y Y Y Y Y 9 Y P.b.Y Y Y Y Y 3 Y Y Y Y Y Y Y Y 9 Y Y Y Y Y Y 3 Y Y Y Y 3 5 Y Y Y 4 Y 3 4 3 Y Y Y 6 3 3 3 6 3 3 3 Y 3 Y P.5 Y Y b.Y P.Y 6 Y 3 6 6 Y 9 9 3 9 9 Y 5 6 Y Y Y Y Y c.b.c.c.c.Y Y Y Y Y b.P.c.Y Y Y Y c.Y Y Y Y Y 3 3 Y 9 Y Y 5 3 3 3 Y Y Y 9 3 3 9 3 Y Y 3 9 Y Y 9 9 3 3 Y Y ",
"Y Y 3 3 3 Y Y Y Y Y b.Y 3 Y b.3 Y 9 9 Y Y 9 Y Y Y 3 3 Y P.Y 3 Y Y P.Y Y Y Y Y b.Y Y Y Y Y Y P.Y b.Y Y Y Y P.P.P.P.Y Y 3 3 3 , 9 Y Y Y b.c.b.Y Y Y Y Y Y 9 Y Y 3 8 Y Y 8 4 8 3 Y Y Y Y ; ; 3 3 3 3 Y Y ; 3 3 3 3 Y Y 3 Y 9 9 Y 3 5 Y Y Y Y Y 9 Y 9 Y Y Y Y Y 9 b.Y Y Y Y Y Y Y Y Y Y Y b.b.Y 9 b.Y 3 5 Y Y 3 Y Y 3 5 P.Y Y Y 4 Y 3 Y Y Y Y Y 3 3 3 6 Y Y 6 3 3 3 Y Y P.Y Y Y Y Y 3 Y 3 Y Y P.Y Y Y Y 9 Y 6 3 Y Y Y 9 Y b.P.b.Y b.Y Y c.Y 9 P.Y 3 3 3 Y Y Y Y Y Y 9 9 9 Y b.Y 3 9 Y Y 3 3 9 3 3 3 9 3 3 3 3 Y Y Y .XY Y Y 3 3 3 Y ",
"9 9 3 3 Y Y Y Y Y Y 9 Y Y 5 Y Y P.Y 3 c.Y 3 3 3 3 Y 3 , Y Y Y Y Y P.Y Y b.Y Y Y Y Y Y Y 9 c.P.Y Y Y Y Y 9 3 Y Y Y Y b.Y 9 3 3 Y Y Y 3 Y b.P.c.Y Y 9 Y Y Y Y Y Y Y 4 3 3 3 3 8 3 4 Y 3 3 9 9 Y Y 3 Y c.3 3 Y 3 3 9 Y Y , 3 Y Y 3 9 Y Y Y 3 9 3 9 5 9 Y Y Y b.Y Y c.Y Y Y 9 Y Y Y Y 9 Y 3 , Y 3 Y Y c.Y Y Y 3 Y 3 3 Y Y ; 3 Y 3 4 Y 3 3 Y Y Y Y 6 3 3 3 3 3 3 3 3 Y Y Y b.9 Y Y Y Y 3 Y Y 5 Y Y Y Y Y b.Y 5 Y Y Y Y Y Y Y Y Y Y Y Y Y b.c.3 Y Y Y Y 3 5 Y Y 9 Y 9 Y Y 3 9 b.Y Y 3 Y Y Y 3 3 Y Y 3 9 3 5 3 3 Y Y Y P.P.Y Y Y Y Y Y ",
"9 9 3 9 Y Y Y 9 Y Y Y Y Y Y Y b.b.P.Y Y 3 3 3 ; 3 3 3 5 9 Y P.Y 9 9 Y Y Y Y Y 3 Y 9 c.Y Y Y Y Y Y Y Y 9 9 Y Y Y Y Y b.Y c.Y c.c.b.b.Y Y Y b.b.c.Y Y Y 3 3 Y Y Y Y 3 1 3 4 3 3 Y 3 3 3 9 3 9 3 3 5 Y P.3 3 Y 3 3 3 3 9 3 3 3 3 3 Y Y 3 Y Y Y Y Y Y Y Y Y Y Y Y b.b.Y Y Y b.Y Y Y 3 3 3 b.b.Y 3 9 3 Y Y Y Y 3 Y 3 3 3 6 Y 8 Y Y 3 Y Y Y 3 6 Y 6 Y 3 3 3 6 6 Y 3 6 Y 3 3 7 9 Y Y Y Y Y Y 5 3 Y Y 3 9 5 3 Y 6 Y Y 6 9 c.Y Y Y Y Y 3 Y P.Y Y 3 3 Y Y 9 3 Y Y Y 3 Y Y Y Y 3 3 P.c.Y Y 9 5 9 Y Y 9 Y 3 3 Y Y 9 Y 9 3 9 9 b.b.Y Y Y Y b.",
"Y 3 Y Y Y Y Y Y Y Y Y Y Y Y Y b.Y Y Y Y Y Y 7 , 3 3 3 Y 3 , 3 7 3 Y 9 3 Y 9 Y 9 Y Y b.b.Y Y 3 Y Y Y 3 9 9 Y Y 5 3 Y Y Y Y Y Y c.P.P.P.P.Y b.c.Y c.c.Y Y Y Y Y Y 3 3 4 3 3 3 3 3 Y 3 3 Y 5 3 5 3 5 3 9 3 ; Y Y Y 3 3 Y Y Y 3 3 7 3 3 3 Y Y Y Y Y Y Y c.Y Y Y Y Y b.c.Y Y Y Y Y Y 5 3 3 c.Y 9 , 9 Y 9 Y Y Y Y 6 6 5 3 3 Y Y Y Y Y 4 3 Y Y 3 6 4 3 3 Y 3 3 3 Y 3 6 3 3 3 3 3 9 Y Y Y 3 Y 3 Y Y 3 3 Y P.3 3 Y Y Y Y 3 3 9 Y Y 3 3 Y 3 Y 3 3 3 9 b.Y 3 Y Y Y 9 3 Y Y Y Y 9 Y Y Y Y Y 5 3 3 3 5 Y Y Y 9 Y Y Y Y 3 3 3 3 Y Y 3 Y Y 9 b.",
"b.Y b.Y Y 9 3 9 Y Y Y 3 3 9 3 Y Y Y Y 9 Y Y Y 3 8 3 3 3 : : Y Y Y Y 3 3 Y Y c.Y 3 3 Y Y 9 b.b.Y Y 9 Y 9 Y Y Y Y Y Y b.Y Y b.Y Y P.Y 9 P.Y b.Y b.P.c.Y Y 3 Y Y 3 3 3 3 Y 3 3 3 3 9 Y Y 3 3 3 3 9 3 7 9 9 ; Y Y Y 9 3 3 3 3 9 3 3 3 4 3 3 Y b.9 9 Y Y Y Y Y Y Y Y Y Y Y Y Y Y b.Y Y Y Y 3 3 Y 3 Y 9 9 9 Y Y 5 3 3 3 3 3 Y 3 Y 4 3 ; ; 4 4 Y 8 3 3 4 Y 4 3 4 8 4 3 4 3 Y Y 3 P.5 9 7 7 7 3 Y P.9 3 b.9 3 Y Y Y Y Y Y Y P.Y Y Y Y Y 3 Y Y 3 3 3 b.b.3 b.Y Y 3 Y 9 Y 3 3 Y 9 9 9 Y Y Y 5 5 Y Y Y Y 9 9 3 3 9 3 Y Y 9 3 9 Y 9 Y Y 3 Y ",
"Y Y Y Y Y Y Y Y Y Y Y 5 c.Y Y Y Y Y Y 5 3 3 3 3 3 1 3 3 3 3 3 7 Y Y 9 Y 9 Y b.P.b.Y 3 Y P.b.Y Y Y Y Y Y Y Y Y Y Y c.P.Y b.b.Y b.b.b.b.Y P.Y P.5 Y P.Y Y Y Y Y Y Y 6 3 Y Y 3 3 3 3 5 Y Y 6 Y 3 3 3 9 5 3 ; Y Y Y Y Y Y Y Y 9 3 3 3 3 Y 4 Y Y Y 9 Y Y Y Y Y 9 Y b.Y Y Y Y Y c.Y Y Y Y Y Y Y Y Y 9 5 3 9 Y Y 9 Y Y 5 5 Y Y 8 3 3 3 3 3 3 8 Y 4 3 8 4 4 Y 4 Y Y 8 1 3 3 3 Y 3 Y Y Y 7 Y 3 Y Y 3 Y 9 3 3 Y Y 9 Y Y Y Y Y Y Y Y Y Y Y 3 5 Y 3 9 3 Y Y 3 9 Y Y 9 Y Y Y 3 9 3 3 Y Y Y Y Y Y Y Y Y 6 3 3 3 3 3 3 Y Y Y Y 3 9 3 3 3 3 3 Y ",
"Y Y 3 3 Y Y Y Y b.Y c.c.c.b.P.c.Y Y Y Y Y 3 3 3 ; ; ; ; 3 Y Y Y Y Y 9 9 Y 3 3 P.P.Y Y Y c.Y Y 3 3 , Y Y 3 Y Y Y Y Y c.Y Y Y Y Y Y Y c.P.Y Y P.Y 3 3 3 P.Y Y Y Y Y 5 3 3 3 3 3 3 3 3 Y Y Y Y Y Y 3 Y 3 Y ; Y 9 Y Y P.Y Y Y Y 3 3 4 8 3 3 Y Y 9 9 3 9 Y Y Y Y Y Y Y Y Y Y Y Y Y 9 3 3 9 Y Y Y Y Y b.Y Y b.Y 3 Y Y Y Y Y 6 8 3 3 8 3 3 3 Y 3 Y 3 Y 8 3 Y 3 3 3 Y 4 Y 3 3 Y 6 6 6 Y Y 3 3 8 Y 3 3 3 Y Y Y 3 Y Y Y Y Y Y Y Y Y Y Y Y 3 5 Y Y 9 3 Y Y 3 Y Y Y Y Y Y Y Y Y 9 Y Y P.Y Y 9 3 5 3 Y Y 3 Y 9 3 9 9 Y 9 Y Y 3 3 3 3 3 3 3 Y ",
"Y Y 9 3 9 Y Y Y Y Y Y c.Y Y Y Y Y P.P.P.Y 5 P.; ; 3 3 3 3 3 Y Y Y 7 9 9 Y 9 Y Y Y Y Y c.Y 3 Y 3 Y c.3 Y Y Y 9 Y c.c.Y Y w.Y b.Y 9 w.Y Y Y c.P.9 3 3 Y P.6 Y Y Y Y Y Y Y 9 Y 3 Y 9 Y Y 5 3 3 3 Y 9 9 3 Y ; 9 9 9 3 9 3 9 3 3 5 3 3 3 Y 8 8 9 3 3 9 Y Y Y Y Y Y 9 5 3 Y Y Y Y Y Y 9 5 Y Y Y Y Y Y 9 Y Y Y 3 3 Y Y Y 5 5 Y Y Y 8 3 8 8 8 Y 8 Y 3 8 8 8 3 4 3 4 4 3 Y Y 3 Y 6 3 Y 4 3 7 Y 3 3 Y 3 3 Y Y Y Y Y Y Y Y Y Y 3 Y 5 Y Y Y Y 3 Y c.Y Y 3 Y 3 Y Y Y b.Y Y Y 9 3 Y Y c.c.3 9 Y 3 5 5 3 6 3 Y Y 3 3 7 3 Y 9 Y 3 3 3 3 3 , 3 Y ",
"3 3 3 3 Y Y Y Y Y Y Y Y P.Y Y Y Y b.|.P.Y 9 c.3 3 3 ; 4 Y Y Y Y 7 3 P.Y Y Y Y Y Y b.Y Y Y Y Y Y Y Y 9 Y Y Y Y Y Y Y 9 Y Y b.b.Y 9 Y 9 Y b.b.Y b.P.3 6 P.V.Y V.Y Y Y Y Y Y Y Y 5 9 Y 5 Y Y Y 3 3 3 3 7 Y - 3 Y Y 3 , 9 Y 3 9 9 3 3 4 Y 8 3 3 Y 3 3 Y Y Y 9 9 Y Y Y 5 Y Y 5 9 Y Y Y Y Y Y 9 Y Y Y Y Y 9 Y 3 3 Y Y Y 6 3 Y Y 8 Y Y Y 4 8 Y Y Y 4 3 Y Y ; 3 Y 3 3 8 3 3 Y 3 3 6 Y k.Y 3 Y w.8 Y Y Y 3 3 Y 3 b.Y 3 3 9 Y Y Y Y Y Y 6 Y Y Y Y Y Y 5 5 3 Y Y Y Y Y Y 9 Y Y Y Y 3 P.Y Y 9 3 3 3 3 3 6 Y 3 3 , Y 3 3 9 Y 9 3 3 3 3 9 Y Y ",
"5 5 3 3 3 9 9 Y Y Y Y Y Y Y Y Y Y Y c.Y Y Y 3 Y Y d.3 3 3 Y Y 9 Y 3 Y Y Y Y Y Y Y Y Y Y Y Y Y 9 Y Y Y Y Y 3 P.Y Y Y 9 Y Y Y b.9 7 9 Y b.Y Y b.Y Y P.9 Y Y 3 9 Y 9 Y Y Y Y Y Y Y Y 3 Y Y 3 3 3 Y 3 3 Y 3 $ Y Y 9 3 3 Y 3 Y 9 9 Y 3 3 3 ; 3 Y Y 3 3 5 Y 9 Y Y Y Y Y Y Y Y Y Y 9 Y b.Y Y Y Y Y Y 5 Y Y Y 9 Y Y 9 3 Y Y Y 3 7 Y 7 Y 8 3 Y 3 Y 4 4 3 Y Y 3 3 Y 6 Y 3 3 6 Y 5 3 9 b.Y Y 7 7 7 7 Y 8 w.Y Y Y 3 Y b.3 9 3 Y Y Y 6 Y Y Y Y Y Y Y 5 Y Y Y 9 Y Y Y Y 9 Y 9 Y Y Y P.3 Y b.P.3 3 3 3 3 3 7 8 3 3 3 Y Y Y Y 3 3 5 Y 9 3 Y Y Y ",
"3 3 3 3 Y Y Y Y Y Y Y Y Y 9 Y Y 9 Y Y Y Y 3 3 3 3 Y Y 3 3 9 Y Y Y Y 9 Y b.Y Y Y 3 Y P.Y 9 Y P.Y Y Y c.Y Y Y Y Y P.Y Y b.b.b.b.9 Y b.Y Y Y b.b.Y Y P.Y Y P.Y Y 3 3 3 Y Y Y Y Y Y Y Y Y Y 4 4 4 3 3 3 6 2 ; P.Y Y 3 Y 3 3 Y Y 3 Y 3 ; , , 9 3 3 3 5 Y 5 3 3 Y Y Y Y Y Y Y c.Y 9 Y P.c.b.Y Y Y 3 3 Y Y Y 9 Y Y 7 7 Y Y Y 3 Y Y Y 3 w.Y 8 8 Y 8 Y 3 3 3 3 4 3 5 Y Y 6 Y Y Y 3 3 3 7 3 : Y Y 3 7 8 w.Y 3 Y Y Y Y 9 9 3 Y 6 3 5 Y Y c.Y Y Y Y 3 Y Y Y Y Y 9 Y Y 3 9 Y P.Y 9 Y Y Y Y Y 9 3 7 7 7 3 3 3 3 8 3 Y Y 6 4 Y 3 3 3 Y 3 Y Y Y ",
"3 Y Y Y Y Y Y Y Y 9 Y Y Y Y Y Y Y 3 Y Y 6 3 3 3 , 3 Y Y Y 9 Y Y Y Y P.Y P.Y Y Y Y Y Y Y 3 Y Y Y c.Y P.b.Y Y Y c.Y Y 9 b.P.Y b.Y Y Y Y 3 Y Y c.c.Y b.Y 3 Y Y Y Y Y b.3 Y b.Y 9 Y Y Y Y Y 3 3 4 5 3 6 5 3 3 Y Y Y 3 , ; 9 9 Y 3 9 3 3 3 3 9 Y 3 3 3 3 3 Y Y Y Y Y Y Y Y Y Y Y Y Y Y Y Y Y Y Y Y Y 3 Y Y Y Y Y Y 7 Y Y Y Y Y 3 w.3 3 Y 4 Y k.Y Y 4 3 3 3 3 3 3 Y V.Y Y Y 9 3 5 3 3 7 7 7 Y Y Y 7 3 3 3 Y b.Y , Y 9 5 Y Y Y 6 Y P.Y Y Y Y Y 9 Y 3 Y 9 Y b.Y Y Y Y Y Y Y Y Y Y Y Y Y Y 3 3 7 3 1 3 3 3 3 3 3 7 3 Y Y 5 3 3 3 3 Y 3 Y ",
"Y Y 3 Y Y Y Y Y Y Y Y Y Y Y Y Y Y Y Y Y Y 3 9 Y P.Y Y Y Y Y 9 Y b.Y P.Y Y 5 5 c.3 Y P.3 3 3 3 P.c.c.b.P.Y 9 Y c.Y Y 9 b.Y b.b.b.Y Y Y Y c.c.Y Y Y b.Y 3 Y c.Y b.Y Y Y Y Y 3 9 Y Y Y Y Y 4 4 8 6 3 Y 3 3 3 Y Y 3 ; ; Y 9 3 3 3 3 Y 3 , 3 Y Y 3 3 3 3 3 3 Y Y Y P.Y 3 6 3 3 5 Y Y Y Y Y 9 5 3 Y Y 9 9 Y Y Y Y Y 7 Y Y 7 Y Y Y 7 3 ; 3 3 Y 4 Y Y 4 3 < 3 Y 3 3 6 Y Y 3 9 9 5 Y Y 3 3 7 3 Y 7 7 w.8 3 7 7 Y 3 9 Y 9 5 Y 3 Y Y Y Y Y 3 Y Y Y 3 9 9 Y Y Y b.Y Y Y Y Y Y Y Y Y Y Y 9 Y Y 7 3 3 3 Y 7 : 3 3 3 3 3 Y Y Y Y 3 3 3 , 3 9 Y ",
"Y Y 5 5 Y Y Y 9 Y Y Y 3 Y Y Y 3 5 Y Y Y 5 3 3 9 b.b.b.P.Y 9 Y Y P.P.Y Y Y 3 Y Y Y Y b.Y Y Y Y Y c.Y P.P.P.Y Y Y Y Y 3 9 Y Y Y Y Y Y Y Y 9 Y b.9 Y Y 3 Y Y Y P.c.Y Y Y Y Y Y Y Y Y 8 8 8 Y Y Y 5 6 5 5 3 , Y Y 3 , 3 , 9 9 3 , 3 3 3 3 3 Y P.Y V.Y Y 5 9 3 3 Y Y Y Y Y 6 5 5 Y 9 Y Y Y 3 3 3 3 Y Y 9 Y Y Y Y Y 3 3 Y 3 Y 7 7 7 3 3 ; ; Y Y Y Y 3 3 4 3 Y 3 Y 3 3 3 6 3 3 Y 3 3 Y 7 3 7 Y Y 3 Y Y 7 3 3 Y Y 3 Y Y 3 Y Y Y Y Y $ 3 P.Y Y Y 3 Y Y 3 Y Y b.Y Y Y Y Y Y Y Y Y Y Y Y Y Y 3 3 7 7 3 3 3 3 3 3 7 3 3 Y Y 3 3 Y Y Y 3 3 Y ",
"5 Y 5 3 Y c.Y 3 5 3 3 3 Y Y 3 , 3 Y Y Y Y 3 3 9 Y Y 9 Y Y Y Y Y Y Y Y P.Y Y Y 3 Y Y Y Y Y b.Y P.Y Y Y Y Y c.Y Y Y Y Y Y Y Y Y Y 3 Y Y Y Y Y Y 9 Y Y Y b.Y Y Y b.b.c.P.Y Y Y Y Y Y 3 3 3 3 3 9 Y Y 3 3 3 ; 9 Y 3 , Y Y Y 3 Y c.3 7 9 3 3 Y Y c.Y Y Y 5 Y 3 3 Y Y 5 3 Y 5 5 5 9 9 Y Y 9 Y 9 5 9 Y 3 9 Y Y Y Y Y 7 Y 8 Y 3 8 3 Y 3 : 3 3 Y 3 8 Y Y 3 8 Y 8 3 5 6 Y 3 Y 9 5 Y 3 3 Y k.Y 7 Y Y Y Y Y P.Y 7 Y 9 Y Y 3 3 Y 3 Y Y Y 3 Y P.Y Y Y 9 Y 3 Y Y Y b.Y 9 Y Y Y Y Y b.Y Y Y Y Y Y 3 7 Y 3 3 3 7 3 1 3 7 3 3 3 3 3 3 3 3 9 9 7 Y ",
"3 3 3 9 Y Y Y Y 3 3 3 9 Y Y Y Y b.Y Y c.9 Y b.Y Y Y Y Y b.Y Y Y Y P.b.b.Y Y c.Y Y 9 Y Y b.b.{..X{.c.9 9 Y 9 c.Y P.b.9 c.Y Y Y Y Y 9 Y Y b.Y Y 3 Y Y Y Y Y Y Y Y c.c.b.Y 9 Y Y 3 3 Y 9 Y 9 3 3 Y Y 3 3 9 ; 3 9 Y 3 Y b.3 3 Y Y 3 7 Y Y 3 3 b.9 ; Y Y Y Y Y Y Y Y Y Y 3 Y Y 3 9 9 Y Y 9 Y Y Y Y Y 9 9 9 Y Y Y 3 Y 6 Y Y Y 4 8 Y 4 3 3 Y Y 7 9 Y Y Y Y Y Y Y 6 Y 6 3 3 3 3 9 9 Y Y P.Y 7 7 3 9 Y Y P.Y 3 6 Y 6 Y Y 4 3 Y 3 3 Y Y Y Y c.Y Y 5 b.Y Y 9 9 Y Y Y Y Y Y b.b.Y 3 Y 3 3 Y Y Y Y Y 3 Y 3 3 3 1 3 7 8 3 4 3 ; 3 Y 9 3 3 9 Y ",
"Y Y 3 Y 3 3 ; 3 3 8 Y 9 Y Y Y Y Y Y Y Y 9 Y b.Y 9 9 b.Y Y b.b.Y Y P.b.Y Y Y b.P.Y 3 3 Y P..X.X|.b.b.Y Y Y Y Y Y Y Y Y Y Y P.b.Y Y b.Y c.Y 9 9 Y Y Y P.Y Y Y Y Y Y Y Y Y Y Y Y 9 Y Y Y 3 3 9 9 9 Y Y 9 3 3 Y 9 Y Y Y Y 3 3 9 Y 3 3 3 3 Y P.3 ; Y Y 9 Y Y Y Y Y Y 9 5 3 3 3 9 9 3 Y 3 9 9 Y Y Y Y Y Y Y Y Y Y Y Y Y 5 Y Y 8 8 8 3 8 3 3 3 Y Y 9 Y Y Y Y 6 Y Y 6 3 3 6 3 Y Y Y Y Y Y Y P.Y 3 7 9 9 b.Y 5 Y 3 5 Y 6 Y 3 8 Y 3 3 3 9 b.Y Y Y 3 Y Y P.P.Y 9 Y Y 9 9 Y Y Y 3 9 Y , 3 Y Y Y 9 Y Y Y Y 3 1 3 3 3 7 Y ; ; ; 3 3 Y 9 9 Y Y ",
"3 Y 3 Y Y Y Y 3 3 Y 8 Y Y Y Y Y Y Y b.Y Y b.Y 9 Y Y Y Y Y P.Y Y 9 Y c.Y Y Y c.P.b.Y 9 3 9 {.|.{.c.c.Y Y Y Y Y Y Y Y Y Y c.P.P.c.Y Y Y Y 9 Y Y Y Y Y Y 3 Y Y Y b.Y 9 Y 9 Y 9 Y Y Y 3 3 3 Y Y Y 9 9 Y Y Y 3 9 Y 5 3 3 3 3 3 3 3 3 3 7 7 Y 3 3 Y Y Y Y Y Y Y Y Y 9 Y Y 9 Y 3 3 Y Y 9 9 9 Y Y Y Y Y Y 9 Y Y Y Y Y Y Y Y 3 Y Y 8 3 3 Y Y Y Y 3 Y Y Y Y Y Y Y Y 6 Y 5 3 Y 3 9 Y Y Y 3 3 Y Y Y Y 3 9 Y P.Y Y P.6 3 Y 6 9 3 3 7 Y Y Y Y Y Y Y Y 3 Y b.b.P.Y Y Y Y Y Y Y Y Y Y 3 3 9 Y Y Y Y Y Y Y 3 9 3 3 3 3 3 3 3 ; ; < 3 3 3 9 Y 9 Y ",
"3 3 3 Y Y Y 3 < Y 1 3 3 3 3 3 3 3 Y Y Y Y Y P.b.P.|.b.Y Y Y Y Y Y Y P.P.P.b.Y Y b.Y 3 Y 3 9 P.{.b.Y 9 9 Y 9 Y Y 9 Y b.P.P.9 Y P.Y Y Y Y b.P.b.Y b.9 9 Y Y Y b.b.Y Y Y Y Y Y Y 9 9 Y 9 Y Y Y Y Y 9 Y Y Y 3 , Y 5 3 9 3 9 3 3 3 3 7 Y Y 3 3 9 9 3 Y Y Y Y Y Y Y Y Y Y Y 9 3 ; 3 Y 9 3 9 Y Y Y Y Y Y Y Y Y Y Y Y 6 Y 5 5 Y 3 Y Y Y ; < 8 7 7 3 Y Y Y Y Y Y Y 3 6 6 5 Y 9 3 Y Y 3 9 3 Y Y Y Y Y Y Y Y Y 3 Y Y 3 3 3 7 7 Y Y Y Y Y Y Y Y Y Y 3 P.Y P.c.3 Y Y Y Y Y Y Y Y Y 9 5 Y b.Y 9 b.9 Y Y Y Y 7 3 3 3 3 : < 3 1 3 3 3 3 3 Y Y Y ",
"3 3 Y Y 9 3 1 3 Y 3 3 Y 9 9 Y Y Y Y P.Y Y b.P.Y Y Y 9 Y Y Y Y c.P.Y Y P.P.Y Y Y P.P.Y Y P.Y c.Y Y P.Y Y Y 3 Y Y Y Y Y b.b.; Y Y Y Y Y Y Y Y Y b.P.P.Y c.Y Y Y 5 Y Y Y Y Y Y 3 9 Y Y 3 3 Y 3 3 Y 3 3 3 9 3 ; Y 3 9 Y 3 9 3 ; 3 Y 3 Y 3 3 3 3 3 9 9 9 Y Y 9 9 9 Y Y Y P.Y 3 3 3 3 3 9 Y Y Y Y 9 9 9 9 Y Y Y Y Y Y Y 5 Y 5 3 8 Y Y 3 3 4 3 7 Y 9 Y Y 3 4 3 Y 6 Y Y Y Y 3 9 9 Y 3 Y 3 Y Y Y 8 Y b.P.Y Y Y Y Y Y 5 3 3 7 3 Y 3 Y Y Y Y Y Y Y 3 Y Y P.P.Y 5 Y Y Y 3 Y 5 9 Y Y 3 9 9 9 9 Y Y Y Y Y Y Y 3 3 3 3 3 3 3 3 3 Y Y 6 Y Y 3 Y ",
"9 Y Y Y Y Y 3 Y Y 3 Y Y Y Y Y Y Y c.b.Y Y b.Y Y Y 9 Y Y b.Y 3 Y Y Y P.P.Y Y Y P.{.P.9 Y Y b.Y c.5 Y Y Y Y Y Y Y Y Y Y b.P.b.Y Y Y Y Y Y 3 Y Y Y Y P.P.Y Y 3 9 Y Y Y 9 Y Y 3 9 Y Y 3 7 3 7 3 Y Y Y Y Y 6 3 ; 3 3 3 3 5 3 3 ; > Y 9 3 9 3 3 Y 9 9 Y 9 9 c.Y 3 9 Y Y Y Y Y Y Y Y Y ; 3 Y Y Y 3 9 Y Y 9 Y Y Y Y Y Y Y Y Y Y Y 3 3 Y Y Y Y Y 9 9 9 5 Y 5 3 Y Y 9 c.Y 9 Y Y Y Y Y 3 7 7 Y Y 3 7 3 3 Y Y Y Y Y Y 3 9 3 3 3 8 Y 3 3 Y 8 Y Y Y Y 3 Y Y P.P.b.Y Y Y 3 3 Y c.Y Y Y 9 9 9 9 9 9 Y b.Y Y 3 3 Y 3 3 Y 3 3 3 3 3 Y Y ; ; Y 3 3 ",
"Y Y Y Y Y Y Y Y 6 3 Y Y Y Y 5 Y 3 Y Y Y b.Y Y Y 3 Y b.Y Y 9 Y b.Y 3 Y Y 9 Y b.3 3 3 Y Y Y Y Y b.Y Y 9 Y Y Y Y Y Y Y Y b.P.b.3 Y 5 3 Y 9 Y Y 9 5 Y Y Y 9 9 Y Y Y 3 3 Y Y 3 Y P.c.Y Y w.Y Y 7 3 3 3 Y 3 3 3 ; 2 3 3 3 6 Y 3 2 3 3 3 9 3 3 9 Y 9 9 Y 9 Y Y b.3 9 Y Y P.Y Y P.Y Y Y 3 3 Y 9 3 3 9 3 Y Y 9 9 9 Y Y 7 8 Y 8 Y Y 9 3 9 9 Y Y 9 Y 9 Y Y Y Y Y Y Y Y Y Y Y Y Y Y Y 8 8 3 8 Y Y 3 3 Y 9 Y Y Y Y Y Y Y 9 9 Y 3 Y Y 4 3 3 Y Y Y 7 Y 3 Y 3 Y Y Y b.b.Y Y Y Y 9 Y 3 9 Y Y 9 9 Y Y 9 Y 3 9 3 Y Y Y 3 Y 9 3 3 3 9 9 Y < % 3 4 3 ",
"9 Y Y Y Y Y Y 2 3 3 Y Y Y Y 3 Y Y Y Y Y Y c.Y Y Y Y 9 Y Y Y P.Y Y 3 9 Y Y b.P.3 3 3 9 Y Y P.9 Y b.Y Y Y Y Y Y Y Y Y 5 3 c.Y Y Y 3 b.Y 3 P.Y 3 c.Y Y c.Y Y Y ; 3 9 9 Y Y 9 Y Y Y Y Y Y Y 7 Y 3 3 Y Y 3 3 3 3 3 3 3 3 5 3 Y Y 3 3 5 Y 3 Y 3 3 5 Y Y 9 Y Y Y 9 Y Y Y Y Y Y c.Y Y P.Y Y Y Y 9 Y 3 Y Y Y 9 9 Y Y Y 9 3 Y Y Y Y Y Y Y Y Y Y 3 9 9 9 Y Y Y Y c.Y Y c.Y Y Y 7 7 7 7 8 Y Y 7 3 Y 7 Y Y Y 9 Y Y Y P.Y 9 Y Y 3 Y Y 4 3 Y Y Y 7 Y Y 3 Y Y P.Y Y Y Y Y Y Y Y Y Y 9 Y Y Y 9 9 Y Y 3 3 , 3 9 Y Y P.Y 9 Y Y Y Y Y 5 3 3 3 3 Y Y ",
"3 9 9 3 Y Y Y 3 Y 5 c.b.b.b.V.Y Y Y Y Y Y Y Y b.P.3 3 Y P.P.Y 3 Y P.Y Y P.Y Y c.9 5 , 5 b.Y Y Y b.b.b.Y Y 3 Y Y Y 9 3 9 Y Y Y 9 3 3 Y Y P.Y Y P.Y 9 Y c.Y , 9 Y P.Y Y Y b.b.Y 3 3 Y Y 7 Y 7 7 3 3 3 4 3 ; 2 3 3 3 3 3 3 Y 3 3 3 3 Y 3 Y 9 3 9 Y Y Y Y Y Y Y Y Y 3 3 Y b.c.Y Y b.P.b.Y Y c.Y b.Y Y Y Y Y Y Y 7 Y 7 3 3 Y Y 3 Y 9 Y Y Y Y Y Y 3 Y 9 Y b.b.9 9 Y Y 3 9 7 3 Y 8 3 8 7 7 Y 3 3 Y 9 3 9 9 9 9 Y Y Y Y Y Y 3 Y Y Y Y Y Y 8 7 7 3 Y Y Y Y Y P.Y Y 3 9 c.Y Y Y Y Y Y 3 3 9 Y Y 3 3 3 Y 3 Y 9 9 9 9 Y Y Y 9 Y 3 w.Y 3 3 Y ",
"9 9 3 9 Y 3 3 c.Y Y Y b.Y Y Y Y Y 9 Y Y b.Y Y Y 3 , 3 Y b.Y P.b.Y Y Y Y 9 3 c.9 5 9 3 9 9 Y b.9 Y b.Y P.c.Y P.Y Y Y Y Y 9 3 Y 3 5 b.Y Y Y Y Y Y , , 9 Y Y Y Y Y Y 9 Y Y Y Y 5 Y Y 3 Y 7 7 Y 3 3 3 3 4 3 2 ; 3 3 3 3 3 3 3 6 3 3 3 3 Y Y Y 9 9 Y 9 9 Y Y Y 9 Y 9 9 Y Y c.Y Y Y Y Y P.b.b.P.Y b.P.Y Y Y Y Y Y 7 Y 7 3 7 3 9 3 3 9 9 Y Y Y Y 9 3 3 9 Y Y Y Y Y 9 Y 9 3 3 7 Y 3 3 3 7 8 3 3 3 9 9 9 Y Y Y Y 9 Y Y Y Y 3 ; 3 Y Y 8 Y Y Y Y Y , Y 9 b.Y Y 3 3 Y 5 Y Y Y Y Y Y Y Y 9 3 Y Y Y Y Y Y Y Y Y 3 3 9 3 Y Y Y 3 Y Y 7 Y 3 3 Y ",
"Y 5 5 9 Y 5 3 Y Y Y Y b.Y Y Y Y 6 Y 9 3 5 5 9 9 Y b.b.Y c.c.P.b.Y Y Y Y Y 3 3 Y Y Y Y 9 9 Y Y Y Y 9 Y Y c.c.P.P.Y 9 9 Y Y Y Y Y P.b.3 Y Y Y Y 9 3 3 9 5 Y P.Y Y Y Y Y Y 9 , Y P.3 3 7 7 7 7 8 4 3 3 3 3 3 < 3 3 3 3 3 3 Y Y Y Y 9 Y Y Y Y Y 9 Y 9 9 Y 9 3 Y Y Y Y Y Y P.Y Y Y c.Y Y b.Y Y Y Y Y Y Y Y Y Y Y Y 7 7 7 3 3 3 9 3 3 3 Y Y Y Y 3 Y 3 Y Y Y 9 Y 9 Y Y 9 9 7 Y 7 Y w.Y 7 7 Y 7 8 7 Y Y b.Y Y Y 9 Y Y Y Y Y 3 3 4 Y 3 Y 3 Y Y 3 3 b.Y P.b.9 3 Y Y 9 3 Y Y Y Y Y b.Y Y Y Y Y b.Y Y b.Y c.9 3 3 3 3 3 3 3 3 3 9 9 7 7 3 Y ",
"3 5 Y 5 5 Y b.9 9 Y 9 b.Y 9 3 3 3 Y 9 3 3 3 3 Y Y b.c.P.b.{.> 3 {.Y Y Y Y Y P.b.Y Y Y Y Y Y Y Y Y Y Y Y Y Y b.b.Y Y Y 5 Y 9 Y Y Y 9 Y P.P.Y 9 Y Y Y Y Y Y 3 Y Y 3 3 8 8 7 3 3 7 3 < 3 3 3 3 3 3 3 3 3 3 3 < 3 3 3 3 3 Y 9 3 9 3 9 Y 3 3 Y Y Y Y Y Y Y Y Y 3 Y Y Y Y Y Y Y Y Y Y Y P.3 3 Y 3 Y Y Y Y Y Y Y 9 3 3 7 3 3 9 3 9 3 3 Y Y 8 Y Y Y Y 3 3 9 Y Y Y Y Y 9 Y 9 9 9 3 Y Y Y Y Y Y Y 3 3 3 Y Y 3 3 Y Y Y Y Y 3 Y 6 Y Y Y 3 5 Y 3 Y 3 Y Y Y Y Y 9 3 Y Y 9 3 3 3 3 9 Y 3 Y Y Y Y Y Y b.Y Y Y Y Y Y 3 3 3 3 3 3 3 3 9 Y Y 3 3 3 ",
"3 5 3 5 Y Y Y 9 Y Y 3 Y Y 3 Y Y Y Y Y Y Y Y 3 Y 3 Y Y P..XP.9 b.b.Y Y Y Y Y P.b.Y Y Y Y Y Y Y 9 Y 9 9 Y Y b.Y P.Y 9 b.9 9 Y Y Y , 9 Y Y P.Y Y 9 3 9 Y b.b.Y 7 7 3 3 3 Y 3 3 Y 7 8 3 3 3 4 3 < 3 < 1 3 < 3 1 3 3 3 Y 3 3 5 Y 3 9 9 9 3 3 Y 9 9 9 Y Y Y b.Y 3 Y Y Y Y b.9 Y Y P.9 9 9 Y Y Y Y Y Y Y Y b.b.Y Y 9 Y 7 Y 8 7 Y 3 9 3 9 7 7 Y Y 7 3 9 Y 9 9 Y Y Y Y 9 3 Y Y Y Y 9 Y Y 9 3 Y Y 3 Y Y 9 3 9 3 3 3 3 7 3 3 Y Y Y Y Y Y 5 Y Y Y Y 7 Y b.Y Y Y Y 9 Y 9 3 3 3 3 Y Y Y Y Y Y Y Y Y Y b.Y Y c.Y Y Y 9 9 Y Y Y 9 Y Y 9 Y Y 9 9 ",
"3 3 3 5 Y Y b.Y Y Y Y 9 3 9 Y Y Y Y Y Y b.P.P.Y Y Y Y c.{.9 5 b.9 Y Y Y Y b.b.b.Y 9 Y Y 3 3 Y 9 Y Y Y Y Y Y Y Y Y c.Y Y Y Y Y Y Y Y 9 9 Y Y Y Y 3 Y Y Y Y Y 3 3 3 : 8 3 Y Y Y 7 Y Y 3 4 4 3 3 3 3 3 3 ; < < 3 3 3 Y 5 5 5 9 Y Y Y Y 3 3 9 Y 9 9 Y Y 9 Y Y Y Y Y Y Y Y c.Y Y Y Y Y 9 c.c.3 Y Y Y Y Y Y Y Y Y Y 7 8 7 3 3 Y Y 3 9 3 7 7 7 3 7 Y 9 9 Y Y Y Y b.Y Y Y Y Y Y 9 9 Y Y Y 9 Y Y Y Y Y Y Y Y Y 7 3 3 Y Y 3 Y Y Y 5 6 Y Y 6 Y P.3 Y Y Y Y Y Y b.9 9 Y 3 3 3 3 Y Y Y Y Y Y Y Y 3 Y Y Y Y Y Y Y Y Y 9 Y Y 9 9 9 Y 9 Y Y 3 Y ",
"Y 6 3 2 3 Y Y Y Y Y b.5 3 3 3 3 3 Y Y Y b.b.b.Y 3 Y Y b.b.c.P.c.c.Y b.b.b.b.P.P.P.P.b.Y Y Y Y Y Y P.b.b.Y 3 b.b.Y Y 3 Y Y Y 9 Y Y b.Y Y Y Y Y Y Y 3 Y 9 3 3 7 3 7 ; 3 : Y 7 3 Y 3 3 3 3 3 3 8 3 3 8 3 3 3 3 3 4 3 3 3 Y Y Y 3 9 Y Y 9 3 Y Y Y Y Y b.9 9 9 Y Y Y Y Y c.3 3 3 3 Y 9 9 P.Y Y Y Y 9 9 9 P.Y Y Y Y 3 7 Y 7 Y 5 3 3 5 3 Y 7 3 3 8 Y 3 Y Y 9 Y Y Y Y Y Y Y Y Y Y Y Y Y Y Y Y Y 9 3 Y 3 Y Y Y Y Y Y Y Y 3 3 3 Y Y Y Y Y Y 5 Y 3 Y Y b.Y Y c.|.P.9 Y 9 3 5 3 Y c.Y 3 : Y w.Y Y Y Y Y Y Y Y Y Y Y 3 9 Y 3 3 9 3 3 3 Y 9 3 ",
"3 3 3 3 3 Y Y 3 Y 6 3 9 3 3 3 3 Y 5 P.Y 9 Y Y 9 3 3 Y P.{.|.P.c.Y b.P.P.P.b.b.9 Y b.P.Y , , 9 Y Y Y Y Y Y Y Y Y 9 b.c.Y Y Y 5 5 6 Y Y Y Y Y Y Y 9 Y Y 9 3 Y Y Y Y 7 7 7 3 3 Y Y 3 3 3 3 3 3 ; ; ; 3 3 3 3 1 ; 3 3 3 Y Y Y Y 3 3 9 9 9 9 Y Y Y Y Y b.Y Y 5 5 9 3 Y Y Y Y Y Y Y b.Y b.b.Y Y 3 Y 3 , Y Y c.Y Y Y Y 3 Y 8 3 3 Y 5 5 3 3 Y 3 3 Y Y Y Y 9 Y 3 3 Y Y Y Y Y Y 3 9 Y Y Y 9 b.b.Y Y 9 3 3 3 Y Y Y Y Y 3 7 Y Y 3 Y Y Y 5 6 Y Y P.9 Y Y Y P.Y Y 9 Y Y Y Y 5 Y 9 Y Y Y ; ; Y Y Y Y Y Y Y Y Y Y 9 Y Y Y Y Y 9 3 3 3 3 3 3 ; , ",
"3 3 3 3 3 4 4 4 6 3 3 Y Y 3 9 Y Y Y P.P.b.b.Y 9 3 9 9 c.|.b.Y {.{.P.Y Y P.P.b.9 9 Y Y Y Y 9 9 3 3 , , 3 Y P.Y b.Y Y Y 9 3 Y Y 3 9 b.Y Y Y 3 Y Y Y 9 9 Y Y Y Y Y Y 3 Y Y Y 3 3 Y 3 3 3 Y 4 3 3 ; ; 3 3 8 4 3 < 3 3 3 3 3 9 Y Y 3 3 Y Y Y Y 3 Y 9 9 9 Y Y 3 9 3 9 5 Y Y P.b.c.Y c.Y Y Y Y 3 Y Y P.3 3 Y Y Y b.P.w.7 7 7 3 5 5 Y 3 3 Y 3 9 Y 3 Y Y Y Y 9 3 5 3 3 Y Y 9 7 3 9 Y 7 9 9 Y Y Y P.Y 3 6 3 Y Y Y Y 3 Y Y Y Y 3 Y Y Y Y Y Y Y Y 3 Y Y Y 9 Y b.Y 9 Y Y 9 3 3 3 Y 3 3 Y Y Y Y Y Y Y Y Y Y Y 9 9 9 Y Y Y Y Y 3 3 9 Y Y 9 ; , ",
"< 3 1 ; 3 1 < 3 3 1 3 3 Y Y Y Y Y b.P.P.|.|.9 9 Y Y Y Y {.|.{.b.c.b.Y Y Y b.Y Y Y Y Y 3 Y Y 3 3 , ; 9 Y Y Y Y Y Y Y Y 3 Y Y Y P.Y b.Y 9 3 Y P.b.3 3 9 3 Y b.Y c.Y Y Y Y Y 9 3 9 Y Y Y 3 8 3 ; 1 1 4 1 8 3 4 < 3 3 3 3 3 3 Y 9 Y Y Y 3 3 9 Y 9 3 Y Y Y 5 3 9 9 Y 9 Y Y Y Y P.Y b.b.3 Y Y Y Y Y P.9 9 b.Y Y P.w.Y Y 7 7 3 6 6 3 3 3 Y 5 3 3 3 3 3 Y Y 3 Y 3 Y Y 3 9 9 7 Y Y Y Y Y Y 7 Y 7 w.Y 3 Y Y 3 Y Y Y Y 9 Y Y Y Y Y Y 3 Y Y Y Y Y Y Y Y Y P.Y Y Y 5 Y Y 3 3 3 7 Y Y Y 3 Y b.Y 9 Y Y Y Y Y Y Y Y Y Y Y Y Y 9 3 3 Y 9 Y Y , 3 ",
"4 4 ; = P.3 ; ; 3 3 3 3 3 Y Y Y Y Y 9 Y P.P.b.9 Y Y Y Y 9 |.{.b.{.b.Y Y 3 Y Y 9 Y b.3 , 3 Y Y 9 3 Y Y Y c.3 3 Y 5 3 9 9 9 3 3 Y b.Y Y Y 8 3 P.Y 3 Y Y 3 3 3 Y Y Y Y Y Y Y Y Y 3 P.Y Y Y 4 ; = 1 O @ 4 8 3 4 = < 3 3 3 Y Y Y Y 9 b.3 3 Y Y Y 9 3 Y Y 9 Y Y 3 3 9 9 Y Y Y Y P.Y b.Y Y Y Y Y b.P.Y 9 9 Y Y Y b.Y Y w.Y 8 3 3 3 3 3 Y Y Y 3 3 3 3 3 3 6 Y 3 3 3 9 Y 3 9 3 7 Y Y Y Y 8 Y 7 7 Y c.9 7 7 7 Y 3 Y Y Y Y Y Y Y Y Y 6 5 9 Y Y Y b.Y Y Y Y Y 9 9 Y Y 3 3 3 3 7 w.Y 9 Y Y Y 3 3 Y Y Y Y Y Y Y Y Y 3 Y Y Y Y Y 3 9 Y Y 9 3 9 ",
"4 3 3 Y 3 3 4 3 3 8 4 3 3 Y Y Y 9 ; > 9 b.P.P.b.Y Y 9 Y Y {.b.P.|.b.c.Y Y Y Y 3 9 P.Y , 3 Y Y Y 3 Y Y 3 Y 9 Y Y 3 3 3 Y Y 9 Y Y P.Y 3 Y 3 1 3 3 3 3 3 3 3 3 Y Y Y 3 Y Y Y Y Y Y Y Y Y 3 3 3 ; @ X   = 1 3 3 ; < 3 3 3 9 Y Y 3 Y Y Y 3 Y Y 3 Y b.9 3 Y Y Y Y 3 9 3 5 Y Y Y Y P.b.Y 3 5 9 b.P.P.Y Y b.Y Y Y b.w.Y Y w.Y Y 5 3 Y Y 3 3 Y 6 Y 3 3 Y 5 3 Y 6 3 9 9 3 3 3 7 7 7 Y 8 8 7 3 7 7 8 9 Y Y 3 7 Y 3 Y Y Y Y Y Y Y Y Y Y 9 Y Y Y 9 P.Y b.Y Y Y 3 Y Y 3 Y Y 7 7 3 3 3 Y Y 9 9 9 Y Y Y Y Y Y Y Y Y Y Y 9 Y Y Y Y 3 3 Y 3 Y 3 3 ",
"4 3 4 3 ; 3 3 3 4 4 4 3 3 Y 9 9 9 Y Y 9 Y P.b.|.|.b.Y Y 9 c.Y b.c.Y Y Y Y c.Y Y Y 5 Y 9 3 3 9 Y 9 Y 3 Y P.P.3 Y Y 3 Y Y c.9 3 Y Y 5 Y 3 7 3 3 3 3 3 9 3 3 9 6 Y 5 3 5 5 Y 3 3 3 3 Y 3 3 3 3 3 1 = % 1 1 3 4 ; 1 3 3 3 3 Y 3 9 3 9 Y b.9 Y 3 Y 9 Y 9 Y Y Y Y 3 3 3 5 9 Y Y Y Y b.b.Y 9 Y P.c.P.Y Y Y Y Y Y Y w.Y Y Y Y Y Y 5 Y 6 3 Y Y Y Y Y 5 3 Y 5 3 3 5 3 3 3 3 3 3 3 3 Y Y Y 7 Y 3 7 Y 3 9 Y Y Y w.3 ; Y 4 6 6 6 3 Y Y 6 Y Y 5 Y 3 Y b.b.Y b.b.Y b.Y 9 Y Y 7 7 3 Y Y Y Y 3 3 9 Y Y 9 Y Y Y Y Y Y Y Y Y 9 Y Y Y 9 3 9 3 Y 3 3 ",
"3 Y 3 < 3 3 3 3 Y 3 3 9 3 9 3 3 9 Y Y Y Y Y b.9 Y P.b.P.Y b.b.b.b.Y b.Y Y Y Y Y Y Y Y Y 3 3 3 3 Y Y 3 3 b.Y 9 9 9 Y b.Y Y Y 3 3 9 Y Y Y Y 1 3 Y 9 9 Y Y Y 3 Y Y Y c.5 Y Y 3 , 3 Y Y Y Y Y ; ; ; 1 3 3 3 8 8 < < 3 3 3 3 Y 9 Y 3 3 3 3 3 Y 3 9 9 9 Y Y 9 9 Y 3 3 3 3 3 3 3 Y Y Y Y Y b.Y Y P.P.Y c.P.P.Y Y 9 Y b.Y 7 Y Y 3 3 Y Y 3 Y 6 6 6 3 6 3 3 3 Y 3 Y 3 3 Y 9 Y Y Y 3 3 Y Y Y Y 8 Y Y 9 9 Y Y w.Y 3 3 3 3 4 5 Y Y 6 3 3 3 3 Y Y , Y b.w.c.c.Y Y P.P.Y Y Y 3 3 3 Y Y Y 3 Y 3 3 3 9 Y Y Y b.Y Y Y Y Y 9 9 Y Y Y Y 3 Y Y Y 9 Y "
};
