/* XPM */
static char *wall_multiple_tab[] = {
/* columns rows colors chars-per-pixel */
"128 128 239 2 ",
"   c #000000",
".  c #0B0A00",
"X  c #09050A",
"o  c #130D01",
"O  c #190607",
"+  c #04180C",
"@  c #1A1402",
"#  c #10100F",
"$  c #1A1703",
"%  c #0F0210",
"&  c #040418",
"*  c #170519",
"=  c #111010",
"-  c #1E191C",
";  c #0C1717",
":  c #2A050E",
">  c #201C01",
",  c #32110B",
"<  c #092514",
"1  c #073416",
"2  c #04220A",
"3  c #292302",
"4  c #2B2706",
"5  c #362B03",
"6  c #3C3402",
"7  c #3E3D08",
"8  c #22201F",
"9  c #170726",
"0  c #16112F",
"q  c #3B083D",
"w  c #39073A",
"e  c #270A2A",
"r  c #083728",
"t  c #242322",
"y  c #2E2D2B",
"u  c #292726",
"i  c #302E2D",
"p  c #3B3937",
"a  c #3C3B38",
"s  c #3A3735",
"d  c #352D35",
"f  c #463C03",
"g  c #483E05",
"h  c #623A20",
"j  c #0A4E1D",
"k  c #0B4A24",
"l  c #0D4A29",
"z  c #084628",
"x  c #154C2D",
"c  c #326626",
"v  c #166323",
"b  c #4E4403",
"n  c #504503",
"m  c #5A4E03",
"M  c #564A03",
"N  c #574C0C",
"B  c #645604",
"V  c #6D5E04",
"C  c #665804",
"Z  c #634E07",
"A  c #766604",
"S  c #7B6A05",
"D  c #6F6104",
"F  c #534D34",
"G  c #654837",
"H  c #4C7727",
"J  c #1F0A41",
"K  c #04125C",
"L  c #08135B",
"P  c #0A165B",
"I  c #071254",
"U  c #3E0940",
"Y  c #371241",
"T  c #3C1249",
"R  c #27174C",
"E  c #292950",
"W  c #3D147E",
"Q  c #112C69",
"!  c #2E3371",
"~  c #1F3A4A",
"^  c #450B48",
"/  c #4F0D59",
"(  c #5A0C56",
")  c #5D115F",
"_  c #53125B",
"`  c #4B0E4F",
"'  c #5A325B",
"]  c #463048",
"[  c #5E1261",
"{  c #5B106A",
"}  c #5A156C",
"|  c #631364",
" . c #63126F",
".. c #6A1578",
"X. c #720D62",
"o. c #5A2472",
"O. c #732E76",
"+. c #244955",
"@. c #347A56",
"#. c #32794F",
"$. c #31496F",
"%. c #2F4673",
"&. c #175967",
"*. c #494744",
"=. c #575451",
"-. c #585552",
";. c #5D5A57",
":. c #53504D",
">. c #77726C",
",. c #71695A",
"<. c #A61536",
"1. c #AA2330",
"2. c #8B4F11",
"3. c #A65E14",
"4. c #806E05",
"5. c #8F7B05",
"6. c #857305",
"7. c #927E05",
"8. c #BD6B16",
"9. c #8F552A",
"0. c #C36E16",
"q. c #C36C17",
"w. c #C87116",
"e. c #D07615",
"r. c #8F1076",
"t. c #837E79",
"y. c #817C77",
"u. c #14B433",
"i. c #3A8159",
"p. c #2F8A7A",
"a. c #4C8366",
"s. c #37A02D",
"d. c #958006",
"f. c #9A8506",
"g. c #9E8806",
"h. c #A38D06",
"j. c #AA9306",
"k. c #A79006",
"l. c #ABBD27",
"z. c #98B93D",
"x. c #B6C929",
"c. c #F5F41F",
"v. c #F9F71E",
"b. c #FCF91D",
"n. c #EDED1F",
"m. c #DCE120",
"M. c #EFEB24",
"N. c #D4D124",
"B. c #85817C",
"V. c #89847D",
"C. c #9F8659",
"Z. c #3F1B84",
"A. c #3E2083",
"S. c #481795",
"D. c #491797",
"F. c #42198D",
"G. c #73168B",
"H. c #7A1795",
"J. c #7A1995",
"K. c #6F1580",
"L. c #493D9A",
"P. c #54318B",
"I. c #7D2094",
"U. c #5136A8",
"Y. c #6335A9",
"T. c #2D4684",
"R. c #304886",
"E. c #1C7785",
"W. c #475093",
"Q. c #5549B6",
"!. c #5649B9",
"~. c #5849BB",
"^. c #5545B6",
"/. c #5045A7",
"(. c #79738A",
"). c #5A48C0",
"_. c #A41283",
"`. c #A71489",
"'. c #AC1A96",
"]. c #882AA0",
"[. c #84279A",
"{. c #844387",
"}. c #8D508E",
"|. c #8E4D91",
" X c #8F5091",
".X c #925294",
"XX c #99529E",
"oX c #965F9E",
"OX c #BA2FCA",
"+X c #BE38E3",
"@X c #D13FF2",
"#X c #C73EEA",
"$X c #B44BC9",
"%X c #D645FE",
"&X c #DA46FF",
"*X c #D544F8",
"=X c #C845E9",
"-X c #E048FF",
";X c #17898A",
":X c #15918D",
">X c #99948D",
",X c #A7A19C",
"<X c #ADA8A2",
"1X c #BAB5AD",
"2X c #B7B1AA",
"3X c #BDB8B1",
"4X c #B3ADA7",
"5X c #A19B94",
"6X c #C5BEB6",
"7X c #CCBBAF",
"8X c #C9C2BA",
"9X c #D4CDC5",
"0X c #DBD4CC",
"qX c #DCD5CA",
"wX c #DFD8D0",
"eX c #CFC8C1",
"rX c #E1D8CF",
"tX c #E0D7CE",
"yX c #E5DDD5",
"uX c #E8DFD6",
"iX c #E7DFD8",
"pX c #E8DFD8",
"aX c #E0D7D0",
"sX c #E7E0D6",
"dX c #E8E1D7",
"fX c #E7E0D8",
"gX c #EBE4DA",
"hX c #EAE5DA",
"jX c #ECE5DB",
"kX c #ECE6DB",
"lX c #EDE6DD",
"zX c #EBE3DB",
"xX c #EEE8DE",
"cX c #F0E9DF",
"vX c #EFE8E0",
"bX c #EFE7E0",
"nX c #F1EAE2",
"mX c #F2EBE4",
"MX c #F7F3ED",
/* pixels */
"zXyXuXyXuXzXdXzXzXsXyXdXdXzXzXyXyXdXuXyXyXuXuXyXyXyXyXuXzXdXdXzXzXzXzXzXzXzXsXzXzXvXxXzXzXzXdXzXxXxXzXzXzXzXdXzXzXzXxXzXzXxXzXsXdXdXyXyXyXyXyXdXuXuXuXuXuXyXyXuXyXuXuXuXyXuXdXdXzXsXsXdXdXdXdXzXdXzXzXzXzXzXzXzXzXdXzXzXzXzXzXzXzXzXzXzXzXzXzXdXzXzXzXzXzXdXzXzX",
"zXdXdXyXyXdXuXuXzXzXdXdXsXsXzXzXyXyXdXyXyXuXyXyXyXyXdXdXdXdXzXsXsXzXzXzXzXzXzXzXzXnXnXzXzXdXsXzXzXcXnXzXxXzXzXzXzXzXxXzXzXcXxXzXuXuXzXyXtXyXuXdXuXdXzXzXdXyXyXuXdXzXdXdXuXyXyXzXzXzXdXdXzXdXuXzXzXzXzXzXzXzXzXcXzXzXzXzXzXzXzXxXzXzXzXzXzXzXzXzXzXdXzXzXzXzXzXzX",
"zXzXzXdXyXyXuXuXzXsXzXzXzXzXzXzXzXdXzXdXyXuXyXyXyXyXuXuXdXdXdXdXdXyXsXyXdXzXzXpXyXyXdXzXdXzXzXzXzXdXzXxXxXzXzXzXzXzXxXzXzXzXcXzXzXzXyXrXyXdXuXuXuXdXzXzXdXyXuXuXzXzXuXdXyXyXqXyXzXzXzXzXzXdXyXzXyXsXzXzXzXzXzXzXzXzXdXdXsXdXdXzXzXzXzXxXzXzXzXzXzXzXzXzXzXzXzXzX",
"zXzXzXdXzXdXyXyXyXsXdXzXzXzXzXzXzXbXfXzXyXyXdXyXyXyXyXdXuXyXuXzXzXuXyXyXdXsXdXzXzXsXyXzXzXzXzXzXzXzXzXzXzXzXzXzXdXzXzXzXzXzXzXzXzXdXyXyXyXyXyXyXuXuXdXuXuXyXyXuXzXuXyXyXzXyXyXyXzXsXdXzXdXdXdXzXyXdXzXdXdXzXzXzXzXyXdXdXyXdXzXzXzXcXzXzXzXzXzXzXzXzXzXzXzXzXzXzX",
"xXvXzXzXzXuXyXyXyXsXsXzXzXzXzXzXzXiXzXzXzXsXuXyXyXyXyXyXyXuXzXdXdXdXdXzXzXzXzXzXzXdXzXzXzXfXzXnXcXzXzXzXzXzXzXzXzXsXyXzXxXzXzXzXzXdXzXdXyXuXyXuXuXuXdXuXyXyXyXuXuXuXuXdXzXdXrXyXyXsXdXyXzXzXzXzXzXzXsXyXyXzXzXzXzXdXzXzXdXzXzXzXzXzXxXzXzXzXzXzXzXzXzXzXzXzXzXzX",
"zXzXzXzXzXzXuXyXyXsXdXdXzXzXzXzXzXyXzXxXzXzXyXyXyXyXdXuXdXzXdXdXdXzXyXzXzXzXdXzXzXzXzXzXzXzXzXzXzXzXzXzXxXzXzXzXzXsXsXdXzXzXzXzXzXzXzXzXdXyXyXyXyXuXdXzXuXyXyXdXdXuXyXdXdXdXdXuXdXzXzXdXdXdXzXdXzXyXyXdXyXzXzXzXzXzXdXzXdXyXzXsXzXzXzXzXdXzXzXzXzXzXzXzXzXzXzXzX",
"zXzXzXzXdXyXuXyXyXdXdXsXzXzXdXzXzXzXzXzXzXzXzXyXyXyXyXyXdXzXzXzXsXzXuXuXzXuXzXdXdXdXzXsXzXzXzXzXzXzXzXzXzXzXxXxXdXsXzXsXzXzXzXzXzXzXzXzXzXdXuXuXzXyXuXdXdXdXdXdXyXuXyXuXuXuXdXuXdXdXzXzXuXuXzXdXzXyXyXuXzXzXzXzXzXzXzXzXzXsXzXdXzXcXxXzXzXdXzXzXzXzXzXzXzXzXzXzX",
"zXzXzXzXyXyXuXyXyXyXyXdXzXzXdXzXzXzXzXzXzXzXzXuXyXyXuXyXsXdXzXdXyXdXyXdXdXzXzXzXyXyXzXzXsXdXdXzXzXzXzXzXzXzXzXzXzXdXzXzXzXzXzXzXzXzXzXzXzXzXuXyXuXdXzXzXuXdXzXzXyXyXyXyXyXuXyXuXdXdXyXdXzXzXyXzXzXyXyXyXuXzXzXzXzXzXzXzXdXdXzXzXzXzXzXzXzXsXzXzXdXzXzXzXzXxXzXzX",
"vXnXxXzXzXdXuXyXyXyXyXyXzXzXzXzX:.y i y y y i y y y y y y y y y y y y y y y y y y y y y y y y y y y y y y u >XzXzXxXzXzX6Xy y y y y y y y y y y y y y y y y y y y y i 8XyXuXdXzXdXuXuXdX<Xu y y y y y y y y y y u >XyXdXzXzXzXzXzXzXzXzXdXdXzXzXzXzXzXzXzXzXzXzX",
"zXzXzXzXzXzXyXyXuXyXyXyXyXsXzXzXy                                                                           B.zXsXzXzXzX1X                                            6XyXyXdXzXuXyXuXzX5X                        y.yXzXzXzXzXzXzXzXzXzXdXuXzXdXsXzXzXzXzXzXzXxX",
"zXnXzXzXzXzXzXzXyXqXyXdXsXyXsXdXy                                                                           B.zXuXyXzXzX3X                                            6XuXyXyXyXzXyXuXdX,X                        B.zXzXzXdXzXxXzXyXyXsXyXyXyXdXdXzXzXzXzXdXzXxX",
"zXzXzXyXuXyXdXzXyXuXuXyXdXyXyXyXy           3 C B B B B B B B B B B B B B B B B B B B B B B B B .           B.zXdXyXzXzX1X      B B B B B B B B B B B B B B B m       6XdXuXyXyXdX5X:.-.F C B B B B B B B B B B C F -.:.>XdXdXnXdXyXzXyXyXyXdXdXzXzXzXzXzXzXdXzX",
"vXzXzXzXdXuXyXyXyXzXyXyXyXyXyXyXy           g j.h.h.h.h.h.h.h.h.h.h.h.h.h.h.h.h.h.h.h.h.h.h.h.g.o           t.dXzXzXzXzX1X    . f.h.h.h.h.h.h.h.h.h.h.h.h.h.h.7.      6XdXdXyXuXzX>.    5 j.h.h.h.h.h.h.h.h.h.h.j.f     :.zXzXzXzXyXsXzXyXyXuXdXzXzXzXzXyXyXyXzX",
"zXzXzXyXyXyXyXyXzXdXzXyXdXyXyXdXy           f j.h.h.h.h.h.h.h.h.h.h.h.h.h.h.h.k.h.h.h.h.h.h.h.g..           B.zXdXzXzXzX1X    . d.h.h.h.h.h.h.h.h.h.h.h.h.h.h.5.      6XdXuXuXdXuX>.    4 h.h.h.h.h.h.h.h.h.h.h.h.f     ;.zXzXzXzXsXyXdXdXyXyXdXdXzXzXzXyXdXzXzX",
"fXyXzXpXzXyXyXyXyXdXdXsXyXzXrXyXy     3 g f n m m m m m m m m m m m m m m m m m m m m m m m m m g f f o     t.uXuXdXzXzX1X    . d.h.h.C m m m m m m m m C h.h.5.      6XdXdX5Xy.V.G f f B h.h.d.m m m m m m 5.h.h.C f f F V.t.>XzXzXdXsXdXdXsXyXyXyXzXzXzXzXsXdX",
"zXdXzXzXzXzXyXyXyXuXyXdXsXdXyXrXy     C j.j.m                                                   7.k.j.3     t.dXdXuXzXzX1X    . d.h.h.$                 3 h.h.5.      6XdXzXF     n j.h.h.h.h.6.            A h.h.h.h.j.B     u zXdXzXzXdXdXzXzXyXyXdXzXdXdXdXzX",
"sXzXzXzXzXzXuXdXzXzXzXdXdXsXzXyXy     B h.h.m                                                   5.h.h.3     t.dXzXzXzXzX3X    . d.h.h.>                 3 h.h.5.      6XzXsX*.    n h.h.h.h.k.5.            S h.h.h.h.h.B     y dXdXzXzXzXsXzXzXyXyXdXzXdXzXzXdX",
"zXnXvXzXzXzXzXzXdXzXzXdXsXzXzXsXy     B h.h.m     X 9 9 9 9 9 9 9 9 9 0 0 0 ; + + ; 0 0 0       5.h.h.3     y.uXuXdXzXzX3X    . d.h.h.>     . + + .     3 h.h.5.      6XzXzX*.    n h.h.7.A S C : : : : : : Z S A 5.h.h.B     y zXdXzXzXzXzXzXdXzXzXdXdXzXyXyXzX",
"zXzXzXfXzXzXzXzXzXzXzXzXdXdXsXyXy     B h.h.m     9 D.D.D.D.D.D.D.D.D.U.!.~.$.l l +.~.~.L.      5.h.h.3     t.yXyXuXyXzX1X    . d.h.g.$     1 j j 1     3 h.h.5.      6XzXzX*.    n h.h.C     O <.<.<.<.<.<.:     m h.h.B     y zXzXdXzXzXzXzXzXdXzXzXzXzXdXyXzX",
"zXzXzXzXzXxXzXzXzXzXzXdXdXdXdXsXy     B h.h.m     9 D.D.D.D.D.D.D.D.D.U.Q.~.$.l l +.~.Q.L.    . 5.h.h.3     t.yXyXzXzXzX1X    . d.g.g.$     1 j j 1     3 h.h.5..     6XzXzX*.    n h.h.C     O <.<.<.<.<.<.:     m h.h.B     y zXzXzXzXzXxXzXzXzXzXzXzXzXzXzXzX",
"zXzXdXdXzXzXzXdXzXzXzXzXzXzXdXzXy     B h.h.m     9 P.P.P.F.F.F.S.D.D.L././.$.l l +.!.Q.L.    . 5.h.h.3     t.yXyXuXzXzX1X    . d.h.h.$     1 j j 1     3 h.h.5..     6XzXzX*.    n h.h.C     O <.<.<.<.<.<.:     m h.h.B     y yXdXdXzXzXzXzXzXzXzXzXzXzXzXdXzX",
"zXzXsXyXzXzXzXsXzXzXzXzXzXzXzXzXy     B h.h.m     7 M.n.N.x l l A.D.D.~ l l l l l +.!.Q.L.    . 5.h.h.3     t.dXdXyXzXzX3X    . d.h.h.$     2 1 1 +     3 h.h.5..     8XzXzX*.    n h.h.C     @ 8.0.0.0.0.0.,     m h.h.B     y dXyXsXzXdXdXzXzXzXzXzXzXzXdXzXzX",
"zXdXdXzXzXzXzXzXsXdXzXzXzXzXzXzXy     B h.h.m     f v.c.m.x l l A.D.D.~ l l l l l +.!.Q.L.      5.h.h.3     t.sXzXdXzXzX3X    . d.h.h.>     + 1 1 +     3 h.h.5.      6XsXzX*.    n h.h.C     @ 8.0.0.0.0.w.,     m h.h.B     y dXyXdXzXzXsXsXdXzXzXzXzXzXzXzXzX",
"zXzXzXzXzXzXzXdXzXzXzXzXzXyXzXzXy     B h.k.m     f v.c.m.x l l A.D.D.~ l l l l l +.!.Q.L.      5.h.h.3     t.zXzXzXzXyX1X    . d.h.h.>     + 1 1 +     3 h.h.5.      8XyXyX*.    n h.h.C     @ 8.0.0.0.0.0.,     m h.h.B     y dXuXyXdXzXzXzXzXzXzXzXzXzXzXzXzX",
"zXzXzXzXzXzXzXzXsXdXdXzXzXzXsXdXy     B h.h.m     f v.c.m.x l l x x x l l l $./././.Q.Q.L.      5.h.h.3     B.zXzXzXzXyX1X    . d.h.h.>     v u.u.j     3 h.h.5.      6XdXdX*.    n h.h.C     @ 8.0.0.1.<.1.:     m h.h.B     y dXdXyXuXzXzXzXzXzXzXzXzXzXzXzXzX",
"zXzXzXzXzXyXzXzXzXzXdXzXyXsXdXdXy     B h.h.m     7 v.c.m.x l l l l l l l l $.~.Q.Q.Q.Q.L.      5.h.h.3     B.zXzXzXzXzX1X    . d.h.h.>     v u.u.v     3 h.h.5..     8XdXsX*.    n h.h.C     @ 8.0.0.<.<.<.:     m h.h.B     y dXdXdXyXzXdXdXzXzXzXzXzXzXxXzXzX",
"zXzXzXzXzXzXzXzXdXzXzXzXdXzXzXsXy     B h.h.m     7 v.c.m.l z z z z z l l l $.~.Q.Q.Q.Q.L.      5.h.h.3     B.nXvXzXzXzX1X    . d.g.g.$     v u.u.v     3 h.h.5..     6XsXzX*.    n k.h.C     @ 0.w.0.<.<.<.:     m h.h.B     y zXzXzXuXzXzXdXyXsXzXzXdXzXzXzXzX",
"zXzXzXzXzXzXzXzXzXzXzXzXzXzXdXyXy     B h.h.m     7 v.c.n.l.l.l.l.l.l.c z l $.~.Q.Q.Q.Q.L.      5.h.h.3     B.zXzXvXzXdX1X    . d.g.g.$     2 1 1 2     3 h.h.5..     6XdXzX*.    n k.h.7.C C B 5 5 5 , : : m D C 5.h.h.B     y zXdXzXyXzXdXyXyXsXzXdXzXzXzXzXzX",
"nXzXzXzXzXzXzXzXzXdXzXzXzXdXzXdXy     B h.h.m     7 v.c.c.v.v.v.v.v.v.H z l $.~.Q.Q.Q.Q.L.      5.h.h.3     B.zXzXzXzXzX1X    . d.h.h.>                 3 h.h.5.      6XzXzX*.    n h.h.h.h.h.5.            S j.h.h.h.h.B     y sXsXzXyXsXdXyXzXzXzXzXzXzXzXzXzX",
"nXnXvXvXzXnXvXzXzXdXzXzXzXzXzXzXy     B h.h.m     f v.v.v.v.v.v.c.c.v.H z j $.).~.~.~.~.L.      5.h.h.3     B.zXzXzXzXzX1X    . d.h.h.$                 > h.h.5.      6XzXzXF     n j.h.h.h.h.6.            A h.h.h.h.j.C     t yXsXsXyXyXyXzXzXzXzXzXzXzXvXzXzX",
"nXnXvXvXxXvXnXzXzXzXzXzXzXzXzXzXy     B h.h.m     4 z.z.z.C.C.C.M.c.v.,.%.$.$.$.$.$.$.$.!       5.h.h.3     B.zXzXzXzXzX1X    . d.h.h.B n n n n n n n n B h.h.7..     6XzXzX>X>.>.G n n C h.h.d.n n n n n n 5.h.h.A n n F >.>.V.yXsXdXyXyXdXdXzXzXzXzXzXzXzXzXzX",
"xXvXvXnXvXzXzXnXnXzXzXzXzXzXzXzXy     B h.h.m     < @.@.@.D.D.D.N.c.v.oX^.~.$.j l l l l z       5.h.h.3     B.zXzXzXzXzX1X    . d.h.h.h.h.h.h.h.h.k.k.h.h.h.h.7..     8XzXzXzXuXuX>.    4 h.h.h.h.h.h.h.h.h.h.h.h.f     ;.dXdXuXuXuXdXdXuXsXsXdXzXzXzXzXzXzXzXzX",
"zXxXnXnXnXzXzXvXzXzXzXzXzXzXdXdXy     B h.h.m     < i.i.@.S.D.S.N.v.v.>X^.~.$.l l l l l r     . 7.h.h.3     B.zXzXzXzXzX1X    . f.h.h.h.h.h.h.h.h.h.h.h.h.h.h.7.      8XzXxXzXzXzX>.    5 j.h.h.h.h.h.h.h.h.h.h.j.f     :.dXzXzXzXdXzXuXdXzXdXzXzXdXdXzXzXnXzXzX",
"zXzXzXzXzXzXzXvXzXzXzXzXzXzXzXfXy     B h.h.m     < i.i.@.P.P.P.z.x.x.(.^.~.$.l l l l l r       7.h.h.3     B.zXzXzXzXzX2X    . B C C C C C D D D D C C C C C B       8XnXzXcXzXvX5X*.*.F A C C C D D D C C C D A F *.F V.zXzXzXzXzXzXyXyXzXdXzXzXyXzXzXzXzXnXvX",
"zXzXzXzXzXzXzXvXzXzXzXzXzXzXzXzXy     B h.h.m     < i.i.i.i.i.i.@.@.@.W.^.~.$.l z z z l r       5.h.h.3     B.zXzXsXuXuX1X                                            8XxXvXvXzXzXzXzXzX,X                        B.zXzXxXzXzXzXdXsXuXuXyXzXsXzXzXzXyXzXzXzXzXnX",
"zXzXbXyXzXzXzXvXzXzXzXzXzXzXzXzXi     B h.h.m     < i.i.i.i.i.i.i.i.i.W.^.~.$.l l z z z r       5.h.h.3     B.zXzXsXzXuX2X                                            8XzXxXzXnXzXzXbXzX5X                        t.sXzXzXdXyXzXdXyXyXyXqXdXsXzXzXzXzXvXzXzXzXzX",
"zXzXvXzXzXzXzXzXzXzXzXfXzXzXzXnXi     B h.h.m     < #.#.#.#.#.#.#.#.#.W.U.^.%.x r x c c c       5.h.h.3     B.zXsXzXzXzX1X8 t t t t t t t t t t t t t t t t t t t t u 9XnXzXnXzXzXnXnXzX<X8 t t t t t t t t t t - >XsXdXdXzXzXzXdXzXyXzXqXwXzXzXzXzXzXzXbXnXzXzX",
"zXzXzXzXzXbXzXzXzXzXzXzXzXvXzXzXi     B h.h.m     + l l l l l l l l l ! D.S.S.S.D.>.c.c.N.      5.h.h.3     t.uXyXzXzXzXyXrXtXyXyXyXyXyXyXyXrXyXyXyXsXyXyXsXzXfXfXyXyXnXnXnXvXzXzXzXvXzXzXzXzXzXzXzXzXzXzXzXfXyXzXzXzXcXzXzXzXzXyXzXsXdXzXyXdXzXzXzXzXzXzXzXzXzX",
"zXzXzXzXzXzXzXzXzXzXzXzXzXzXzXzXi     B h.h.m     + l l l l l l l l l ! D.D.D.D.D.>.v.v.N.      5.h.h.3     y.yXzXzXzXzXzXzXyXyXyXyXyXyXyXyXyXyXyXyXzXzXdXzXzXzXzXzXuXzXzXvXnXzXzXnXvXnXzXvXzXzXzXzXzXzXzXzXvXzXzXzXyXzXxXzXzXzXzXzXzXyXsXyXzXyXzXzXzXzXzXzXzXzX",
"zXzXzXzXzXzXzXzXnXzXzXzXyXyXyXdXi     B h.h.m     + x x x x x x l l l ! D.D.D.D.D.>.c.M.N.      5.h.h.3     B.zXzXzXzXzXzXzXzXzXdXyXuXyXuXuXyXyXdXyXyXzXzXsXzXdXyXyXyXzXzXzXzXnXzXnXnXnXvXzXzXnXvXnXxXzXzXzXzXzXzXzXzXzXzXxXzXzXzXzXzXzXzXzXzXzXzXzXzXvXzXzXzXzX",
"zXdXzXzXzXzXzXzXzXzXzXzXyXyXyXyXy     B h.h.m     7 m.m.m.m.m.m.c z l ! D.D.D.D.D.S.P.P.o.    . 5.h.h.3     B.zXzXdXdXdXdXzXzXzXzXzXuXyXdXzXyXtXdXyXyXyXsXzXzXzXzXzXzXzXzXzXzXzXzXvXnXnXzXvXzXnXnXnXzXzXnXnXzXzXnXzXzXnXzXzXxXzXzXzXzXzXzXzXyXsXzXbXzXvXzXzXzXzX",
"zXzXzXzXzXzXzXzXzXzXzXzXzXzXyXdXy     B h.h.m     7 v.c.c.c.c.c.c z l ! D.D.D.D.D.D.D.D.W     . 5.h.h.3     B.zXyXdXyXyXzXzXzXdXuXyXyXdXdXdXyXqXyXzXzXzXdXzXxXzXzXzXxXxXnXzXnXzXzXnXnXnXnXnXzXzXvXnXnXzXvXnXzXzXzXzXzXzXxXzXzXxXzXzXzXzXzXzXdXyXzXzXvXzXzXnXzXzX",
"zXzXzXzXzXzXzXzXzXzXzXyXuXzXzXzXy     B h.h.m     7 v.c.v.v.v.c.c z l ! D.D.D.D.D.D.D.D.W     . 5.h.h.3     B.zXdXzXyXyXzXsXyXdXzXyXyXdXzXzXuXuXzXzXxXxXdXdXzXzXcXcXcXnXxXzXzXzXzXzXzXnXnXnXnXzXnXnXvXzXzXzXzXnXzXzXzXzXzXzXzXzXvXzXzXzXzXzXdXsXzXzXzXzXvXzXzXzX",
"zXzXzXzXzXzXzXzXzXzXzXqXyXxXzXzXy     B h.h.m     8 oX(.(.H H H W.W.W.F.D.D.D.D.D.D.D.D.W       5.h.h.3     B.fXdXyXyXuX6Xp p p p p s p a p p p p p p p a p a p a a a a a a p p a a a a a a a a a a a a a a a a a a a p a a p ;.vXzXnXzXzXzXdXyXzXzXzXzXzXzXzXzX",
"zXzXzXzXzXzXzXfXfXfXzXyXyXzXzXvXi     B h.h.m     0 ^.^./.z z z /.~.!.D.D.S.S.S.D.D.D.D.W       5.h.h.3     B.zXdXsXdXzX1X                                                                                                    y vXzXzXzXzXzXzXsXzXzXzXzXzXyXyXzX",
"zXzXzXzXzXzXzXzXzXzXfXfXfXzXzXzXi     B h.h.m     0 ~.~./.l l l /.~.!.U.D.D.D.D.D.D.D.D.Z.    . 5.h.h.3     B.zXzXzXzXdX1X                                                                                                    y nXzXzXzXzXzXzXdXdXzXzXzXzXzXsXzX",
"zXzXzXzXzXzXyXsXyXyXyXyXyXzXzXzXy     B h.h.m     & R R R < < < R R R J J J J J J J J J 0       5.h.h.3     B.zXzXzXzXzX1X            g m m m m m m m m m m m m m m m m m m m m m m m m m m m m m m m m m m m m B 3           y vXzXzXzXzXzXzXdXdXzXzXzXzXzXzXzX",
"zXzXzXzXzXyXyXyXyXyXyXyXzXzXzXzXy     B h.k.m                                                   5.h.h.3     B.nXzXzXzXzX3X            6.j.h.h.h.h.h.h.h.h.h.h.h.h.h.h.h.h.h.h.h.h.h.h.h.h.h.h.h.h.h.h.h.h.h.h.h.j.g           i zXzXzXzXzXzXzXzXyXzXzXzXzXzXzXzX",
"zXfXzXyXuXzXyXyXyXdXyXzXzXzXzXfXy     C j.j.m                                                   7.h.j.3     B.vXzXzXzXzX3X            6.j.h.h.h.h.h.h.h.h.h.h.h.h.h.h.h.h.h.h.h.h.h.h.h.h.h.h.h.h.h.h.h.h.h.h.h.j.f           y zXzXzXzXzXzXsXzXyXsXzXzXzXzXzXzX",
"zXyXyXyXyXdXqXyXyXzXzXyXzXzXzXzXy     6 C C n 6 6 6 6 6 6 6 6 6 6 6 6 6 6 6 6 6 6 6 6 6 6 6 6 6 B B C @     V.zXzXnXnXzX3X      6 6 6 m B B B B B B B B B B B B B B B B B B B B B B B B B B B B B B B B B B B B C n 6 6 3     i zXzXzXzXzXyXdXzXzXyXzXzXzXzXzXzX",
"dXyXyXuXyXyXyXyXyXyXzXzXzXzXzXzXy           f j.h.h.h.h.h.h.h.h.h.h.h.h.h.h.h.h.h.h.h.h.h.h.h.g..           B.zXzXzXzXnX3X    . f.h.h.$                                                                           m j.j.C     y zXzXzXzXzXzXzXsXfXdXzXzXzXzXzXzX",
"dXzXuXuXyXyXyXuXzXsXdXzXzXzXzXzXy           f j.h.h.h.h.h.h.h.h.h.h.h.h.h.h.h.h.h.h.h.h.h.h.h.f.o           V.zXzXzXzXzX3X    . d.h.g.>                                                                           m h.h.B     y zXzXzXzXfXzXzXzXyXyXzXzXzXzXdXzX",
"zXzXdXzXdXdXdXdXzXzXzXzXzXzXzXzXy           6 6.4.4.4.4.4.4.4.4.4.4.4.4.4.4.4.4.4.4.4.4.4.4.4.S .           B.zXzXzXzXzX3X    . d.h.h.>     = - - e e e e * * * * * * * * * * % % % % % % % % % % % % % % %       m h.h.B     i zXzXxXvXzXzXzXzXyXyXzXzXzXxXzXzX",
"zXdXdXzXzXzXyXyXzXdXdXzXzXzXzXzXy                                                                           B.zXzXsXdXdX1X    . d.h.h.>     ' .X}.$X&X&X+XH.H.H.H.H.H.H.H.H./ q q q q q q q q q q q q q q q %     m h.h.B     y zXzXzXzXzXzXzXzXyXyXzXzXzXzXxXzX",
"zXzXzXzXzXzXzXzXzXzXuXzXzXzXzXzXy                                                                           B.nXxXzXzXzX1X    . d.h.h.>     ' .X}.$X&X&X+XH.H.H.H.H.H.H.H.H./ q q q q q q q q q q q q q q q %     m h.h.B     i zXzXyXzXzXzXzXsXuXyXyXzXzXzXzXzX",
"zXzXzXyXzXzXzXzXzXzXzXfXzXfXzXzXa X # # # # # # # = # # # # # # # # # # = = = = # # = = = = = # # = = = = X >XzXzXzXzXzX3X    . 7.h.h.>     ' XX.X$X&X&X#XJ.J.J.J.J.J.J.H.H._ q q U U U q q q q q q q q q q %     m h.h.B     i zXsXzXzXzXsXzXsXyXyXdXzXzXzXxXzX",
"zXdXzXzXzXzXdXzXzXdXdXsXzXzXzXzXqXqXqXqXqXqXqXqXqXqXqX9X9XqXqX9X9XqXqXqXwXwXqXqXqXqXqXwXwXyXyXqXqXqXqXqXqXqXzXzXzXiXzXdX1X    . d.h.h.>     [.&X*X%X%X&X=X|.|.|.|.|.|.J.H.H. .) ) ) ) ) / q q q q q q q q q %     m h.h.B     y zXzXzXzXzXzXdXsXyXsXyXzXdXdXxXxX",
"dXdXdXzXzXzXdXdXzXzXsXdXzXdXdXzXzXdXzXzXzXzXzXzXzXzXzXzXyXsXzXzXsXzXzXzXzXzXzXzXzXzXzXzXzXvXbXbXzXzXzXzXzXzXzXnXzXfXzXzX1X    . d.g.h.>     ].&X%X%X%X&X=X}. X X X X|.I.H.H. .[ [ [ [ [ / q q q q q q q q q %     m h.h.B     y zXzXzXnXnXzXzXzXzXdXyXzXzXdXsXzX",
"yXdXzXzXdXzXyXsXzXdXdXyXyXzXzXdXsXfXzXzXzXzXzXzXzXdXzXzXsXzXfXzXzXzXvXzXzXzXzXzXzXzXzXzXzXzXzXzXzXzXzXzXzXvXzXvXzXzXzXzX1X    . d.g.g.>     ].&X%X%X%X&X=X}.|. X X X|.I.H.H. .[ [ [ [ [ / q q q q q q q q q %     m h.h.B     i zXzXzXxXzXzXzXzXzXzXsXyXzXdXyXdX",
"zXdXyXyXzXyXyXsXdXdXzXdXdXsXzXdXsXiXzXzXzXzXzXzXzXzXzXzXyXzXzXzXzXzXzXzXzXzXzXyXzXzXzXzXzXnXzXzXzXzXzXzXzXzXzXxXvXzXzXzX1X    . d.g.g.>     ].&X&X$XXXXXXX X|.|. X X|.I.H.H.G.G.G.G.G.G. .q q q q q q q q q %     m h.h.B     y zXzXzXzXzXzXzXzXzXzXzXzXzXdXuXuX",
"zXzXzXuXdXdXsXsXyXzXdXzXsXsXdXdXzXzXzXzXzXzXzXzXzXzXzXzXzXfXzXzXzXzXyXzXzXzXzXzXdXzXzXzXzXnXzXzXzXzXvXbXzXzXfXvXnXzXzXzX3X    . d.h.h.>     ].&X&X$X}.}.|.|.|.|. X X|.I.H.H.H.H.H.H.H.H...q q q q q q q q q %     m h.h.B     y sXdXdXdXzXzXzXzXzXzXzXzXzXyXzXzX",
"dXdXzXyXyXdXyXyXdXyXzXdXdXdXzXzXsXyXdXzXzXzXzXzXzXzXzXzXzXzXfXzXzXzXzXzXzXzXzXzXzXzXzXzXzXzXvXzXzXzXzXzXzXzXyXzXzXzXzXzX3X    . d.h.h.>     ].-X&X$X}. X X.X.X.X.X.X.XI.H.H.H.H.H.H.H.H...q q q q q q q q q %     m h.h.B     y zXdXdXsXzXxXzXzXzXzXzXzXzXzXzXzX",
"uXdXzXyXyXzXzXyXdXdXdXdXdXdXsXsXyXdXzXdXzXzXzXzXzXzXzXzXqX;.=.=.=.=.-.-.-.=.=.=.-.=.=.=.>.zXzXzXzXzXzXzXzXzXzXzXzXzXzXzX1X    . d.h.g.$     O.$X$XXX X.X{.O.O.O.O.O.O.J.H.H.H.H.H.H.H.H...q q q q q q q q q *     m h.h.B     y zXzXzXzXzXzXzXzXzXxXzXzXdXzXzXzX",
"yXzXzXuXdXyXzXdXyXsXdXdXzXdXsXsXdXdXsXdXdXuXzXzXzXzXzXzX9X                              - fXzXzXzXzXzXzXzXzXzXsXzXzXzXzX3X    . d.h.h.$     ' .X}. X.X.X{.) ) ) ) ) [ G.H.H.H.H.H.H.H.H...q q q q q q q q q %     m h.h.B     y zXzXdXzXzXzXzXzXzXzXzXzXzXyXdXzX",
"iXzXzXzXdXyXuXuXyXuXdXzXdXdXuXyXuXrXzXzXuXuXzXzXzXzXzXnXqXX                             t zXzXzXzXzXzXzXzXzXzXfXdXzXzXzX1X    . d.h.h.$     ' .X X|. X.X{.[ [ [ [ [ [ G.H.H.H.H.H.H.H.H...w q q q q q q q q %     m h.h.B     y zXuXzXzXzXzXzXzXzXyXzXzXzXyXzXzX",
"yXyXyXyXyXuXyXyXzXdXzXzXuXzXdXuXyXuXdXdXyXyXzXzXnX9XB.V.>.g f f f f f f f f f f f f f f N B.B.B.yXzXzXzXzXzXzXzXdXzXzXzX1X    . d.h.h.>     ' .X X X X.X{.[ [ [ [ [ [ ................K. .` ` ` ` ` ` q q q %     m h.h.B     y zXzXzXzXdXdXzXzXuXdXzXuXuXdXzXzX",
"yXsXzXyXyXyXyXyXzXsXdXzXzXzXdXzXzXzXsXdXyXyXzXzXzX<X    o g.h.h.h.h.h.h.h.h.h.h.h.h.h.j.5.      9XzXzXzXzXzXzXzXyXzXzXdX1X    . d.h.h.>     ' .X X.X X.X{.[ [ [ [ [ [ ) ) ) ) ) [ [ [ [ [ [ [ [ [ [ [ U q q %     m h.h.B     y yXyXyXyXsXdXzXzXuXzXzXdXyXyXzXzX",
"yXpXzXyXyXyXzXuXyXzXzXzXzXuXzXzXpXzXzXdXzXyXfXzXzX4X    . f.h.h.h.h.h.h.h.h.h.h.h.h.h.h.6.    X 9XzXzXzXzXzXzXzXiXfXzXzX1X    . d.h.h.>     ' .X X X.X.X{.[ [ [ [ [ [ [ [ [ [ [ [ [ [ [ [ [ [ [ [ [ ) q q q %     m h.h.B     y yXyXyXyXuXuXzXzXzXzXzXdXyXyXzXzX",
"yXyXyXrXyXuXyXyXsXzXzXzXzXyXyXpXzXzXzXdXzXsX8X<X4XV.3 3 5 f.h.g.S A A A A A A A A 6.h.h.5.3 3 4 >X<X<XqXzXzXzXzXyXyXzXpX3X    . d.h.h.>     ' .X X|.{.{.O.[ [ [ [ [ [ [ [ [ [ [ [ [ [ [ [ [ [ [ [ [ [ ^ ^ ^ *     m h.h.B     y yXyXyXyXyXyXzXuXyXdXdXuXyXyXdXzX",
"yXyXuXsXyXyXuXdXzXyXsXyXuXyXyXyXyXdXyXuXyXzXt.    3 h.h.h.h.h.g.@                 5 h.h.h.h.h.f.o     <XzXzXzXzXzXyXzXzX1X    . 7.h.h.>     ' .X.XO.) [ [ [ [ [ [ [ [ [ [ [ [ [ [ [ [ [ [ [ [ [ [ [ [ [ [ | *     m h.h.B     y yXyXyXyXyXyXdXyXrXdXdXdXuXdXzXzX",
"yXyXzXzXyXyXuXyXdXuXuXzXuXyXyXyXyXyXuXyXyXyXt.    3 h.h.h.h.h.g.@                 5 h.h.h.g.h.f.o     <XyXpXzXiXzXzXzXzX1X    . d.h.h.>     ' .X.XO.) [ [ [ [ [ [ [ [ [ [ [ [ [ [ [ [ [ [ [ [ [ ) [ [ [ [ [ *     m h.h.B     y uXyXyXyXyXyXdXuXzXuXyXuXdXuXzXzX",
"yXfXzXzXzXdXyXyXuXuXyXzXzXyXyXdXuXyXyXqX8X9X>.o . 5 h.h.g.5.5.5.$ X X X X X X o o 6 7.5.7.g.g.f.> o o 5X9XeXqXiXyXzXzXzX1X    . d.h.h.>     ' |.|.O.) [ [ [ [ [ [ [ [ [ [ [ | | | | | | | | | | ......[ [ [ *     m h.h.B     y yXyXzXzXuXuXyXuXyXyXyXyXuXuXyXzX",
"yXyXzXzXxXzXyXzXzXdXsXzXdXzXzXuXyXpXuX;.  X g g.f.f.h.h.5..     ! %.%.%.%.T.,.8.8.2.    $ g.h.h.f.f.f.4 X   B.yXyXyXzXfX1X    . 7.h.g.$     q | | [ [ [ [ [ [ [ [ [ [ [ [ ) r._._._._._._._._.'.*X%X=X..[ [ *     m h.h.B     y yXyXyXyXyXyXsXdXuXyXyXyXyXdXzXzX",
"yXfXzXzXdXzXzXzXzXzXdXdXuXdXdXdXyXyXpX=.    f h.h.h.h.h.5.      ! R.T.T.T.T.,.0.w.2.    @ g.h.h.h.h.h.3     t.pXpXyXyXyX1X    . 7.g.g.$     q | [ [ [ [ [ [ [ [ [ [ [ [ [ ) r._._._._._._._._.'.%X%X%X..[ [ *     m h.h.B     y fXfXzXyXyXyXsXzXdXdXdXyXyXdXzXzX",
"yXfXzXzXzXzXzXzXzXzXsXzXdXdXdXzXyXyXyX=.    f h.h.g.g.g.5.      ! R.R.R.T.T.,.0.w.2.    @ f.g.g.h.h.h.3     t.yXpXzXfXyX1X    . d.h.h.>     q | [ [ [ [ [ [ [ [ [ [ [ [ ) ) r._._._._._._._._.'.%X%X%X..[ | *     m h.h.B     y zXfXyXyXyXyXdXdXyXzXzXyXdXyXdXzX",
"yXzXzXzXdXzXdXzXzXzXzXzXdXsXzXdXzXfXyX=.    f h.h.S @ @ $ ! ! ! E.;X;X;X;X;X,.0.0.8.3.3.2.@ @ $ 7.h.h.3     y.dXzXyXyXyX1X    . d.h.h.>     q | [ [ [ ) o./.U.U././.U.` ^ U r._._._._._._._._.'.%X%X%X#X#X#Xw     m h.h.B     y zXzXfXyXyXyXyXyXyXsXzXdXzXdXsXzX",
"uXyXsXzXsXzXsXsXzXdXzXyXyXyXzXzXzXzXfX=.    f h.h.A     X T.R.R.;X:X:X:X:X:X,.w.0.0.0.w.3.      5.h.h.3     B.zXzXfXdXuX2X    . d.h.h.>     q | [ [ [ ) o.Q.Q.Q.Q.Q.^.T w q r._._._._._._._._.'.%X%X%X&X&X&XY     m h.h.B     y zXzXzXfXzXzXtXqXdXsXyXzXzXzXzXsX",
"zXzXzXzXzXsXyXzXzXdXdXrXwXsXyXzXzXzXzX-.    f h.h.A     X T.R.R.;X:X:X:X:X:X,.w.0.0.w.w.3.    . 5.h.h.3     >.yXyXfXyXyX1X    . d.h.h.$     q | [ [ [ ) o.Q.Q.Q.Q.Q.^.T w q r.`._._._._._._._.'.%X%X%X%X%X&XY     m h.h.B     i zXzXzXzXzXyXdXyXyXyXyXzXzXzXzXyX",
"zXzXzXzXzXzXzXzXuXdXyXyXyXdXyXyXzXzXzX-.    f h.h.A     X Q Q Q Q Q Q r r r G w.w.9.E ] d       5.h.h.3     y.yXyXyXyXyX1X    . d.h.g.$     q | [ [ [ ) o.Q.Q.Q.Q.Q.^.T w q ` ( ( ( ( ( X._._.'.%X%X%X%X%X&XY     m h.h.B     i zXzXzXzXzXiXyXyXyXyXyXyXzXzXyXyX",
"yXdXdXsXzXzXzXsXzXzXdXdXdXzXyXyXyXzXzX=.    f h.h.A     X I L L L L L &     n w.w.9.K L I       5.h.h.3     t.dXzXyXyXyX4X    . d.h.g.$     q | [ [ [ ) o.Q.Q.Q.Q.Q.^.T w q q q q q q w ( _._.'.%X%X%X%X%X&XY     m h.h.B     y zXzXzXzXzXzXyXyXyXyXzXqXqXyXyXyX",
"dXzXuXsXzXdXzXzXzXzXdXyXdXdXyXyXtXyXzX-.    f h.h.A     X L L L L L L &     n w.w.9.L L I       5.h.h.3     B.sXsXyXyXyX1X    . d.h.h.>     q | ) ) ) ) o.Q.Q.Q.Q.Q.Q.T w w q q q q q q ( _._.'.&X&X&X&X&X&XY     m h.h.B     y zXzXzXzXzXbXzXyXyXyXyXyXyXyX9XtX",
"dXzXzXzXzXzXzXzXzXzXdXuXuXzXyXyXyXuXzX-.    f h.h.A     . G G G &.&.&.+.~ ~ +.G G ] L L I       5.h.h.3     B.zXzXzXbXzX1X    . d.h.h.>     T P.P.P.P.P.P.Q.Q.^.Y.Y.Y.} { { ^ q q q q q ( _._.`.OXOXOX%X&X&XY     m h.h.B     y zXzXzXzXzXbXvXzXzXiXfXfXzXyXyXyX",
"uXdXdXzXzXdXzXzXzXzXzXzXuXuXuXyXzXzXzX-.    f h.h.A     o 8.w.w.p.:X:X:X:X:X&.K L L L L I       5.h.h.3     B.zXzXzXzXzX3X    . d.h.h.>     ! !.!.!.!.!.Q.Q.Q.^.H.H.H.H.H.H./ q q q q q ( _._._.r.r._.@X&X&XY     m h.h.B     y zXzXfXzXzXzXzXzXzXzXfXzXfXyXyXzX",
"uXzXzXdXzXdXzXzXsXzXzXdXdXdXyXdXyXzXzX-.    f h.h.A     o 8.0.8.p.:X:X:X:X:X&.K L L L L I     . 5.h.h.3     B.zXiXzXzXzX1X    . d.h.h.>     ! ~.!.Q.Q.Q.Q.Q.Q.^.J.H.H.H.H.H./ q q q q q ( _._._._._.`.@X&X&XY     m h.h.B     y zXfXzXzXzXzXzXzXfXyXyXzXyXyXyXyX",
"zXzXzXzXzXzXzXzXzXzXsXzXzXzXzXzXyXyXpX=.    f h.h.A     o 8.0.8.a.a.a.&.&.&.Q L L P Q Q P       5.h.h.3     B.zXzXzXzXzX1X    . 7.h.g.$     E P.P.U.Y.Y.Y.Y.Y.Y.J.H.H.H.H.H./ q q q q q ( _._._._._.`.@X%X&XY     m h.h.B     y yXfXzXzXzXzXzXfXfXzXzXfXyXiXyXyX",
"zXiXzXdXzXzXzXzXzXzXdXzXzXzXzXsXdXyXyX=.    f h.h.A     o 8.0.0.0.0.w.] K L L L L Q R.R.!       5.h.h.3     B.zXzXzXzXzX3X    . 7.g.g.$     e w w ) H.H.H.H.H.H.H.H.H.H.H.H./ q q q q q ( _._._._._.`.@X%X&XY     m h.h.B     y fXzXzXzXzXzXzXzXzXzXyXfXfXzXzXzX",
"pXyXzXzXzXsXzXzXzXzXzXzXzXyXzXyXzXyXyX=.    f h.h.A     o 8.0.0.w.0.w.] L L L L L Q R.R.!       5.h.h.3     B.zXzXzXzXzX3X    . d.h.h.>     e q w { H.H.H.H.H.H.H.H.H.H.H.H./ q q q q q ( `._._._._.`.@X%X&XY     m h.h.B     y zXzXzXzXzXzXzXzXzXzXyXzXzXzXzXzX",
"yXyXyXfXyXyXsXzXzXzXzXzXyXyXiXiXzXyXzX=.    f h.h.S @ @ > 3.3.3.8.0.w.] L L P R R E ! ! ! @ @ $ 7.h.h.3     B.zXzXzXzXzX3X    . d.h.h.>     e q q _ G.G.G.G.G.G.H.H.H.H.H.H./ q q q q q ( `._._._._.`.@X%X&XY     m h.h.B     y zXzXzXzXzXzXzXzXzXzXzXzXzXzXzXyX",
"zXyXyXyXyXfXzXzXfXzXfXzXzXzXyXyXzXzXfX=.    f h.g.g.g.g.5..     3.0.w.] L L G 0.0.2.    @ f.g.g.h.g.h.3     t.zXzXzXzXzX3X    . d.h.h.>     e q q q q q q q q ^ H.H.H.H.H.H._ q q q q q ( _._._._._.`.@X%X&XY     m h.h.B     y zXnXzXzXzXzXzXzXzXzXzXzXzXzXzXzX",
"yXyXyXyXzXyXyXzXzXzXzXzXzXzXiXpXzXzXpX=.    f h.h.h.h.h.5.      3.0.w.] L L G w.w.2.    @ f.g.h.g.g.h.3     t.zXzXzXzXzX3X    . d.h.h.$     e q q q q q q q q ^ H.H.H.H.H.H./ q q q q q ( _._._._._.`.@X%X&XY     m h.h.B     y zXzXzXzXzXzXzXzXzXzXzXzXzXzXzXzX",
"fXiXfXzXzXyXyXyXyXyXfXzXyXyXyXzXpXyXpX;.  X g g.f.f.h.h.5..   . 3.8.8.E L L G 8.8.2.    $ g.h.h.f.f.f.4 X   V.zXzXzXzXzX2X    . d.h.g.$     e q q q q q q q q ^ H.H.H.H.H.H._ ^ ^ U q q ( _._._.`.`.`.*X%X&XY     m h.h.B     y zXzXzXzXzXzXzXyXzXzXzXzXzXzXzXzX",
"zXzXyXfXzXyXiXyXyXyXyXzXzXfXyXpXpXpXzXqX9XqX>.o . 5 h.h.g.5.5.5.> o o X X X . o o 6 7.5.7.h.h.f.> o o 5X9XeXyXzXzXzXzXzX3X    . d.h.g.$     e q q q q q q q q ^ H.H.H.H.H.H.OX#X=X[.w q q ^ ^ ) #X@X*X%X%X&XY     m h.h.B     y zXzXzXyXzXzXzXzXzXzXzXzXzXzXzXzX",
"pXyXyXyXyXpXyXyXyXyXyXfXyXyXyXpXzXzXpXzXzXzXB.    3 h.h.h.h.h.g.@                 5 h.h.h.h.h.f.o     4XvXzXzXzXyXzXzXzX1X    . d.g.g.>     e w q q q q q q q ^ H.H.H.H.H.H.+X&X&X].w q q q w _ %X%X%X%X%X&XY     m h.h.B     y zXzXyXyXzXfXzXzXzXzXzXzXzXzXpXzX",
"yXyXzXzXyXyXyXyXyXyXyXyXyXfXpXyXzXpXzXzXfXzXt.    3 h.h.h.h.h.g.@                 5 h.g.h.h.h.f.o     <XzXzXzXzXzXzXzXzX3X    . d.g.g.>     e U q q q q q q q ^ H.H.H.H.H.H.+X&X-X].w q q q w _ &X&X&X&X&X&XY     m h.h.B     y zXzXfXyXyXzXzXzXzXzXzXzXzXzXzXzX",
"pXyXyXyXzXyXyXzXzXfXfXyXzXzXyXyXyXzXpXyXyXzX8X,X4XV.3 3 5 f.h.g.S A A A A A A A A 6.h.h.5.3 3 4 5X<X<XqXzXzXzXzXzXzXzXzX3X    . d.h.h.>     % * % % % % * * % * 9 9 9 9 9 9 w Y Y e % % % % % * Y Y Y Y Y Y %     m h.h.B     y pXpXzXzXzXzXzXzXzXzXzXzXzXzXzXpX",
"pXpXpXzXyXyXzXyXzXfXfXzXyXpXiXyXyXzXfXyXyXzXzXaXyX<X    . f.h.h.h.h.h.h.h.h.h.h.h.h.g.h.6.    X qXyXfXzXzXzXzXzXzXzXzXzX1X    . d.h.h.>                                                                           m h.h.B     y yXpXyXyXpXzXzXzXzXzXzXyXfXfXzXzX",
"zXpXzXzXpXyXpXzXzXyXyXzXzXpXzXyXyXyXyXzXzXfXzXyXyX,X    o g.h.h.h.h.h.h.h.h.h.h.h.h.h.j.5.      9XyXzXzXzXbXnXzXzXzXzXzX1X    . f.h.h.$                                                                           m j.j.C     y yXzXyXyXyXyXyXzXzXyXyXyXfXfXsXzX",
"zXzXyXyXyXzXzXzXzXzXzXzXzXzXyXyXzXfXfXzXzXzXyXzXzXeXt.B.>.g f f f f f f f f f f f f f f N B.B.B.wXzXnXzXzXzXbXbXzXzXzXyX1X      f f f M m m m m m m m m m m m m m m m m m m m m m m m m m m m m m m m m m m m m m n f g 3     y iXiXfXyXyXyXzXzXyXfXyXyXyXfXyXfX",
"zXzXyXzXzXzXzXzXzXzXzXfXzXzXyXfXfXzXzXzXzXzXzXzXzXzXfXzXqXX                             t zXzXzXzXzXzXzXzXzXzXzXzXzXfXzX1X            6.j.h.h.h.h.h.h.h.h.h.h.h.h.h.h.h.h.h.h.h.h.h.h.h.h.h.h.h.h.h.h.h.h.h.h.h.j.f           y yXyXyXyXyXfXzXfXzXzXzXzXyXzXzXzX",
"zXfXfXzXzXzXzXzXzXzXzXzXyXyXiXzXzXzXzXfXzXzXzXzXzXzXzXzX9X                              - yXzXzXzXzXzXzXzXzXzXzXzXzXiXzX1X            6.j.h.h.h.h.h.h.h.h.h.h.h.h.h.h.h.h.h.h.h.h.h.h.h.h.h.h.h.h.h.h.h.h.h.h.h.j.g           y yXyXyXyXfXzXfXzXzXzXzXfXfXzXzXzX",
"fXzXzXzXzXzXzXzXzXzXzXzXyXyXyXzXyXzXfXyXyXzXzXzXzXzXzXfXqX;.=.=.=.-.=.-.-.-.-.-.=.=.=.=.>.fXzXzXzXzXzXfXzXzXzXzXzXzXzXzX1X            n C B B B B B B B B B B B B B B B B B B B B B B B B B B B B B B B B B B B C 3           y yXyXsXzXzXzXzXyXyXzXfXfXzXzXzXnX",
"zXzXfXfXzXzXzXzXfXzXfXyXfXzXuXyXyXyXzXyXyXzXzXzXzXzXzXfXpXpXyXfXzXzXzXzXzXzXzXzXzXzXzXzXzXzXzXzXzXzXzXzXzXzXzXzXzXzXnXzX3X                                                                                                    y zXzXyXdXzXfXyXyXyXyXfXfXzXzXzXzX",
"zXzXzXzXzXzXzXzXzXzXyXyXyXfXyXyXyXzXzXyXyXzXyXyXfXzXzXzXzXzXyXfXzXzXzXzXzXzXzXzXyXzXyXpXzXzXyXyXzXzXyXzXzXpXpXzXzXzXzXzX3X                                                                                                    y fXzXzXyXyXzXyXyXyXyXyXfXzXzXfXzX",
"pXpXzXzXfXyXdXyXyXzXyXyXyXyXyXpXzXyXfXyXpXzXzXzXzXzXfXzXzXzXzXzXzXzXzXzXzXzXpXyXzXzXpXyXiXyXyXyXzXzXpXzXzXzXpXzXzXzXzXzX8Xi y y i i y y y y y y y y y y y y y y y y y y y y y y y y y y y y y i y y i i i i i y y y y y i y y :.fXzXzXzXyXfXzXyXfXfXzXzXyXyXyXzX",
"zXzXzXzXfXyXzXrXyXyXzXiXyXyXyXpXuXzXfXfXuXyXzXfXzXzXzXzXzXzXbXzXnXnXnXnXzXyXyXyXyXyXyXyXyXyXfXzXzXzXzXzXzXzXzXzXzXzXzXzXzXzXzXzXzXzXzXzXfXfXzXzXzXzXzXzXyXzXfXfXzXiXzXzXyXyXpXyXpXuXyXyXyXyXyXzXzXzXzXvXnXnXvXnXnXzXzXzXbXbXzXzXzXzXzXzXyXzXzXyXyXyXzXzXzXyXyXzX",
"zXpXyXzXzXyXdXzXpXyXyXfXyXyXyXzXyXyXyXzXyXuXzXzXyXzXzXyXzXzXzXzXnXnXvXvXzXpXzXyXyXyXyXyXyXfXfXyXzXyXzXzXzXzXzXzXzXzXzXzXzXzXxXzXzXzXzXzXfXiXzXzXzXzXzXzXzXzXzXyXiXzXzXzXyXzXzXyXyXyXyXuXzXyXyXzXzXzXfXfXvXzXnXzXzXbXzXzXzXzXzXzXzXzXzXzXzXyXyXzXzXfXzXzXfXyXyXzX",
"zXzXzXzXzXyXzXzXzXyXzXyXfXzXyXyXzXzXzXzXzXzXzXzXzXzXfXzXzXzXzXnXnXzXzXzXzXzXzXzXzXuXpXzXyXfXyXiXzXpXzXzXzXzXzXzXzXpXzXzXzXzXzXzXzXzXpXzXfXzXpXzXzXzXzXzXzXzXzXyXuXzXzXzXyXzXzXyXyXyXyXyXzXzXzXfXfXzXfXzXnXvXvXzXzXvXzXzXiXzXzXzXzXvXzXzXzXfXyXzXzXzXfXzXyXyXfXzX",
"zXzXzXzXfXfXzXzXzXzXzXzXzXzXzXzXyXzXzXzXzXzXzXzXzXzXfXyXyXvXzXnXzXzXzXzXzXzXzXzXyXpXyXyXyXyXyXpXyXpXzXzXzXzXzXzXpXzXzXzXzXvXzXvXbXzXbXzXzXzXzXpXzXfXyXzXzXzXuXzXuXfXzXzXyXzXzXyXyXyXyXyXzXzXzXzXyXzXzXvXvXvXnXnXzXzXzXzXzXzXzXzXzXvXzXzXfXiXzXfXfXzXzXzXyXzXyXzX",
"zXyXzXzXfXzXzXzXzXnXzXwXzXzXzXzXfXzXzXzXyXzXzXzXzXzXzXzXvXvXzXzXzXzXzXzXzXzXzXzXyXyXyXyXyXyXfXyXzXyXyXzXzXyXyXyXzXzXzXzXzXzXvXvXzXzXzXzXzXzXzXzXzXzXfXzXzXyXzXdXzXzXzXzXpXzXzXyXzXyXyXzXpXyXzXzXyXyXiXzXbXvXvXnXzXzXyXbXzXzXzXzXzXyXfXzXyXyXzXzXyXyXfXfXfXzXfXzX",
"zXyXfXzXzXzXzXzXzXzXzXzXzXzXzXzXzXzXzXzXzXzXzXbXzXzXzXnXnXzXfXzXzXzXzXzXzXzXzXzXzXdXyXuXzXyXyXyXpXyXyXyXzXfXyXyXfXzXzXzXzXzXbXzXzXzXzXzXzXzXzXzXzXzXzXpXzXzXzXuXuXzXzXyXyXyXyXpXzXzXzXzXpXpXzXzXzXzXuXzXzXzXvXzXzXzXzXzXfXzXzXzXzXfXzXzXfXyXfXzXyXyXzXzXzXzXyXzX",
"fXyXzXzXzXzXzXzXvXzXiXyXyXyXzXzXzXzXzXzXzXzXzXzXzXzXzXzXzXzXfXzXbXzXbXbXzXzXzXzXdXyXyXuXdXyXyXyXzXzXyXfXfXyXyXfXzXzXzXzXzXzXzXzXzXzXzXzXfXzXzXfXzXzXzXiXyXyXdXzXzXzXzXpXyXyXyXyXzXzXzXzXzXpXzXzXzXzXzXzXzXzXzXzXzXzXfXzXyXzXzXzXzXfXvXzXfXyXfXzXfXfXzXzXvXzXzXzX",
"zXzXzXzXzXzXzXzXzXzXzXyXyXyXyXyXzXiXzXzXzXzXzXzXzXzXzXzXzXzXvXvXvXbXzXbXnXzXzXzXyXyXyXyXyXzXyXyXfXyXyXzXyXfXiXyXyXyXzXzXzXzXzXzXzXzXzXzXzXzXzXyXfXzXzXyXyXpXzXzXyXdXzXyXuXuXdXuXyXyXzXzXdXdXzXzXzXzXzXzXzXzXzXzXzXyXiXzXzXzXfXzXfXyXzXzXzXyXzXzXyXfXzXfXyXzXzXzX",
"zXzXzXzXzXzXzXzXzXzXiXyXtXyXyXdXzXyXyXvXzXzXzXzXiXzXzXzXbXzXzXzXxXbXvXzXpXzXzXzXzXyXiXyXyXzXpXiXfXyXyXzXzXzXzXyXyXuXzXzXzXzXzXzXzXzXzXzXzXzXzXzXzXzXzXzXpXzXuXyXyXyXuXuXdXuXyXuXyXzXzXzXyXsXzXyXzXzXzXzXzXzXzXzXpXzXyXzXzXzXzXzXfXyXzXzXzXzXzXpXyXyXzXzXyXyXyXyX",
"fXyXzXzXzXzXvXzXzXnXzXyXyXyXzXzXzXzXzXzXzXzXzXfXzXzXzXzXzXzXzXzXzXzXzXzXyXzXbXzXzXzXzXfXzXzXiXfXyXyXyXzXyXzXfXyXyXdXyXyXfXzXzXzXzXzXzXzXzXzXzXzXzXzXfXzXzXzXzXzXdXdXzXyXzXyXyXuXdXuXpXzXsXzXzXfXzXfXzXzXzXzXzXzXzXzXzXyXfXzXzXzXzXzXzXzXiXyXyXzXyXyXfXfXyXyXyXzX",
"yXyXzXzXzXzXzXzXzXzXzXyXzXyXiXzXzXzXzXzXzXzXzXzXzXzXzXzXzXzXvXzXzXzXzXvXbXzXzXzXiXzXzXzXzXzXdXyXyXyXyXzXyXyXzXzXyXyXyXyXyXfXzXzXzXzXzXzXvXzXzXpXzXzXzXsXzXzXzXzXdXdXzXuXyXyXzXzXzXzXyXzXsXdXdXzXzXzXzXyXpXzXzXzXzXzXzXzXzXzXzXzXzXzXzXzXsXyXyXyXyXsXzXiXyXiXzXzX",
"zXzXzXzXzXzXzXzXzXzXyXyXzXzXzXzXzXvXzXzXzXzXyXzXbXnXzXzXzXzXvXzXzXzXzXzXbXzXzXzXzXzXzXzXzXzXdXpXpXyXfXzXwXyXyXyXyXyXzXyXyXyXzXzXzXzXzXzXzXzXzXzXfXzXzXzXzXzXzXyXyXdXzXdXyXyXyXzXzXfXfXsXyXzXzXdXyXzXiXzXzXzXzXzXzXzXyXzXzXzXzXzXzXzXzXzXzXyXyXyXyXyXyXzXyXyXyXzX",
"zXyXzXzXzXiXzXiXzXzXyXfXvXxXzXzXbXzXzXzXzXzXzXbXzXbXbXzXzXfXzXzXzXzXzXzXzXzXzXzXzXzXzXzXzXuXuXzXzXyXyXyXyXfXfXyXyXyXzXzXzXfXfXzXpXiXiXfXzXzXyXzXzXzXzXzXsXzXdXyXrXyXzXzXyXzXuXyXyXyXiXzXzXsXdXzXzXsXzXfXyXzXzXyXzXzXzXzXzXzXzXzXzXzXzXzXzXsXyXyXyXyXyXyXyXfXsXfX",
"yXyXyXyXyXzXzXzXzXzXzXzXzXzXzXzXbXzXzXvXzXzXnXmXvXzXzXzXvXzXzXzXzXzXzXzXzXzXzXzXzXzXzXzXzXfXyXzXfXyXyXzXzXzXzXzXyXzXzXyXzXzXzXzXfXyXfXfXzXzXzXzXzXzXzXzXzXzXdXuXdXdXdXzXzXzXzXpXyXfXzXzXzXzXyXzXzXzXzXzXuXyXsXzXbXzXzXvXzXzXzXzXzXzXyXfXzXzXfXyXyXyXuXtXyXzXfXzX",
"yXzXzXyXyXyXzXfXzXzXzXzXvXzXzXzXzXvXbXnXzXfXbXMXbXzXzXzXzXzXzXvXbXzXzXzXzXzXzXzXzXzXzXzXzXyXzXzXfXfXyXzXyXyXyXyXsXdXyXzXzXzXzXzXzXzXyXfXzXzXzXzXzXzXzXzXzXpXzXdXyXyXsXzXzXzXzXpXpXzXzXfXsXzXzXzXzXzXpXyXsXdXzXzXzXzXzXnXzXzXzXzXzXzXfXzXzXzXzXsXyXyXyXqXyXyXzXzX",
"yXzXzXyXuXyXzXzXzXbXvXzXzXzXzXzXzXnXzXzXnXzXzXzXzXzXzXzXzXnXzXzXzXzXzXzXnXzXzXzXzXzXzXzXzXsXsXzXfXfXyXyXyXzXwXyXzXyXyXzXfXzXzXzXzXzXfXyXyXzXzXzXzXzXzXzXzXzXyXzXuXzXzXzXpXpXzXzXzXzXzXyXzXzXdXzXzXzXzXyXyXdXuXzXzXzXfXnXvXzXzXyXzXzXfXzXzXzXzXzXyXyXyXyXzXyXyXuX",
"zXzXzXzXyXzXzXzXzXzXzXzXzXzXzXzXfXzXzXzXyXzXzXzXzXzXzXzXzXzXnXzXfXzXzXzXzXzXzXyXyXzXzXzXzXzXdXyXzXyXyXyXyXpXyXyXyXyXfXzXzXzXzXzXzXzXvXzXzXzXfXfXzXzXzXzXdXzXzXzXzXzXzXzXzXzXzXzXzXzXzXsXzXsXzXzXzXzXzXzXzXzXuXzXzXdXyXzXzXzXzXzXzXfXzXzXzXyXyXzXzXzXzXfXzXyXrXzX",
"yXfXzXpXzXbXzXzXzXzXzXzXiXyXnXbXzXzXzXzXyXyXzXzXvXzXzXbXzXzXzXzXzXzXzXzXyXzXzXzXzXzXzXzXdXdXdXuXyXyXaXyXyXyXpXyXyXzXzXzXzXzXzXzXzXzXzXzXnXzXzXzXzXzXzXdXyXyXsXfXzXzXzXyXzXzXzXzXfXyXzXsXsXyXsXzXzXzXzXzXuXyXzXzXzXzXfXzXzXzXzXzXzXzXzXiXzXzXfXzXfXyXzXzXzXzXsXsX",
"pXzXzXzXzXzXzXyXzXzXyXyXzXbXvXzXzXzXzXzXzXzXzXzXzXzXzXnXzXzXzXzXzXzXzXzXfXzXzXzXzXzXyXzXyXyXyXyXyXyXyXyXyXyXzXfXzXzXzXzXzXzXfXzXzXzXzXzXzXzXzXzXzXbXzXsXsXyXyXyXzXzXzXyXfXzXzXzXfXzXzXzXzXzXyXzXzXzXzXzXzXpXzXzXzXzXzXzXzXyXzXyXzXzXzXzXzXbXzXzXfXyXyXyXyXzXfXyX",
"yXyXzXzXzXzXfXzXzXzXbXzXzXvXnXzXbXzXvXnXzXzXzXzXzXzXzXzXzXzXzXzXfXzXzXzXzXzXzXyXyXyXdXdXyXyXyXyXyXyXrXyXdXyXfXzXzXyXzXzXzXzXzXzXzXzXzXzXzXzXzXzXzXbXzXdXdXsXfXyXsXdXdXzXzXzXzXzXzXzXzXzXzXzXzXzXzXsXyXzXpXzXzXzXzXzXzXzXzXzXzXyXyXzXzXzXzXzXzXzXzXzXzXzXfXzXzXzX",
"yXyXzXzXpXpXyXyXzXzXzXzXyXvXnXvXbXnXvXzXvXzXyXzXzXzXzXzXzXzXzXpXzXzXzXzXzXzXyXzXyXyXyXzXyXyXyXyXyXyXyXyXyXzXzXyXzXzXzXzXzXzXfXzXzXzXfXzXzXzXzXiXyXzXzXzXsXdXyXfXyXsXsXzXzXfXzXzXzXzXzXzXzXvXzXyXzXzXzXzXzXpXzXzXzXzXzXzXzXzXzXfXyXzXyXyXzXzXzXzXzXzXzXzXyXyXyXyX",
"yXyXyXyXyXyXzXzXvXnXnXfXyXzXMXvXnXzXvXzXzXzXzXyXyXyXzXzXzXzXzXzXzXzXfXxXzXfXzXzXzXzXzXsXzXzXyXqXrXyXyXtXyXyXzXzXfXfXzXfXzXzXyXfXzXvXvXbXzXzXzXzXyXzXnXvXzXyXpXyXyXpXyXyXzXyXyXfXzXsXzXzXzXzXzXyXdXzXzXzXzXzXzXzXzXzXzXzXzXzXzXyXsXzXsXzXzXzXzXzXzXzXzXzXyXzXzXwX",
"yXyXyXtXyXyXzXzXfXyXnXvXzXzXvXmXnXzXzXzXzXyXyXzXzXzXzXzXyXfXfXzXvXzXyXzXyXyXyXzXpXzXzXzXzXpXyXqX7XtXyXqXyXyXzXzXzXiXzXzXzXzXzXyXfXzXvXvXzXfXvXvXzXzXzXzXzXzXiXyXpXzXyXyXzXpXyXfXyXsXzXzXdXsXzXzXdXzXzXzXzXzXzXzXzXzXzXzXzXzXzXsXsXzXzXzXfXzXzXzXzXzXzXzXyXfXzXyX",
"uXyXyXyXuXyXyXyXzXzXxXvXnXzXzXvXbXzXzXzXzXzXyXfXzXfXbXzXzXzXzXyXzXzXyXyXyXzXfXzXzXzXyXyXzXzXyXrX9XrXuXtXyXyXzXyXiXzXiXfXzXzXzXyXyXzXzXzXzXzXnXvXzXzXzXzXzXzXpXzXpXzXzXyXyXyXyXyXyXsXyXzXzXdXzXzXzXzXyXpXpXzXpXfXfXzXnXzXzXvXzXzXyXzXzXyXfXzXzXzXzXzXzXzXzXyXfXfX"
};
