/* XPM */
static char *wall_painting_01[] = {
/* columns rows colors chars-per-pixel */
"256 256 256 2 ",
"   c #000000",
".  c #050B05",
"X  c #090B0A",
"o  c #06080A",
"O  c #0A130B",
"+  c #0B1B0C",
"@  c #061307",
"#  c #060918",
"$  c #0C1617",
"%  c #141818",
"&  c #100F09",
"*  c #0C240C",
"=  c #0B2A0D",
"-  c #0C350F",
";  c #0D2717",
":  c #142915",
">  c #0D3715",
",  c #143717",
"<  c #122C0F",
"1  c #27271B",
"2  c #040727",
"3  c #0B1628",
"4  c #131928",
"5  c #050837",
"6  c #0B1637",
"7  c #131B37",
"8  c #0B2725",
"9  c #152729",
"0  c #0D3925",
"q  c #173928",
"w  c #0B2738",
"e  c #172639",
"r  c #163739",
"t  c #0B3739",
"y  c #27302D",
"u  c #184619",
"i  c #154C17",
"p  c #29531B",
"a  c #30661D",
"s  c #184625",
"d  c #194637",
"f  c #145030",
"g  c #244728",
"h  c #265928",
"j  c #2D5235",
"k  c #2A6328",
"l  c #376827",
"z  c #356B35",
"x  c #1E6433",
"c  c #4E741D",
"v  c #475531",
"b  c #477628",
"n  c #557B25",
"m  c #4B6D2F",
"M  c #657E25",
"N  c #61632A",
"B  c #040748",
"V  c #0A1647",
"C  c #050759",
"Z  c #091756",
"A  c #121A49",
"S  c #0C2447",
"D  c #152648",
"F  c #17374A",
"G  c #0C2657",
"H  c #142856",
"J  c #193757",
"K  c #0D364B",
"L  c #273748",
"P  c #283851",
"I  c #01046C",
"U  c #040867",
"Y  c #091968",
"T  c #040C7C",
"R  c #030976",
"E  c #08167A",
"W  c #121974",
"Q  c #0A2668",
"!  c #173667",
"~  c #092579",
"^  c #14267A",
"/  c #113272",
"(  c #24386E",
")  c #194C4A",
"_  c #2C4F4F",
"`  c #184577",
"'  c #19466D",
"]  c #2D4D6F",
"[  c #34684E",
"{  c #457347",
"}  c #506F76",
"|  c #485960",
" . c #443523",
".. c #718A1D",
"X. c #55832F",
"o. c #688827",
"O. c #77912C",
"+. c #588119",
"@. c #739176",
"#. c #618D5E",
"$. c #889828",
"%. c #99A21C",
"&. c #DABD06",
"*. c #E4C505",
"=. c #E8CE14",
"-. c #DAC82F",
";. c #E6CF2E",
":. c #DDC615",
">. c #94AD76",
",. c #A7B873",
"<. c #A2AA4E",
"1. c #B8C476",
"2. c #D2CB56",
"3. c #E7D549",
"4. c #D4D16D",
"5. c #E3DA72",
"6. c #FAEA4F",
"7. c #030C83",
"8. c #010B89",
"9. c #041383",
"0. c #071888",
"q. c #131C83",
"w. c #041C94",
"e. c #061A96",
"r. c #0A2788",
"t. c #142A86",
"y. c #0B368A",
"u. c #163889",
"i. c #082697",
"p. c #0A3896",
"a. c #143A95",
"s. c #132A95",
"d. c #243A89",
"f. c #0529A2",
"g. c #0938A6",
"h. c #123BA5",
"j. c #19468A",
"k. c #0A4698",
"l. c #164996",
"z. c #195799",
"x. c #0C4F97",
"c. c #24498A",
"v. c #28538B",
"b. c #244A93",
"n. c #275896",
"m. c #335B96",
"M. c #365788",
"N. c #1B619C",
"B. c #29669C",
"V. c #376999",
"C. c #357095",
"Z. c #0A48A8",
"A. c #1547A6",
"S. c #0A56A5",
"D. c #1759A4",
"F. c #0F51B1",
"G. c #1966A8",
"H. c #1267A9",
"J. c #2669A6",
"K. c #336AA4",
"L. c #2A74A8",
"P. c #3778A7",
"I. c #317AB1",
"U. c #265DA2",
"Y. c #477897",
"T. c #4A708A",
"R. c #467DA4",
"E. c #4B74A8",
"W. c #405989",
"Q. c #3B83AB",
"!. c #3683B1",
"~. c #578599",
"^. c #568C94",
"/. c #6C9792",
"(. c #79A796",
"). c #4686A9",
"_. c #558AA8",
"`. c #5995A9",
"'. c #478AB2",
"]. c #5796B5",
"[. c #4E91B0",
"{. c #6799A9",
"}. c #659BB5",
"|. c #6994A4",
" X c #77A5A8",
".X c #69A3B8",
"XX c #76A8B5",
"oX c #70A8AC",
"OX c #76AFC4",
"+X c #91B294",
"@X c #8AB6B9",
"#X c #94BAB9",
"$X c #87B0AD",
"%X c #9FAE93",
"&X c #B2C792",
"*X c #9AC1B9",
"=X c #A9C5B8",
"-X c #B1CAB5",
";X c #9EC29D",
":X c #CFD68F",
">X c #CBD2B4",
",X c #E0E396",
"<X c #8AB8C2",
"1X c #B6D1C2",
"2X c #9FC4C3",
"3X c #D6CDC4",
"4X c #DAD1C7",
"5X c #DDD5CC",
"6X c #DFD8CE",
"7X c #D7D0C7",
"8X c #DFD8D0",
"9X c #DFD7D0",
"0X c #CAD6C2",
"qX c #E0D7CE",
"wX c #E1D9CF",
"eX c #E0D7D0",
"rX c #E5DDD4",
"tX c #E8DFD6",
"yX c #E7DFD8",
"uX c #E8DFD8",
"iX c #E7E0D6",
"pX c #E8E1D7",
"aX c #E7E0D8",
"sX c #EAE1D8",
"dX c #EBE1D8",
"fX c #E9E2D8",
"gX c #E9E2D9",
"hX c #EAE3D9",
"jX c #EBE2D9",
"kX c #EAE2DA",
"lX c #ECE3DA",
"zX c #EBE4DA",
"xX c #EBE4DB",
"cX c #E9E5DA",
"vX c #ECE5DB",
"bX c #EDE4DB",
"nX c #EDE5DB",
"mX c #EDE6DC",
"MX c #EDE7DD",
"NX c #EEE7DD",
"BX c #EDE6DE",
"VX c #EBE3DB",
"CX c #EFE8DE",
"ZX c #EFE8DE",
"AX c #F0E7DE",
"SX c #F0E9DF",
"DX c #F0E9DF",
"FX c #EEE7E0",
"GX c #EFE8E0",
"HX c #F0E7E0",
"JX c #F1EAE1",
"KX c #F1EAE2",
"LX c #F4EFE9",
"PX c #F6F1E9",
"IX c #F8F2EA",
"UX c #C0B0A4",
/* pixels */
"bXrXrXrXrXpXbXtXpXbXbXbXbXpXbXbXbXbXiXbXiXrXiXpXbXpXbXbXbXpXrXrXrXbXpXrXpXrXtXrXrXrXrXtXrXrXrXrXrXrXrXrXrXrXrXpXtXbXbXrXtXbXbXbXbXbXbXbXpXiXpXbXbXiXbXpXbXiXaXbXaXGXJXZXGXbXbXbXbXpXZXiXbXbXZXJXbXGXZXbXbXbXbXbXZXbXbXbXrXpXbXiXbXbXbXbXbXbXbXbXJXFXbXZXbXiXpXiXpXbXrXtXrXqXrXrXrXpXrXqXrXrXrXbXbXrXbXpXrXpXpXrXpXrXpXrXrXpXpXtXrXrXbXrXrXbXpXrXrXrXpXrXrXiXiXiXbXbXiXiXpXrXiXbXrXrXbXiXbXpXbXbXpXrXbXbXbXbXbXbXJXZXJXbXbXbXbXbXbXbXpXbXZXbXbXbXiXbXbXbXbXbXbXbXiXbXbXbXbXbXbXbXbXbXbXbXbXbXrXrXiXbXbXbXbXbXbXbXtXbXrXtXbXrXiXGX",
"bXbXrXrXrXtXrXrXrXtXpXpXtXtXtXbXbXrXpXrXrXrXiXiXiXpXbXbXbXbXbXrXrXrXtXpXpXrXrXtXrXrXpXpXpXtXrXqXrXrXrXtXrXrXrXpXpXpXbXbXtXpXpXpXiXbXbXbXbXbXbXrXiXbXbXbXrXrXaXbXbXGXJXGXZXZXbXbXbXbXJXrXiXiXpXbXbXZXZXJXZXbXpXbXpXbXZXrXpXpXbXbXpXbXiXbXZXJXbXbXGXJXbXbXbXpXbXbXpXtXtXbXbXrXqXrXtXrXrXrXpXrXrXbXtXrXtXtXrXrXrXtXrXtXtXrXrXtXpXpXrXrXbXrXbXbXrXrXtXrXrXrXbXrXiXbXbXbXiXrXrXiXiXbXbXpXbXbXtXrXpXtXbXtXbXbXbXbXbXbXJXpXbXbXbXbXbXJXbXpXbXrXbXbXbXbXbXbXpXpXiXbXbXbXiXbXbXbXbXbXbXbXbXbXbXbXbXbXbXrXpXZXbXbXiXbXpXpXbXbXbXtXbXiXbXJX",
"bXbXbXtXbXtXrXrXrXrXtXbXpXrXrXrXbXpXbXpXiXiXbXiXiXiXiXbXbXbXJXbXrXrXrXbXpXbXrXrXrXrXrXpXrXtXqXqXrXrXrXrXtXtXtXpXbXpXrXtXbXbXbXrXrXiXbXbXbXbXZXbXbXbXbXbXrXbXJXJXbXJXJXJXJXJXSXbXiXbXbXrXrXrXbXbXZXbXJXJXJXZXbXbXZXbXpXrXbXbXiXbXbXbXbXbXbXJXbXbXbXFXGXZXSXbXrXrXtXbXrXrXbXbXtXrXqX5XqXrXrXrXtXbXrXrXpXbXbXbXrXbXtXrXrXrXbXrXrXrXrXtXbXtXpXpXbXtXtXrXrXbXbXbXbXbXiXiXpXpXbXpXiXbXpXpXpXpXpXpXbXbXbXbXpXbXbXbXZXZXbXbXbXbXbXZXbXJXbXbXbXiXbXZXbXiXbXZXbXiXbXbXJXZXbXbXbXiXbXbXpXbXbXZXbXbXbXbXbXbXbXbXrXrXbXbXbXrXpXrXpXpXbXZXbXbX",
"bXbXpXbXpXpXrXrXrXrXrXbXrXrXbXbXbXpXbXbXbXbXbXrXpXrXiXiXbXbXbXbXiXrXrXrXpXrXrXtXpXtXrXrXrXrXqXtXrXrXtXrXbXpXpXtXrXbXbXpXbXtXrXrXiXpXbXbXbXbXbXbXbXiXbXSXbXbXbXbXbXbXGXbXJXJXJXbXbXiXiXbXbXpXbXbXbXbXbXZXJXJXpXZXJXbXbXbXbXbXpXpXbXbXbXbXJXbXbXbXFXJXJXZXbXZXbXbXbXrXrXbXbXbXtXtX5XqXpXpXbXpXrXpXpXpXtXbXbXpXbXbXbXrXbXrXrXrXbXbXrXbXbXtXpXrXbXbXrXbXpXrXrXrXrXpXiXbXbXiXbXbXbXpXbXbXpXrXrXbXbXpXbXbXbXbXbXiXZXbXbXbXbXbXbXbXSXSXbXbXbXbXbXbXbXbXbXbXbXbXbXbXJXbXpXbXbXbXiXbXbXbXbXbXbXbXbXiXpXpXbXbXbXiXrXbXbXbXbXbXbXbXpXpXbXbX",
"bXbXpXtXpXAXtXrXrXrXrXpXrXtXbXtXbXbXiXiXpXbXpXbXbXrXbXiXpXbXbXbXbXbXbXrXpXbXbXpXrXrXbXtXrXrXrXrXrXrXrXtXtXtXtXpXbXtXbXtXbXbXrXrXiXiXrXpXpXbXrXbXbXbXZXJXSXpXbXbXbXrXrXrXbXbXbXbXbXrXiXrXiXbXbXbXJXrXrXbXbXZXbXbXZXZXZXbXbXbXbXbXbXbXbXbXZXbXbXbXbXGXbXbXZXJXSXbXbXrXbXbXrXqXrXrXtXrXpXtXtXpXpXpXrXbXtXtXbXbXbXbXbXpXtXrXrXtXrXbXrXbXAXpXbXbXtXrXpXtXrX5X5X6XrXrXbXbXbXiXbXpXpXbXbXpXbXrXrXbXbXbXbXrXbXiXbXbXbXbXbXbXZXbXbXbXSXbXiXbXbXiXbXpXpXbXbXbXiXiXpXbXbXbXbXbXbXpXbXbXbXbXZXSXrXbXbXbXbXbXbXZXbXbXbXbXbXbXbXbXbXbXbXrXbXZX",
"bXbXbXbXrXbXbXtXrXrXrXrXtXrXtXrXrXbXrXiXpXbXbXbXbXbXbXbXbXbXbXbXZXbXbXrXbXbXbXrXrXrXrXbXrXrXrXrXrXrXrXrXtXrXrXrXbXrXtXbXtXpXpXbXbXpXrXrXiXpXrXpXrXrXbXbXpXbXbXrXrXrXbX6XrXbXbXbXbXpXaXbXbXbXiXbXbXbXbXbXbXbXZXbXZXbXbXbXZXZXbXbXpXbXZXbXSXbXZXbXbXbXbXbXbXbXbXbXbXbXbXpXqX5X5XrXqXtXpXtXpXrXtXpXrXrXtXbXbXtXtXbXbXrXrXrXpXtXtXpXtXrXbXrXrXtXtXrXbXrXqXrXqX5X5XrXiXiXiXiXbXbXbXbXbXpXbXrXrXpXbXbXrXrXrXbXbXbXbXbXbXpXbXbXbXbXbXbXbXbXbXrXrXrXrXrXrXiXbXpXrXpXrXpXbXbXbXbXbXbXbXZXZXbXbXbXbXbXbXpXbXbXbXbXbXbXbXbXbXbXZXbXbXbXrXbX",
"bXbXbXbXbXbXbXtXbXbXtXrXtXrXrXtXrXiXiXiXrXpXbXbXZXZXbXbXGXbXbXrXbXbXJXbXbXbXbXrXpXrX5XbXbXbXtXrXrXqXrXrXrXpXtXbXbXbXtXrXtXbXtXpXbXrXpXrXrXrXqXrXbXbXiXbXiXpXbXrXiXrXJXrXrXiXbXbXbXbXbXGXGXbXbXbXbXbXbXiXpXbXbXbXbXbXZXbXbXbXbXbXiXiXbXbXJXbXbXbXbXbXbXbXbXbXbXbXbXbXpXrXiXrXqXrXrXrXrXtXrXrXrXtXbXtXrXtXpXtXrXrXbXrXtXtXbXrXtXpXbXpXbXtXtXrXtXiXrXbXqXrXrXrXrXrXbXbXbXrXpXbXbXiXiXiXbXbXpXiXiXbXrXrXrXiXbXbXpXbXpXrXbXbXbXbXbXbXpXrXrXrXrXbXpXtXrXpXrXrXrXbXbXbXbXbXJXbXbXbXbXJXSXbXbXbXbXbXbXbXbXbXbXbXbXbXSXtXbXbXbXbXbXbXiXbX",
"bXbXbXbXbXbXpXbXpXAXbXtXtXrXrXtXrXiXiXrXpXbXbXbXbXpXiXbXbXbXbXbXrXbXJXGXrXrXbXbXbXrXrXrXrXrXrXrXrXrXrXrXrXpXbXpXrXrXpXrXrXtXbXpXbXbXbXpXtXtXbXbXrXbXbXrXpXbXbXbXbXSXbXrXiXbXbXbXbXbXbXaXbXJXZXSXZXZXbXbXpXbXbXbXbXbXbXbXbXbXbXiXbXiXrXiXbXbXbXbXbXbXbXbXbXbXpXbXbXbXpXpXpXrXrXbXrXrXrXrXrXrXrXrXpXtXrXbXpXpXtXtXtXtXrXrXrXrXpXpXrXbXtXrXtXrXrXiXiXbXrX5XqXrXrXrXbXbXiXrXiXrXbXbXbXbXrXbXiXpXbXbXrXrXbXbXbXbXiXbXbXrXtXbXbXbXbXbXbXbXrXrXrXbXbXtXrXrXbXtXbXbXbXbXbXZXJXZXbXbXbXZXbXZXbXbXbXbXbXbXbXbXbXbXbXbXAXbXbXbXbXbXbXbXbXSX",
"JXGXJXbXaXbXbXpXbXrXpXpXtXrXrXrXrXrXrXbXrXiXbXbXpXbXbXbXbXbXbXbXaXbXbXbXbXiXaXbXbXbXpXrXbXtXtXrXtXrXrXrXrXrXrXtXrXrXrXpXrXbXbXpXtXbXrXtXbXpXbXtXbXrXrXbXbXpXSXbXbXbXrXiXbXbXbXbXbXbXaXrXbXJXJXZXJXSXrXpXbXbXbXbXbXbXbXbXbXbXbXZXbXbXbXrXrXbXbXbXbXZXbXbXbXbXbXbXbXbXrXpXiXbXpXrXiXrXbXrXrXtXtXpXpXrXbXtXtXpXrXrXtXtXrXtXrXrXtXpXtXbXtXrXrXrXtXpXiXbXbXrX5XqXrXrXrXpXiXpXbXrXrXrXpXbXiXbXbXbXbXbXbXbXbXbXbXiXrXpXpXbXbXbXbXbXbXbXtXtXrXrXbXbXbXbXbXrXbXbXbXpXbXbXpXSXbXbXbXZXbXbXbXbXbXbXbXbXbXbXbXbXbXbXbXbXbXtXbXpXbXbXbXbXbXbX",
"JXbXGXJXGXJXbXpXbXrXrXrXtXpXtXtXrXrXpXiXpXrXbXbXbXbXbXbXbXbXbXbXbXbXrXrXbXbXaXJXbXbXbXiXpXtXtXrXrXrXrXrXrXtXrXrXbXrXrXpXpXbXpXpXrXpXbXtXbXtXbXbXbXiXbXbXrXbXbXbXbXbXbXbXZXbXbXbXbXbXbXbXbXbXGXJXJXZXiXbXbXiXrXbXJXbXbXbXbXiXbXSXbXiXbXpXrXrXbXbXbXbXSXbXbXbXbXrXbXbXbXpXbXbXbXrXrXbXrXtXtXtXrXtXrXrXtXtXrXbXbXrXrXrXrXrXrXrXpXtXbXrXtXbXpXpXbXbXrXbXbXbXrXrXbXrXrXbXrXrXbXpXrXiXpXrXrXpXbXbXbXbXbXiXpXbXbXrXrXrXrXrXbXbXbXbXbXbXbXbXpXbXbXbXbXbXtXbXtXbXbXbXbXiXbXZXbXbXbXZXbXrXpXbXbXZXbXbXbXbXbXbXbXbXbXbXbXbXbXbXbXbXbXbXbXZX",
"bXbXbXbXGXGXbXbXAXJXbXrXpXtXtXrXrXiXiXrXbXrXbXbXbXbXbXbXbXGXbXbXbXbXrXrXGXaXbXJXZXbXZXbXrXrXrXtXtXtXrXrXrXtXpXtXbXbXAXbXbXbXbXrXtXbXtXbXtXrXbXbXpXbXrXiXrXrXbXbXbXbXiXpXbXbXbXbXbXaXbXbXbXLXJXbXbXJXZXbXbXbXbXbXbXJXbXbXbXpXbXbXZXbXrXiXiXrXpXbXbXbXbXbXbXbXbXpXbXZXbXbXbXbXbXbXrXbXrXrXrXrXtXrXrXtXtXtXpXpXbXrXtXtXrXrXrXrXtXrXtXtXtXrXtXtXtXiXrXbXbXpXpXtXrXrXtXpXpXbXbXbXrXbXiXbXiXpXbXbXrXiXbXbXpXrXiXiXiXrXpXtXbXbXbXbXbXAXbXbXbXbXbXbXbXbXtXpXrXrXtXbXbXbXGXbXZXbXZXbXSXbXbXbXbXbXZXbXbXbXbXbXbXiXbXbXSXbXbXbXbXpXpXbXbXJX",
"bXbXbXbXbXiXbXbXbXbXbXbXpXrXrXrXpXrXrXpXpXpXrXrXbXbXbXbXaXbXbXbXJXbXaXaXbXbXbXJXGXbXbXbXbXrXrXrXrXrXrXpXpXpXbXtXrXbXpXiXrXpXbXbXiXpXpXbXtXrXbXpXbXbXbXpXbXbXpXrXpXbXbXbXiXiXbXbXbXbXpXbXbXbXbXbXbXbXbXbXbXbXbXbXbXbXbXbXbXbXbXbXbXpXrXrXpXiXrXbXbXiXbXtXiXbXbXbXbXbXbXZXZXbXbXiXbXbXiXrXrXrXrXrXrXbXtXtXrXpXbXrXbXtXtXrXtXtXbXbXbXbXtXrXrXrXrXbXbXtXrXpXbXpXrXbXtXtXbXbXpXbXtXpXrXpXbXpXtXbXrXbXbXbXbXrXrXtXbXbXrXpXpXbXbXbXbXZXpXpXpXbXbXiXrXbXbXiXiXiXbXiXrXbXbXZXbXbXbXbXSXbXbXpXrXiXbXbXbXbXbXbXbXbXbXbXSXbXbXbXbXbXbXbXbXJX",
"bXbXbXbXbXbXbXiXiXpXpXtXpXrXrXrXtXtXrXpXpXpXiXbXiXbXbXrXbXbXbXbXbXbXbXyXbXbXyXFXbXbXbXbXbXpXrXrXtXrXrXbXrXrXrXpXrXbXbXbXrXbXbXiXiXbXbXtXtXpXrXpXtXbXbXrXbXbXpXpXpXpXtXrXpXbXbXiXiXbXbXbXbXbXbXbXbXbXbXbXbXbXbXbXbXbXbXJXbXbXZXbXbXrXbXiXpXbXbXiXrXbXbXbXbXbXbXbXbXbXSXbXbXZXbXbXbXbXpXrXrXtXrXrXtXbXrXrXrXrXbXpXbXpXbXrXrXbXpXpXtXpXtXtXrXrXbXpXpXtXrXrXtXbXbXrXbXpXbXpXpXpXbXbXtXrXrXpXbXbXtXtXbXbXrXrXrXtXrXrXbXbXbXtXbXbXbXZXbXbXbXbXbXbXbXiXbXiXiXiXpXbXrXrXbXJXSXSXbXbXbXbXbXbXrXbXbXbXSXZXbXbXJXbXbXbXJXbXiXbXrXbXbXiXrXbX",
"bXbXbXbXbXZXbXbXrXbXrXrXpXtXtXrXrXtXrXbXpXrXiXrXrXbXbXbXbXbXrXbXbXbXbXaXbXbXbXbXbXaXaXbXbXpXrXrXrXrXrXrXrXrXtXbXpXiXbXbXbXbXbXiXrXiXbXtXrXbXtXbXbXtXtXrXbXpXbXpXpXrXbXpXbXbXrXrXbXbXbXbXbXbXbXZXJXbXbXbXbXbXbXbXbXbXbXbXZXJXbXZXbXrXiXpXbXpXrXbXpXpXpXtXbXbXbXbXbXbXbXrXbXbXbXZXSXbXbXtXpXpXtXtXbXtXrXrXpXpXtXtXtXbXbXpXbXbXtXtXrXrXtXtXrXrXtXtXrXpXtXtXbXtXbXbXtXpXbXpXpXbXpXbXrXtXpXtXbXrXbXpXbXbXrXrXrXtXrXrXbXbXbXbXbXpXrXbXZXbXbXbXbXbXbXbXbXiXbXiXrXbXbXbXZXbXJXZXJXJXpXbXbXbXiXbXbXpXbXZXbXiXZXbXbXbXbXbXbXbXbXbXbXbXbXJX",
"bXbXbXbXbXbXbXbXrXrXrXrXrXtXpXrXrXpXrXpXrXrXrXbXbXbXbXrXrXbXbXbXbXbXbXaXbXbXbXbXbXbXbXbXbXbXtXrXrXrXrXrXtXtXrXrXpXiXbXiXiXbXiXpXrXrXpXAXtXrXpXpXtXbXtXpXbXbXbXbXrXrXrXiXbXbXbXiXiXrXrXiXpXrXiXbXbXbXbXbXbXbXbXZXrXbXbXbXbXbXbXJXZXrXrXrXbXbXbXbXpXbXbXbXbXbXpXbXbXrXbXpXbXbXZXbXZXZXbXbXtXtXrXrXbXbXtXpXbXbXbXpXrXrXbXbXrXbXbXtXrXrXrXrXrXrXrXrXrXtXbXpXtXrXrXpXrXbXbXtXbXtXbXbXbXbXbXpXrXtXtXbXbXpXrXrXrXpXrXrXtXpXtXbXbXbXbXbXZXbXbXbXbXbXbXbXiXbXiXrXrXbXbXbXZXbXbXiXbXZXbXrXiXiXbXiXbXpXrXbXbXbXbXZXbXbXbXbXbXbXbXbXbXbXbXbX",
"ZXbXbXbXbXbXbXbXpXrXrXrXpXrXrXtXrXrXrXrXrXrXiXbXbXbXbXbXiXbXbXiXiXbXbXbXbXbXbXbXbXbXrXaXbXbXpXrXrXrXrXrXtXrXrXrXpXrXpXpXpXbXiXpXbXrXpXtXrXrXbXpXbXpXtXbXbXbXbXbXrXrXrXbXiXbXbXbXbXrXrXbXbXiXrXbXbXbXbXbXbXbXbXbXbXiXbXpXbXbXiXbXJXbXbXbXbXbXbXbXpXrXbXbXpXrXbXrXiXbXbXbXrXZXbXbXpXbXbXbXrXpXrXtXrXtXtXpXtXbXbXpXbXrXtXbXtXbXbXtXtXrXrXrXrXrXrXtXtXrXrXtXrXtXrXbXtXbXbXqXrXrXbXpXpXtXbXrXrXbXrXbXbXpXrXrXrXrXrXrXtXpXtXpXbXbXbXbXSXbXbXbXbXbXbXbXbXpXiXbXbXbXbXbXbXbXbXbXrXJXbXiXbXbXrX6XbXZXrXpXbXrXbXbXbXZXbXbXbXbXbXJXbXiXbXbX",
"JXJXJXJXbXbXbXbXpXiXbXbXbXtXpXrXrXrXrXrXrXrXpXpXiXbXbXbXpXbXbXiXiXrXbXGXbXbXbXrXrXbXrXrXbXbXbXrXrXrXqXrXtXtXtXpXpXrXiXiXiXbXbXbXrXrXpXrXtXpXbXbXrXtXbXbXbXtXbXpXrXrXrXpXbXbXbXbXbXiXiXbXiXiXiXiXbXbXbXbXiXbXbXbXZXbXbXiXbXZXbXbXZXZXJXZXbXiXiXbXbXbXpXiXpXrXbXrXrXbXbXbXbXbXbXbXrXiXbXrXpXbXiXrXrXrXbXtXpXbXpXtXbXrXbXpXtXbXbXrXrXrXrXtXrXrXrXrXrXrXrXrXbXbXbXbXrXpXbXrXrXbXbXtXpXbXbXtXpXtXbXbXbXbXbXpXpXpXbXbXbXbXpXbXbXbXbXbXbXbXbXbXbXbXbXbXbXrXbXbXbXbXbXbXbXbXbXbXiXZXZXiXiXiXbXrXrXbXbXSXbXiXbXbXbXbXbXiXZXbXbXZXbXbXbXbX",
"bXJXJXJXJXGXGXGXbXyXbXrXrXrXpXtXpXtXpXrXrXrXrXrXpXbXbXbXbXbXbXbXbXbXbXbXbXbXbXbXaXbXrXbXJXGXbXrXiXrXqXrXrXrXrXpXbXrXiXbXrXbXbXiXrXrXiXbXpXpXpXpXrXrXpXtXtXbXtXbXpXrXrXrXpXpXiXpXbXbXpXbXiXiXbXbXbXbXZXbXrXbXbXbXbXZXbXbXbXbXbXaXbXbXbXZXbXbXbXbXbXbXbXbXbXiXrXbXbXbXbXbXbXbXiXbXrXbXbXbXbXbXbXiXiXbXbXrXrXiXbXpXtXpXpXbXbXbXbXrXrXpXbXbXtXrXrXrXpXtXrXbXpXrXpXbXpXpXbXtXrXbXtXtXtXpXrXtXbXbXbXbXpXtXrXpXbXbXbXbXpXbXbXtXtXbXtXbXbXpXpXbXtX>XqXbXbXbXbXbXbXbXbXJXbXiXbXbXbXbXZXiXiXbXpXbXbXbXtXbXbXiXiXbXbXbXbXrXbXbXbXbXbXbXbXZX",
"bXbXbXbXJXbXbXbXbXbXbXtXrXrXrXrXtXtXpXrXrXtXrXrXrXiXpXpXbXbXbXbXbXbXbXbXbXGXFXbXbXaXaXbXbXbXaXrXrXrXrXrXrXrXrXrXbXbXiXbXbXbXbXbXpXpXrXtXrXrXrXrXpXbXpXrXbXbXpXrXrXqXrXrXrXbXpXbXbXbXbXbXbXbXbXbXbXbXbXbXbXbXbXbXbXbXJXbXbXbXbXiXrXpXaXbXbXbXZXbXbXiXbXbXbXrXbXbXrXbXJXJXbXbXbXbXbXbXiXiXbXbXbXbXbXrXbXrXrXbXbXbXtXtXbXpXbXtXrXrXtXtXtXpXpXtXrXrXrXtXrXpXpXtXbXpXtXtXrXrXrXrXbXbXrXpXrXrXpXpXbXpXtXrXrXpXbXbXtXrXtXtXrXpXtXbXbXbXbXbXbXbXtXqXbXAXbXbXJXSXbXbXbXZXZXbXbXbXbXbXbXbXbXpXrXtXbXbXpXpXiXbXiXbXbXrXbXrXbXbXbXbXpXbXbXbX",
"bXbXGXbXbXJXbXbXbXbXbXbXtXrXrXbXrXrXrXqXrXrXrXbXrXrXrXiXiXbXbXbXrXrXaXbXbXJXbXbXbXbXbXbXbXbXyXrXrXrXrXrXrXrXbXpXrXrXiXbXiXpXbXbXrXbXrXrXrXrXrXrXrXtXpXtXtXtXqXrXtXtXrXrXbXbXbXpXbXbXiXpXbXbXiXbXiXbXbXbXbXbXbXaXbXbXbXZXbXZXbXbXiXpXrXbXpXbXbXbXbXbXbXbXbXbXbXbXbXbXIXJXbXbXbXbXbXbXbXrXbXbXbXbXbXrXbXbXrXpXbXbXrXtXpXbXpXrXrXpXtXrXrXtXbXtXtXbXrXrXrXrXpXbXbXbXbXrXrXrXrXpXtXbXtXSXrXrXrXpXbXpXtXpXrXtXtXpXbXbXpXrXpXbXbXbXbXbXpXpXpXbXbXbXbXbXbXbXbXbXbXbXbXZXbXbXbXbXbXbXbXiXiXrXbXtXbXbXbXrXrXiXbXbXbXbXbXbXbXiXbXpXbXbXbXZX",
"GXGXFXJXbXbXbXbXJXbXbXbXbXbXbXbXrXrX5XrXqXrXrXpXbXrXrXrXrXbXbXpXrXiXbXaXbXbXbXbXbXrXyXbXbXbXaXrXbXrXrXrXrXrXpXbXbXiXrXbXbXrXrXrXpXiXqXtXrXrXrXrXrXbXtXpXtXpXrXrXbXtXrXrXrXrXbXpXbXbXbXpXbXpXbXbXbXbXbXbXbXbXbXbXbXbXbXbXbXZXbXiXbXbXpXrXiXbXbXZXbXbXZXbXiXbXbXbXaXbXGXaXaXbXbXbXiXiXbXpXpXbXbXbXbXiXbXpXbXbXbXbXbXtXtXbXpXrXrXrXrXpXrXbXbXtXtXbXtXrXrXrXrXrXrXrXbXtXtXrXpXbXpXbXpXtXpXrXtXbXpXpXpXtXrXtXrXrXrXrXpXpXrXrXpXbXbXtXpXrXpXbXbXpXbXbXbXbXiXbXbXpXZXZXaXbXbXiXiXrXbXbXrXpXtXrXrXtXtXpXbXiXbXbXbXSXZXbXbXpXbXpXbXbXZXJX",
"bXGXJXJXbXbXaXbXbXbXaXpXbXtXpXbXtXrX5XrXrXtXrXpXbXiXrXrXrXiXrXpXiXaXbXbXbXbXbXbXbXrXbXbXbXbXbXyXaXaXrXrXrXrXrXbXbXbXbXbXbXiXiXrXbXbXrXtXrXrXrXtXrXbXpXbXtXtXpXrXrXpXpXiXiXbXbXpXbXbXiXiXbXbXbXbXpXbXbXZXbXZXbXbXiXiXiXbXaXbXbXbXtXrXqXrXbXbXbXSXZXZXSXbXbXbXZXbXbXbXrXaXbXrXpXrXiXiXrXiXrXrXbXbXbXbXiXiXbXpXrXqXrXrXrXpXbXrX5XrXrXbXrXrXrXtXpXbXbXbXtXbXrXrXrXrXbXbXrXrXtXrXrXtXtXbXpXrXrXtXtXpXbXrXpXrXtXrXrXrXrXrXtXrXtXtXpXbXrXrXbXbXpXtXrXbXbXbXrXpXbXbXZXZXbXrXrXrXrXrXbXrXrXrXbXqX5XpXrXrXpXbXbXbXbXbXJXbXbXbXbXbXiXbXbXJX",
"bXbXGXbXbXbXrXrXuXrXrXrXtXpXbXbXrX5XrXrXtXrXrXpXpXbXrXrXrXiXrXrXrXbXbXrXpXbXbXbXbXbXbXbXbXbXiXrXrXtXrXrXrXrXpXrXrXrXbXbXbXbXpXrXrXpXrXtXpXrXrXrXrXbXbXbXbXbXrXrXrXrXrXrXrXpXbXpXbXiXrXiXbXbXrXbXZXbXbXbXbXbXiXbXbXrXrXaXaXbXbXbXbXrXrXrXbXbXbXbXbXbXbXbXSXbXZXZXbXbXbXrXiXbXbXpXbXiXiXbXrXpXpXrXbXbXiXiXpXrXtXqXrXtXrXbXtXrXtXrXrXrXrXrXrXtXtXrXbXbXrXrXrXtXrXrXbXbXrXrXrXrXtXbXrXrXtXbXtXtXbXtXtXpXbXbXbXrXpXrXtXrXpXrXpXbXrXrXrXrXrXbXrXrXrXtXbXbXpXpXiXbXZXJXbXrXrXrXbXrXpX6X6XrXpXpXrXbXbXpXbXbXbXJXbXrXbXbXbXbXbXbXiXbXbXZX",
"bXbXbXbXbXbXrXtXbXpXrXtXtXbXbXrXrXrXpXbXbXrXrXtXrXrXrXqXqXrXrXrXrXrXbXbXbXbXbXbXbXbXbXrXbXbXrXrXrXrXrXrXrXrXrXrXrXrXpXbXbXpXbXtXtXrXrXrXtXbXrXrXbXbXbXrXtXpXpXtXrXtXrXrXpXpXbXbXbXbXiXbXbXbXbXbXbXbXbXbXiXbXrXrXiXbXiXrXbXpXbXbXbXbXrXpXpXbXbXbXbXbXbXbXbXbXbXbXbXZXbXbXbXbXbXbXiXiXiXrXrXbXbXrXbXbXiXiXpXrXrX5X5XrXpXtXpXrXpXpXtXtXpXpXrXpXrXrXrXtXpXtXrXrXrXrXrXpXrXrXrXpXrXrXrXrXpXbXbXbXbXbXrXrXrXrXrXrXtXpXbXrXrXrXtXpXbXbXrXtXbXbXrXtXrXpXbXbXbXbXrXrXbXJXbXrXrXbXZXbXiXpXrXrXrXpXtXpXpXrXiXbXbXSXbXtXbXbXbXbXrXiXbXbXiXZX",
"bXbXbXbXbXbXbXpXrXbXrXrXtXrXrXrXtXtXbXbXrXrXrXpXrXrXrXtXrXrXrXrXtXpXpXbXbXbXbXpXpXtXbXrXbXbXrXbXbXtXrXrXrXtXpXrXqXrXrXrXbXpXpXpXbXtXrXrXrXrXbXrXbXbXrXbXtXpXbXtXrXrXrXrXpXbXbXbXbXpXbXbXpXbXbXbXrXrXbXbXbXbXbXbXrXrXbXbXiXrXiXbXrXbXpXbXbXbXbXbXbXbXbXbXbXbXiXbXbXbXbXbXbXiXpXbXbXbXrXrXrXbXbXrXbXiXiXpXbXrX5X5XrXbXbXrXrXrXtXpXrXrXbXbXbXrXpXbXbXpXtXbXtXrXrXrXbXAXrXrXbXrXrXrXrXrXpXbXpXbXtXpXbXtXrXrXrXtXtXrXrXbXtXrXpXrXbXtXrXpXbXbXbXrXrXbXbXbXpXtXbXtXbXZXbXiX6XrXbXbXrXrXrX5X5XrXpXbXtXpXbXbXbXbXbXbXbXbXpXrXrXbXrXrXrXZX",
"JXGXGXFXbXrXtXbXtXtXrXbXrX5XqXrXrXrXbXpXrXrXrXrXrXrXrXrXpXpXrXqXrXrXrXiXpXpXpXpXpXrXrXrXqXrXrXpXtXtXtXrXrXrXrXrX5X5XqXrXbXpXtXbXbXbXtXtXrXpXbXrXbXtXtXbXbXbXbXbXrXtXrXtXrXrXrXrXpXbXpXpXiXrXrXbXbXiXbXiXiXrXbXbXqX5XbXbXrXrXpXpXpXpXbXbXbXbXbXbXbXpXbXbXbXbXbXbXbXbXSXbXZXbXbXiXbXbXbXbXbXJXpXiXiXbXiXrX6X5XqXrXbXrXpXbXrXrXpXrXrXrXrXbXbXrXpXbXbXrXpXrXrXpXpXrXbXpXbXpXtXrXbXbXpXbXbXbXpXbXbXpXbXbXrXtXbXtXpXpXrX5XbXpXrXrXrXbXpXtXrXrXpXpXrXtXtXpXrXtXbXtXbXbXbXpXrX6XrXbXiXbXbXrXrXrXrXrXpXbXbXbXbXbXbXbXSXrXrX5XrXbXrXrXiXbX",
"bXFXGXbXbXbXtXpXtXrXrXtXrXrXbXpXrXpXbXpXtXpXrXrXtXpXrXrXrXrXtXrXtXrX6XrXpXpXpXbXtXrX3XtXrX5XrXtXtXpXbXbXrXrXrXrXrXrXrXtXtXtXrXpXtXbXbXrXpXpXrXrXtXtXpXtXtXbXrXbXbXtXrXtXrXrXrXrXtXpXrXrXrXrXrXrXrXbXiXbXbXrXbXbXbXpXbXbXpXpXZXbXbXrXbXbXbXbXbXbXbXbXbXbXiXiXiXiXbXbXbXbXpXbXbXbXbXZXbXbXbXbXiXbXpXiXrXiXrX6XbXrXbXrXbXtXrXrXrXrXtXrXrXbXbXpXbXpXtXtXrXtXpXtXpXtXrXrXpXbXrXbXbXbXbXbXbXbXbXpXtX5XrXbXtXtXtXbXpXpXrXpXrXpXpXbXbXbXtXrXrXrXtXtXbXbXtXbXbXbXJXrXbXbXiXiXiXrX5XrXbXbXiXpXrXtXrXrXrXbXbXbXbXbXbXbXbXrXrXrXrXpXbXbXpXbX",
"GXFXaXbXbXbXtXrXrXrX5X5XtXrX5XtXbXbXbXtXbXbXpXrXbXbXpXrXrXrXrXbXbXrXrXrXrXrXrXpXpXbXbXrXbXbXrXrXtXbXbXbXrXrXrXrXrXrXrXrXbXrXqXrXpXpXbXrXbXbXpXrXtXtXrXtXbXbXbXbXbXtXtXrXtXpXtXrXrXrXrXrXrXrXiXpXiXrXiXbXbXbXbXbXbXpXbXbXiXpXbXbXpXpXbXbXbXbXbXbXbXbXbXbXbXbXrXiXrXrXbXbXpXbXbXpXbXbXJXbXiXiXbXbXbXrXiXbXbXbXpXpXbXpXbXrXrXtXtXtXbXrXrXbXpXrXrXrXpXbXrXrXpXrXrXbXrXpXpXrXpXpXbXbXbXbXbXbXbXbXpXrXpXpXpXbXpXtXpXpXrXbXrXrXrXbXbXpXpXtXrXrXtXtXbXbXpXrXpXrXbXbXbXbXpXiXbXbXbXrXrXrXbXbXrXbXrXrXpXpXbXrXrXbXbXbXbXrXtXrXbXbXbXbXbXbX",
"bXiXiXiXbXbXrXrXbXbXrXrXtXrX5XrXrXrXbXbXbXpXiXrXrXiXpXpX5XqXrXrXpXtXrXrXrX5XqXrXrXrXrXtXrXiXpXrXrXpXrXpXrXrXqXrXrXrXrXrXpXrXrXrXtXpXbXbXpXbXtXrXtXrXpXpXtXrXtXAXrXrXrXrXtXpXpXrXrXrXrXrXrXrXtXtXpXtXrXbXbXbXbXbXbXtXbXbXbXbXtXtXrXtXbXbXpXpXbXbXbXbXbXiXbXbXbXbXbXrXiXbXrXrXrXrXbXpXbXbXbXpXrXiXbXbXpXpXrXrXbXbXpXbXbXpXrXpXrXrXrXrXrXbXpXtXrXrXpXpXrXrXrXtXpXbXbXpXbXpXpXiXbXbXpXbXbXbXbXbXbXbXbXrXiXiXbXbXiXrXpXbXrXpXtXrXpXpXtXpXpXrXbXbXbXrXtXbXpXbXbXbXbXbXbXbXbXpXbXrXrXbXbXbXiXbXiXiXbXrXtXrXrXbXbXbXbXbXbXbXbXiXbXrXrXbX",
"rXiXrXrXiXbXbXbXbXbXuXbXpXpXtXrXqXrXtXpXtXtXbXiXrXrXbXbXqX5XrXbXpXpXtXrXrXrXrXrXrXrXtXrXrXiXbXiXrXrXbXpXrXrXrXpXbXtXrXrXrXtXrXrXrXrXrXtXtXrXrXbXtXrXtXtXpXpXpXpXrXrXrXrXpXtXrXrXrXtXpXrXrXrXrXpXrXrXpXbXpXpXpXbXbXrXrXbXbXpXtXtXpXtXtXbXbXbXbXbXbXiXbXbXbXbXbXbXbXbXiXrXrXrXbXZXiXiXbXbXbXbXbXiXiXbXpXbXbXiXpXbXbXbXpXpXrXrXqXrXqXpXtXbXbXbXpXpXrXpXpXpXbXbXpXrXbXbXpXpXpXbXpXbXtXtXrXrXbXrXpXbXrXbXbXbXpXbXbXrXbXbXbXpXrXrXtXtXtXtXbXbXtXbXbXpXbXbXtXbXbXbXbXbXbXbXbXbXiXpXrXbXbXrXpXbXrXrXrXrXrXrXrXrXpXbXbXbXbXbXbXbXrXpXrXbX",
"bXbXbXrXrXbXbXuXbXbXbXbXtXpXrXrXrXrXtXtXrXrXiXbXrXpXiXbXpXrX5XqXtXbXtXpXrXrXrXrXrXrXtXtXtXpXrXrXbXbXtXrXtXpXbXrXrXbXpXbXtXpXpXrXrXrXrXrXrXrXpXpXrXbXtXrXtXpXpXrXtXrXrXrXtXpXpXpXbXrXrXrXrXrXpXbXtXrXrXbXtXpXpXrXbXtXbXpXtXrXtXbXtXpXtXrXbXbXpXiXiXiXbXbXbXbXbXbXbXbXbXpXbXbXiXiXbXbXbXiXbXbXZXbXbXbXbXiXiXrXpXpXpXpXtXbXrXrXrXrXqXqXrXpXbXbXrXrXiXiXbXpXbXrXrXrXpXbXbXbXiXiXiXiXtXtXtXtXpXbXiXrXrXbXbXbXpXbXbXpXbXiXbXpXrXrXrXpXrXrXrXtXrXrXbXbXrXrXrXtXbXbXbXbXbXbXbXpXpXbXbXiXpXpXpXpXpXiXbXpXrXqXrXrXtXbXbXbXpXbXpXpXiXbXpXbX",
"ZXbXbXiXbXbXbXbXbXbXJXbXrXrXrXpXpXpXtXpXrXrXiXbXiXpXpXiXbXrXrXrXrXrXrXbXrXrXrXrXrXrXrXtXtXrXrXpXrXrXrXrXbXtXtXrXrXrXbXtXpXpXrXrXrXtXrXpXrXtXrXrXtXrXbXbXbXtXrXpXpXtXrXrXrXrXbXbXpXtXrXrXtXrXrXrXrXrXrXbXpXbX5X4XqXrXpXpXbXpXpXtXpXbXpXtXrXbXiXrXiXbXbXbXbXbXbXpXbXiXbXbXbXiXbXbXpXbXbXiXbXZXbXJXbXpXbXpXrXrXiXrXrXtXtXrXqXrXtXqXrXrXtXtXpXpXrXrXpXbXbXpXiXrXrXtXbXbXbXbXbXrXrXbXtXrXrXpXbXbXbXrXiXrXiXbXbXbXbXbXbXiXbXbXrXrXtXpXrXrXrXrXrXpXbXbXtXtXtXtXbXtXbXbXbXiXiXbXbXbXbXbXpXbXrXbXbXbXbXpXrX5XrXrXpXbXbXbXrXpXpXpXbXiXiXbX",
"iXbXrXbXbXrXbXbXbXbXbXbXpXrXrXtXbXbXbXbXtXbXpXrXpXpXpXiXpXrXrXrXrXrXrXbXtXrXrXrXrXrXrXrXrXpXrXrX5XrXrXrXtXrXpXrXrXrXpXtXrXbXrXqXrXrXrXqXbXbXbXbXbXbXbXbXbXpXbXbXrXrXrXrXrXrXpXbXbXbXtXpXrXrXrXtXpXtXrXtXbXrXrXqX5XrXpXpXbXpXpXrXbXbXbXbXbXrXbXbXbXbXbXbXbXpXbXbXbXbXbXpXbXbXZXbXbXbXiXbXbXbXbXbXbXbXbXiXiXpXrXrXbXtXrXpXrXrXbXbXbXbXtXpXbXbXrXiXbXbXiXrXrXtXrXrXpXpXiXbXbXbXiXbXbXtXrXrXrXrXpXrXiXrXpXbXbXbXpXbXbXbXiXiXaXiXrXbXtXrXtXrXrXpXtXtXbXbXbXbXbXpXbXbXpXrXrXbXbXbXbXbXbXbXrXiXiXbXbXpXrXrXrXrXpXbXbXbXbXrXrXbXbXbXrXbX",
"iXaXiXbXGXbXbXbXbXbXbXbXbXbXbXpXrXbXpXbXbXbXbXrXbXbXiXbXpXbXbXrXrXrXbXbXbXtXrXrXqXqXqX5X5XqXqXqXrXqXrXtXtXtXtXrXrXrXrXrXrXrXiXrXrXrXrXrXbXbXbXbXbXbXbXGXbXbXbXbXiXbXrXrXrXrXrXaXyXuXbXbXbXyXrXrXrXrXtXpXbXpXtXpXpXrXpXpXrXtXbXbXtXbXtXtXbXbXbXbXZXZXbXbXbXbXbXbXbXbXbXrXbXbXbXbXbXbXbXpXbXbXbXbXbXbXbXbXbXbXbXbXpXbXbXpXtXrXrXbXbXbXbXrXiXbXrXrXbXbXbXrXrXrXiXpXbXpXbXbXbXbXpXiXpXbXpXrXrXrXpXtXiXiXpXbXpXpXbXbXpXbXiXiXaXbXpXrXrXbXpXtXrXrXbXbXpXbXbXpXbXrXbXpXbXtXpXpXbXbXpXbXbXiXiXiXpXpXbXbXbXpXrXbXrXbXbXbXbXrXpXbXbXpXrXbX",
"bXbXbXJXJXbXbXbXbXbXbXbXbXbXbXbXpXrXpXpXpXrXbXbXbXbXbXbXpXbXbXiXrXrXtXbXrXrXiX5XqXrXqX5X4X4X4X5XqXqXrXrXtXrXrXrXbXbXrXrXrXrXiXbXrXiXbXbXbXbXrXbXbXbXbXGXbXbXbXaXbXbXbXrXbXaXrXrXrXrXrXbXbXbXrXrXrXrXrXbXbXbXrXpXpXrXrXrXrXrXrXbXtXtXbXbXbXbXrXbXbXbXbXbXbXbXbXbXbXbXbXrXiXpXiXbXbXbXbXbXbXbXbXiXbXrXiXbXbXbXbXbXrXiXrXiXrXrXrXrXbXbXrXrXiXbXrXrXbXbXbXpXiXiXbXbXbXbXbXbXbXbXbXiXtXrXpXtXrXqXrXbXrXtXrXtXpXpXbXpXpXbXpXiXpXbXpXrXpXbXrXrXbXrXrXpXbXtXpXbXbXrXbXbXbXbXtXpXbXbXpXbXbXbXiXbXbXiXpXpXbXbXrXiXrXpXrXbXbXtXbXtXbXbXbXbX",
"GXJXJXGXbXGXbXbXFXrXaXbXbXbXbXbXbXbXbXbXbXtXpXrXrXbXaXbXbXrXrXrXbXbXpXrXrXbXbXrXrXrX5X5X5X5X5X4X5XqXrX5XrXtXrXtXrXrXpXtXbXiXpXiXrXpXpXrXaXbXbXbXbXGXbXbXbXGXbXbXbXFXGXbXbXbXaXaXrXrXrXbXbXuXrXrXtXpXtXtXtXpXrXtXrXpXrXrXrXrXbXtXrXtXbXrXrXbXbXpXZXbXbXbXbXbXiXbXbXpXiXbXpXiXbXbXbXbXiXbXbXbXrXiXpXrXiXbXbXbXiXrXrXiXrXiXrXpXbXpXrXbXbXpXrXbXbXiXbXiXbXbXbXbXbXbXbXbXiXiXbXbXbXbXbXbXtXpXrXrXrXbXrXrXpXtXrXpXtXrXpXpXiXpXbXiXpXbXbXbXrXrXbXtXtXpXrXrXtXbXtXrXbXbXbXbXbXtXrXbXbXbXbXbXbXbXbXbXbXiXpXbXbXpXrXbXpXpXbXbXrXrXrXrXrXSX",
"bXbXbXJXGXbXaXbXaXbXbXbXbXbXbXbXbXbXbXbXbXbXbXbXbXiXaXiXiXrXrXrXbXbXrXbXpXpXpXbXiXpXqX5XrXqX5XqX5XrXqXqXrXrXrXrXtXtXtXqXrXbXbXiXrXpXbXrXrXaXGXbXaXbXGXaXrXbXbXrXbXbXbXbXbXbXbXrXrXuXrXuXbXbXbXrXrXpXtXrXrXrXrXrXrXtXpXrXrXrXrXrXrXtXrXrXrXbXbXpXbXbXbXbXbXbXbXiXbXbXbXbXbXrXbXbXbXrXbXbXbXbXbXrXrXbXiXbXiXbXiXbXiXbXbXiXpXtXtXrXrXrXbXbXbXpXbXbXbXbXbXbXbXbXpXbXbXbXbXbXpXbXpXpXrXqXbXtXrXbXbXpXtXrXtXbXtXrXrXrXrXiXiXpXbXbXpXpXrXbXbXbXbXpXbXrXrXrXbXtXrXtXbXbXbXbXbXbXrXrXZXbXbXbXbXbXbXbXbXbXbXiXbXbXbXbXbXpXbXbXpXpXpXrXrXSX",
"bXbXbXbXbXaXaXrXaXJXJXbXbXbXbXbXbXbXpXpXpXbXbXbXbXaXaXiXbXiXrXrXrXrXrXbXbXbXpXrXbXbXpXqXqXrXpXrXrXrXrX5XrXtXrXpXtXtXtXrXrXpXbXrXrXiXbXbXrXrXbXbXbXbXbXbXbXbXbXbXrXaXaXbXaXbXGXbXbXbXrXrXbXbXbXbXbXbXrXrXrXrXtXtXrXrXpXrXrXrXrXrXrXrXbXbXtXrXpXbXbXbXbXbXbXbXbXbXrXbXbXrXbXbXbXpXbXbXbXbXbXbXbXbXiXiXbXiXiXrXiXrXrXbXbXiXrXrXtXqX5XrX5XbXbXpXbXrXbXbXrXiXiXbXbXbXbXbXbXbXbXbXbXiXrXrX5XrXbXpXbXbXpXrXrXpXtXpXtXpXrXiXrXiXiXiXpXpXiXpXpXpXpXbXtXrXpXrXtXbXbXbXbXbXbXbXbXbXbXrXbXbXbXbXbXbXbXbXbXbXbXbXbXiXbXbXbXbXbXbXbXpXrXbXpXbX",
"GXbXbXbXbXbXaXbXbXbXZXJXbXbXbXbXbXbXbXbXbXbXbXpXiXiXaXaXbXbXrXrXpXrXrXrXbXbXpXbXbXrXbXbXbXiXpXbXpXrXrXqXrXrXrXrXrXrXtXtXtXbXpXrXrXrXrXaXaXbXbXbXbXbXrXGXFXbXbXFXJXFXbXbXbXbXGXJXJXbXrXuXbXbXbXrXbXbXbXbXrXrXtXpXpXrXrXrXrXrXrXrXrXpXbXbXbXbXbXbXbXbXbXbXbXbXbXiXpXbXbXrXiXbXbXpXbXbXbXbXbXbXbXbXbXiXiXiXbXiXbXbXbXbXbXiXrXpXbXrXrXbXrXqXbXbXbXbXbXbXpXbXpXiXbXiXbXbXbXbXbXbXbXbXbXbXqXrXbXpXbXbXbXrXrXrXpXbXrXpXpXiXrXbXpXiXiXbXpXpXbXbXpXbXbXrXtXbXbXtXbXbXpXbXbXbXbXpXbXpXbXbXbXbXbXZXbXbXbXbXbXbXbXbXbXbXbXbXbXbXbXbXbXbXpXbX",
"bXbXbXbXbXrXbXbXiXbXbXbXbXbXbXbXbXbXbXbXbXpXbXbXiXbXbXbXiXrXrXbXbXrXqXpXbXbXbXbXbXrXrXbXpXrXbXbXrXtXrX5XqXbXrXrXrXrXrXrXbXrXqXpXrXpXpXiXbXbXbXbXbXaXbXbXbXFXFXbXbXFXbXbXbXbXbXbXbXbXbXrXaXrXbXbXaXbXbXbXbXbXrXiXbXpXrXrXpXrXrXrXrXrXrXpXbXbXbXpXpXbXpXbXZXbXbXrXbXbXpXbXbXbXiXrXbXbXbXbXbXbXbXbXbXpXbXiXbXpXiXbXbXbXbXbXtXtXbXbXpXbXbXrXrXrXpXbXpXbXbXbXiXiXbXpXiXrXbXbXbXaXaXbXbXpXbXpXbXrXpXpXpXrXbXbXiXiXpXpXpXbXpXrXrXrXrXrXbXpXpXpXiXbXpXbXrXrXpXpXbXrXtXpXbXbXtXrXbXbXbXbXbXbXZXZXbXbXbXiXiXbXbXbXbXbXbXbXpXrXbXpXbXbXbXbX",
"bXbXbXbXrXrXJXrXrXbXbXZXbXbXbXbXbXbXbXbXpXiXbXbXbXbXbXiXiXbXbXbXiX6XrXrXbXbXbXbXbXpXiXbXiXrXrXrXrXpXrX5X5XrXrXrXrXqXrXbXtX5XiXrXrXiXbXpXiXbXbXbXbXbXbXbXbXGXGXyXbXbXbXFXFXbXrXrXaXGXFXbXaXbXbXbXbXbXbXbXbXbXbXrXpXbXiXpXbXrXrXiXrXrXpXbXbXbXbXbXpXbXbXbXZXbXbXrXpXbXbXbXtXbXbXrXbXpXbXbXbXbXbXbXbXbXbXbXrXrXbXpXbXiXbXbXpXrXbXpXbXbXtXtXrXrXrXrXbXbXbXbXpXbXbXrXiXbXbXbXiXiXbXbXbXbXrXrXbXbXpXpXbXpXiXbXrXrXpXrXbXpXrXpXtXtXpXpXiXiXiXbXbXiXpXiXiXbXtXtXbXpXtXrXrXrXpXbXbXbXpXbXbXbXbXbXbXbXbXbXbXbXbXbXbXpXbXpXbXbXbXbXrXbXbXbX",
"bXbXbXiXrXbXbXrXbXbXbXbXbXbXrXbXbXZXbXbXZXbXbXbXbXbXbXbXiXiXbXrXiXbXbXbXbXbXbXbXbXpXpXiXiXbXrXrXrXpXbXrX5XrXrX5XtXrXtXtXtXpXbXbXrXbXpXbXbXpXbXbXbXbXbXbXGXbXbXGXbXGXGXbXbXFXbXbXbXbXbXGXFXbXyXrXrXbXbXbXbXbXiXiXrXbXbXbXbXiXrXrXpXrXrXrXpXiXbXbXbXbXbXbXbXbXbXbXbXtXbXpXrXrXbXbXbXbXbXbXbXpXrXrXbXbXbXbXbXbXiXbXbXiXbXbXbXbXbXpXbXbXtXbXtXrXrXpXrXbXpXtXpXbXbXbXiXbXiXiXbXiXiXbXbXbXbXtXrXbXrXiXbXrXpXbXrXrXiXrXtXbXrXrXrXtXbXbXiXiXiXbXbXiXiXiXbXbXtXrXpXpXpXbXpXrXrXbXbXiXbXbXiXbXbXbXbXbXbXbXbXbXiXaXbXbXbXbXbXbXbXbXiXiXbXbX",
"bXbXpXbXbXpXrXpXbXbXSXbXbXiXrXbXbXbXZXbXbXZXbXbXbXbXbXbXbXrXbXbXiXbXiXpXbXbXpXbXbXiXrXbXrXrXrXrXtXpXtXrXrXqXqX5XqXrXrXbXpXpXrXbXrXpXrXbXbXpXiXbXbXbXbXbXbXbXbXFXbXbXbXbXrXbXFXJXbXaXaXbXGXbXbXrXrXGXbXbXZXbXbXbXrXpXbXbXbXrXiXbXpXtXrXrXpXbXbXbXpXbXbXbXbXbXbXbXbXrXbXrXtXrXrXpXbXbXbXbXrXrXiXbXbXbXbXiXbXpXiXbXbXbXbXbXpXbXtXpXtXbXbXtXbXpXpXbXpXtXbXbXbXbXbXbXbXbXbXiXbXiXrXiXrXrXpXbXtXpXrXrXtXpXrXrXrXqXrXrXbXpXpXtXpXpXiXbXpXiXiXrXiXbXpXpXbXpXtXpXrXpXpXpXbXpXrXqXrXrXbXbXbXbXbXpXbXbXbXbXbXbXbXbXbXbXbXbXbXpXiXiXbXbXiXbX",
"bXbXbXrXpXrXiXqXrXpXbXbXbXiXpXbXbXiXbXbXbXbXbXbXbXbXbXZXbXiXiXbXiXbXbXiXbXbXpXbXbXbXrX5X4XrX5XrXpXrXqXrXrXrXqX5X5XrXbXrXtXbXbXrXiXrXiXbXbXbXbXpXbXJXbXaXbXbXbXbXaXbXbXGXbXJXbXbXbXbXrXbXbXFXbXbXGXJXGXbXbXbXrXiXiXiXbXbXbXrXbXbXpXrXpXrXbXZXbXSXbXbXbXbXbXpXbXbXrXtXpXrXtXrXiXbXiXbXbXbXpXpXbXbXbXrXbXbXpXbXbXbXbXiXbXbXpXtXpXrXpXpXpXrXrXbXbXbXbXbXbXbXbXpXbXpXrXbXbXbXbXbXrXrXtXrXrXbXtXrXiXpXtXpXqXqXpXrXrXrXpXbXbXpXbXbXbXbXiXiXiXrXrXbXbXpXiXtXtXpXtXpXrXrXpXrXbXrXbXbXbXiXiXiXbXbXbXbXiXpXbXbXbXbXbXbXtXbXbXbXpXbXpXbXiXbX",
"bXbXbXiXrXpXbXbXpXrXbXpXbXpXbXpXrXrXiXbXbXbXbXbXiXbXbXbXbXbXbXbXbXbXiXrXpXbXbXbXbXpXbX7X3XqXqXrX5XrXrXrXrXrXqX5X5XrXpXbXpXpXpXrXpXbXpXbXpXbXbXbXbXbXbXbXbXGXJXbXbXbXbXbXbXbXbXrXyXbXbXbXbXGXbXbXbXbXbXJXbXbXaXrXrXbXiXbXbXbXiXiXpXbXbXrXrXJXbXbXbXJXZXbXbXbXbXbXbXbXpXtXrXpXrXbXbXbXbXpXbXbXiXiXiXrXpXbXbXbXbXiXbXbXbXbXbXpXbXtXbXbXpXrXtXbXbXrXrXpXbXbXiXbXiXrXbXbXbXbXiXbXbXbXbXbXbXpXrXrXiXpXtXpXbXbXbXbXpXiXrXbXbXrXtXbXbXbXbXpXiXbXiXiXbXbXpXpXpXrXrXbXrXrXbXbXpXtXrXbXbXpXiXpXrXrXiXiXbXbXrXiXbXbXpXbXbXbXbXbXbXbXbXbXbXZX",
"bXbXrXiXbXbXiXbXZXbXbXbXbXrXiXbXiXiXiXbXbXbXbXaXbXbXbXbXpXbXbXbXbXbXbXiXbXiXbXaXiXpXiXpXbXrXrXqX4XqXrXrXrXqXqXqX5X5XrXbXpXiXrXrXrXpXrXbXrXpXbXiXbXGXbXbXbXbXGXbXbXFXbXFXbXbXGXbXbXaXbXbXbXbXbXbXbXaXbXJXJXbXbXrXrXaXrXbXaXbXaXiXbXbXbXbXbXbXbXrXbXZXJXbXbXbXbXpXbXbXbXbXrXpXrXbXbXbXbXbXiXiXbXrXbXbXpXbXbXpXpXpXbXbXpXbXbXbXrXbXbXrXrXrXbXrXbXiXrXiXiXbXbXiXrX6XbXbXpXiXrXiXrXpXtXrXrXpXtXrXrXiXpXbXbXbXbXbXtXbXrXrXpXbXbXpXbXpXbXbXbXbXbXbXbXbXbXbXbXpXiXbXiXtXbXpXbXrXrXbXbXpXbXbXrXrXpXiXpXpXbXbXbXbXbXaXbXbXbXbXbXbXbXbXbXZX",
"bXbXpXbXbXbXbXZXbXbXbXbXJXbXrXrXbXiXbXbXbXiXbXaXbXaXaXbXpXbXbXpXbXbXbXbXbXbXbXbXiXbXrXrXtXtXqXqX5X5X3XqXtXqXrXqX5X4XrXtXbXpXpXrXrXqXqXbXrXrXrXrXrXbXbXbXFXGXJXbXbXbXbXbXGXbXbXbXbXbXyXaXbXbXbXbXbXbXaXbXbXJXbXGXbXaXrXrXrXaXbXrXpXbXbXpXiXbXtXbXbXbXZXbXbXbXpXbXpXpXtXbXpXrXpXbXbXbXpXpXbXbXbXbXiXbXbXrXrXtXbXbXrXiXbXbXbXbXrXbXpXrXtXrXpXrXbXbXrXrXiXpXbXrXrXiXiXiXpXbXrXrXrXrXpXrXrXrXpXrXrXrXiXbXpXpXbXbXpXtXbXpXtXpXbXpXrXrXbXbXbXbXbXbXbXbXbXpXpXbXiXbXbXbXpXrXtXpXrXpXtXrXbXbXiXbXiXiXbXbXbXbXbXbXbXiXiXiXbXbXbXbXbXbXpXbX",
"bXbXbXbXbXbXbXbXZXbXbXrXbXZXbXiXbXiXbXbXbXiXaXbXbXbXrXrXrXbXpXpXpXbXbXbXbXbXpXbXbXbXbXrXrXrXrXqX5X5X5X4XrXrXrXqXqXrXqXrXrXrXrXrXrXrXrXtXpXpXrX5XrXbXbXbXbXbXbXbXbXbXGXbXFXbXbXGXbXaXaXrXrXbXFXbXbXbXbXbXGXJXJXbXbXaXbXbXaXbXbXbXbXbXbXbXbXSXrXrXtXrXbXbXbXbXbXbXrXrXrXtXbXpXbXbXpXbXbXiXbXbXbXbXpXbX3X>XbXrXrXpXiXiXbXpXtXbXrXrXtXrXrXrXpXrXrXbXiXrXrXpXbXbXrXiXbXbXbXbXrXrXrXpXrXrXrXtXrXrXiXbXrXbXiXtXbXbXbXtXpXtXrXrXrXrXrXiXbXbXpXiXiXbXbXbXbXbXbXbXbXbXbXbXtXbXpXtXpXrXtXbXbXbXbXbXbXbXbXbXbXbXiXbXbXbXbXbXbXbXbXbXiXbXbXbX",
"bXbXbXbXbXZXbXZXbXbXbXbXbXiXbXbXpXrXiXbXiXbXrXbXaXbXbXiXiXbXiXbXbXbXbXbXbXpXiXbXbXbXbXrXrXpXpXrXqXrXqX5XrXrXrXrXrXrX5X5XrXtXpXtXqXqX5XtXrXbXrXrXrXbXbXrXbXbXbXbXbXbXbXFXJXFXFXbXbXbXaXbXbXbXFXaXbXJXJXbXbXbXbXJXrXbXbXFXbXbXbXbXbXbXbXiXbXbXrXrXrXtXbXbXbXbXSXZXbXbXrXpXbXtXbXbXbXtXbXbXbXbXbXpXrXrXbXbXbXbXiXrXpXbXpXiXrXtXrXbXtXtXrXpXtXrXtXbXpXiXiXbXbXrXbXbXpXbXbXiXrXrXrXrXrXrXrXrXtXrXiXbXrXiXbXpXpXrXbXbXbXtXrXbXbXtXrXrXiXbXpXiXiXiXbXbXbXbXbXbXbXbXbXpXtXbXpXpXtXrXtXbXbXbXbXbXbXbXiXpXbXbXiXbXbXbXbXbXbXbXZXbXbXbXbXbX",
"bXbXbXZXZXbXZXbXbXbXbXbXiXiXbXbXbXrXiXiXbXrXaXbXaXbXbXbXpXrXiXiXbXrXrXbXbXpXiXaXbXbXiXrXaXrX6XrXiXiXqXrXrXqXrXrXrXrXrXqX5XrXtXqXqXqXqXrXrXrXrXbXbXbXbXrXrXbXbXbXbXaXaXbXbXFXGXbXbXGXbXbXFXbXbXbXbXGXFXFXFXbXbXbXGXFXbXbXbXbXbXbXbXSXbXbXiXpXtXpXtXbXbXbXbXbXbXbXbXrXbXbXtXrXbXtXbXbXbXbXbXiXpXrXiXbXpXbXbXpXbXbXpXrXpXpXrXrXrXbXbXrXrXtXbXpXpXpXbXiXpXbXbXbXbXiXpXbXbXbXbXpXbXpXbXbXtXrXpXrXiXbXrXrXrXpXtXpXbXbXtXbXrXrXrXpXrXrXpXpXpXbXbXbXbXbXbXbXbXbXbXbXbXbXbXtXbXpXrXrXrXrXtXbXbXbXpXiXbXpXpXbXbXbXbXbXbXbXbXbXbXbXbXbXbXZX",
"bXbXbXbXbXbXbXbXbXiXrXrXrXbXbXbXpXbXbXiXiXpXbXbXbXrXbXbXiXiXiXiXbXiXbXrXbXbXrXrXrXiXiXrXbXiXrXrXrXiXbXrXrXrXrXrXrXrXrXrX5X5X5X5X5XqXrXqXrXrXpXpXrXrXiXrXbXbXrXrXbXbXrXaXFXbXbXbXJXbXbXFXbXbXbXbXbXbXbXGXbXJXJXJXbXbXbXbXbXbXbXGXGXGXbXbXiXrXiXpXbXpXbXbXrXrXbXbXbXpXbXbXbXbXrXpXrXrXbXbXbXbXrXiXbXbXrXiXbXbXbXbXbXpXrXpXpXtXrXrXrXrXrXrXrXpXbXbXbXiXiXiXiXrXrXbXtXbXbXbXiXiXpXpXtXpXtXrXrXpXtXbXbXtXrXtXtXbXpXtXbXrXpXrXrXtXbXbXpXtXbXpXpXtXbXbXbXbXbXbXbXbXbXiXpXbXrXiXtXbXqXrXpXbXbXiXpXpXbXbXbXiXbXiXbXbXbXbXbXbXbXbXpXbXbXbX",
"bXZXbXbXbXbXZXbXbXrXpXtXpXbXbXbXbXbXbXbXbXbXbXbXrXrXrXrXiXbXiXiXbXiXbXbXZXbXbXiXrXrXbXiXbXrXrXiXrXiXiXrXrX5XrXrXrXrXrXrXrXqXqXqXqXrXrXrXrXrXrXrXrXrXpXbXiXbXrXaXbXbXbXbXFXbXbXbXbXbXbXbXbXbXbXbXbXaXbXJXGXFXJXbXFXJXbXbXJXJXbXbXbXbXZXbXaXaXbXbXiXrXrXpXrXrXpXpXbXbXbXbXbXrXpXpXrXbXrXiXrXrXiXbXpXiXiXiXbXbXpXpXbXbXbXpXpXtXrXrXbXpXtXtXrXrXbXpXpXrXbXiXiXbXrXtXbXpXrXiXpXpXpXpXrXrXpXtXrXbXpXrXrXbXbXrXrXrXpXbXbXpXrXbXtXrXtXbXbXbXpXbXrXrXbXbXbXZXbXbXbXpXbXbXbXrXpXpXpXbXrXrXpXtXiXpXiXrXbXbXbXbXbXbXbXbXbXbXiXbXbXbXJXbXbXbX",
"bXZXbXbXZXbXbXbXbXbXbXtXbXAXbXbXpXrXpXiXbXbXbXbXiXbXiXiXpXbXiXbXbXpXpXbXbXiXiXiXiXiXbXbXiXrXiXbXiXiXrXrXpX5X5XrXrXrXrXrXrXrXqXrX5XrXrXrXrXrXqXrXpXbXrXrXiXbXbXaXaXrXbXbXbXGXbXbXbXbXbXbXbXbXbXbXbXbXbXJXJXJXFXbXbXbXbXGXGXbXGXJXJXJXbXbXbXbXSXbXbXiXrXtXbXrXrXtXpXtXtXtXrXbXrXpXrXrXbXbXbXbXrXpXbXiXpXpXbXbXiXiXiXbXbXbXpXtXpXbXrXrXrXrXrXpXtXbXrXiXpXpXiXbXbXbXbXpX5XrXbXbXiXpXtXtXtXtXtXrXpXrXtXpXbXrXqXrXtXtXpXrXrXpXbXbXrXrXrX5XrXbXrXpXbXbXbXbXbXbXbXbXpXbXbXrXbXbXbXbXpXrXbXbXbXrXrXbXrXrXbXbXbXbXbXbXbXiXiXbXbXbXbXbXiXZX",
"bXbXbXbXbXbXbXbXbXbXbXSXbXbXbXtXrXbXbXbXbXbXbXiXbXbXZXZXbXbXiXiXrXiXSXbXiXiXbXbXbXbXbXbXbXbXpXiXiXpXrXtX5X4X5XrXrXrXrX5XrXtXrXqXqXrXrXrXrXrXtXrXpXiXrXbXiXiXaXbXbXbXrXrXbXbXbXbXbXbXbXbXbXbXGXbXbXGXGXFXFXFXbXbXbXbXbXbXbXbXJXJXJXGXbXbXFXbXbXZXbXbXbXbXbXbXtXrXrXpXpXtXtXbXrXrXbXrXiXiXpXrX6XiXbXbXbXpXpXbXpXiXbXrXiXbXtXrXtXpXtXrXtXpXtXrXrXiXiXrXbXbXbXbXbXbXrXpXpXiXrXbXbXpXbXpXrXbXrXrXrXtXtXrXbXbXrXrXtXtXrXqXrXpXbXbXbXrXqX5X5XrXbXbXtXbXbXbXbXbXbXpXbXiXbXbXbXbXpXbXpXrXbXbXbXbXrXpXbXrXiXrXbXiXbXiXbXbXbXiXbXiXbXbXbXSX",
"bXbXbXbXbXbXbXbXbXbXbXbXbXbXbXbXbXZXiXiXbXbXbXbXbXbXbXbXbXpXrXrXpXpXbXbXbXbXbXbXiXbXbXbXbXbXiXrXrXiXpXpXqX3X5XrXrXrXrXrXqXrXpXrX5XqXrXrXrXrXrXqXrXiXbXbXiXiXbXbXbXbXbXrX5XrXbXbXbXbXbXbXaXFXFXFXbXbXJXJXbXbXbXbXbXbXGXbXbXJXFXaXbXaXFXJXFXbXiXbXbXbXbXbXbXrXrXbXbXpXbXtXtXbXiXrXiXbXbXpXiXrXrXbXbXbXbXbXiXpXbXbXiXiXrXpXbXpXpXrXrXrXtXbXtXrXrXrXbXiXbXbXbXbXbXbXbXbXrXbXrXrXbXbXbXbXpXpXtXrXrXtXrXtXtXpXpXtXbXbXrXrXqXqXrXrXbXrXpXbXtXbXbXbXpXbXbXbXbXbXbXiXbXpXbXbXrXrXtXtXpXrXbXbXbXrXrXiXrXiXrXbXbXbXbXiXbXbXbXrXbXiXpXbXbXbX",
"bXbXbXbXbXbXbXbXbXbXSXbXbXZXbXbXbXbXbXbXbXbXbXbXbXbXpXbXpXrXrXrXbXbXiXbXbXbXbXbXpXbXbXbXbXiXiXpXbXbXrXrXbXrXrXrXbXpXpXpXqXtXpXbXrXrXrXrXrXrXrXrXrXrXbXrXpXbXrXbXbXaXbXGXbXbXbXbXbXbXbXbXbXbXbXbXGXbXGXJXbXGXJXJXbXGXJXGXbXbXbXbXGXbXbXGXJXZXbXbXbXbXbXbXbXrXrXpXrXrXpXAXbXbXbXbXbXbXbXbXbXbXbXbXbXiXbXiXiXrXpXpXiXbXbXbXrXpXbXpXrXrXtXbXpXrXpXrXrXbXbXbXbXbXbXbXbXbXiXrXrXrXbXpXrXbXrXpXpXrXrXtXpXrXpXbXrXrXpXbXrXrXqXrXrXrXrXrXrXrXbXbXbXpXpXbXpXbXbXbXbXpXrXbXbXbXpXrXpXbXtXrXbXpXbXrXrXrXrXiXrXbXbXbXiXiXbXbXbXbXbXbXbXbXbXZX",
"GXGXGXbXbXZXbXbXbXbXbXbXbXbXbXbXaXpXiXbXbXbXbXbXbXbXiXbXbXbXbXiXiXbXpXiXpXpXbXbXbXbXbXbXbXiXbXbXpXbXrXrXrXpXbXtXrXtXtXbXpXpXpXtXpXbXbXbXrXrXrXrXrXrXpXrXrXrXrXiXrXbXbXiXbXbXiXpXbXbXbXbXbXbXbXbXbXbXbXGXJXGXbXJXJXGXJXbXbXbXGXbXbXbXZXbXbXbXbXbXbXpXbXbXbXbXpXrXtXtXbXbXbXbXZXZXbXZXZXbXbXbXbXbXbXbXbXiXrXiXrXpXbXbXbXbXbXbXrXpXbXrXrXrXrXtXrXrXrXbXbXbXpXbXbXrXbXbXbXrXtXbXrXrXpXrXrXrXtXtXrXrXpXbXbXbXrXrXrXbXiXrXrXbXiXiXrXrXrXqXrXrXbXbXpXtXbXrXtXbXbXrXpXiXrXiXiXiXpXbXpXrXbXpXbXpX6XrXpXbXbXiXbXbXbXbXiXbXbXbXbXGXbXbXbXGX",
"JXbXbXbXZXGXGXJXbXGXbXbXbXbXbXbXbXbXiXiXbXbXbXbXbXiXbXbXbXbXiXiXiXiXbXiXiXrXbXbXbXbXbXbXbXiXrXiXrXpXrXtXrXrXtXbXtXrXbXrXbXbXbXbXpXpXtXbXbXbXbXbXrXrXbXrXrXrXrXrXrXbXbXbXbXbXbXbXZXGXaXbXaXbXaXbXbXbXFXJXGXGXbXbXJXbXJXFXGXbXbXaXbXbXbXbXbXbXbXbXbXbXbXbXpXbXbXpXbXbXbXbXbXbXbXbXbXbXZXbXbXZXZXbXSXZXbXbXiXpXbXbXrXbXiXbXbXbXiXiXbXrXrXrXrXpXrXtXbXbXbXrXrXrXrXtXrXbXbXbXpXbXrX5XpXbXrXrXrXpXrXrXrXbXrXbXiXiXrXbXbXiXbXbXbXbXbXbXrXqXrXtXbXbXbXbXbXbXbXbXbXtXrXrXpXiXiXrXpXpXiXrXrXrXbXbXiXbXrXiXbXbXpXbXbXSXiXbXZXJXbXbXbXbXbXbX",
"JXJXGXGXGXGXGXGXbXbXFXGXGXbXbXbXaXbXpXbXbXbXbXbXbXbXbXbXbXiXbXbXiXrXiXbXbXrX5XpXbXbXbXpXbXbXiXiXbXbXbXrXrXrXrXrXrXpXtXrXrXbXbXbXbXbXbXpXbXbXAXbXrXrXrXrXrXrXrXrXiXiXiXbXbXrXbXbXbXbXbXbXbXbXbXbXbXbXbXFXbXbXbXbXbXGXbXbXJXbXbXbXbXiXbXJXbXbXbXpXbXbXbXbXbXbXpXbXbXrXrXbXbXbXbXbXbXbXiXbXbXbXbXbXbXbXbXrXrXiXbXbXbXbXbXbXbXbXbXbXpXpXtXrXbXpXbXtXpXbXbXtXrXbXrX5XrXpXbXrXrXpXbXrXbXbXrXrXrXrXtXtXbXrXrXpXbXbXrXiXbXiXrXbXbXbXbXbXAXrXrXbXrXbXbXbXbXbXbXbXpXpXrX6XrXiXrXiXrXbXrXrXiXiXrXrXiXpXbXbXbXbXbXbXbXbXbXbXbXZXbXJXbXaXbXbX",
"bXbXGXGXGXGXGXGXFXGXJXGXGXbXbXbXbXbXbXbXbXbXZXbXbXbXbXbXbXiXbXbXbXrXpXbXbXrXrXiXbXbXiXpXbXbXbXiXbXbXbXbXrXrXrXrXrXrXpXrXrXtXtXbXbXbXpXtXtXbXbXbXbXbXrXrXrXpXpXrXrXpXiXbXbXbXZXJXbXGXGXbXbXbXbXbXbXbXbXrXbXbXbXbXbXJXbXbXGXbXbXbXbXbXbXbXbXbXbXbXbXiXrXbXbXbXrXpXbXtXrXrXbXpXpXbXbXbXbXbXbXbXZXSXbXZXbXpXbXbXbXbXbXbXbXbXbXiXiXpXbXbXpXbXbXbXbXbXbXbXbXbXbXbXbXbXbXpXtXtXtXtXpXbXbXrXrXbXrXrXbXbXrXrXbXpXbXiXbXbXrXiXbXrXbXbXbXbXbXbXpXrXrXbXrXtXbXbXbXbXtXrXrX5XrXiXrXiXiXrXrXbXpXrXrXbXbXiXbXbXbXbXbXZXbXbXbXbXbXbXJXJXaXbXbXGX",
"JXbXJXJXGXGXJXbXGXJXFXJXJXGXbXbXrXiXbXbXbXbXbXbXrXbXbXbXbXbXiXbXrXrXiXbXbXbXiXrXbXiXbXbXbXbXbXbXrXpXbXbXrXrXbXbXrXrXpXpXpXpXrXbXbXbXpXpXtXbXbXbXbXbXbXbXrXpXbXbXrXpXiXbXZXbXbXbXZXbXbXbXJXbXbXbXbXbXbXbXbXbXbXbXbXbXJXJXbXrXbXbXbXbXpXZXZXbXbXbXbXbXrXtXbXrXrXbXrXbXrXrXpXbXbXbXbXbXZXbXbXbXJXSXJXbXbXbXbXbXZXbXbXiXbXbXbXrXpXpXiXbXbXSXbXbXbXbXbXbXbXbXbXtXrXtXbXbXtXtXtXtXrXbXtXpXtXbXbXbXbXbXtXbXbXbXbXbXbXbXbXbXbXbXbXiXbXbXbXbXAXbXbXrXrXtXpXpXbXbXbXrXrXrXiXpXrXrXbXbXrXrXrXrXrXbXbXbXbXbXbXbXbXbXbXbXbXbXbXbXZXbXbXbXbXGX",
"HXJXFXGXZXJXJXGXGXbXbXFXbXbXGXGXbXbXbXbXbXbXiXbXbXbXbXbXbXbXiXiXbXbXbXbXbXbXbXiXiXbXbXbXbXbXbXiXbXiXiXbXiXpXrXpXpXpXbXbXpXpXbXtXbXbXbXbXiXiXpXpXrXrXrXbXbXtXbXbXbXpXpXrXrXiXrXiXbXbXJXbXbXbXbXbXbXbXFXGXbXJXbXaXbXbXbXJXbXbXZXbXbXbXbXbXZXbXbXbXbXbXbXbXbXrXrXrXrXrXbXbXbXrXbXbXbXbXbXbXZXpXbXpXbXZXbXZXbXbXJXbXbXbXbXbXbXbXiXpXpXbXbXbXbXbXbXbXbXbXbXbXbXbXrX5XrXbXbXbXrXpXrXrXbXtXrXrXpXbXFXbXbXbXaXbXbXaXbXbXbXbXbXbXbXbXbXpXpXbXZXZXbXbXbXbXpXbXbXbXbXrXrXrXpXtXrXpXpXbX5XrXbXrXbXbXrXrXiXiXbXiXrXbXbXbXbXbXJXbXbXbXbXbXaXbX",
"HXbXGXGXGXGXJXGXGXGXbXbXGXGXJXGXbXJXJXbXbXbXbXbXbXiXiXbXbXbXbXbXiXpXbXbXrXtXpXiXiXbXbXbXbXbXbXpXpXrXbXbXbXpXrXrXrXrXiXbXiXrXpXbXbXbXbXbXpXiXpXbXrXqXpXbXbXpXpXiXbXbXiXrXrXiXbXbXbXbXrXbXbXGXbXbXGXJXFXbXbXbXbXbXJXbXbXbXbXbXbXbXbXbXbXbXZXbXbXrXrXpXbXbXqXrXtXrXbXtXrXbXbXrXbXbXbXbXbXbXbXbXbXpXpXbXbXbXZXbXZXbXJXJXbXbXbXbXbXpXbXiXpXbXZXSXbXbXbXbXbXbXbXbXpXrXpXtXbXbXpXrXrXrXbXbXtXbXpXbXbXbXbXaXbXbXbXaXbXbXbXbXbXpXbXbXbXbXpXrXrXbXbXZXbXbXbXiXrXpXiXrXrXrXrXrXpXtXpXbXrXpXtXrXpXbXiXiXbXpXiXiXbXbXbXbXbXZXJXbXbXbXbXFXbXFX",
"FXbXGXGXGXGXPXJXGXGXbXbXbXGXGXJXJXbXbXbXbXbXbXbXbXpXbXbXbXiXZXpXbXrXrXtXrXrXrXiXiXbXbXiXiXbXiXbXbXpXiXbXbXbXbXiXrXrXiXbXpXrXrXpXbXbXbXbXbXpXbXbXiXrXiXbXbXbXbXiXbXbXiXrXrXiXbXbXbXbXrXaXaXbXbXbXGXGXbXbXbXbXaXbXbXGXZXbXbXbXbXbXbXbXbXbXbXbXbXbXbXbXrXqXrXbXrXbXpXbXrXrXbXtXpXbXbXbXbXbXbXbXbXpXrXbXSXZXJXSXbXJXGXZXJXZXbXbXZXZXbXrXrXbXbXbXbXbXbXbXbXpXbXbXbXbXbXbXpXpXbXbXbXrXrXbXbXbXbXbXbXbXbXbXGXGXaXbXbXbXbXbXbXbXbXbXbXbXbXbXiXbXbXbXbXbXbXbXrXbXbXbXbXbXtXtXpXtXrXpXbXbXrXiXrXpXbXrXrXbXbXbXbXbXbXbXbXbXbXbXbXbXbXGXbXFX",
"bXbXbXGXGXJXJXJXJXJXbXbXbXbXFXbXJXbXbXbXbXbXbXbXbXbXbXbXbXiXiXbXiXpXrXrXrXrXiXiXpXbXbXiXbXbXbXbXbXiXrXiXbXpXbXbXbXiXbXbXrXrXrXrXbXrXbXbXbXbXpXpXbXbXbXbXbXbXiXrXiXiXbXbXiXrXZXbXSXGXbXbXyXaXbXbXbXbXbXJXbXGXbXbXbXbXbXJXbXZXbXiXbXZXJXbXbXbXpXbXbXpXrXrXbXpXbXpXtXtXbXtXtXrXtXbXbXbXpXbXbXbXbXbXrXbXZXbXbXSXbXbXFXFXJXbXZXZXZXbXbXrXrXbXbXbXbXbXbXbXbXbXpXbXbXbXbXbXbXbXbXbXbXbXrXbXAXpXbXbXbXbXbXGXGXbXbXGXbXbXbXbXbXbXbXbXbXbXbXbXpXbXbXbXbXbXbXbXiXiXiXbXbXbXbXbXbXbXbXbXpXbXrXbXpXiXiXiXbXbXbXbXbXiXrXiXbXbXbXJXGXbXbXbXFXFX",
"bXZXbXGXJXJXFXbXJXJXbXbXbXbXbXbXJXbXGXbXbXbXbXbXbXbXbXbXpXiXiXrXrXbXbXrXrXrXpXbXbXbXbXbXbXiXbXbXbXbXbXbXbXpXrXrXbXbXbXbXpXrXrXrXrXbXbXbXbXbXbXbXbXbXbXbXaXbXbXbXbXbXbXbXbXbXbXbXbXbXbXbXrXbXGXbXbXGXGXbXbXaXbXbXbXbXbXbXbXbXbXbXbXbXbXbXbXbXbXbXbXrXpXbXrXrXrXtXpXrXpXbXbXtXrXbXbXpXpX5XpXbXbXbXbXbXbXpXbXbXbXbXbXbXGXbXbXZXZXbXbXbXpXpXrXbXbXbXbXbXZXZXbXrXpXbXbXbXbXbXbXbXbXbXpX5XbXbXbXbXbXbXbXbXbXGXFXbXbXbXbXbXbXbXbXbXbXbXbXbXbXbXbXbXbXbXbXbXiXbXpXbXbXbXtXpXtXrXbXbXbXrXrXbXbXbXpXbXbXbXbXbXrXrXiXiXbXiXbXbXJXFXbXbXbXbX",
"FXbXbXFXFXFXbXGXbXbXbXFXbXbXGXJXJXbXbXbXbXGXbXiXrXiXbXbXiXiXbXbXbXpXrXrXbXbXbXiXiXbXrXiXiXbXbXpXbXbXbXbXbXbXbXrXrXrXiXpXbXrXbXpXrXbXbXbXbXbXrXiXbXbXbXaXaXbXbXbXbXbXbXiXpXbXpXiXrXbXbXbXbXbXbXaXaXbXbXbXbXbXbXbXGXZXbXbXbXbXZXbXbXiXrXZXbXpXbXpXrXrXrXrXpXbXbXbXbXbXbXtXbXbXbXbXpXbXrXrXpXbXpXbXbXrXiXbXbXbXbXbXFXbXbXbXbXbXGXZXbXbXbXbXrXpXbXZXbXbXbXbXSXJXbXbXbXbXbXbXbXbXbXbXJXbXbXbXbXJXJXGXbXbXbXGXFXbXbXbXbXbXbXbXbXbXbXbXrXbXbXbXbXbXbXbXbXbXrXbXbXbXbXbXbXbXbXpXpXbXbX5XrXbXpXbXbXiXbXbXbXbXrXaXbXbXbXbXaXbXbXbXJXJXbXJX",
"bXbXbXbXbXbXbXFXbXbXbXFXbXbXbXJXbXbXbXrX8XbXbXbXbXbXbXbXbXrXbXbXbXbXaXrXaXrXbXbXiXbXbXbXpXiXiXiXrXrXbXbXJXJXSXZXbXrXbXpXbXrXiXbXbXbXbXbXbXZXiXrXrXbXbXiXbXbXiXiXpXbXbXbXbXrXrXiXbXbXbXbXGXbXbXyXbXrXbXbXrXrXbXbXZXJXbXbXJXbXbXbXbXZXSXbXpXtXbXpXrXpXpXtXbXpXbXpXbXbXpXbXbXbXbXbXrXtXbXrXrXbXrXbXbXbXbXZXbXJXbXbXbXbXaXbXbXbXbXbXGXbXrXbXtXpXbXGXJXJXbXJXbXbXbXGXJXbXGXbXbXJXbXbXbXbXbXrXbXbXJXGXJXbXbXbXbXGXbXbXbXbXbXZXbXbXbXbXZXbXrXbXbXbXbXbXJXbXbXbXrXbXbXbXbXbXbXpXbXtXbXpXrXpXbXbXiXbXiXbXbXbXaXaXaXbXbXbXbXyXaXbXbXJXbXJX",
"bXbXbXbXbXbXbXbXbXbXbXbXbXbXbXbXGXJXbXFXbXbXbXbXbXbXbXbXbXbXrXbXbXbXaXbXaXrXbXbXiXiXpXpXbXbXbXiXrXrXrXbXbXbXZXbXbXbXbXbXbXrXbXbXbXbXbXbXbXJXbXpXbXiXbXbXbXbXiXiXiXbXbXiXbXiXbXiXiXbXbXbXbXbXbXGXbXbXbXbXpXqXrXiXiXZXbXbXZXbXbXbXbXpXiXpXpXtXpXrXbXtXrXrXtXbXbXbXbXbXpXpXbXbXtXpXbXtXbXrXrXrXbXbXpXbXbXbXbXJXJXFXbXbXbXbXbXbXbXbXbXbXrXbXbXbXbXbXJXJXbXGXJXbXbXbXbXbXbXbXbXbXbXbXbXbXbXbXbXGXbXbXJXJXJXbXbXbXbXbXZXLXbXbXbXbXbXbXbXbXbXrXZXbXbXbXbXbXZXrXbXZXbXbXbXrXiXbXbXpXpXbX5XrXbXrXiXbXrXbXbXbXbXaXrXrXaXbXbXbXbXrXFXGXGXJX",
"bXbXbXFXbXbXbXbXFXbXbXbXbXbXbXbXbXbXbXbXGXFXbXbXbXbXbXbXbXbXbXbXbXbXbXbXbXbXbXbXiXbXiX5XrXbXbXbXbXiXiXbXbXbXbXSXbXbXbXiXbXrXbXbXiXbXrXbXbXbXbXbXbXbXbXbXbXiXrXiXiXbXrXbXbXbXiXbXaXaXrXbXbXbXbXGXJXbXbXbXbXrXiXbXbXbXbXZXJXbXiXpXbXpXrXiXrXbXbXrXtXbXpXtXrXtXbXbXbXbXbXbXrXtXbXpXrXrXrXpXbXrXtXbXbXbXbXbXbXZXGXJXbXJXGXbXaXJXGXbXbXbXbXbXbXbXAXbXbXbXJXbXbXbXJXGXaXbXbXbXbXbXbXbXbXbXbXbXbXbXbXGXJXaXJXGXGXGXGXbXbX6X3XbXbXbXbXbXbXbXpXrXiXbXSXbXbXSXJXiXbXbXbXbXbXbXiXrXrXtXpXtX5XrXpXbXrXiXiXbXbXbXGXbXrXrXbXbXbXbXbXbXbXbXbXJX",
"bXbXbXbXbXbXrXyXbXbXGXFXbXFXJXGXbXFXbXbXbXFXFXbXbXbXbXbXbXbXbXJXbXGXbXbXbXbXbXbXbXbXbXiXiXiXbXbXbXbXbXbXbXbXZXbXiXSXZXbXbXiXbXrXrXbXrXbXbXbXbXbXJXbXbXbXbXbXbXbXiXbXbXiXbXbXbXiXbXbXbXbXbXbXbXGXbXbXrXrXbXbXpXiXbXbXbXbXJXSXbXbXJXbXpXbXrXbXbXrXrXbXbXrXtXqXrXbXbXbXbXbXtXrXrXbXrXrXrXbXbXpXpXbXbXbXbXbXbXbXbXGXJXJXJXFXFXGXJXJXbXbXtXpXAXbXJXyXbXrXbXGXbXbXGXJXFXbXaXbXbXJXFXFXbXaXbXbXbXbXbXbXFXFXJXGXJXJXJXZXbX5XrXZXbXrXJXbXiXbXbXbXrXbXpXbXZXbXJXrXpXrXiXbXrXiXrXrXrXqXrXtX5XqXbXrXrXpXbXbXbXbXbXbXbXbXGXbXbXbXrXaXGXbXbXJX",
"bXbXbXbXJXbXbX8XyXbXbXbXFXbXbXbXFXbXbXFXbXbXbXFXbXbXbXbXbXbXJXFXbXGXJXbXbXbXbXbXbXiXbXbXbXrX5XbXbXbXpXbXbXbXiXrXrXbXSXbXbXrXbXpXbXbXZXZXbXZXbXbXbXbXbXZXbXiXiXbXbXbXbXbXbXbXbXpXrXbXJXbXbXGXbXJXJXbXbXbXAXbXiXiXaXbXbXbXbXbXbXbXbXpXrXbXbXbXpXrXrXrX5XrXrXrXrXrXbXpXtXbXtXrXrXrXpXpXbXrXpXbXbXbXbXbXbXbXbXbXbXbXGXGXFXFXbXbXGXJXbXbXbXbXbXbXbXbXrXJXJXbXFXbXGXFXJXGXbXGXbXbXbXbXbXbXrXGXGXGXJXGXGXJXbXJXJXJXJXbXbXbXJXbXbXrX6XbXbXbXbXbXbXpXrXbXbXrXbXrXrXpXpXpXiXbXrXbXrX5XrXrXqX5XbXiXbXrXbXbXbXbXbXbXbXGXGXbXGXGXbXrXbXbXbXbX",
"JXbXbXGXFXbXbXbXFXbXbXbXbXbXFXbXFXbXbXbXbXrXbXbXbXbXbXbXbXbXGXGXbXbXGXbXbXFXbXbXJXbXbXbXbXJXiXrXbXbXbXbXbXbXrXrXiXbXiXrXbXbX6XbXbXiXbXbXFXbXbXbXrXGXJXbXbXJXbXaXaXbXbXbXbXbXrXbXbXbXbXbXbXGXbXJXJXbXbXbXbXbXrXrXaXbXtXpXbXbXbXbXpXrXiXbXbXbXbXpXbXrXrX5XrXqXrXrXpXbXpXpXpXpXpXpXpXpXbXpXbXbXpXbXbXbXpXbXbXbXbXbXbXbXbXbXbXbXbXGXbXbXGXLXbXbXiXbXJXFXGXbXJXJXGXbXbXbXJXJXJXbXFXbXbXbXbXbXGXbXJXIXJXJXbXJXGXGXGXbXGXbXbXbXbXbX5XbXbXbXbXrXrXrXrXrXbXbXrXbXbXbXbXbXbXiXbXbXrXrXrXbXrX>X7XbXbXaXiXbXbXbXbXFXFXFXbXbXbXbXJXGXbXbXbXbX",
"GXrX5XbXbXGXbXbXFXbXbXGXJXbXbXbXGXFXGXbXbXaXrXrXbXbXJXbXbXaXGXJXJXJXGXJXJXJXbXbXbXbXbXGXbXbXbXrXrXbXbXbXbXiXbXbXbXbXiXiXbXbXrXiXbXbXbXbXGXGXbXGXGXGXbXbXbXJXGXbXbXbXFXGXbXbXbXyXaXbXbXbXbXbXbXJXGXbXbXbXbXbXaXbXbXbXrXbXbXbXbXpXiXpXZXbXbXiXZXbXrXrXrXqXrXqXqXrXrXbXbXtXpXbXpXbXrXrXbXrXrXiXpXrXrXbXiXbXbXbXbXbXbXbXZXbXbXbXbXbXbXbXbXZXaXZXJXJXJXJXbXJXGXJXJXJXbXbXbXJXGXGXJXGXGXbXGXbXGXGXGXIXJXJXJXJXJXbXGXaXbXJXJXbXbXbXZXiXbXiXbXbXiXbXSXbXrXbXZXZXJXJXbXbXpXpXbXpXbXbXiXpXiXrX>XiXbXbXbXbXaXbXbXbXFXGXbXbXbXJXJXGXFXbXbXbX",
"bXbXbXbXbXbXaXbXbXbXbXbXbXrXbXGXbXbXbXbXbXbXrXaXaXGXJXbXbXbXGXJXGXJXGXJXbXbXJXJXbXbXbXbXFXbXbXbXbXaXpXbXbXbXbXbXbXbXZXbXbXbXbXrXbXbXbXJXbXbXbXJXbXbXbXbXbXJXJXbXbXaXbXJXbXbXbXbXbXbXbXbXbXbXbXaXbXJXbXyXrXbXbXGXbXaXpXbXtXpXbXbXrXiXbXbXbXiXpXbXrXrXqXrXrXrXrXrXrXtXpXtXrXtXbXbXbXrXbXpXiXiXrXiXbXbXbXbXbXbXrXrXiXbXbXbXbXGXbXbXbXbXbXiXbXbXbXJXJXJXGXJXJXFXbXJXGXbXbXbXGXGXbXbXFXFXGXbXGXJXJXFXJXJXJXJXJXJXJXbXJXJXJXGXbXbXrXiXbXbXbXbXbXZXbXbXbXbXbXbXZXbXbXpXpXpXpXbXrXiXiXbXbXbX5XrXbXrXrXFXbXbXbXGXbXbXbXbXbXGXbXbXGXbXbXbX",
"bXbXbXbXbXbXbXbXaXFXbXGXJXaXbXbXGXaXrXbXbXbXbXbXbXbXbXGXJXrXaXbXaXbXFXJXGXJXJXLXJXbXbXbXbXFXbXbXbXbXiXbXbXpXbXbXbXZXZXJXJXbXbXiXrXbXbXbXbXFXbXbXGXbXbXbXFXGXJXJXbXbXbXbXGXbXrXbXJXbXyXbXbXJXbXbXbXbXbXbXGXJXbXJXbXJXbXtXbXpXtXrXrXbXpXbXbXbXbXbXbXiXrXrXrXrXrXpXbXtXrXrXrXtXrXpXpXpXtXrXrXrXrXtXrXrXbXbXbXbXbXbXiXbXbXbXbXbXbXbXbXiXbXbXaXbXbXJXJXJXbXJXGXGXbXFXGXGXJXbXbXJXbXbXbXGXGXJXGXJXbXFXbXbXGXJXbXJXFXbXJXJXbXJXbXbXZXpXbXJXiXbXZXbXZXJXSXbXpXiXbXZXbXpXrXrXbXbXpXrXiXiXrXbX5XrXbXbXrXrXbXbXbXbXbXbXbXbXbXGXbXbXbXbXbXFX",
"aXrXaXbXbXbXaXbXbXbXbXbXFXGXbXFXbXbXbXbXbXbXbXbXbXbXbXaXbXbXbXbXbXJXGXbXbXGXJXGXFXJXJXGXGXbXaXbXbXbXiXbXrXrXbXbXbXbXSXbXbXbXZXZXrXiXbXbXbXbXbXbXJXbXbXbXbXbXJXFXbXbXbXbXJXGXbXbXaXbXrXaXaXbXbXGXbXbXbXbXbXbXbXGXbXGXbXrXrXrXrXrXpXbXbXbXbXbXbXpXbXbXSXbXrXrXqXrXtXrXtXrXrXrXrXrXrXrXrX5X5XrXrXrXrXrXrXrXbXbXbXbXbXbXpXbXbXbXbXbXbXiXSXbXrXbXbXbXbXJXJXJXGXbXGXbXbXbXGXbXbXbXbXFXbXbXFXGXJXbXbXbXbXFXJX8XrXJXbXaXbXJXbXbXJXbXbXbXbXZXbXbXrXbXSXZXZXSXZXbXpXbXbXbXiXbXiXpXpXiXrXrXrXbX5XiXbXrXrXrXbXbXbXbXbXbXbXbXGXJXFXbXbXbXbXbX",
"bXbXaXbXbXbXbXbXbXbXbXaXJXbXbXJXbXbXbXbXbXbXbXyXbXaXrXaXbXbXbXJXbXbXGXJXJXbXGXJXFXJXbXbXGXbXbXaXrXbXbXbXiXbXbXiXbXbXbXbXbXbXJXbXSXiXbXbXbXbXbXbXbXbXbXbXbXbXFXJXFXbXbXbXbXbXGXbXbXrXbXbXbXbXbXbX                                                                                                                              bXbXbXbXbXtXbXbXbXGXbXbXFXGXGXbXGXbXFXJXJXJXGXFXLXbXbXFXbXJXbXJXbXFXJXbXJXbXJXbXbXbXJXFXbXbXJXJXbXbXbXJXbXrX5XbXbXbXbXbXbXbXbXbXbXbXbXiXbXbXbXbXiXbXbXrXrXbXiXrXbXbXbXbXbXbXbXFXbXGXGXFXGXbXbXbXbX",
"aXbXbXbXbXbXbXbXbXbXbXbXbXbXbXGXJXGXbXbXbXbXbXpXrXqXrXtXrXrXbXAXAXJXJXbXJXFXbXbXbXFXbXbXbXbXbXbXbXbXaXrXbXbXbXiXbXbXbXbXbXbXFXFXbXbXrXbXbXbXbXbXbXFXbXFXbXbXFXJXbXbXbXbXbXbXbXbXbXbXiXiXbXbXbXbX                                                                                                                              rXrXrXrXrX5X5XbXbXFXbXbXbXJXJXbXbXGXbXJXJXJXJXPXIXbXbXbXbXbXbXJXJXGXFXJXbXFXJXJXbXbXbXbXbXbXGXbXaXrXrXbXbXbXbXbXbXbXbXbXbXbXbXbXbXbXbXbXbXbXbXbXbXbXpXbXrXrXbXiXbXbXbXbXFXbXGXFXFXbXaXbXGXFXaXbXbX",
"bXbXbXbXrXbXbXbXbXbXbXbXFXFXbXbXFXJXJXbXGXbXiXbXrX5XqXbXqX5XrXrXJXbXJXGXbXGXFXbXbXGXGXbXGXbXbXbXbXbXbXbXbXbXiXbXbXbXbXbXGXbXFXbXbXZXrXrXFXbXbXbXbXbXGXbXFXGXGXJXGXJXbXFXbXGXbXbXbXbXbXbXbXbXJXGX                                                                                                                              bXiXrX5XrXbXbXbXbXbXFXbXbXbXbXJXJXbXbXJXJXGXbXGXJXGXFXbXbXbXFXJXbXFXGXGXbXJXbX7XaXbXbXJXGXbXaXbXJXbXbXJXZXbXSXJXbXpXbXSXZXZXZXbXbXbXbXbXrXiXbXbXbXbXrXbXiXrXbXbXaXbXbXbXGXbXFXFXFXbXrXFXbXbXbXrXbX",
"aXbXiXbXbXbXbXbXbXbXbXbXbXFXbXbXFXbXyXbXFXFXbXbXtXrXrXbXrXrX5XrXbXbXbXJXbXbXJXbXbXGXGXGXJXJXGXGXbXbXbXbXbXbXbXbXbXbXbXbXbXGXGXJXbXGXbXrXrXFXbXbXbXbXbXbXbXGXJXJXJXGXJXbXbXJXbXbXbXbXbXZXbXJXbXbX                                                                                                                              bXbXbXbXpXbXbXbXbXGXbXbXbXbXbXFXGXbXbXbXJXJXJXJXJXJXFXJXbXFXJXJXJXJXFXJXJXJXrXbXPXFXJXJXGXJXaXaXbXJXJXGXbXrXZXZXJXbXbXSXZXZXJXbXbXbXbXbXpXrXbXbXbXbXbXbXiXrXiXbXiXbXGXFXGXbXbXGXJXFXbXbXbXbXbXbXaX",
"iXbXbXrXrXbXaXbXbXFXbXbXFXbXFXbXbXbXbXFXbXFXbXbXrXrXrXrXrXrXrXrXbXbXFXbXrXrXbXbXGXbXbXJXJXbXbXFXGXbXbXbXbXbXbXbXbXbXbXbXbXbXJXJXbXbXbXbXrXbXbXbXbXbXbXbXGXaXbXFXJXbXJXJXbXJXFXbXbXbXbXbXbXbXbXbX                                                                                                                              bXbXbXZXbXbXbXZXbXGXbXbXJXFXFXbXbXbXbXGXGXGXGXGXJXbXJXGXbXGXbXJXPXJXGXJXJXJXJXJXJXbXJXGXGXJXbXrXbXGXJXbXbXbXbXZXJXJXbXbXbXbXbXbXbXbXbXbXbXbXZXbXbXbXbXbXbXrXrXrXaXbXbXbXFXbXbXbXbXbXbXbXGXbXrXbXGX",
"bXiXpXbXbXbXbXbXbXbXbXbXbXbXbXGXbXaXbXbXbXGXrXrXbXpXiXiXrXrXrXbXpXrXyXbXbXbXbXbXbXaXbXJXJXJXGXbXFXbXbXbXbXbXbXbXaXrXbXGXbXGXbXbXbXJXbXbXbXrXbXaXbXbXbXbXbXbXbXFXGXbXbXJXGXJXJXGXbXbXZXZXbXSXbXbX                                                                                                                              bXbXbXbXbXSXZXbXJXJXJXbXbXJXJXbXbXGXGXGXJXJXJXbXJXaXJXGXJXbXbXbXJXbXJXbXJXGXbXFXbXbXJXJXGXGXbXbXFXbXbXbXaXbXbXbXSXZXJXbXbXbXbXZXZXbXbXZXbXbXbXbXbXbXbXbXbXbXrX5XaXbXbXbXbXGXbXbXbXbXbXGXbXaXbXbXJX",
"bXaXbXbXbXbXbXbXbXbXbXbXbXbXGXbXrXbXbXbXbXbXbXbXbXbXbXbXpXrXiXbXrXrXbXaXbXbXbXbXJXbXJXGXJXJXJXJXJXFXbXbXbXbXbXbXaXbXbXbXbXbXbXbXbXbXbXbXbXrXbXbXbXbXbXSXbXbXbXbXbXbXbXGXJXGXJXJXbXZXJXJXbXGXbXbX            B Z C 5 B C C B C B U r.>.*.*.*.@.p.~ W i.8.9.t.E E 0.7.E U B U t.E r.0.T U i.i.s.i.J.Q.J.).J.g.0.R 0.            bXbXbXbXbXSXJXZXbXJXJXbXbXJXJXJXbXbXZXJXJXbXbXJXJXJXJXJXJXJXbXbXbXbXGXJXJXJXJXJXbXbXJXJXJXbXbXGXbXbXbXbXbXbXbXbXbXSXbXbXbXaXiXGXGXbXbXbXbXbXbXbXbXbXbXbXbXZXrX6XbXaXbXFXbXGXbXGXFXbXFXJXbXbXbXbXbX",
"aXbXbXbXbXbXbXbXbXbXbXbXbXbXbXbXrXbXGXFXbXbXbXbXpXbXrXbXbXbXrXbXaXrXbXbXrXbXJXGXJXJXbXGXJXJXGXJXJXJXJXbXbXbXbXbXbXbXbXbXbXrXbXFXbXbXJXGXJXbXaXbXbXbXbXtXbXpXiXbXbXJXGXGXJXJXJXFXbXbXbXJXJXbXbXbX            T E E I B 5 B B B B U t.} <.-.2./.U.t.0.u.T.^ B B B U T 7.q.R C C C C B B s.s.e.f.l._.+X2.1.+XJ.h.0.9.            bXbXJXJXbXZXSXJXSXJXbXbXbXbXbXbXJXbXbXbXbXbXbXJXJXJXGXJXJXJXbXbXbXJXJXJXJXJXbXGXbXbXbXbXJXbXbXGXJXbXbXGXbXbXbXbXZXZXbXbXbXbXaXGXGXGXbXbXbXbXbXbXbXbXbXbXbXbXiXrXbXbXbXGXbXbXbXbXbXbXbXFXbXbXbXyXyX",
"aXbXbXbXbXbXbXbXbXbXFXFXaXFXFXbXbXGXbXbXbXbXqX5XqXiXpXbXbXrXrXaXbXiXrXbXrXrXbXGXGXbXbXGXbXJXGXJXJXFXGXbXbXbXbXbXbXbXbXbXGXbXbXbXbXbXbXbXbXbXbXrXSXpXrX5XqX4XqXrXbXJXJXGXJXJXGXGXbXJXJXFXbXbXbXbX            b.y.d.s.T I B 5 B B C r.b.v.W.T.V.D.T I } :X} I E T R W I I R 0.0.T I C E s.0.s.h.D.+X;.=.=.2.~.Z.i.0.            bXSXZXJXSXZXJXJXZXZXZXbXbXbXbXbXbXbXbXbXbXbXFXJXJXJXGXFXJXJXbXbXGXbXFXGXLXbXbXFXbXbXFXbXbXbXFXJXJXbXbXFXbXbXbXbXbXbXaXbXbXbXbXbXbXJXJXbXaXGXJXbXbXrXbXbXrXbXbXrXbXFXbXbXGXbXbXbXbXbXbXbXbXyXbXbXFX",
"aXrXbXbXFXbXbXbXbXbXbXbXbXbXbXbXbXbXbXbXJXbX>XqXqXbXZXbXbXbXbXbXbXbXbXrXrXrXbXbXbXbXbXbXbXbXbXJXJXJXGXbXbXbXbXbXbXbXbXbXbXbXFXrXbXbXbXbXbXaXbXrXiXrXrXqXqXtXiXrXbXJXJXJXLXJXJXbXbXFXbXbXFXbXbXbX            T.M.T.M.0.T I B B C B U 9.r.s.9.t.E I B Y W.^ 8.0.9.R U R T R T 7.8.s.q.T 7.w.f.f.J.1.;.3.;.3._.D.i.0.            iXbXbXbXJXSXbXJXbXZXZXbXbXbXbXbXbXbXbXbXbXbXbXJXJXJXbXbXLXPXJXbXrXbXLXJXJXJXFXFXbXbXJXbXbXbXFXbXbXbXGXGXbXbXbXbXbXrXbXbXbXbXaXbXJXbXGXbXbXJXJXbXbXbXbXpXiXrXrX6XrXGXGXbXFXbXbXGXbXGXbXbXbXrXbXbXJX",
"bXbXGXbXbXbXbXbXbXbXbXbXbXaX5XbXbXaXbXFXbXbX5X5X5XbXZXJXGXbXbXbXbXbXrXrXrX6XrXbXbXFXbXbXJXFXGXJXGXJXJXFXbXJXbXbXbXaXbXbXaXbXbXbXbXbXJXGXGXbXaXrX5XpXbXtXbXbXbXbXbXGXJXJXJXJXLXJXGXbXrXbXbXFXbXJX            ,.1.,.#.v.r.E C B I C B U U Z E r.r.u.t.T I T T U C I B I w.d.t.q.R R 7.7.7.0.h.i.D.+X3.;.-.1.P.Z.w.0.            bXbXbXJXSXbXbXbXZXbXZXZXbXbXbXbXpXbXiXaXbXbXbXbXbXJXGXbXFXJXJXJXrXrXJXbXbXGXJXJXbXbXbXbXJXbXGXbXbXbXrXGXbXbXbXbXrXbXGXJXGXbXbXbXJXbXbXGXbXFXbXFXaXaXbXbXbXbXbXrXrXbXbXbXbXbXbXbXGXbXrXrXbXaXbXaXbX",
"bXbXJXGXbXGXbXaXbXbXbXbXaXbXrXaXaXaXbXbXrXbXAX5XrXrXrXbXJXbXGXGXbXbXbXbXrXrXaXrXbXbXbXbXbXbXbXbXbXJXJXGXGXFXGXbXaXbXbXbXbXbXbXFXbXHXHXGXGXbXrXrXaXbXbXbXbXiXbXbXZXJXbXGXGXJXGXJXGXGXbXbXbXbXbXbX            4.2.4.@.Y.t.q.I B R I C B B C u.n.Y.T.m.r.E C C C C I E s.i.a.s.y.q.7.s.7.R T a.r.l.Q./.1.&X`.J.g.0.0.            bXbXpXbXJXbXbXbXbXbXiXbXZXbXpXbXJXbXbXbXbXyXGXGXbXFXPXbX7XbXJXJXbXaXbXbXbXFXFXbXJXJXJXJXFXJXbXbXbXbXbXbXbXbXbXbXbXbXFXbXJXbXrXbXFXbXbXbXbXbXbXGXrXbXbXbXbXbXbXpXrXbXbXbXbXbXbXbXbXbXrXrXrXaXaXbXbX",
"bXbXbXbXGXbXbXbXbXbXbXbXbXrXpXtXrXaXrXaXaXrXbXrXrXbXyXbXbXaXFXJXJXbXbXbXbXyXrXyXbXbXbXbXFXbXaXbXFXbXbXFXbXFXJXJXFXbXbXbXbXbXrXrXyXbXJXFXbXbXbXaXbXbXaXaXGXbXaXbXJXJXbXGXJXGXGXGXGXGXbXbXbXbXrXuX            *.*.3.1.C.j.t.I B B 9.R I I 0.a./.2.-.@.r.Y U I W C R d.i.b.(./.).Y.b.9.s.0.R 0.g.9.a.D.n.n.a.a.i.i.g.            bXbXiXbXbXbXbXbXbXbXrXbXZXJXJXZXbXbXbXbXaXbXFXbXJXbXbXJXrXrXJXJXFXJXJXbXbXGXbXbXbXFXJXJXFXFXbXbXbXbXbXbXbXbXZXGXGXJXGXJXJXJXbXbXGXJXbXGXbXbXbXbXiXiXbXbXbXbXbXbX6XpXbXbXbXbXbXbXbXbXbXaXaXrXrXbXaX",
"bXbXbXbXbXbXbXbXbXyXbXbXbXrXbXbXbXbXrXbXbXbXrXrXrXbXbXbXbXFXbXJXbXJXFXbXbXbXbXaXyXrXbXbXFXbXbXbXbXbXbXbXFXbXbXGXbXbXbXbXbXbXuXbXuXrXbXbXGXbXrXrXrXbXbXbXbXbXyXbXbXJXJXJXJXJXGXbXJXJXbXbXbXbXFXJX            *.*.-.:X^.n.u.R B U w.w.i.i.q.z.,.=.*.2.M.R @.@.I C q.d.v./.%X2.-.,.^.p.9.q.0.T s.i.9.s.i.e.0.g.h.U.F.            bXZXrXbXbXbXbXbXbXrXrXbXbXbXZXSXZXbXbXbXaXbXbXbXrXGXbXJXJXbXrXbXJXJXGXJXGXFXGXbXJXIXPXJXGXbXJXFXrXrXbXaXbXGXGXbXbXJXbXJXbXbXbXbXbXJXbXbXbXbXbXbXbXiXbXbXbXbXbXbXbXbXpXbXbXbXbXaXbXbXbXbXaXrXrXrXbX",
"bXbXbXbXGXbXbXbXbXrXbXZXbXbXbXbXbXGXbXrXaXaXbXrXrXaXbXbXbXbXGXbXFXbXJXGXJXFXbXbXyXrXyXaXbXbXbXbXbXbXJXJXJXGXbXbXbXbXbXbXbXbXbXHXJXJXbXbXbXaXaXbXrXrXbXbXbXaXbXbXbXbXGXbXFXJXJXJXbXGXbXrXrXbXJXHX            :.:.4.:XT.j.q.R B T w.w.i.w.0.p.^.2.2.>.n.q.| | I U ^ q.T.(.2.*.=.;.(.Z.r.7.0.q.T 0.q.t.0.0.Z.g.A.F.J.            pXrXrXbXbXbXbXbXpXqXrXbXbXpXbXbXJXbXbXbXbXbXbXbXbXbXbXJXJXJXrXrXJXJXbXbXbXFXJXbXGXJXJXJXJXGXGXbXFXJXJXGXbXJXbXbXFXGXGXbXbXbXyXbXbXGXGXbXbXbXbXbXZXrXbXbXbXbXbXbXrXrXbXbXbXbXbXbXbXbXbXaXaXbXbXrXbX",
"bXbXbXbXbXbXaXbXbXbXGXbXrXrXiXrXrXrXbXbXrX5XbXrXrXbXrXbXbXbXbXbXbXbXbXbXbXbXbXbXbXrXrXrXaXbXbXbXbXbXbXGXGXGXGXbXbXbXbXbXbXbXHXbXHXHXbXbXbXbXbXbXbXbXbXbXbXbXGXbXGXbXGXbXbXGXJXGXJXbXbXbXrXFXFXbX            4.4.>./.b.b.T I I 9.s.0.w.^.V.r.a.n.n.l.r.W C U u.U W 9.j.+X2.=.;.;.%Xk.0.w.0.T U U E r.9.A.A.l.U.).oX            bXrXrXrXrXbXbXbXiXbXpXbXbXbXbXZXbXJXZXJXbXbXJXbXbXbXbXrXbXGXbXGXJXJXbXFXJXaXbXJXbXbXGXbXJXFXyXbXJXbXGXPXbXbXbXbXbXFXbXbXJXGXbXaXbXFXGXbXrXbXSXbXZXiXbXbXbXbXbXbXrXrXbXrXbXbXGXbXbXbXaXaXbXbXaXbXbX",
"bXbXaXbXaXrXaXbXaXGXGXrX8XiXiXiXiX5XrXrXaXbX5XrXaXrXbXbXGXbXbXbXbXbXbXbXaXbXbXbXbXbXaXrXrXrXaXbXGXbXJXbXbXJXJXbXbXaXbXbXbXbXbXbXbXbXbXbXJXbXbXbXaXbXbXbXbXbXGXJXPXPXJXGXFXbXbXFXFXbXHXJXbXbXbXFX            } @.T.Y.a.7.T U R w.0.9.0.+X(.9.E T s.q.R I U h.u.Y E r.n./.%X2.;.4.+Xl.r.i.s.E T 9.0.E i.A.g.K.[.(.&X            bXbXrXrXpXbXbXrXrXrXbXiXbXbXbXrXiXbXbXbXrXbXbXbXbXbXbXrXrXbXFXGXGXJXFXbXJXbXyXaXbXbXGXbXGXbXaXJXJXbXJXJXbXHXbXbXbXbXFXbXbXGXbXbXbXGXbXbXbXbXbXbXbXiXbXbXbXbXbXbXpXrXbXbXbXbXbXbXbXbXrXbXbXbXbXGXGX",
"bXaXbXbXaXbXbXrXbXbXrXrXiXiXrXrXrXbXrXrXaX5X7X8XbXaXbXbXbXbXGXbXbXbXbXbXbXbXbXbXbXGXbXaXrXrXrXrXbXbXGXFXFXFXbXbXbXbXbXaXaXbXbXbXbXbXbXrXiXbXrXbXaXrXrXbXGXbXbXJXPXJXGXbXbXJXJXbXbXHXFXbXbXbXbXbX            r.0.s.s.0.T R I 0.i.w.7.9.0.t.T I U U I I C E r.Y ~ t.E r.n.~.+X+X|.n.t.i.i.i.0.r.p.r.9.h.g.F.P.+X&X:X            SXbXbXbXbXpXbXpXbXbXbXbXbXiXaXrXbXbXbXbXrXaXbXbXbXbXbXbXiXZXZXbXbXbXbXrXbXbXbXaXbXbXbXJXbXbXbXbXJXbXGXJXFXJXFXFXbXbXbXbXFXGXJXFXbXJXbXbXbXbXrXbXbXrXbXbXbXbXbXaXiXrXbXbXbXbXbXbXbXbXbXbXbXbXaXaXbX",
"bXbXbXaXbXbXbXbXtXpXbXrXiX6X5XiXiXrXbXpXrXrXbXyXbXbXbXGXFXaXaXbXyXbXbXbXbXbXbXbXbXbXbXbXbXqXrXrXrXtXbXbXGXGXbXbXbXbXFXGXaXyXbXbXbXtXrXtXbXrXrXbXbXaXbXaXbXGXaXaXPXJXbXFXJXJXbXbXbXJXJXGXbXaXbXuX            w.w.0.0.0.7.7.R w.i.w.0.9.T R R I I I I C B C T E q.s.^ R 7.d.V.k.l.i.i.g.f.f.w.i.r.T r.g.h.Z./.&X:X3.            bXbXbXAXbXbXbXbXbXbXbXbXbXrXaXbXbXGXbXbXbXbXaXbXbXSXZXbXbXbXbXZXbXZXbXiXJXbXbXbXbXbXbXbXbXaXbXaXbXbXGXbXbXbXGXJXbXbXbXJXJXFXbXGXFXGXbXbXbXbXbXbXbXbXbXbXbXbXbXZXZX6XrXZXbXiXiXbXbXbXbXbXbXFXbXrXbX",
"bXaXaXrXaXbXrXrXpXtXbXbXrXqXrXbXrXrXpXtXbXrXrXbXrXbXbXaXbXbXrXrXbXGXbXbXbXbXaXbXbXbXbXbXJXrXrXrXrXrXbXbXbXbXbXJXFXbXbXGXbXrXaXbXrXtX5XrXrXrXrXbXbXaXbXbXyXbXGXrXrXbXGXbXyXbXbXbXGXbXbXGXbXbXbXbX            7.e.e.0.T 7.7.0.f.f.0.7.0.T R Y U T ( ^ 9.E I R 0.9.s.i.s.9.7.w.i.l.r.i.g.g.f.f.0.i.0.i.g.Z.Q.+X&X4.*.            bXbXbXbXbXrXbXbXiXbXbXbXbXrXaXbXbXFXbXaXrXGXbXaXbXZXJXbXbXbXZXJXbXbXbXbXbXaXbXGXGXGXFXyXbXbXFXaXbXbXbXbXbXbXbXbXFXGXbXbXJXJXFXbXbXyXbXbXbXbXaXbXbXbXbXbXbXbXrXiXbXrXrXbXiXbXiXiXbXbXbXZXbXbXGXbXbX",
"bXbXrXrXaXrXrXrXrXtXbXbXrX5XpXpXrXbXbXbXrXrXaXaXbXbXbXbXbXbXbXaXbXGXbXbXbXbXbXaXbXFXbXbXbXbXrXrXrXrXrXbXbXbXJXGXbXbXbXbXbXaXrXrXbXtXqXrXpXrXrXiXrXFXbXbXbXbXGXbXbXbXbXrXrXJXJXJXGXbXbXbXbXyXbXbX            9.w.0.7.I 7.0.g.g.i.T 7.s.b.0.0.0.w.+Xd.e.e.e.w.e.i.w.f.f.f.i.a.~.(.~.n.i.g.f.h.i.i.n.n.h.F.L.$X;X2.*.            bXbXbXrXrXrXrXpXpXbXbXZXbXbXrXbXbXFXbXbXbXbXGXbXiXrXbXbXbXbXbXbXbXZXbXbXbXbXJXbXbXbXbXbXbXbXJXbXbXbXbXaXbXJXbXbXbXGXbXbXFXGXFXbXbXJXbXaXbXbXbXbXbXbXbXbXbXpXiXZXbXbXiX6XiXbXbXbXbXbXbXbXbXbXbXbXbX",
"bXbXrXrXaXrXtXrXrXpXbXbXrX4XrXrXrXqXpXbXbXbXrXbXbXbXbXbXbXbXbXbXbXbXbXGXbXbXbXbXaXbXGXbXrXbXrXqX5XrXrXrXrXaXbXGXbXbXJXbXbXbXrXrXbXpX3XqXbXrXpXiXrXFXGXGXbXbXbXaXaXbXrXrXbXbXGXJXJXGXJXJXGXbXbXbX            0.0.9.I R 8.A.g.h.w.7.u.@./.l.0.0.0.0.w.e.e.e.f.f.f.e.e.i.f.i.V.1.4.:X~.p.f.g.g.h.p.&X&Xg.F.L.+X;X4.*.            bXbXbXrXrXrXqX5XbXbXbXbXbXbXbXbXbXbXGXbXbXbXGXbXbXbXpXZXbXbXiXbXbXrXJXbXbXGXGXGXbXbXJXbXbXGXFXJXbXbXbXbXbXbXbXbXbXbXaXbXJXbXbXFXGXGXyXbXbXbXrXaXbXbXbXrXrXrXbXZXbXbXbXrXrXiXbXbXbXbXbXbXbXbXbXbXbX",
"bXaXyXrXrXrXtXrXrXpXpXpX6X7XqXrX6XbXbXrXbXrXrXaXbXbXbXbXbXbXGXbXbXaXbXGXbXGXbXaXbXbXbXbXbXbXrXrXrXrXbXbXbXbXbXbXJXbXbXbXbXbXaXrXtXtX5XrXrXpXbXbXbXbXGXbXrXbXbXbXbXbXbXbXbXaXbXJXGXJXGXJXJXbXJXbX            T T T I 7.e.f.i.f.8.T T.;.3.~.T T T 7.t.t.q.7.7.8.e.f.f.f.i.i.P.4.;.4./.y.f.f.g.Z.Z.m.K.g.Z.Q.+X;X:X:.            bXbXbXbXrXrXrXrXbXbXbXbXbXbXJXGXbXbXJXIXJXbXbXGXJXbXbXbXSXbXbXbXpXbXbXbXbXbXGXGXbXbXbXJXbXbXJXbXbXbXbXbXGXbXbXbXbXbXbXGXbXbXyXbXFXFXaXbXFXbXaXbXbXbXbXbXbXrXbXbXbXpXbXrXiXbXbXbXbXbXbXbXbXbXbXbXbX",
"bXrXrXrXrXpXtXtXrXrXrXtXrXrXrXrXrX5XrXbXbXbXbXaXbXaXaXaXbXbXbXbXbXuXrXbXZXbXbXiXbXGXSXbXbXbXpXiXbXbXbXbXGXbXbXbXbXFXbXbXGXbXbXbXbXpXrXbXbXbXbXbXbXbXbXbXFXbXGXJXJXbXbXaXbXrXbXGXJXJXJXJXJXGXJXJX            T T 0.0.w.f.f.i.8.0.9.c.>.,.v.E n.V.P.E.V.b.a.u.q.T 7.w.w.0.0.m.(.4.+X^.d.g.i.g.g.g.f.f.i.Z.G.$X:X:X4.            bXbXbXbXrXrXbXbXrXbXbXbXbXbXbXbXbXbXbXJXJXbXbXbXbXbXSXbXbXpXpXbXiXbXbXbXbXrXbXbXbXJXrXrXbXbXbXbXbXbXbXbXbXaXaXbXaXbXbXGXbXrXbXFXGXbXbXaXbXbXbXbXbXGXbXrXbXbXbXrXaXbXbXrXiXbXbXbXbXpXbXbXbXbXbXpXSX",
"pXtXpXbXtXtXrXpXpXrXrXrXqXrXrXtXrX5XrXrXiXbXbXbXbXbXbXbXbXbXbXbXbXbXrXbXJXbXbXZXrXiXbXSXbXiXbXbXrXbXbXbXZXbXbXbXJXPXbXGXbXbXbXbXbXpXpXrXbXbXbXbXbXbXbXbXbXbXJXbXbXaXrXbXaXaXbXbXJXGXbXJXJXJXFXJX            E 7.7.T 7.w.e.0.8.7.R I E E d.L.}.<X.XP.P.P.K.K.B.b.q.T T 9.w.s.p.m.V.a.f.i.a.i.g.g.A.h.g.Z.D.L.&X;X+X            pXrXrXbXbXbXSXbXqXrXrXbXJXbXbXrXiXZXbXbXbXbXbXiXbXZXbXZXbXbXiXbXbXbXbXbX6X5X5XbXbXbXaXrXbXrXbXbXbXbXrXrXaXaXaXbXbXbXbXGXbXbXbXbXGXbXbXbXbXbXbXbXbXGXbXbXbXiXbXpXiXiXbXrXbXZXbXbXbXpXbXbXbXbXbXbXSX",
"tXpXbXrXpXpXrXrXrXrXrXrXrXqXtXpXbXbXbXrXiXbXrXbXFXGXbXFXbXGXGXbXbXbXrXbXbXpXbXbXbX6XbXbXbXbXiXrXbXbXbXbXZXSXbX5X8XbXbXbXbXbXbXbXbXbXbXbXbXbXbXaXiXbXGXbXGXJXGXbXJXJXFXbXaXbXbXFXGXJXbXJXJXGXJXJX            P.u.9.E q.E W E R I I I U u.P.P.L.P.J.z.j.j.z.l.D.D.b.E E T s.i.w.s.s.g.g.p.a.A.i.g.Z.A.i.g.A.U.L. X&X            bXbXpXiXbXpXbXrXpXbXrXrXbXbXbXrX3XbXbXbXiXbXbXiXrXrXbXSXbXZXbXpXbXiXrX6XbXrX5X5XrXaXbXbXbXrXZXJXbXbXrXrXbXbXrXbXbXbXbXbXbXGXbXbXbXbXbXbXJXbXbXbXbXrXrXbXbXbXrXbXaXbXiXrXbXbXbXbXpXiXiXbXbXbXbXiXbX",
"pXpXbXbXrXtXtXpXtXrXrXpXtXrXrXbXbXpXbXpXiXbXaXbXFXbXbXbXbXbXbXbXbXbXbXbXbXpXbXbXbXrXrXbXbXbXrXrXiXrXiXbXbXZXbXbXrXaXbXaXbXbXbXbXbXbXbXbXbXbXbXiXaXbXbXbXGXFXbXbXGXbXJXJXbXbXbXGXJXGXbXGXbXGXJXJX            G.J.J.m.Y.M.d.T E j.a.a.D.H.G.D.R.B.y.~ ^ ~ ~ z.K.l.P.t.R T 9.0.a.0.w.h.p.E. X{.l.p.Z.D.k.p.h.h.k.J.`.            bXbXbXrXrXbXrXrXrXbXbXrXiXbXbXbXbXbXbXbXiXbXiXrXrXrXrXZXbXbXbXbXbXJXbXiXbXbXbXbXbXrXrXbXbXbXbXbXbXbXJXrXrXaXbXJXbXbXbXGXbXGXbXbXbXbXbXbXbXbXbXbXbXbXaXrXrXbXZXbXrXpXpXrXrXbXbXbXbXbXbXbXbXbXrXpXbX",
"bXpXbXbXtXbXpXtXpXpXrXbXbXrXpXbXbXiXiXbXbXpXaXbXbXbXFXbXbXGXGXbXaXbXbXbXbXbXbXbXbXbXbXbXZXbXpXbXrXrXrXiXbXbXbXbXbXbXbXrXaXGXbXbXpXbXbXbXbXbXiXiXbXbXbXbXbXbXbXbXFXbXJXJXJXGXbXGXbXGXJXGXFXbXbXJX            I.L.P.I.P.K.K.I.I.J.D.J.J.G.J.B.P.r.Y Y ~ r.E ~ j.v.B.K.q.0.b./.+Xm.0.p.Y.;X5.:X~.k.Z.D.z.a.a.A.h.l.z.            ZXbXbXbXrXbXbXrXrXbXbXbXiXrX5XbXbXbXbXbXbXiXpXrXrXbXpXiXbXbXrXrXbXJXbXiXbXbXbXbXbXrXbXbXbXbXbXZXbXbXZXbXrXbXbXbXbXbXbXbXbXJXGXFXbXbXaXbXGXbXJXJXFXGXbXbXpXrXbXSXiXrXrXrXpXpXbXbXpXbXZXbXbXbXbXbXbX",
"bXbXbXbXpXbXbXpXtXpXtXbXpXrXbXbXbXiXbXbXbXbXbXbXbXbXbXbXaXbXbXbXbXbXbXbXpXrXrXbXbXbXbXbXpXbXbXpXbXbXqXrXbXbXbXbXbXuXbXbXaXbXbXbXbXbXbXbXbXbXrXiXbXbXbXGXGXbXaXbXbXbXFXFXbXJXJXGXJXbXGXbXbXbXbXGX            I.L.J.P.L.G.J.G.H.J.I.L.D.L.J.J.~ ^ / y.T./.v.E r.u.K.R.u.9.^.5.5.^.u.y._.:X6.5.~.k.k.D.D.p.s.r.a.A.A.            bXSXZXbXbXbXbXbXbXbXbXbXbXrX5XrXbXrXiXrXrXbXbXiXrXrXrXrXrXqXrXrXrXrXbXrXbXrXpXbXqXrXbXrXbXbXbXbXZXbXSXZXbXJXbXbXbXbXbXbXbXbXbXbXbXbXbXbXGXbXbXbXGXbXbXbXbXbXbXrXbXpXqX5XbXbXbXbXbXbXZXZXbXJXbXbXpX",
"bXpXbXpXpXbXbXbXbXbXbXrXiXrXrXrXbXrXbXbXrXtXaXbXbXbXbXbXbXbXbXbXbXbXbXbXbXiXbXbXbXbXbXpXpXbXbXrXrXrXbXrXtXbXbXbXbXbXbXbXrXbXbXbXbXbXbXbXbXbXrXbXbXJXbXbXbXJXbXbXrXbXbXbXGXGXbXGXGXbXbXbXbXbXFXaX            ).).I.l.x.z.D.S.J.P.J.U.I.n.j.Y U u.c.j.,.6.+Xr.^ c.P.P.u.q.T.1.4.C.s.s.V.(.&X;X).x.p.k.p.p.p.r.E r.j.            bXbXbXbXbXiX6XbXZXbXbXbXbXbXiXrXiXpXiXtX5XrXrXrXrXrXrXbXrX5XqXrXrXbXbXbXrXiXpX6XrXrXrXrXrXbXbXbXZXbXbXbXbXbXbXbXbXbXbXbXbXbXJXbXbXbXbXbXbXiXbXZXSXZXbXbXbXbXbXbXbXrXtX4XrXSXbXbXbXbXZXZXbXSXSXbXbX",
"bXbXbXrXpXbXbXbXpXbXbXrXiX6XiXrXpXpXpXpXbXbXaXbXbXaXbXbXbXbXbXyXbXbXiXrXrXiXiXbXbXiXbXbXbXbXbXpXpXpXrXbXpXbXbXbXyXbXbXbXbXbXbXbXbXbXbXbXbXbXaXbXbXbXbXbXbXbXGXbXrXbXbXGXFXbXbXbXGXGXbXGXGXbXbXbX            v.n.P.B.l.z.p.k.z.J.J.n.d.U C U R c.j.r.T.,.T.~ Y P.P.n.p.T t.v.m.p.s.r.j.n.z.V.n.j.a.j.a.p.Z.k.a.i.s.            bXbXbXbXbXiXrX6XbXbXbXbXbXbXrX5XbXiXpXbXrXrXpXrXrXrXbXbXbX5XqXbXrXpXbXpXiXbXbXbXJXrXiXiXiXbXbXbXbXZXbXiXbXbXbXpXbXZXbXJXFXJXJXbXbXbXbXbXGXiXbXbXbXZXbXbXbXbXbXbXpXtXrXrXrXpXrXbXbXbXbXbXbXbXbXbXbX",
"bXbXZXrXbXbXbXbXbXbXbXiXbXbXbXbXbXbXbXrXpXrXbXbXbXaXbXbXbXbXbXbXyXbXbXbXiXbXbXiXbXbXbXbXZXbXrXbXbXbXbXbXbXbXrXtXbXbXyXrXyXbXbXbXbXaXbXbXaXrXJXbXbXbXbXbXbXbXbXaXGXJXrXbXbXbXbXbXbXbXbXbXbXaXaXaX            E U W / / d.m.v.~ W E E W W I R t.u.n.~ E r.E W b.I.B.l.r.U T 0.r.s.~ y.r.E r.r.u.l.b.j.y.l.p.Z.Z.Z.Z.            bXbXiXiXbXZXbXiXrXrXbXbXbXbXbXqXrXbXpXbXrXrXbXpXrXqXrXrXbXrXtXbXAXrXqX5XbXbXJXJXZXbXrXiXbXrXiXrXbXbXbXbXbXiXbXiXbXZXbXJXJXJXJXGXbXbXbXGXbX5XrXrXbXbXbXbXbXbXbXrXrXtXtXpXrXrXiXpXbXbXpXbXiXbXJXJXbX",
"pXpXbXbXbXbXbXbXpXbXbXrXbXbXbXbXbXpXbXpXpXbXrXaXbXbXaXaXbXbXbXbXbXpXbXbXbXbXbXiXiXiXbXrXpXpXbXrXrXbXbXbXbXbXpXpXbXbXbXbXyXyXbXbXbXbXbXyXrXbXbXbXbXbXbXbXbXbXbXbXbXbXbXrXbXbXbXaXbXbXbXaXbXaXrXrX            ^ ^ U I U _.&X%XV.E R 9.%X+XI U b.{._.B.u.E ~ u.J.J.j.r.R t.u.t.E ~ ~ r.E r.u.y.l.x.x.l.z.V.D.k.p.Z.Z.            bXbXrXrXrXrXiXrXrXrXrXbXbXbXbXbXrXrXrXbXrXrXtXbXbXrX5XbXbXrXtXrXbXbXpXrXrXZXbXbXJXiXrXrXbXbXbXrXpXbXbXbXbXbXbXbXJXbXGXJXJXJXJXJXGXbXbXbXbXbXrXrXZXbXbXbXSXbXiXiXtXrXrXtXrXpXbXbXiXbXbXbXbXbXbXbXbX",
"bXbXbXZXZXbX5XrXbXbXbXbXbXbXbXbXbXbXpXbXbXrXbXbXbXbXaXaXbXbXbXuXrXbXpXpXbXbXbXbXbXiXbXbXrXpXbXbXrXbXbXAXbXpXpXbXbXbXbXbXuXbXbXrXbXbXbXrXbXGXbXbXbXbXFXbXbXbXbXbXaXbXbXbXbXGXGXbXbXaXbXbXrXbXbXyX            0.0.0.s.i.oX2.2.|.t.^ r.T.M.R I m.1X@Xz.P./.j.j.j.t.E T u.|.+X Xv.Y t.~ r.~ j.j.n.G.R.`.oX[.[.I.G.D.p.            iXrXiXpXrXrXrXrXrXaXbXrXbXbXbXpXbXpXrXrXtXpXrXqXbXrXrXbXbXrXrXqXrXbXtXbXrXrXrXrXbXiXbXZXiXiXiXbXiXbXbXbXZXJXbXiXbXbXbXbXbXbXJXGXGXbXbXrXaXpXbXbXbXZXbXiXbXiXbXiXpXrXrXrX5XrXbXpXiXpXbXbXbXbXJXbXbX",
"bXiXpXbXbXpXrXbXbXbXbXbXbXiXbXbXbXbXpXpXbXaXiXaXaXbXaXiXbXbXrXrXbXbXpXiXrXbXbXiXbXbXbXbXbXbXbXbXbXbXbXbXbXbXrXrXaXaXaXbXbXbXbXbXbXrXbXJXbXrXrXbXIXJXbXbXFXJXbXbXbXGXaXbXbXGXJXGXbXbXbXbXbXaXaXaX            0.0.E 0.s.~.$X$XV.r.Z Z 7.R E E E M.v.Y ] +Xu.u.t.E ^ T m.&X3.:X|.~ ^ / ~ r.c.x.V.$X&X,X>X;X#XoX`.G.S.            bXiXrXiXbXbXrXbXiXrXbXrX6XiXbXbXbXbXbXrXrXrXbXrXbXrXbXbXpXbXrX6XqXrXrXpXpXrXrX3XqXqXrXrXqX6XrXbXbXbXrXrXbXSXbXbXpXbXiXaXrXrXbXbXbXbXiXbXrXbXbXbXbXJXbXrXrXbXbXpXrXrXiXbXrXrXbXbXbXbXpXbXbXbXZXZXbX",
"bXbXbXbXbXbXZXbXbXbXbXbXrXrXiXbXbXbXrXrXbXpXiXiXiXbXbXbXbXiXbXbXbXbXbXbXbXbXiXbXbXbXbXbXbXbXbXbXbXbXbXbXbXiXiXrXrXrXiXbXbXiXrXrXrXrXbXbXbXbXbXaXJXJXbXbXbXbXbXbXbXZXbXbXbXbXbXJXbXbXJXJXLXFXbXbX            } t.W.T 7.E u.u.u.s.Z # q.q.q.t.^ E R E T T T T ^ ^ E r.v.+X4.&X~.^ W ~ E u.z.P.+X&X:X4.3.5.,X&X.X!.G.            bXbXbXbXbXbXbXbXrXrXrXqX5XqXbXbXbXbXbXbXbXbX7XrXbXrXpXbXrXpX5XrXbXbXpXrXbXrXbXrX5X5XbXbXbXbXtXbXbXbXtXbXbXpXbXbXpXrXrXrXbX6XrXbXbXbXbXiXbXJXbXbXrXuXbXbXbXpXrXbXiXrXrXiXrXrXbXbXbXbXbXpXbXbXSXZXbX",
"bXbXbXrXbXbXbXbXbXbXbXbXbXbXbXbXbXbXbXpXbXiXbXiXpXbXbXiXiXbXpXbXbXiXbXbXiXbXJXbXiXbXiXiXbXbXbXbXbXbXbXbXbXbXiXpXrXiXbXbXbXiXbXrXrXbXbXbXaXaXbXbXbXFXbXbXbXbXiXbXZXbXbXbXbXbXbXGXGXGXJXJXJXbXGXJX            ,.( V.t.T u.u.~ W q.V 2 b.m.s.9.q.9.q.E ^ ^ ~ t.u.t.~ ~ ^ V.|.Y.c.~ E E y.u.z.`.;X:X3.&.3.,X,X:X X).J.            pXbXbXbXbXbXbXSXbXrXiXrXrX5XrXbXrXiXbXbXbXbX5XrXrXpXbXtXbXbXrXrXbXiXpXiXbX5XpXbXbXbXpXrXbXbXbXbXbXbXbXbXrXpXbXbXbXbXbXbXSXrXrXpXbXbXbXbXbXZXGXbXJXbXbXZXbXbXiXiXiXiXrXrXiXrXrXbXbXrXbXrXiXbXZXbXbX",
"rXbXpXpXbXbXbXbXbXbXbXbXbXiXiXpXiXbXbXbXiXrXrXbXbXbXbXiXpXpXiXbXbXbXbXbXbXbXbXbXpXbXbXbXbXbXbXiXbXbXbXbXbXbXbXiXrXiXrXbXbXiXbXbXiXrXbXGXJXbXbXbXbXaXbXbXbXGXbXbXbXbXbXbXbXbXGXbXGXFXJXJXGXFXbXJX            T.~ n.n.R ^ m.c.~ s.V _ &X:XY.U W ^ u.j.v.V.P.I.L.L.B.n.r.r.r.r.s.r.u.j.y.y.D.{.&X5.&.:.,X,X,X:X XQ.G.            ZXbXbXbXbXbXbXbXbXrXrXrXpX5X6XrXrXqXrXrXqXbXbXbXrXrXrXrXbXbXbX5XrXbXbXbXbXpXbXbXbXbXbXrXrXrXbXbXbXbXrXbXrXbXbXbXbXbXbXbXqXrXbXbXbXbXbXbXbXbXFXJXGXJXGXSXbXbXbXbXbXiXiXrXiXrXrXbXbXbXiXbXrXrXbXbXbX",
"tXpXrXbXpXpXiXpXbXrXiXpXbXrXiXbXbXbXbXpXrXbXiXbXbXbXiXbXiXiXbXbXiXbXrXiXbXpXbXbXbXbXbXJXbXbXpXbXbXbXiXbXbXbXbXbXiXiXrXiXbXbXiXiXbXiXbXbXbXFXaXbXaXbXbXaXbXGXJXbXbXbXbXbXbXbXbXbXbXbXbXFXbXbXbXbX            I ~ V.).q.t.~ t.u.U.A | 4.4.~.^ u.j.P.I.'.@XXX[.}.[.L.].).x.t.r.a.v.{.{.K.p.B.$X&X5.&.:.,X,X4.5.$X`.G.            bXbXbXiXiXrXrXrXpXbXiXrXrXiXrXbXiXrXbXrX6XrXrXiXrXrXqXrXpXrXbXrXbXbXpXZXAXtXbXbXbXbXbXbXrX5XrXpXbXpXbXpXbXbXrXbXbXbXSXbXrXbXbXbXbXbXbXbXiXiXbXGXGXbXJXbXrXbXbXbXiXbXZXpXiXpXrXrXbXbXiXbXbXrXrXbXbX",
"tXrXpXbXbXpXpXpXbXiXiXbXpXrXrXbXbXbXrXiXrXbXpXrXiXbXbXbXiXbXbXiXbXiXaXrXrXiXbXbXbXbXbXbXbXbXbXbXbXbX5XbXbXbXbXbXrXrXiXaXbXaXbXZXbXiXbXbXbXbXFXbXbXaXbXbXaXZXbXrXbXbXbXaXbXGXbXbXJXFXbXbXbXbXbXbX            U ^ B.`.V.9.t.E E t.H S K.Y.z.B.L.Q.L.I.`._.P.P.K.P.J.z.'.[.V.t.l._.&X:X$Xn.B.{.&X:X3.&.:.-.:.:X X`.G.            iXiXiXbXpXrXrXrXiXbXbXiXiXbXiXpXbXrXbXZXiXrXrXrXiXtXbXbXpXrXrXrXiXbXbXSXbXbXbXbXbXbXbXbXpXtXrXrXtXbXbXbXbXtXrXbXbXbXbXbXbXbXbXbXbXbXbXbXbXaXbXJXGXGXZXSXbXbXiXrXiXSXZXZXbXbXrXrXbXbXbXrXbXbXrXrXbX",
"iXrXpXpXbXpXbXtXrXrXbXbXrXrXbXrXbXbXbXbXpXbXrXrXrXrXbXiXiXbXbXrXrXbXbXaXbXbXbXbXbXbXZXbXbXbXbXbXbXbXbXbXbXbXbXaXrXiXbXaXrXbXbXbXGXJXGXbXJXJXbXbXbXpXpXSXbXrXrXiXpXbXbXbXFXbXbXbXbXFXbXFXFXbXbXbX            U ^ ).].XXm.a.t.E i.Y V k.B.P.P.}.].Q.XX_.z.y.c.n.B.R.J.k.P.XXV.y.|.:X5.;XP.x.J.$X&X:X2.-.-.,X&XoXL.S.            5XrXZXbXbXbX6XbXbXbXbXbXbXbXbXbXbXbXiXbXbXbXiXbXbXrXiXbXbXbX6X5XrXpXbXbXpXbXbXbXbXbXiXpXbXbXrXrXbXbXbXbXbXbXpXbXpXiXbXbXbXbXpXpXbXbXbXiXbXbXZXJXbXbXbXbXbXbXbXbXSXbXbXZXbXbXrXrXrXbXbXbXrXpXpXtXpX",
"bXbXbXpXpXrXrXbXbXrXrXrXrXrXiXrXbXbXiXbXpXbXbXiXiXiXpXiXbXbXbXrXrXbXyXaXbXbXbXbXJXbXbXbXbXbXbXbXbXbXbXbXbXbXbXbXrXrXbXrXaXbXbXyXaXbXbXbXbXJXJXbXbXbXiXbXbXiXrXrXbXbXbXbXFXGXbXbXrXJXJXJXbXbXbXbX            T j.}.).`.XX).U.m.E.] e P.'.}..X).B.|.v.~ y.c.l.j.c.V._.R.P.B.R.j.n. X+X|.B.k.B.`.%X&X:X,X:X%X(.].L.J.            rX5XZXZXbXbXrXpXbXbXpXbXbXpXbXbXbXbXpXpXbXbXbXiXbXbXbXrXpXbXbXrXrXrXbXbXbXbXbXbXbXbXbXiXrXrXrXpXbXpXbXbXbXbXbXbXrXpXbXbXbXrXpXbXbXbXbXbXbXbXbXbXbXbXbXbXbXbXbXbXbXbXbXZXbXbXbXrXiXbXbXiXbXrXrXbXrX",
"bXbXbXrXbXrX5XbXtXpXrXqXpXrXrXbXbXbXiXbXpXbXbXbXiXbXiXrXbXbXpXiXiXbXrXrXbXbXbXJXZXbXbXbXbXbXbXbXbXbXbXiXbXbXpXbXbXrXrXbXbXbXbXGXbXbXaXbXbXbXbXbXrXrXbXbXbXpXiXpXbXbXbXbXbXbXbXbXyXJXIXJXyXbXbXrX            0.j.XX_.G.P.[.[.P.].~.  ] .X].Q.B.`.c.E b._.}.}.I.v.j.Y.|.].P.B.x.u.x.B.n.p.x.z._.`. X(.+X{.{.`.L.G.Z.            bX6XrXbXbXrXbXiXbXiXiXbXbXbXbXbXbXbXrXiXpXbXbXiXrXpXbXbXpXpXrXrXbXbXrXbXbXbXrXpXbXrXbXbXrX6XrXbXrXrXbXbXbXpXbXbXbXpXrXtXrXrXbXbXbXrXbXbXpXbXbXbXbXZXbXbXbXbXbXbXbXbXbXbXbXZXZXJXbXbXbXrXbXtXrXpXbX",
"bXbXbXbXbXiXrXpXbXrXrXrXrXiXbXrXrXrXbXiXrXbXbXbXbXiXrXrXbXbXiXpXbXbXaXrXaXbXbXbXbXbXpXbXbXbXbXbXbXbXbXbXbXbXrXbXbXrXrXbXbXbXFXbXbXbXaXrXbXaXbXGXbXrXbXbXbXbXbXiXiXrXbXaXbXbXJXbXrXbXbXJXbXbXbXbX            r.s._. XP.L.P._.{.|.^.  | OXR.n. X&X~.r.P.].[.).I.B.B.B.XX<X.XN.p.a.a.y.k.x.S.G.z.L.I.L.L.L.P.I.H.k.I.            bXiXbXbXbXrXrXbXbXbXbXbXbXbXbXbXbXbXbXbXbXbXbXiXiXiXiXbXbXbXJXbXiXbXiXrXbXbXbXiXiXbXbXbXqXrXrXrXrXbXZXbXbXrXbXbXpXbXpXrXpXbXrXbXrXrXpXbXiXbXbXbXbXJXbXbXbXbXbXbXbXbXrXbXbXbXbXbXbXbXbXrXrXbXbXbXbX",
"bXpXbXbXbXbXrXbXrXtXbXbXpXiXrXbXbXrXpXpXbXpXbXbXrXiXiXbXbXbXbXbXbXbXaXbXaXrXbXbXbXbXbXbXbXbXbXbXbXbXbXbXbXbXbXbXbXbXrXrXbXbXbXbXbXbXGXbXrXrXrXrXbXbXbXbXbXbXbXbXbXbXiXbXbXbXGXbXbXbXbXFXbXbXbXbX            x.p.J.XX`.P.P.[.Y.} |   _ ).z.y.~.;XY.u.'.P.J.K.P.P.[.L.].XX].l.l.x.k.k.l.z.G.H.D.L.H.D.S.S.D.S.G.XX1X            bXiXiXbXbXiXbXbXSXbXbXbXbXiXbXbXbXbXbXbXbXbXbXbXiXiXiXiXbXbXbXbXbXiXbXpXiXbXpXiXrXiXiXbXbXrXiXbXiXpXbXbXbXbXbXbXbXpXrXrXrXpXpXpXbXiXiXrXiXiXbXrXiXbXbXbXbXbXbXbXbXbXrXbXbXbXbXbXbXJXbXrXrXbXbXbXbX",
"pXbXbXiXbXbXpXpXtXbXrXpXpXrXrXtXrXbXrXiXiXiXrXbXrXbXbXbXpXbXbXbXpXrXbXrXiXaXbXbXbXbXbXbXbXbXbXbXbXbXbXbXbXbXbXbXbXbXbXaXaXbXbXbXbXGXbXbXbXbXaXbXbXiXbXbXbXbXbXbXbXbXbXbXbXbXbXbXbXbXbXbXFXFXaXbX            >./.x._.XX`.!.[.^.| _   J D.p.^ y.l.r.K..X'.n.c.V.P.I.'.}.).z.x.z.P.'.I.P.B.G.L.G.L.J.S.k.k.x.I.#X0X1X            bXbXiXbXbXbXbXbXbXiXaXaXbXbXbXbXbXrXbXbXrXbXbXbXbXrXrXrXpXbXbXpXpXbXbXiXiXiXrXpXiXpXpXpXpXrXbXbXpXrXrXrXbXbXpXpXpXiXtXrXrXbXpXbXbXbXbXrXiXbXiXbXrXbXbXbXbXbXbXbXbXbXbXbXbXiXbXbXrXbXJXbXbXbXbXbXbX",
"pXbXpXbXrXbXtX5XbXtXrXtXrXrXtXtXiXiXrXiXbXbXpXbXbXiXrXrXpXiXbXpXbXrXrXrXiXbXbXbXpXtXbXbXbXbXbXbXbXbXbXbXaXbXbXbXbXbXbXbXrXaXbXbXbXbXbXbXbXbXbXFXbXbXbXbXrXbXiXbXbXiXbXbXaXaXbXbXbXbXbXbXFXJXbXbX            6.4.N.p.m._.`.[.R.9 9   S z.u.u.p.y.u.K.}.[.J.j.u.c.n.z.n.j.z.!.XX|.}.XX<X].z.I.Q.L.G.K.[.}.XX1X0X-X2X            pXiXiXbXiXbXbXbXbXbXaXbXbXbXFXFXaXrXyXbXrXbXJXJXbXrXrXpXrXrXbXbXbXbXiXrXbXiXiXbXbXbXrXrXbXbXtXbXbXbXrXrXbXbXpXpXpXrXrXrXrXbXAXbXiXbXiXbXiXbXiXiXiXbXbXbXbXbXrXbXbXbXbXbXbXiXbXbXbXbXbXbXJXSXbXiXbX",
"pXtXrXbXbXtXbX5XrXtXrXbXbXrXtXtXbXrXrXpXiXiXbXiXpXbXpXpXiXrXiXbXrXpXiXbXbXpXpXpXrXbXbXbXbXbXbXbXbXbXrXbXbXbXbXbXbXbXbXFXbXbXbXbXbXaXbXbXbXbXaXbXbXbXbXbXrXbXbXbXbXbXiXbXyXyXbXbXbXbXbXbXbXbXbXbX            @.^.x.|.$Xz.x.z.T.% . . 4 j.x.l.y.k.x.x.).}.P.x.k.s.u.j.x.L.).Y.n.z.x.L.XX}.P.L.L.P.@X2X1X*X-X>X=X@X<X            bXiXrXbXbXbXbXbXbXbXbXbXbXbXJXbXbXbXbXaXrXbXbXbXbXrXrXbXbXrXrXpXrXiXiXrXiXbXpXbXpXpXrXrXpXbXtXrXbXbXbXbXrXrXbXbXbXtXrXrXrXrXrXpXpXbXbXbXbXbXiXpXbXbXbXbXbXbXbXbXbXbXbXJXbXbXbXbXbXiXiXbXbXbXbXZXbX",
"tXrXpXtXbXbXrXrXrXbXbXbXbXtXrXrXpXbXbXbXbXiXiXiXiXpXbXbXiXiXrXrXiXiXpXbXbXpXpXpXrXbXpXpXbXbXbXbXbXiXbXbXbXbXbXbXbXbXFXGXbXbXbXbXbXbXaXbXbXbXbXbXbXbXrXbXbXpXiXbXbXZXbXaXrXrXbXbXbXbXbXbXbXbXbXbX            k.z.k.{.#XN.S.(.2.1       ` J.x.n.oX#XXXR._.).U.J.L.I.[.L.V.c.x.J.).Q.'.].'.m.N.'.1X-X*X=X>X>X=X@X@X).            bXbXbXiXbXbXbXbXbXbXrXbXbXbXbXJXbXbXGXbXbXbXbXbXbXrXrXrXpXpXrXrXrXrXbXpXbXbXbXbXpXbXtXtXrXpXrXbXpXtXbXpXbXtXtXpXrXrXrXrXrXrXpXbXbXbXbXbXbXiXpXbXbXbXbXbXbXbXbXbXbXbXbXbXZXbXbXbXbXbXbXrXpXbXbXbXZX",
"rXrXpXbXbXbXqXbXtXtXtXbXbXbXrXrXrX6XrXbXrXiXiXpXpXbXpXiXiXrXiXrXpXpXiXbXpXrXiXrXbXbXtXpXbXbXbXbXbXbXbXbXbXbXbXbXbXbXbXGXJXbXbXbXbXGXJXbXbXbXbXbXZXbXiXbXiXiXbXbXbXbXbXbXbXbXbXbXbXbXbXbXbXbXbXGX            ).).x.z.N.z.G.>.2.1       ` D.l.*X>X>X>X=XR.P.P._.P.P.V.j.y.S.L.[.L.L.[.}.J.j.L.=X-X#X#X-X1X#XXXOX}.H             bXbXbXbXbXbXbXbXbXbXaXaXaXbXbXJXbXbXbXaXaXbXbXbXrXrXtXrXbXbXrXrXpXpXiXrXbXbXbXbXpXbXrXpXrXrXrXrXrXrXrXpXrXtXtXrX5XrXtXrXrXrXbXbXbXbXbXbXiXpXbXiXbXbXiXbXbXbXbXbXbXbXbXbXbXbXbXZXbXbXiXiXiXbXiXbXbX",
"rXbXpXbXtXbXpXbXpXtXrX5XrXbXpXpXrXrXrXiXrXbXbXbXbXpXiXrXpXiXiXbXpXpXpXbXiXiXbXpXtXpXrXtXbXbXbXbXbXbXbXJXJXbXGXJXJXbXbXJXGXJXJXbXbXGXGXGXJXbXaXbXZXbXbXiXbXbXbXbXiXbXbXGXbXbXbXbXbXbXbXbXbXbXbXbX            *X).x.z.x.z.N.N.T.%   o   ! S._.>X:X:X>X0X|.z.z.n.x.k.j.x.z.G.S.L.).[.}.P.z.B.#X=X=X#XXX@X$X] P P A B             iXiXiXbXbXZXbXGXbXbXbXbXbXbXbXbXbXbXbXrXaXbXbXbXpXrXpXrXrXrXrXrXbXbXbXbXiXbXpXiXiXrXbXrXrXpXrXrXrXrXrXbXrXbXtXpXrXrXtXbXrXtXpXbXbXbXbXbXbXiXpXbXbXbXbXbXbXSXbXbXbXbXbXbXbXbXbXbXbXpXbXrXrXiXbXbXbX",
"bXbXaXbXbXbXbXrXpXbXpXtXtXtXtXpXrXtXpXpXbXbXtXtXpXbXrXbXtXrXtXrXpXpXqX4XpXbXuXpXtXrXtXtXpXiXiXbXbXbXbXbXFXbXJXbXFXbXbXbXbXGXbXJXbXbXbXbXZXbXbXGXFXbXbXbXbXbXrXpXbXrXbXbXbXbXbXrXbXbXGXbXbXbXZXbX            z.l.n.l.p.y.x.S.x.o       ' H.{.>X:X5.>X0X$XG.J.z.k.x.H.S.z.S.L.L.P.P.P.z.).XX*X=X@X)..X`.! 5 5 2 5 2             pXbXbXbXZXSXSXJXJXbXbXbXaXrXbXbXbXyXbXrXbXbXpXbXbXrXrXrXrXrXrXqXpXbXrXtXbXbXbXpXbXrXbXpXrXbXpXrXrXrXrXbXpXbXbXtXpXrXrXpXtXrXtXbXbXpXpXbXrXbXpXbXbXbXbXbXbXbXbXbXbXbXrXrXpXbXbXbXbXbXrXrX5XiXbXbXbX",
"yXrXrXbXbXpXrXbXpXiXpXrXbXrXtXtXrXrXrXtXtXpXbXbXbXbXtXtXtXtXtXrXrXrXrXrXbXbXbXpXpXtXtXpXpXbXbXbXbXbXJXbXbXrXbXJXJXbXbXbXbXrXbXGXbXbXbXbXaXbXJXGXyXbXbXbXbXbXbXrXbXrXbXbXbXbXrXbXbXbXbXbXGXGXbXbX            y.u.y.k.R.E.x.y.j.X       w S.P.-X>X>X>X>X`.H.J.J.J.G.H.P..X].@X*X@XXXXX.X@X$X@XXX].}.] 2 5 B 5 5 2 Z             tXtXbXbXbXbXbXZXJXbXbXbXbXyXbXbXbXbXbXbXtXbXbXbXrXrXrXrXtXtXrXrXpXrX5XrXbXbXbXpXbXrXtXtXtXrXtXrXrXrXrXbXbXrXbXbXrXrXrXrXrXbXtXpXbXbXpXtXrXbXbXpXrXbXbXbXbXbXbXbXpXtXbXrXrXtXbXbXbXbXbXpXrXiXbXbXiX",
"rXrXrXrXrXiXbXrXrXrXbXtXrXpXrXtXpXpXbXiXpXbXpXpXpXrXbXpXbXbXtXtXrXtXpXbXpXpXpXrXtXrXtXpXbXbXbXbXbXJXZXbXbXbXbXGXFXrXbXaXaXaXbXaXbXbXbXFXbXbXbXbXaXbXFXbXbXaXpXrXrXpXbXZXpXrXbXbXbXbXFXbXbXbXbXbX            Y. X_.L.[.#XXXJ./     o   9 ` S.'.=X-X=X$X}.}.@X@X#XXX.X=X#XXXXX.X].[.!.[.'.].{.Y.T.P 2 2 5 2 2 2 B ~             pXpXrXbXbXiXbXbXJXbXbXbXbXbXbXbXbXbXbXbXrXpXbXpXrXtXrXrXrXrXrXrXrXrXrXbXrXbXbXpXbXrXpXrXrXrXbXtXrXtXbXbXpXtXrXtXbXrXrXpXrXrXbXbXbXpXtXbXbXbXbXZXbXpXiXbXbXbXbXpXpXbXpXbXpXtXbXrXbXbXtXbXpXrXbXbXbX",
"aXrXrXrXpXqXrXrXrXtXbXqXrXpXrXtXbXbXpXiXbXbXbXbXtXbXtXbXbXpXtXtXrXrXaXbXrXrXbXrXrXrXrXtXpXpXbXbXSXJXJXbXbXJXJXJXbXaXbXbXaXbXaXbXbXbXbXFXbXFXbXbXaXaXbXbXbXbXbXbXrXiXbXZXbXbXbXbXZXbXbXbXbXbXaXaX            #X$XoXQ.L.XX#XXXY.o     o O J ` B.Q.`.}.#X=X<X2XXX@X2X@X_.G.G.C.C.v.Y.[.P.V.] A 5 5 2 G ! v.` ` ! v.c.            rXbXrXbXbXpXbXbXbXbXbXbXbXbXuXbXuXuXrXrXpXrXrXpXtXbXbXpXrXrXrXtXbXqX5XrXqXrXpXpXtXbXbXtXrXrXrXrXbXtXbXpXtXtXtXbXbXrXrXrXrXrXtXbXtXbXtXtXpXbXiXbXbXbXrXrXbXrXbXpXbXbXrXrXbXbXrXrXpXtXrXrXpXiXbXbXbX",
"aXbXiXbXbXiXqXrXrXrXrXrXrXrXrXrXbXrXrXiXrXbXtXbXbXpXrXbXbXbXbXbXtXbXaXbXbXbXpXrXrXrXrXrXrXbXbXZXbXbXbXbXbXbXJXbXaXaXaXaXyXbXbXrXaXbXbXbXbXbXbXbXbXGXGXbXGXaXbXbXaXaXZXbXbXbXbXbXbXbXbXbXbXbXbXbX            `.|._.L.P.}.XX}.Y.%         P F _ OX@X$XXX).P.P.Q.`.).L.N.j.Z V Z B 5 7 ! ! Z Z S S ( l.P.Q.K.n.z.K.u.            pXbXbXrXrXrXrXbXbXbXbXrXrXbXuXbXuXbXbX5X5XrX5XrXtXtXtXtXpXpXrXrXtXrXqXqXrXtXpXpXpXbXbXpXbXbXrXpXrXtXpXbXtXbXrXbXtXbXpXpXrXtXrXrXrXrXtXtXtXiXrXrXrXpXbXbXbXbXbXrXbXbXqXrXbXbXtXbXtXrXrXrXiXbXbXbXbX",
"rXrXrXrXbXbXpXrXrXqX5XrXrXrXrXbXbXrXrXbXaXrXrXbXbXbXbXbXbXtXbXbXtXrXbXbXrXrXpXbXpXrXrXrXbXbXbXbXbXbXbXbXJXbXJXbXbXaXaXaXbXbXbXaXrXrXbXbXbXbXbXbXGXGXGXbXbXbXiXbXbXZXZXbXbXbXbXbXbXbXbXbXbXyXbXbX            _.`.Q.B.N.).Q.'.P.$   o o   L 9   ] V.C.J.x.k.x.z.z.B.y.Q B Z ~ Z 5 5 3 G Q j.j.^ ^ u.j.P.L.P.x.n.j.y.            pXbXbXiXrXrXbXSXJXbXiXbXbXrXtXtXbXuXuXrX5XbXrXqXrXrXpXpXbXtXrXrXrXrXrXrXtXrXbXrXrXpXtXbXrXtXbXtXrXtXpXpXrXbXbXbXbXbXbXpXrXrXrXrXrXrXtXtXrXrXrXiXrXrXrXbXrXbXbXrXbXbXbXbXbXbXpXbXbXtXrXrXbXbXbXbXbX",
"rXrXrXrXbXpXbXpXtX5XrXpXpXpXtXpXrXrXbXbXaXbXrXuXbXuXuXuXrXbXrXuXbXrXbXpXbXpXpXbXiXiXbXiXbXbXbXbXFXbXbXbXbXGXGXaXbXaXaXbXaXrXrXbXyXaXbXGXbXbXaXaXbXbXbXbXFXbXbX9XbXbXbXbXbXbXbXbXbXbXbXbXbXbXbXbX            M.] ` z.z.J.P.J.B.#         o       J B.v./ Y Z ! j./ Y H Y Y Y Z A ! z.u.u.D.k.r.~ y.V.P.z.j.j.` / j.            bXtXiXrXbXrXiXJXbXpXpXrXrXpXqXrXrXtXbXpXrXtXbXpXrXrXbXpXbXpXrXqXrXqXrXrXrXrXbXrX5XrXtXbXtXtXpXtXtXrXrXrXrXbXbXtXbXbXrXrXrXpXtXtXrXrXrXrXrXrXtXtXtXtXtXtXrXbXbXbXbXbXbXbXaXbXtXtXtXpXtXrXrXpXbXbXZX",
"rXrXrXbXbXrXqXrXqXpXrXbXpXbXrXtXrXbXaXbXaXbXbXbXbXbXuXrXbXbXbXuXrXrXbXbXbXbXbXrXbXbXiXrXrXaXyXbXbXbXJXbXbXbXGXbXbXrXbXbXbXaXbXbXyXrXbXbXbXFXbXbXbXbXaXJXbXbXaXyX5XbXGXGXGXbXbXGXbXbXbXaXaXbXbXrX            5 2 5 Z j.j.^ / ( #         o       o H Y Y U C Z Y C U ( Y C B G ^ j.j.j.j.j./ ! ' ] ] _ _ _ _ _ [ {             bXrXbXiXpXbXrXbXiXiXbXbXrXpXrXqXqXrXrXrXpXrXrXtXbXrXtXrXrXbXrXrXrXrXtXrXrXrXrXrXrXrXrXtXbXpXbXtXtXrXrXrXtXrXtXrXpXbXrXrXrXrXpXpXtXrXrXrXrXrXrXrXrXrXrXrXtXbXbXbXbXbXbXaXbXbXbXbXrXrXrXrXbXbXpXbXbX",
"rXuXrXbXbXrX5XqXqXrXtXpXpXrXtXpXrXrXaXbXbXbXbXbXbXuXyXrXrXbXbXbXuXpXbXbXbXpXtXrXbXbXrXrXbXbXaXbXbXbXbXbXaXbXGXGXbXbXbXbXaXaXrXbXbXbXbXaXbXGXbXbXbXbXbXrXrXbXbXbXbXbXbXZXJXbXbXFXbXbXbXbXbXaXaXrX            V V V B C Z Z B 2           .         2 B 6 5 Z A V V H ] J D H ' H J J J _ _ w L r F ) r _ [ [ _ [ _             rXpXpXrXbXbXrXbXbXbXpXpXbXbXtXrXrXrXrXtXrXrXrXbXpXtXbXpXpXtXrXtXtXbXbXtXrXrXrXtXrXrXrXrXtXtXtXrXpXtXrXtXrXrXtXbXtXrXrXrXqXrXrXrXrXrXrXiXrXrXrXrXbXpXrXrXbXbXbXpXbXbXpXrXrXbXpXrXrXrXrXrXrXiXbXbXbX",
"rXrXrXrXyXrXqXqXrXrXrXtXrXrXrXtXbXaXaXbXaXbXaXbXbXuXrXrXrXrXrXrXbXbXbXbXbXbXrXpXpXbXbXiXbXbXbXbXbXbXrXbXbXaXbXbXrXbXaXbXaXaXbXbXGXbXyXaXbXbXbXbXbXbXbXrXFXbXbXbXbXbXbXGXbXbXbXbXbXJXbXbXGXbXyXrX            Z / Z 5 5 5 B 6 o   o   o o             2 2 7 7 3 7 7 P ] J F _ D D w 3 3 7 D P F J ] | ] ] P P _ _ _             rXpXrXrXiXbXpXbXpXrXbXbXbXpXrXrXrXrXrXpXbXpXrXrXrXpXbXtXrXtXbXbXtXrXrXbXpXpXbXpXrXrXrXrXrXtXrXrXtXtXrXpXrXbXpXrXrXpXtXrXrXrXrXrXrXrXrXiXpXrXrXrXrXpXrXrXtXbXbXbXrXrXpXpXpXrXtXtXbXrXrXbXrXrXbXbXrX",
"uXrXrXrXrXtXpXrXtXrXrXrXrXrXpXrXbXbXrXaXrXaXrXrXuXuXrXrXrXrXbX5XrXtXtXbXrXrXpXbXpXrXpXpXrXyXbXbXbXbXaXbXbXaXbXbXbXaXaXbXbXaXGXGXbXrXaXrXaXaXaXbXbXbXbXbXbXbXaXbXbXbXGXbXbXFXbXbXbXbXbXGXGXbXbXbX            # 6 2 5 6 B V 7         . o o           3 7 7 7 S e e J J 7 3 e D S w 3 P 4 o # # e _ P ( P J _ | L D             rXrXbXbXbXpXpXiXbXbXbXpXpXbXtXrXrXrXrXpXtXtXrXrXrXrXqXrXrXrXtXpXtXrXrXtXbXpXtXbXrXrXpXtXrXrXrXtXrXrXrXrXbXbXbXrXrXpXtXtXrXrXrXrXrXrXiXrXrXrXrXrXrXrXrXrXrXpXpXpX4X5X5XpXpXpXrXtXrXrXrXpXbXiXrXbXbX",
"rXrXrXrXuXrXpXrXrXrXrXbXrXbXbXpXbXbXtXtXtXbXtXrXrXtXtXrXrXrXbXrXtXrXrXpXrXrXtXrXrXrXtXbXrXpXtXpXbXbXrXrXbXbXbXrXaXbXbXbXbXbXbXGXJXGXaXbXbXrXbXrXrXbXbXbXaXrXbXbXbXbXbXJXbXbXbXJXbXbXJXJXGXbXbXbX            2 # 3 3 3 7 7 #       o o o   o           $ O X 4 e e J ` e 3 L y 4 3 3 e F w     o e 6 4 L 4 e D 6 3             rXtXrXrXrXrXbXtXpXbXpXpXrXbXtXtXtXpXpXbXpXbXtXtXtXrXrXrXpXrXpXtXtXrXrXrXrXtXtXtXrXrXrXrXrXrXbXbXbXbXbXbXbXbXbXrXrXrXrXrXrXrXrXrXrXrXtXrXrXrXtXrXuXtXrXrXpXpXtXtXbXrXrXrXrXtXpXpXbXrXpXrXrXbXbXpXbX",
"rXrXrXrXbXbXbXbXrXrXpXrXrXpXbXtXbXpXtXrXrXtXbXbXpXtXrXrXrXrXrXrXrXrXrXrXpXtXtXrXrXbXbXrXrXpXtXrXrXbXbXyXuXbXbXrXaXbXaXaXbXbXbXbXbXbXbXaXbXbXbXbXbXbXbXbXbXrXrXuXyXbXbXbXbXaXbXbXbXbXGXGXFXbXbXbX            7 8 w e 6 S A 9               O           # o % % e 3 e ` S 3 $ . # 9 L 4 4 e $ # o # 2 # # X 3 # 3 3             bXpXrXrXrXtXbXtXrXrXpXpXtXbXpXtXpXbXpXpXbXtXtXbXtXbXrXrXrXrXtXtXrXtXtXrXrXrXrXrXrXrXiXrXpXiXbXbXbXbXbXbXbXFXbXyXaXrXaXrXrXrXrXrXrXrXtXrXrXbXrXrXrXrXrXrXrXtXtXtXrXbXbXtXrXtXrXtXbXbXbXtXrXbXbXbXtX",
"aXrXrXiXbXbXbXbXbXrXpXrXrXpXrXqXrXpXtXrXpXbXbXbXrXtXrXrXtXtXrXpXtXrXrXrXtXtXrXrXrXrXtXrXqXpXpXtXrXrXrXrXuXyXyXbXaXbXaXbXbXbXbXaXbXbXrXaXGXbXrXbXbXyXbXyXbXbXrXrXbXbXFXFXGXbXbXbXbXbXbXFXbXbXbXbX            r 9 y 7 5 L P y               o           o o $ 3 # # # 7 V 6 % # X $ # 3 e w P ] e 4 7 D j L G e 9 4             bXrXrXpXbXrXbXpXrXtXrXrXrXrXrXtXtXbXpXtXpXpXrXbXtXtXtXpXrXpXrXrXrXtXtXtXtXpXrXrXtXpXbXbXbXiXiXbXbXbXbXbXbXbXbXbXyXaXbXrXrXrXrXrXrXtXtXrXrXrXrXbXrXrXrXrXpXtXtXtXrXpXpXtXtXrXrXrXtXpXtXbXtXbXbXbXrX",
"rXrXbXbXbXbXbXbXpXbXbXrXrXpXrXrXpXtXrXtXrXrXbXbXtXbXrXrXrXtXtXpXtXtXrXrXtXrXtXbXbXrXrXrXrXrXrXbXrXrXrXrXbXuXrXbXbXaXbXGXaXbXbXbXbXbXrXrXrXbXrXrXyXrXrXrXrXrXrXuXyXbXHXbXJXJXJXbXbXaXGXFXGXbXbXbX            B B 7 2 # y g - o     o               o     o   S # 3 S 4 y 9 3 7 e 4 # G S 4 7 C.] e P 6 y y # 2 9 L             tXrXpXbXpXrXrXtXpXbXrXpXpXbXpXbXbXbXtXtXpXbXbXtXrXbXbXpXrXtXrXrXrXtXtXbXpXrXpXbXbXbXbXrXrXiXaXbXGXbXbXbXbXaXbXJXyXaXbXbXbXrXrXrXrXrXrXrXrXrXrXuXuXbXrXpXpXrXrXtXrXrXrXtXtXrXrXrXtXpXrXbXrXrXrXbXbX",
"rXrXaXbXaXbXbXbXbXbXbXtXrXrXbXtXrXbXpXrXrXrXtXpXbXpXpXrXrXtXpXrXtXtXrXrXpXrXtXrXrXrXrXrXrXtXpXbXbXbXtXrXrXrXrXrXbXbXbXbXbXbXbXaXGXbXGXaXbXrXrXrXrXrXrXrXrXrXrXyXrXbXFXbXJXJXJXbXbXbXFXGXJXJXbXbX            B 5 $ $ 4 u , - O   o % +                 o     3 L L e e 1 9 3 J S 3 S S 7 # 3 e ` ` ` 3   o 1 9 7 P             rXtXbXpXbXtXbXbXpX5XrXrXtXbXbXbXbXtXbXbXpXpXpXpXrXbXbXbXbXbXrXtXtXrXrXtXbXbXbXtXtXbXbXbXrXpXpXaXbXbXbXbXbXrXyXbXJXrXbXbXbXrXrXiXrXrXrXrXrXbXbXbXrXuXrXtXtXpXrXtXpXrXrXtXpXrXrXrXrXrXrXtXpXtXpXbXbX",
"rXrXaXrXrXbXZXbXZXZXbXiXrXrXpXtXrXpXbXqXpXbXbXtXbXtXbXbXbXbXtXrXrXrXbXrXrXrXbXbXbXtXbXtXpXbXbXrXbXbXrXrXrXrXrXyXrXaXbXbXJXbXbXbXbXGXbXbXaXbXbXbXbXyXbXbXbXbXrXuXbXJXHXJXJXbXbXbXbXbXbXrXbXbXbXbX            B 4 @ O ; = * = < +   + +                     o # 4 w S 9 $ y 1 1 % L M.M.P L e $ 3 3 X o o $ _ P 7 6             rXpXtXrXtXrXrXrXbXrXpXrXrXbXiXrXrXbXbXrXbXbXrXbXtXrXrXbXbXbXrXrXpXrXrXrXtXbXtXrXbXSXbXbXbXiXbXbXbXbXbXbXbXFXaXbXbXJXbXbXbXaXrXrXrXrXrXrXrXrXbXbXbXrXrXrXrXrXrXrXbXtXrXrXtXrXrXtXtXrXrXrXbXbXpXtXbX",
"rXaXrXrXaXbXZXbXbXJXbXaXaXrXbXbXaXbXbXiXpXpXbXtXbXrXpXbXbXbXpXpXrXrXuXuXrXbXbXpXpXpXpXbXbXrXrXrXrXbXbXbXbXbXaXrXrXrXrXaXbXbXbXbXaXbXbXaXbXaXJXbXbXbXbXbXbXbXbXuXFXJXJXbXbXJXbXbXbXrXbXbXFXbXGXGX            3 > < @ * * * = - + * +                       5 6 5 2 2 # 2 4 e 7 1 y 7 D e e 7 7 4 4     # 5 6 Z Z Q             rXbXpXtXtXrXrXrXbXrXbXbXaXbXiXbXbXbXpXpXpXbXrXtXbXtXpXbXpXpXrXbXpXiXiXrXbXpXbXpXpXpXrXbXAXbXbXbXbXbXbXaXrXbXFXFXbXFXFXbXbXbXaXrXaXbXrXrXrXrXrXrXrXrXrXrXrXiXiXrXpXpXpXrXtXrXtXrXrXrXrXrXpXbXbXbXbX",
"rXaXaXbXbXiXbXbXiXbXbXbXbXrXbXbXaXiXbXiXpXiXbXtXpXtXrXtXbXtXtXtXtXrXrXrXyXbXrXpXbXpXbXpXrXrXrXtXtXbXbXbXbXrXbXbXrXrXrXrXaXbXbXbXbXbXbXrXyXaXyXbXbXrXbXbXbXbXuXbXHXHXJXGXbXJXbXFXbXrXyXaXbXGXGXbX            * < * + ; O + O + - > -                       V 6 Z Y C B V C B B 5 B Y Y ~ Q Y Y V   X # 2 v M ` y.r.            rXiXbXbX5XrXbXrXrXbXrXrXbXrXrXrXpXbXpXrXtXbXbXtXrXpXpXpXpXtXpXbXbXpXiXrXrXpXrXbXpXbXrXpXrXpXpXaXbXbXbXbXbXaXbXJXbXaXbXbXbXbXbXbXyXrXaXaXaXbXbXrX8X5XrXrXrXiXbXbXrXrXbXtXrXpXbXrXrXpXrXrXbXpXpXbXbX",
"8XrXaXbXrXbXbXbXiXrXbXbXaXbXbXbXbXrXiXbXpXpXbXpXtXpXpXbXtXrXpXpXrXrXrXrXrXuXbXiXiXpXbXbXrXrXrXrXrXrXbXyXrXaXaXbXaXbXbXbXbXbXaXbXbXGXbXaXrXbXbXrXrXbXbXyXbXbXbXbXbXbXLXJXbXJXbXbXbXbXbXbXbXbXbXbX            * @ o + < @ o O   @ = - < > O   + +           # # 2 Z W W 7 Z Z B C Y Y Q ~ ~ ~ Y / D 6 5 _ 2.<./ y.~             rXrXbXJX5XrXbXpXbXaXrXaXaXrXrXrXbXJXbXrXrXbXpXrXrXtXbXrXtXbXbXbXpXbXpXrXrXrXpXtXbXbXbXbXtXrXbXbXrXaXaXbXbXbXbXGXbXbXbXbXbXbXbXbXrXbXbXaXrXaXbXbXrX5XrXqXrXrXiXbXbXbXrXbXpXbXtXrXrXpXpXpXbXbXbXbXbX",
"rXrXrXrXaXbXbXiXbXrXpXbXbXbXbXbXbXbXbXbXiXiXbXbXrXbXbXpXrXpXbXbXrXrXrXuXrXrXrXbXbXrXpXSXrXqX5XrXtXpXaXaXrXbXbXrXrXbXbXbXJXaXbXbXaXbXbXbXaXbXbXyXbXbXbXbXuXbXbXbXbXJXHXbXbXbXbXbXGXJXGXJXJXbXbXbX            + @ *   + > * < * + o @ - = - < = =       O         6 9.Z   2 Z Y Y Y ~ ~ r.~ Q D 7 D ! Q ' <.<./ E Q             iXrXrXrXrXrXtXtXbXbXaXbXaXbXrXpXbXrXrXrXbXrXrXtXrXrXrXtXrXbXbXiXpXbXiXrXrXrXpXbXbXbXbXbXtXrXbXbXbXbXbXbXbXbXFXbXbXJXbXGXbXbXaXbXaXbXbXrXrXrXrXrXaXrXrXbXiXrXrXbXpXiXrXbXbXbXpXrXtXrXtXrXrXrXbXbXbX",
"5XrXrXbXbXbXbXbXbXbXbXaXbXbXbXbXbXbXpXbXrXrXbXbXbXrXrXbXrXbXpXbXpXrXrXrXrXuXrXiXZXpXbXbXpX5X5XrXbXbXbXbXbXbXbXrXbXbXbXbXbXbXbXbXbXaXbXbXbXbXbXbXbXbXbXbXbXuXyXbXbXbXeXbXGXFXbXbXGXJXJXJXJXbXbXbX            : O o + > = < + < < O @ @   o @ * - = + * , * o     5 ~ L 1 1 e Q Z J ! ~ ^ ! ! ! ' n.j.r.` <.<.` y.~             pXiXrXqXrXrXtXrXbXbXbXbXbXbXrXrXrXiXbXrXrXbXpXrXrXbXbXrXrXpXpXiXbXbXpXiXrXrXtXbXpXpXtXpXpXpXpXbXrXbXbXbXbXbXbXbXbXbXbXbXGXbXbXbXFXbXaXbXrXyXrXaXrXrX5XqXbXbXrXpXiXiXrXrXbXbXpXrXbXpXrXrXiXrXbXbXbX",
"6XrXiXbXbXbXbXbXbXbXbXaXiXbXbXbXbXbXbXbXbXpXpXbXbXrXbXrXiXiXbXrXrXbXrXrXrXaXrXbXbXiXrXbXbX9X5X8XbXbXbXbXJXGXbXGXJXJXJXJXJXbXaXbXbXrXaXbXbXbXbXbXbXrXbXFXGXbXbXbXbXbXbXbXbXbXbXFXJXJXJXJXJXGXJXJX            * o o @ + O o o o o O + O +   : :   * > - - u u ;   5 H N N v  .3 $ # 4 H D Z Z ~ ~ Y ~ ~ ' O.#.` ~ /             bXiXrXrXrXbXrXrXbXbXbXrXbXrXtXuXbXrXrXbXpXpXtXrXqXrXrXrXrXtXrXrXbXbXrXqXqXrXrXrXbXbXbXbXbXbXbXbXbXbXbXbXbXbXbXbXGXbXaXbXGXGXbXbXbXbXbXaXrXaXaXrX8XrX5XqXrXrXbXrXrXrXiXrXbXbXbXpXbXpXrXbXrXrXbXSXbX",
"rXrXrXbXrXbXbXbXpXiXpXbXiXiXbXbXbXbXbXbXbXbXbXbXbXpXiXpXbXbXbXbXZXbXbXaXaXrXrXbXbXbXbXyXGXaXrXrXbXrXaXJXbXbXGXJXbXJXJXJXJXGXFXGXbXrXbXaXbXbXbXbXbXbXFXGXGXJXGXbXbXbXbXbXbXbXGXFXGXGXJXJXJXJXJXJX            o o   o   o o O     : = * +   O O = , < = - = - , = 8 D D e 3 V V 5 # o 5 Y Y ~ ~ Z Z Z Q ' } | / / `             bXrXrXrXrXbXaXrXrXrXrXrXuXuXuXyXbXbXrXrXrXiXtXrXrXqX5XrXtXpXrXrXtXqXrXrXrXrXrXpXbXbXbXbXbXbXbXbXbXbXbXbXbXbXbXFXGXyXbXbXbXbXbXbXbXrXbXbXbXbXrXrXrXrXrXbXbXqXrXrXrXrXrXrXrXbXpXbXbXpXbXbXbXrXiXbXbX",
"rXrXrXrXbXpXrXbXrXiXrXbXbXrXrXbXbXbXbXrXbXbXrXqXrXrXrXrXbXbXbXbXbXbXbXbXbXbXrXrXbXbXbXrXbXJXbXbXrXrXbXJXbXbXJXJXbXJXJXJXFXGXGXGXbXbXbXbXbXbXbXbXbXbXbXFXbXbXFXbXbXbXbXaXbXbXJXJXJXJXJXJXJXGXGXJX            * , 0 r ; 4 $ o o o @ o o + o * : - * > - = * = = * * ; 6 B Z Q Z B 5 2 B Z S G Q Z V Z Q / ' / G Z !             bXrXrXbXbXbXaXrXrXyXrXbXrXrXrXrXrXbXbXpXrXbXbXrXrXqX5X5XqXrXtXrXrXqXrXtXpXrXrXtXrXrXiXiXpXbXbXbXbXbXbXbXbXbXbXbXGXbXbXbXGXGXFXbXbXbXbXaXrXbXbXaXrXaXbXrXbXrX3X3XtXbXiXiXiXrXrXrXiXbXbXbXbXrXbXbXrX",
"pXrXbXiXrXiXbXbXbXbXiXpXbXrXpXiXbXbXbXbXpXpXrXrX5XiXrXrXbXiXbXbXbXbXbXbXaXbXaXbXbXbXbXGXbXFXGXbXrXbXJXJXbXbXbXFXbXJXJXJXFXGXFXbXbXJXbXGXbXaXbXbXbXbXJXbXbXbXJXbXbXbXbXbXJXJXGXGXJXJXJXJXJXGXGXJX            p s d s s r w o o @   @ $ @ o * O O + + , < = * @ @ o < $ 3 q A C Z B B 6 ; = $ ; 8 G Q Z G P P H G !             bXbXbXbXbXbXaXaXbXyXrXrXrXrXrXuXrXrXHXbXpXpXrXrX5XrX5X5X4XqXrXrXrXrXrXtXpXtXpXrXpXpXiXrXpXpXiXbXbXbXbXbXbXbXbXbXbXGXbXbXGXbXGXbXFXbXbXbXaXrXbXbXaXrXbXbXrXrXrX3XrXrXpXpXiXrXiXbXbXbXrXbXbXpXbXbXrX",
"bXbXbXbXbXbXbXbXbXbXbXbXrXpXbXiXiXbXbXiXpXbXrXqX5X6XrXiXbXiXbXbXbXbXbXaXbXaXbXaXaXbXbXbXbXbXbXbXbXbXbXbXFXbXbXPXGXGXbXbXbXbXFXbXbXFXbXFXbXbXbXbXbXbXbXJXJXJXJXbXrXbXbXbXbXGXGXbXbXJXJXJXGXGXJXGX            u ; , q r s 8 q s o 3 $ @ @ + o O O o o + = * = = = * O o < u , 3 5 B B 8 = @ . * @ 7 / Q ! ! Q G V D             pXbXbXbXbXbXaXaXrXrXrXrXrXbXbXuXbXbXHXbXbXpXrXrXqX5XqXrX5X5XrXrXrXrXrXrXrXpXpXrXtXbXiXiXpXrXpXbXbXiXbXbXbXbXbXbXbXbXbXbXbXbXbXbXbXGXbXaXaXaXbXbXbXbXbXrXrXtXtXrX5XqXrXrXiXrXiXbXZXZXbXbXbXbXZXbX6X",
"pXpXAXbXbXbXpXbXbXbXiXrXrXiXbXbXpXbXiXiXbXbXrX5X5XrXbXrXiXrXrXbXbXbXbXaXaXbXbXbXbXbXbXuXaXbXbXbXbXbXbXbXGXJXJXJXGXGXbXbXbXbXbXbXbXbXbXaXbXFXbXbXbXbXbXFXJXbXbXbXbXFXbXbXbXGXGXJXFXJXJXPXJXJXGXGX            0 > , ; 3 ; 8 9 p g > + O : O o o o o o O @ @ O + * o   + < + @ ; 8 V 5 +     o O     4 P ` Q S H ! J             bXbXbXbXbXaXaXbXbXrXyXbXrXbXbXbXrXrXrXtXbXpXrXrXrXrXrXrXqXrXrXrXrXrXtXrXrXrXtXbXbXbXbXiXiXiXbXbXbXbXbXbXbXaXaXbXbXbXbXbXbXGXbXbXFXGXbXbXaXbXbXaXbXbXaXpXbXbXrXbXrX5X6XrX6XrXrXrXbXbXbXbXbXrXbXbXrX",
"tXbXSXbXbXSXbXbXiXbXbXbXbXSXZXiXrXpXbXpXrXrX5XqXrXbXrXpXtXrXrXpXbXbXbXbXrXbXbXbXbXbXbXrXbXFXbXbXbXbXFXbXbXJXJXFXbXbXbXbXJXbXbXaXbXGXJXbXbXbXJXJXJXbXbXbXbXbXbXFXFXFXbXbXJXJXbXFXbXGXJXJXGXGXJXFX            ; u > - * , , - u a u u p , : y %   % o $ #   o : * @ O +   O O @ $ 6 O             # 2 B Y Q A 6 D D             bXbXbXaXbXbXbXrXbXbXaXbXaXuXbXbXrXrXrXqXrXrXrXqXrXrXrXrXrXrXrXrXrXrXrXrXrXrXrXtXbXbXbXpXtXbXbXpXbXZXbXrXpXiXbXbXiXbXbXbXrXbXbXbXbXbXbXbXbXbXbXbXbXbXaXyXrXrXpXrXrXrXbXrXrXrXaXrXbXaXbXbXbXbXrXrXrX",
"pXbXbXbXbXbXbXbXbXbXJXbXbXbXiXbXbXrXtXbXbXqXrXtXrXpXrXbXrXrXtXtXrXbXbXbXbXbXiXbXbXbXuXrXbXbXbXbXbXbXbXrXbXGXbXbXJXGXJXbXbXJXbXbXFXJXJXbXJXJXbXJXJXbXbXbXbXbXFXGXFXFXbXbXbXbXGXFXbXbXGXbXbXFXFXbX            q d s d 0 h g = u = - p p s q a u > q O 3 3 4 o @ o O @ @ o + @ o o # # # # # # 2 V Z Q Z V Y Q V D v.            bXbXbXbXaXrXbXbXaXbXbXbXaXrXbXbXrXeXrXbXrXrXrXrXrXrXrXrXrXtXrXrXrXrXrXrXrXrXrXrXrXrXrXpXpXpXbXiXpXrXbXbXbXaXbXbXrXbXFXbXaXbXGXbXbXbXJXbXbXbXbXbXbXaXbXbXrXrXrXrX5XrXrXrXyXrXaXrXrXbXrXbXpXrXrXrXtX",
"pXrXpXbXbXpXbXbXrXbXSXbXbXpXpXpXbXrXrXbXpXbXbXpXrXbXbXbXrXrXbXpXrXbXiXbXbXbXbXbXbXbXbXyXbXbXbXbXbXbXbXrXbXbXbXbXbXJXLXbXaXbXFXbXbXJXbXbXJXbXbXJXGXGXbXbXbXbXJXFXJXLXJXJXbXbXGXbXJXGXbXJXJXFXbXbX            t K F r ) f s q u u u u p l k h h b k j % X H 6 o 8 9 o @   o o o   X 5 A V D e r H Y V V B V V 5 V Q             bXbXbXrXrXaXbXbXbXbXbXbXaXyXuXbX5XeXrXrXrXrXrXiXbXrXrXtXrXrXrXqXtXrXrXqXrXrXrXrXrXrXrXrXbXrXtXrXrXrXrXrXbXrXrXbXiXbXaXbXGXbXbXbXbXbXbXbXbXbXbXbXbXbXbXrXrXrXrXbXrXrXrXrXuXbXrXrX5XrXrXrXpXtXrXrXbX",
"pXrXtXtXbXrXbXrXrXbXbXbXbXbXbXrXbXbXbXpXbXrXrXbXbXpXpXpXrXrXtXrXrXrXiXbXbXbXbXyXbXbXyXyXuXbXbXbXbXbXaXbXbXbXbXbXbXbXyXrXbXbXbXJXbXFXbXJXbXbXGXJXJXGXGXGXbXbXbXFXJXJXJXJXJXJXbXaXbXJXGXGXJXJXJXGX            u d , 8 t K u g u b p i x ' _ [ b z l z t g J G 4 q 9 # $     o       6 e r F g q j j V F S H J G G !             bXbXbXbXaXGXaXaXbXbXbXbXrXrXuXbXrXrXbXrXrXiX5XrXrXqXrXpXtXrXrX5X5XrXrXrXrXrXrXrXrXrXrXrXrXrXrXrXrXpXrXiXrXrXiXbXbXbXbXbXbXaXbXbXbXbXbXbXbXbXbXaXbXbXbXbXbXbXrXrXrXrXrXrXrXbXrXrX5X>XaXrXrXrXrXrXrX",
"tXbXrXrXtXrXrXbXbXiXbXbXbXbXiXiXbXbXbXbXbXpXrXbXbXpXpXbXrXrXrXqX5XrXpXbXbXbXpXbXrXrXbXrXbXbXbXyXuXbXbXaXbXbXbXbXbXrXaXbXbXbXbXGXbXbXbXbXbXGXbXFXbXbXFXbXbXbXbXbXbXbXJXJXJXbXbXaXrXbXFXbXbXGXGXGX            , u > ; q q u > , u p i ) F Q z j ) z z x b _ q ; r K w $ o   o       8 r w d l 8 , g 8 0 d d _ J ! )             bXbXbXbXbXbXaXbXbXaXaXbXrXrXrXrXrXrXrXbXbXiXrX6X5XrX5XrXtXrXrXqX5XrXrXrXrXqXrXtXrXtXrXrXrXrXrXrXpXrXrXiXbXbXrXbXZXbXbXbXrXrXbXaXbXbXbXaXaXbXbXGXGXbXbXbXbXrXrXrXrXrXbXrXrXrX8XrXrX5X5X5XqX3X>XrXrX",
"tXpXbXpXpXbXbXbXbXbXrXbXiXbXbXbXbXpXbXpXpXiXrXrXpXbXpXbXrXrXrXqXrX5XqXpXbXbXbXbXrXrXrXuXbXbXbXbXbXbXbXbXbXrXaXbXbXbXaXGXGXbXbXFXJXGXbXbXFXJXbXbXbXbXFXbXbXyXbXbXbXGXFXFXbXbXbXbXbXbXbXFXGXGXbXbX            u a , S 0 0 t > - u l c k h ) ) ) ) ) k l z l p , d [ r % $ $     o # e q 8 j l m p h u g t j m w D F             rXbXbXbXGXGXaXbXJXbXrXrXrXrXbX9XrXrXuXbXbXbXbXbXrXrXiXrXrXrXrXrXrXtXpXrXbXrXqXtXtXrXrXrXtXtXtXpXrXrXrXrXbXbXpXrXpXiXbXrXrXaXrXbXbXbXbXbXaXbXbXbXbXbXbXFXJXbXbXbXrXrXbXyXbXrXaXaXrXbXbXrX5X3X3X5XrX",
"tXrXbXbXbXbXiXbXiXiXbXbXbXbXbXbXbXpXpXbXiXpXrXtXrXpXbXpXrXrXrXtXrXrXrXpXbXbXbXbXyXrXrXbXbXbXbXbXbXbXbXbXbXbXbXbXbXbXbXGXbXGXGXFXGXbXbXbXJXJXFXbXbXJXJXJXFXbXyXbXGXGXbXbXGXJXJXbXrXbXJXFXbXFXFXbX            > f u 3 q 0 q - h n %.%.O.b z ) j ) j z k #.k s , n m b j q q ; # # 4 j _ v M o.M %.o.{ m m z b h h j             rXaXrXbXFXbXbXbXiXbXiXrXrXrXrXrXrX5XuXbXbXbXaXbXiXrXpX6X5XrXpXrXrXrXpXbXbXbXrXtXpXtXtXtXrXpXrXrXrXrXrXrXpXrXbXrXqXrXqXrXrXpXbXbXpXbXbXbXbXbXbXbXbXbXGXbXbXGXGXbXbXrXaXrXrXaXbXaXbXbXbXuXrXbXeX5XrX",
"tXbXbXbXpXbXbXbXbXZXZXrXbXbXbXbXbXpXbXbXiXpXpXpXtXbXrXrXbXtXrXbXpXbXbXtXbXbXbXrXuXbXbXrXrXbXbXbXbXbXbXbXrXaXaXbXGXbXJXbXbXJXJXJXbXbXbXbXbXbXaXrXbXbXJXGXFXbXbXFXJXGXJXJXJXJXaXbXyXbXGXbXbXbXbXbX            0 s s ; q j g p c ....O...o.f h b m l z X.l p h k z l O.O.b l s ; 4 : v _ j $.O.O.O.#.#.o.o.z X.b c +.            bXbXaXbXbXaXrXbXbXrXiXrXrXiXrXrXrX5XrXyXrXaXaXbXaXrXrXbX5X5XbXrXrXrXrXrXrXbXpXpXtXpXbXbXpXpXrXrXtXrXrXrXbXrXpXpXbXrXrXrXrXrXbXrXpXbXbXbXbXbXbXbXbXbXbXbXbXbXGXbXbXbXaXrXbXaXrXrXrXrXaXyXrXrXrXbXbX",
"rXpXbXbXrXbXbXbXbXbXbXbXiXbXbXiXbXbXbXbXbXbXbXbXpXrXpXbXrXtXrXrXbXtXbXbXpXbXbXrXuXbXyXbXbXbXbXbXFXbXbXbXbXrXaXbXFXbXbXaXJXJXJXJXbXaXbXbXaXaXbXaXbXGXJXGXbXbXJXJXJXJXGXJXLXJXbXbXJXbXbXGXFXbXGXbX            r r d s s j r h n ..c ) [ o.s k b O.b +.o.X.l i #.{ h h X...l l s K _ m m m $.n M O.z $.o.n n b k b ..            aXbXbXbXbXbXbXbXbXbXbXiXiXpXrXrXbXrXrXbXrXrXrXrXrXrXrXrXrXrXtXpXrXtXrXrXrXrXbXpXpXbXpXbXpXbXbXAXAXbXrXrXrXrXrXrXrXrXpXrXrXbXrXpXpXbXbXbXiXbXaXbXaXbXbXbXJXJXGXbXbXbXbXbXaXbXbXbXyXrXaXbXrXrXuXuXbX",
"rXtXtXbXrXbXbXbXbXbXbXbXbXpXiXbXbXiXiXbXbXbXbXbXbXrXtXtXtXrXtXrXrXbXbXrXbXbXbXbXbXbXbXrXbXbXbXbXrXbXbXbXbXyXrXbXbXaXyXrXrXbXbXbXbXbXrXrXaXbXbXbXbXbXbXbXbXbXJXGXbXGXGXGXGXbXJXJXFXbXFXbXbXbXbXaX            s w r d 9 A S ) g p s r J ! t k h l X.X.X.o.n a X.b z { m n b a h z z o.O.%.%.M o.M k f b a z b f f a             bXbXbXbXbXbXbXbXbXbXbXbXbXrXrXyXbXrX5XaXrXrXaXaXrXrXiXrXrXrXqXrXtXrXrXrXrXqXrXtXrXbXbXtXbXbXbXbXbXbXbXrXrXrXpXiXbXZXrXrXrXrXiXrXrXrXrXbXbXaXrXaXbXbXGXbXbXbXbXbXbXbXbXbXbXrXrXbXbXaXbXyXrXrXyXbXbX",
"tXtXrXtXbXrXiXbXbXbXiXbXbXbXbXrXbXbXrXbXbXbXbXpXrXrXrXrXrXrXpXpXrXrXbXbXbXbXAXbXrXyXbXbXbXbXbXbXrXuXGXbXaXbXbXbXaXrXrXaXyXbXrXrXaXaXbXbXbXaXbXbXbXFXGXbXbXbXJXJXbXbXGXbXbXFXFXbXbXbXbXbXbXbXbXbX            r q 3 A 4 6 V V j r S Z G Z S s s x #.X.z x k o.l k z #.z a l a l m ..o.%.%.$...c o.M u u u f k ) ) u             bXyXbXbXbXrXyXaXrXiXbXbXpXrXbXrXbXrXrXbXbXbXaXrXbXbXpXbXrXrXrX5XrXrXtXbXtXrXrXrXrXbXbXbXpXpXbXbXbXbXbXbXpXrXrXiXbXiXrXrXrXrXrXiXiXaXbXaXbXaXbXbXbXbXFXbXbXaXbXaXyXaXrXrXrXrXaXaXaXrXaXyXyXrXrXrXbX",
"bXuXbXbXbXbXiXbXbXbXrXbXbXbXbXbXrXrXbXbXpXiXpXpXbXbXbXbXiXrXiXpXrXrXrXbXbXbXbXbXaXbXrXbXbXaXbXGXbXyXbXbXbXFXbXbXaXrXrXrXbXbXbXbXrXGXGXGXbXbXbXFXbXFXbXGXJXbXbXbXbXbXbXbXbXFXJXJXbXbXbXGXbXbXFXbX            w q q 6 r s 7 q s S D B V V r f F ) x k f ) z n ' ) { ) z l n +.$.%.$.O.M n c n c h u p , - - j v , u             bXbXbXbXaXaXrXrXiXbXbXbXrXaXbXrXbXbXbXbXbXyXbXaXbXrXrXaXrXrXrXqX5XrXtXrXbXbXtXrXpXpXbXbXbXbXiXpXbXbXbXbXbXbXrXiXrXrXaXaXrXaXaXrXrXbXbXrXrXaXbXbXbXbXbXFXFXbXbXbXaXaXbXrXrXrXbXbXbXbXrXrXyX9XrXrXbX",
"bXbXuXbXyXbXbXpXbXbXbXbXbXbXbXbXiXiXiXbXbXiXiXbXiXiXbXbXbXpXiXiXqXrXrXrXrXyXbXrXbXbXrXaXaXaXbXbXGXbXbXbXGXbXbXbXbXbXrXaXbXGXbXbXaXbXbXbXbXbXbXbXbXbXbXbXbXbXbXaXaXaXaXbXbXaXGXbXGXbXbXbXbXbXJXbX            8 q 8 A 7 8 q l a , 2 S 6 7 4 H H _ [ ) f l b F ! ! { k h a c o.$.$.O.$.v s m l a t 0 , - g g > S J 0             bXbXbXaXrXaXyXbXbXFXbXbXbXrXbXrXrXrXrXrXrXrXaXrXaXbXiXaXaXrXrXrXrX5XrX4XbXrXrXrXtXbXbXrXrXiXiXrXiXbXrXrXbXbXaXrXrXaXbXaXaXrXrXbXrXaXaXrXbXbXbXbXbXFXbXbXbXbXbXbXyXrXrXaXrXaXyXbXaXrXrXrXbXrXrXrXrX",
"bXbXuXuXbXbXbXbXbXbXZXbXbXbXbXbXbXbXiXiXbXrXiXbXbXrXbXbXbXbXbXbXrXrXuXrXbXuXbXbXaXbXyXbXaXbXaXaXaXbXGXFXbXbXbXbXbXbXaXbXbXbXaXyXrXGXJXGXbXbXbXbXbXbXbXbXbXJXJXJXGXbXbXbXbXbXGXbXbXbXbXbXJXGXJXrX            g $ $ 3 7 r 8 h h ; q r 5 r 3 V H H S K h h h F H Q [ h h a k b b n _ m m m m , g u p p ; ; 9 D V ~ w             bXbXaXrXbXaXbXGXFXaXbXbXbXbXbXaXrXrXrX5XbXbXrXrXrXbXbXbXaXrXrX5XrXrXrXrX5XrXrXrXrXrXrXrXrXrXiXiXbXZXrXrXbXbXyXrXrXbXaXrXbXbXaXGXrXaXrXrXaXbXaXaXbXFXbXbXbXbXbXyXrXrXbXbXbXbXbXrXrXbXyXrXbXbXbXrXuX",
"bXbXuXyXbXbXpXpXrXbXbXbXbXbXbXbXbXbXbXpXrXbXbXbXJXiXbXbXbXbXbXbXrXbXrXrX5XuXuXaXaXaXbXbXbXbXbXJXbXrXbXbXaXbXbXbXbXbXbXaXaXbXaXbXbXGXJXJXbXbXbXbXbXaXbXaXbXGXGXbXbXbXJXJXbXbXJXbXbXbXbXbXFXJXbXbX            w q $ $ 6 9 w r 3 3 4 6 5 4 V V V B S 9 0 p l D S G ) f > h z k a ..{ ~ _ ..c v = , * , y w 3 $ H Z 6             bXbXbXaXaXaXaXiXbXaXbXbXbXbXbXbXbXrXrX8XbXaXrXaXaXrXrXbXaXrXrXrXrXpXrXrXrXrXbXbXbXrXrXrXrXrXiXbXrXiXbXiXrXbXrXrXrXrXrXrXrXaXaXbXrXbXaXbXaXbXbXrXbXbXbXbXbXbXbXbXbXbXbXbXbXrXrXaXbXbXaXrXbXbXbXbXbX",
"rXbXrXrXyXbXrXpXbXiXiXbXbXbXbXbXbXbXbXiXiXbXbXbXbXbXbXpXbXbXrXrXbXtXbXrX9XrXbXbXrXbXaXrXrXrXaXJXbXrXaXbXbXbXrXbXbXbXbXaXbXbXbXbXbXbXbXJXbXbXbXbXaXbXbXaXbXbXbXbXGXJXbXJXbXbXbXbXbXaXbXFXbXbXbXFX            6 6 w $ $ 8 A 6 2 V 2 3 H A 2 5 6 8 q 0 s u k 9 V F [ f > x [ f d j _ d m g j d w : y o N | A $ 3 6 S             bXbXaXbXaXbXbXaXbXbXbXrXbXbXGXbXaXbXrXrXaXrXrXaXrXbXbXaXrXrXrXrXrXtXbXrXrX5XqXbXrXrXbXbXbXpXrXrXrXiXbXiXbXbXbXbXrXrXbXrXaXaXbXbX8XaXbXbXbXbXbXbXbXbXbXbXbXrXaXbXGXbXrXrXrXrXaXaXrXaXbXbXbXbXyXyXbX",
"rXbXrXrXuXbXaXbXbXiXbXbXbXbXbXrXiXiXbXbXaXbXbXaXbXbXrXrXrXtXrXrXbXrXbXrXuXbXbXrXbXbXaX5XrXbXbXrXrXaXbXbXbXGXbXbXbXbXbXaXbXbXbXbXaXrXaXbXaXbXbXbXaXaXrXbXbXbXbXbXbXbXbXaXbXbXbXrXyXaXbXbXbXbXbXFX            6 6 3 4 7 $ 6 6 5 2 # 6 H H # 2 2 8 ; 0 q , l h S j l 0 s x d z K w F K g q D Y Q 9 : e o 6 B 2 $ 6 #             bXaXaXbXrXbXJXGXbXGXbXbXbXbXbXbXbXbXbXrXbXbXbXaXrXbXaXrXrXbXrXbXrXrXbXbXrXrXrXrXrXrXrXZXbXrXrXbXaXrXiXbXbXbXbXrXrXrXbXbXrXbXbXbX8XaXbXbXGXbXbXbXbXbXbXbXbXbXbXJXGXGXGXGXbXrXaXrXaXrXrXbXbXbXbXyXbX",
"yXbXrXbXbXyXbXbXbXrXrXaXaXbXbXbXbXbXbXaXbXbXbXbXbXbXrXbXbXuXbXuXuXuXrXrXaXrXyXrXrXrXbXuXrXbXbXrXrXrXbXbXFXbXaXbXbXbXrXaXbXbXbXaXrXaXbXbXbXbXbXbXaXrXrXbXbXaXbXbXbXbXFXbXbXbXbXaXaXbXbXbXbXbXFXaX                                                                                                                              bXiXaXbXbXbXbXbXbXbXGXbXbXbXbXFXbXbXbXrXaXbXbXrXbXrXrXrXaXbXaXrXrX8X5XbXbXaXrXbXbXrXbXaXrXrXrXrXbXrXrXbXaXbXbXbXrXrXrXrXbXbXrXbX5XbXbXbXbXaXbXbXbXbXbXbXbXFXFXbXbXbXbXGXbXrXaXbXbXbXaXbXbXaXbXbXbX",
"rXuXrXrXrXrXaXbXbXrXrXrXrXaXrXbXbXbXaXbXbXaXbXbXbXrXrXrXuXbXuXbXbXyXrXrXrXaXrXrXrXrXyXbXrXbXaXrXaXrXrXaXbXaXyXbXbXbXbXbXJXGXaXyXrXaXbXaXaXbXbXbXbXbXaXbXaXaXbXbXbXbXbXbXbXaXbXaXbXbXbXJXGXGXFXaX                                                                                                                              6XrXbXbXbXaXbXbXbXbXbXbXbXFXbXbXaXbXbXrXbXrX8XrXbXbXbXrXrXbXbXrXrXrXaXrXrXbXaXrXrXaXaXbXbXrXrXrX5XrXrXrXbXbXbXaXrXrXaXrXaXrXrXbX5XbXbXbXbXbXbXaXrXbXGXbXbXGXbXbXbXbXbXbXbXbXbXbXbXbXbXaXbXbXbXrX8X",
"rXrXrXrXrXrXrXaXrXrXaXbXrXbXbXaXbXbXaXbXrXaXbXrXrXrXaXrXrXuXrXrXbXuXrXrXbXbXaXbXbXeXrXJXyXbXbXrXaXbXbXbXbXbXbXbXbXbXbXJXGXbXrXrXbXaXaXaXbXbXJXbXrXbXaXbXbXaXaXbXbXbXbXbXaXaXrXaXbXrXbXbXbXbXJXrX                                                                                                                              5XrXrXaXrXbXbXbXaXbXbXbXbXbXbXbXbXbXbXbXaXbXaXbXbXaXbXaXrXbXrXrXaXGXGXbXrXrXaXrXrXbXaXbXbXbXrXrXrX8X8XrXrXbXbXbXbXaXbXbXrXbXbXaXrXbXbXaXbXbXbXbXbXJXbXaXFXbXbXFXJXrXbXbXbXbXbXbXbXaXbXbXbXbXbXrXrX",
"uXbXbXrXrXrXrXrXaXrXrXbXaXaXaXrXaXrXrXbXrXbXbXaXrXaXbXaXrXeXrXrXbXbXrXbXbXbXbXbXbXrXbXbXbXbXbXbXaXrXbXbXbXbXbXbXbXbXbXFXbXbXbXbXbXaXaXaXrXrXbXbXrXrXbXaXbXbXyXrXaXrXrXaXbXbXaXaXbXrXaXbXaXbXbX5X                                                                                                                              bXrXrX8XrXrXaXrXrXaXbXbXbXaXrXbXbXbXbXaXbXbXbXbXbXrXaXbXrXbXrXbXbXbXaXbXaXrXbXrXbXbXrXbXbXbXaXrX8XrXrXrXaXrXaXbXbXbXyXaXbXbXbXrXrXbXbXJXGXbXbXbXGXGXbXbXFXbXbXbXGXbXaXaXaXbXaXbXbXbXbXbXbXbXbXaXaX",
"bXbXbXrXrXrXrXrXaXaXrXrXrXbXaXaXbXaXbXbX5XbXbXbXbXbXbXaXrXrXrXbXrXbXaXbXrXrXbXbXrXrXyXrXyXrXrXbXaXrXaXbXbXbXbXbXbXbXFXbXbXFXbXaXbXbXaXaXrXrXrXbXbXbXbXbXbXbXyXyXaXyXyXaXbXbXaXbXbXbXbXbXbXbXbXbX                                                                                                                              pXbXrXrXrXrXrX5XrXrXbXbXbXbXbXbXbXbXbXbXaXbXbXbXbXaXbXrXaXbXbXaXbXrXrXbXbXbXrXaXrXaXrXrXaXrXbXbXaX8XrXrXrXrXrXbXbXbXbXbXbXGXJXrXrXFXJXIXbXbXbXaXbXbXbXbXbXbXbXGXFXbXbXbXbXaXbXbXbXbXbXaXbXbXbXrXaX",
"yXrXbXrXrXrXrXrXbXbXrXaXbXbXbXbXrXbXGXbXGXbXaXaXbXbXbXbXrXrXbXbXbXbXuXbXbX8XyXrXaXrXbXrXrXbXaXrXrXrXrXaXbXbXGXGXbXbXaXbXbXbXbXbXbXbXJXbXaXbXbXrXbXbXGXbXaXbXbXbXbXbXyXaXaXaXrXrXbXbXbXaXbXbXbXrX                                                                                                                              bXbXFXbXbXbXrXrX9XrXrXrXbXbXbXbXbXbXbXbXbXbXrXbXaXrXbXrXbXrX3XbXbXbXbXaXaXbXaXaX5XaXbXbXJXaXyXyXrXrXrXuXrX5X5XrXbXaXFXJXbXbXbXrXaXbXbXbXyXbXbXbXbXbXbXbXJXbXFXbXbXbXFXbXaXbXaXbXbXbXbXaXbXaXbXbXGX",
"rXrXrXaXrXrXrXbXbXbXbX5XrXaXbXbXrXaXrXrXaXbXaXrXrXrXaXbXbXyXrXrXbXrXuXuXbXbXrXbXbXbXbXrXaXbXyXrXrXaXrXbXbXbXbXaXaXbXbXbXbXrXrXbXbXbXbXaXbXrXrXrXrXaXbXbXbXbXFXbXbXrXbXbXaXbXbXrXaXrXbXbXaXbXbXbXbXbXbXbXbXGXbXbXbXbXbXbXrXaXbXbXbXbXGXaXbXbXbXrXbXbXbXbXbXbXrXbXbXbXbXbXrXaXbXaXaXaXrXuXuXrXuXbXbXaXbXbXbXbXbXbXbXbXJXGXbXbXbXbXbXbXbXGXbXbXbXrXrXyXbXbXbXrXuXuXbXbXbXbXaXrXrXrXrXaXrXbXyXUXrXbXbXaXaXbXaXrXrXbXbXrXJXGXbXrXbXrXrXrXrXbXrXrXrXrXbXbXbXbXbXbXbXbXbXbXbXbXbXbXbXrXbXGXbXbXFXGXbXyXaXbXbXbXbXbXaXbXbXbXbXbXbXrXyXaX",
"rXaXbXbXaXaXaXrXbXbX8XrXrXrXrXaXbXbX5XbXaXaXbXrXrXrXyXyXyXuXbXbXrXyXrXrXrXbXaXbXbXbXbXbXbXaXyXrXrXbXbXbXaXbXrXrXbXbXbXbXyXrXrXrXrXbXbXaXbXaXrXrXrXaXaXGXJXbXbXHXbXbXuXrXrXaXaXaXrXrXrXrXaXbXbXbXbXJXbXGXGXbXbXbXbXbXbXbXbXbXbXbXbXbXJXbXbXbXbXyXrXrXaXbXbXaXbXrXbXbXbXbXrXaXbXbXrXaXrXrXbXbXuXbXbXaXbXbXbXbXbXGXbXbXJXbXbXbXbXbXbXbXbXbXJXGXJXGXbXFXFXbXbXbXbXuXrXrXbXbXbXbXrXrXrXaXrXbXbXrXrXbXaXbXbXbXbXbXrXrXaXbXbXGXGXrXbXbXbXbXyXrX5X3XrXrXrXrXbXGXaXbXbXbXbXbXaXbXbXbXbXyXaXbXbXbXFXaXrXbXbXbXbXbXaXbXbXbXbXbXbXbXbXaXyXbX",
"bXaXaXrXaXaXbXbXbXaXrXrXrXrXrXrXaXrXrXrXrXbXaXbXaXrXrXaXrXrXuXbXrXbXuXuXrXbXbXbXbXbXbXbXbXbXbXrXrXbXbXbXbXbXbXaXaXbXrXrXrXbXaXyXrXbXGXbXrXrXrXrXaXbXbXbXbXJXbXrXbXbXuXyXrXaXaXrXrXrX8XrXaXbXbXbXaXJXJXbXbXGXJXbXrXbXaXrXbXbXbXbXbXGXbXFXbXbXbXaXaXbXrXbXbXaXbXbXbXbXGXGXbXrXrXbXrXbXyXrXbXbXbXbXbXbXbXbXbXbXbXbXbXbXGXGXbXbXbXbXbXbXGXbXJXJXGXGXbXbXFXaXbXuXuXrXrXrXbXbXbX8XrXaXbXbXbXaXaXbXyXrXaXaXaXbXbXbXrXyXrXrXaXbXbXbXbXbXbXuXbXrXbXbXbXrXyX5X8XaXbXbXrXbXaXbXbXbXbXaXyXbXbXbXbXbXGXbX8XaXbXbXFXbXbXbXbXbXbXbXbXaXbXbXbXrX",
"rXaXaXaXaXrXrXbXbXaXrXrXyXrXrX8XrXrXaXrXbXrXrXbXbXaX8XbXuXrXrXuXbXrXrXrXrXyXbXbXaXbXbXbXbXbXbXbXaXbXbXbXaXrXrXrXaXrXaXrXrXaXbXbXrXbXaXaXrXaXbXrXrXrXbXJXbXbXJXbXbXbXbXbXaXbXbXaXrXbXaXrXrXaXbXGXbXbXbXbXbXJXbXbXrXrXbXrXbXbXbXbXbXbXbXbXbXaXyXbXbXbXbXbXbXaXrXbXaXbXaXbXbXaXaXrXrXrXrXrXrXuXbXrXbXbXbXbXrXbXbXaXbXbXbXGXbXbXbXbXbXbXbXbXbXbXJXbXbXbXaXaXaXrXrXrXrXyXaXbXFXbXbXrXrX5XrXyXaXrXrXyXyXbXaXbXbXbXbXyXrXrX8XbXbXbXrXrXrXuXrXyXuXuXrXrXyXbXaXrXaXbXrXbXbXbXbXaXbXaXaXaXbXbXbXbXbXbXaXbXbXbXFXFXbXbXbXbXbXbXbXaXbXyXaXbX",
"bXbXbXrXrXbXrXrXbXrX5XrXbXrXrXrXrXaXrXrXrXaXbXaXaXbXbXbXrXbXrXbXbXbXbXuXyXbXbXbXbXbXbXbXbXbXbXbXrXrXrXrXrXrXrXaXbXrXaXbXbXrXaXbXbXbXbXbXaXaXbXaXaXaXbXbXGXGXbXFXJXbXbXbXbXbXbXbXaXrXaXbXaXaXbXGXbXbXbXbXGXFXbXbXbXbXbXbXbXbXbXbXaXbXbXbXbXbXbXyXbXbXbXbXrXrXrXaXbXaXaXbXbXbXbXaXbXrXrXyXrXbXbXuXbXbXbXbXbXaXbXbXbXbXbXGXbXGXbXbXbXbXbXbXbXbXbXGXbXZXbXbXbXtXrXrXrXrXrXbXbXbXbXbXbXrXrXbXaXbXrXrXbXbXbXaXbXrXrXaXrXrXbXrXrXaXbXbXrXuXrXrXyXrXrXrXbXrXrXbXbXrXrXbXbXaXbXbXbXrXrXrXrXaXbXbXbXbXbXbXbXbXbXbXbXGXbXbXbXbXbXbXbXyXbXbX",
"bXbXyXrXeXrXrXrXrXbXuXbXuXrXrXrXrXaXaXrXaXbXbXbXbXrXrXrXrXuXuXbXuXrXbXbXbXuXbXbXbXaXbXbXbXbXbXrXrXrXrXrXuXrXrXrXrXrXaXbXbXaXbXbXbXbXbXbXaXbXbXbXaXaXbXbXbXbXFXbXbXbXbXbXbXbXuXbXbXaXaXbXbXrXaXbXbXaXGXbXbXbXbXJXbXbXbXbXbXbXbXbXrXaXbXJXbXbXbXFXbXrXyXuXrXrXbXuXaXbXbXbXbXaXaXbXbXbXaXrXbXbXbXbXbXpXiXpXbXiXbXbXbXaXbXbXbXbXbXbXbXbXbXbXFXbXbXbXbXbXbXbXbXuXbXrXrXyXaXaXbXbXbXbXbXbXbXyXrXrXbXuXuXrXbXbXrX5XrXrXrXaXaXrXaXbXbXrXrXyXbXrXrXrXaXyXbXGXrXbXbXaXbXrXuXbXbXbXbXrXrXrXrXbXaXaXbXbXbXbXbXbXbXbXbXbXbXbXbXbXbXbXuXrXbXbX",
"rXrXrXrXrXrXrXrXrXuXrXrXrXrXbXbXrXrXrXrXbX8XrXaXrXrXrXrXuXuXrXbXbXbXbXyXbXrXrXaXaXbXaXyXbXbXrX5XrXyXrXrXrXrXrXrXrXrXaXaXbXbXaXbXbXbXbXbXbXbXbXbXbXaXbXbXbXbXbXuXbXbXrXbXbXbXbXuXbXbXbXbXrXrXbXbXbXrXbXFXbXbXbXbXJXGXbXaXbXbXaXbXrXrXbXbXbXbXbXGXyXbXbXbXbXbXuXbXbXbXbXbXbXaXaXrXbXbXbXaXaXbXrXbXbXiXiXbXbXiXbXaXbXbXbXbXGXbXbXbXbXbXbXbXbXbXbXbXbXbXbXbXbXbXuXuXuXyXaXrXbXbXbXbXbXbXrX5X8XrXbXbXrXbXbXbXbXrXrXbXrXrXrXaXbXbXrXrXbXbXbXaXaXaXbXyXuXbXrXrXbX8XrXrXrXFXbXbXbXrXrXrXbXbXrXaXaXbXbXbXbXFXJXbXbXbXFXbXbXbXbXbXuXrXyXbX",
"rXrX9XbXbXrXbXuXrXrXrXbXuXrXbXrX9XaXrX9XaXaXrXrXbXrXrXbXbXrXrXyXbXuXrXyXrXbXbXbXaXrXbXbXbXyXrXrXrXuXrXuXrXbXrXrXaXaXbXbXaXrXrXaXbXrXbXbXbXbXbXbXbXaXaXbXbXbXbXbXbXuXrXrXbXbXbXbXbXaXbXbXrXrXaXbXGXrXaXbXbXbXbXbXbXFXFXbXaXbXaXbXbXrXbXbXbXbXbXbXbXbXbXbXbXbXbXbXbXbXbXbXbXbXrXaXbXGXbXrXaXyXrXbXbXiXrXrXiXbXbXrXbXbXbXbXGXbXaXbXbXbXbXbXbXbXbXbXbXbXbXbXbXbXbXuXyXbXbXaXJXbXbXbXbXbXaXrX8XbXbXbXbXrXrXbXbXbXbXbXbXbXaXaX8X5XrXrXrXbXbXaXaXbXaXrXrXbXaXbXrX5XrXbXbXbXbXbXrXbXrXrXrXrXyXbXbXbXbXaXGXbXbXGXbXbXbXbXaXbXbXbXbXuXbXbX",
"bXbXbXbXrXrXuXbXbXrXyXrXuXbXuXrXrXbXrX5XrXbX8XrXaXrXyXbXyXuXrXyXrXuXuXuXuXuXbXbXbXrXbXbXbXrXrXrXuXuXrXuXyXbXrXrXaXrXrXaXrXrXrXbXrXrXbXbXaXrXrXbXaXaXbXbXbXbXbXbXbXbXrXrXrXbXbXbXbXbXbXaXbXbXbXbXGXrXyXGXbXbXbXbXbXbXbXFXbXbXbXbXbXaXbXbXbXbXbXbXbXbXyXyXuXuXbXbXbXaXbXbXbXaXrXrXbXbXbXrXrXaXaXbXbXbXiXiXrXiXaXbXbXbXaXbXFXbXbXbXbXbXbXGXbXbXGXbXyXbXbXbXbXbXuXHXbXbXGXGXGXbXbXbXrXaXbXbXaXbXbXbXbX9XrXaXbXaXbXbXbXbXbXbXrX8XyXbXbXbXrXbXbXaXbXbXrXbXbXbXrXrXbXbXuXbXbXyXrXbXrXyXrXrXaXbXbXbXbXaXyXbXbXbXbXbXFXbXbXbXbXbXbXbXuXbX",
"bXrX5XrXuXuXrXuXbXbXbX5X7XbXuXbXbXiXbXbXaXbXrXrXbXbXaXaXyXuXrXrXbXbXuXbXbXrXyXrXrXaXyXbXbXuXuXrXbXuXrXrXrXrXrXrXrXaXrXrXrXrXaXbXbXrXbXbXrXrXrXaXrXrXbXaXbXbXbXbXbXbXbXrXrXuXbXbXbXbXbXbXbXbXbXbXJXrXbXJXGXbXaXbXyXbXbXbXbXbXbXbXbXbXaXbXbXbXbXbXbXbXbXrXyXyXrXuXyXaXbXaXbXbXrXrXaXaXbXaXaXaXaXaXaXbXbXbXbXbXaXrXbXaXbXFXbXbXJXGXbXbXbXFXaXbXbXyXbXbXbXbXbXbXbXFXbXuXrXbXbXbXbXaXbXbXbXbXaXbXbXuXbXbXrXbXrXaXbXbXaXrXrXrXGXJXbXaXbXbXaXaXaXbXGXbXbXaXbXbXrXrXrXuXrXrXbXrXyXaXaXbXaXbXbXbXbXbXbXrXbXbXbXbXbXbXbXbXbXbXbXbXbXbXbXbX",
"uXeXrXrXuXrXuXrXbXbXrXbXrXuXuXyXbXaXbXrXrXrXuXrXyXbXbXyXaXrXrX9XrXrXbXyXyXuXrXrXbXrXrXbXuXrXeXrXbXuXrXrXrXrX5XrXrXrX8XrXaXrXbXbXaXrXbXbXbXbXbXbXaXbXbXbXGXFXbXaXbXbXbXbXbXyXbXbXaXbXbXaXbXyXbXFXGXrX8XbXaXaXrXbXbXbXbXbXGXbXbXbXaXbXbXaXbXbXaXbXbXbXbXbXyXbXbXyXbXbXbXbXbXbXbXrXaXaXaXbXbXbXbXaXbXbXbXbXaXbXbXrXbXrXaXaXbXbXbXbXbXbXbXbXrXrXbXrXrXbXbXbXbXbXGXbXbXbXbXaXrXbXrXaXbXbXbXbXrXyXyXbXbXbXFXbXrXbXbXbXbXrXrXaXaXaXrXaXaXaXbXaXrXbXbXbXrXbXaXrXrXrXrXbXyXrXuXbXrXuXbXbXbXbXbXbXGXbXbXbXbXbXbXbXbXaXaXaXaXyXyXbXbXbXrXuX",
"bXuXrXbXuXrXbXuXyXuXbXrXuXbXuXrXbXaXaXbXrXbXbXuXrXyXbXrXrXrXrXrXrXrXaXrXrXaXrXrXrXrXbXbXbXrXeX5XrXrXrXrXrXbX5XrXrXrXrXrXaXrXbXbXaXbXbXbXbXaXaXbXbXbXbXbXbXbXbXaXbXbXrXrXrXaXyXbXbXaXbXbXbXrXrXbXGXbX5XbXrXaXrXbXbXbXFXbXFXJXbXbXbXbXJXGXaXbXbXaXbXaXrXbXyXbXbXbXbXFXbXbXbXbXbXrXrXaXaXrXbXbXbXrXaXbXbXbXaXaXbXaXaXbXbXbXrXrXrXrXrXbXbXbXbXbXrXbXbXbXbXbXbXbXbXbXbXaXrXaXrXaXrXaXrXbXbXbXaXyXbXbXbXbXbXbXbXbXJXbXbXGXaXaXaXbXbXaXaXaXaXaXbXaXrXbXaXbXbXaXrXrXrXuXrXbXrXuXbXrXyXyXbXbXbXbXbXaXbXJXbXbXbXbXbXbXaXrXrXaXyXrXyXbXaXbX",
"bXbXrXbXrXyXuXbXbXeXeXrXbXbXrXrXbXaXaXyXbXaXbXbXrXrXrXrXbXbXrXrX5XaXbXbXaXbXaXrXrXyXbXbXJXbXrXeXrXrXrXrXrXbXrXrXrXbXaXrXrXrXrXaXbXbXyXaXbXbXbXaXbXGXbXrXaXrXbXbXbXrXrXrXrXbXbXbXFXbXaXbXrXrXaXbXGXJXrXbXaXaXaXbXbXbXbXbXbXGXbXbXbXbXbXbXbXbXbXrXaXrXrXbXbXbXbXbXbXyXbXbXbXbXbXrXrXbXaXrXaXbXbXrXaXbXbXbXbXbXrXaXaXbXbXbXrXrXbXrXuXbXbXrXyXbXuXbXGXbXbXbXbXbXFXbXbXbXbXbXbXrXaXyXaXaXaXrXrXrXyXbXbXbXbXbXbXbXbXJXJXJXGXbXbXbXiXaXaXrXiXrX5XaXaXaXbXbXbXbXaXrXyXrXrXuXbXuXrXrXrX5XrXbXrXbXrXaXaXFXbXbXrXaXrXyXrXrXbXaXaXbXaXbXaXbX",
"bXbXbXrXbXbXuXbXrXyXrXrXrXrXbXbXbXrXrXrXrXrXbXbXbXuXyXbXaXbXaX3X5XbXbXbXaXrXrXaXbXbXrXrXbXbX5XrXrXbXrXrXuXbXbXbXaXaXaXaXaXrXrXaXbXrXbXbXaXbXbXbXrXbXJXaXbXrXrXrXbXbXaXbXbXbXbXbXbXbXbXbXrXrXaXrXbXGXbX8XbXaXrXbXbXGXbXbXJXJXbXbXbXbXbXbXbXbXbXbXbXaXaXbXrXrXbXGXbXyXyXyXuXrXbXrXrXyXbXyXyXbXbXbXrXbXbXbXaXyXrXaXbXbXbXbXbXbXbXuXbXrXrXrXbXrXrXbXbXbXbXaXbXGXbXyXJXaXbXbXbXbXbXrXrXbXaXaXrXaXaXbXbXbXbXbXbXbXbXbXbXbXbXGXbXbXbXbXbXaXrXrXrXrXaXrXrXaXbXbXbX5XyXbXrXrXbXrXrXrXbXbXrXrXrXrXrXbXrXaXbXrXrXrXrXaXrXaXaXaXbXaXrXbXbXbX",
"bXbXyXbXbXbXbXrXFXuXuXyXuXuXbXbXbXbXrXrXrXrXbXbXuXbXbXrXbXaXbXrXrXyXrX8XrXbXbXaXbXaXrXaXrXrXbXrXrXrXrXrXrXrXbXbXaXaXaXbXaXrXbXaXbXaXrXaXbXaXbXbXrXbXGXbXbXFXbXbXbXaXbXbXbXbXbXbXbXbXbXaXbXrXrXbXbXGX5XrXFXaXaXbXbXbXFXJXJXJXGXbXbXyXbXbXbXbXaXaXbXaXaXbXaXaXbXbXbXrXbXbXbXbXaXrXbXrXbXbXyXbXbXrXrXbXbXbXbXbXbXaXiXbXbXbXbXbXrXrXuXuXbXrXbXbXrXyXrXyXbXyXaXbXbXbXbXrXbXbXbXbXaXaXrXbXbXbXbXaXbXaXbXbXbXbXbXbXbXbXbXbXbXbXbXaXbXbXbXbXyXrXbXbXrXbXbXaXbXbXbXaXrXbXrXrXbXbXuXrXrXrXbXyXrXrXbXrXaXGXaXbXbXbXrXrXbXrXrXyXaXrXrXaXaXGX",
"bXbXrXeXrXrXbX5X3XyXrXrXbXbXbXbXrXbXbXrXrXrXaXbXyXbXbXyXbXbXbXrXrXbXbXrXrXbXaXrXaXaXbXbXrXrXbXbXbXuXbXbXbXbXbXbXbXbXbXbXaXbXbXbXbXaXbXaXbXbXbXbXbXbXbXaX5XrXrXbXaXbXbXaXbXbXJXJXFXbXbXbXbXbXrXbXbXbX5XbXJXJXbXbXaXbXbXGXGXJXJXFXFXbXbXbXbXaXrXrXbXbXbXbXbXbXbXbXbXbXbXbXbXbXrXrXbXbXyXbXbXrXbXbXrXaXbXaXaXGXbXrXbXbXbXbXGXbXbXFXrXbXbXuXbXuXuXyXaXbXbXaXaXaXaXbXbXbXbXaXbXbXaXbXrXrXbXbXrXbXaXbXbXaXbXrXyXbXuXbXbXbXbXbXaXrXbXbXaXbXaXaXaXaXrXrXbXbXbXrXrXaXrXbXuXuXyXbXbXrXrXrXrXrXrXrXrXrXaXbXaXrXrXbXrXrXrXaXbXyXbXaXrXrXrXaX",
"bXbXFXJXrXrXrXrX8XrXbXaXbXrXbXbXbXbXaXaXbXbXrXbXbXbXbXbXrX8XrXrXbXbXbXbXaXbXyXbXbXGXaXrXrXbXbXyXaXbXbXbXbXbXbXbXbXbXbXbXbXbXbXbXbXaXrXaXbXbXrXbXJXbXFXFXaXrXrXbXaXaXbXbXbXbXFXGXbXFXbXbXbXbXbXrXbXaXbXGXGXFXFXbXbXbXbXbXbXbXuXJXGXyXbXbXaXrXaXbXaXbXbXbXbXbXbXbXbXbXuXrXbXbXrXaXbXbXaXbXbXaXbXbXbXaXyXbXbXaXrXbXbXbXbXrXaXbXrXbXbXrXrXrXrXbXbXbXbXbXaXaXrXbXGXbXbXbXbXaXbXbXbXrXrXrXbXbXaXaXaXaXaXaXaXrXrXbXbXbXbXaXaXaXbXGXbXbXbXbXbXaXbXaXbXbXbXrXaXaXrX5XbXbXrXaXrXrXbXaXrXrXrXrXrXrXbXbXrXaXyXrXrXrXrX8XrXaXrXrXbXaXaXrXrXbX",
"bXbXaXbXrXyXbXbXbXbXGXbXFXbXrXbXbXbXbXbXbXbXaXbXbXbXbXbXaXrXrXbXrXrXbXbXbXbXbXbXaXbXbXbXbXbXbXbXrXbXbXaXbXyXrXbXbXbXbXbXaXrXbXbXrXbXaXyXaXbXbXbXbXbXbXrXaXbXrXrXrXrXbXbXrXbXbXrXbXbXbXbXbXbXbXbXbXbXFXJXGXbXbXbXbXyXbXbXbXbXFXbXbXrXbXaXbXrXbXbXaXbXiXbXbXbXbXbXbXaXbXbXbXbXaXrXbXbXbXbXbXbXbXaXaXbXbXbXbXbXbXrXbXbXbXbXrXbXbXrXbXbXuXbXrXrXbXbXaXbXaXrXaXaXbXbXGXbXaXyXbXbXbXbXrXaXbXbXbXbXbXbXbXbXrXrXrXuXuXbXbXbXbXbXbXbXbXbXbXbXbXaXbXbXbXbXbXrXaXrXrX5XaXbXrXrXaXrXrX8XrXrXaXrXrXbXbXaXaXbXaXbXrXrXrXbXbXaXaXaXrXaXbXyXbXbX",
"bXrXaXrXrXrXbXyXaXbXbXbXbXFXbXrXbXbXbXbXbXbXbX5XrXaXbXaXrXbXGXrXrXbXaXbXJXbXbXbXyXrXbXJXGXbXbXJXaXaXbXaXyXaXrXbXbXbXbXaXbXrXrXaXrXbXbXrXbXbXbXbXbXbXaXaXbXbXrXrXaXyXaXbXbXbXbXbXbXbXbXbXbXbXbXGXbXbXbXbXbXGXbXbXaXrXbXbXbXbXFXbXJXbXaXbXaXaXbXbXaXbXbXbXbXaXrXbXbXaXaXbXrXrXbXbXbXbXbXbXaXyXbXbXaXrXbXbXrXbXbXbXbXbXbXbXrXbXbXbXbXrXrXrXbXbXrXrXaXbXaXaXrXbXbXbXbXbXyXyXbXbXbXbXbXaXbXbXbXbXbXbXbXbXuXuXyXbXbXyXaXbXbXbXbXaXaXbXbXbXbXbXbXbXbXbXbXbXbXaXrXbXbXaXrXrXbXrXrX8XrXrXrXrXbXrXaXrXaXrXbXbXbXbXbXbXaXaXrXaXbXbXbXbXbXFX",
"aXbXbXaXrXrXbXbXbXbXbXGXbXbXbXaXbXbXJXbXaXbXbXaXrXbXbXbXrXrXbXaXrXbXbXaXaXaXbXaXbXaXbXbXbXbXbXJXbXrXaXaXaXaXbXaXbXbXbXbXbXaXrXrXrXaXbXrXbXbXaXbXbXbXaXrXrXaXbXbXbXbXbXbXbXGXbXJXbXbXbXbXbXbXbXbXbXFXbXbXaXbXGXbXbXbXbXbXbXyXbXbXbXbXaXaXrXbXbXbXbXaXbXbXbXbXbXyXbXaXaXbXbXbXbXJXyXbXbXaXbXbXbXbXbXbXaXbXrXbXbXbXbXbXJXbXiXrXrXaXrXyXrXrXbXbXyXrXrXrXrX8XrXbXaXbXFXGXbXbXbXbXbXbXbXaXaXaXyXbXbXbXbXrXbXbXbXbXbXJXbXrXaXbXbXbXbXbXbXbXbXbXbXbXbXbXGXbXbXbXbXbXbXaXrXrXrXrXaXbXrXrXrXbXbXbXyXrXaXaXbXbXbXbXbXbXbXrXrXaXbXbXbXbXaXbX",
"aXbXrXaXbXbXbXbXbXbXrXrXbXbXbXbXbXbXbXGXbXaXaXyXrX8XrXrXrXrXaXbXyXbXbXaXaXbXbXrXbXbXbXbXbXbXaXbXbXaXaXbXbXbXbXbXbXaXbXbXaXbXbXbXbXbXbXbXbXaXaXbXbXbXbXbXbXaXbXaXrXaXrXrXrXbXbXaXbXGXbXaXbXbXbXbXbXbXbXaXbXbXbXbXbXbXuXyXbXbXbXbXaXbXJXaXrXbXbXaXaXaXaXbXbXaXrXbXbXbXaXbXaXaXbXbXbXbXbXbXbXbXbXaXbXaXrXaXaXbXbXbXbXbXbXbXbXrXrXrXrXaXrXrXrXbXyXaXrXrXrXrX8XrXbXbXbXFXbXbXbXbXbXbXbXbXGXbXbXaXrXrXaXbXbXbXrXrXbXrXbXaXaXbXaXaXaXaXaXbXbXbXbXbXbXbXbXGXbXaX8XbXaXrXrXrXaXrXrXbXrXrXbXbXaXbXbXaXbXrXrXbXbXrXbXbXbXbXbXaXbXbXbXbXbXJX",
"rXbXrXbXbXbXbXbXbXbXbXaXbXbXbXaXbXbXrXbXaXJXaXaXaX5XrXrXrXbXrXbXbXrXbXbXbXrXrXaXyXrXbXrXrXrXaXrXbXbXbXbXbXbXaXaXbXbXbXyXrXbXbXbXaXbXbXbXbXbXbXbXJXbXbXbXGXbXbXbXaXrXbXrXrXbXbXbXbXbXbXaXGXbXbXbXbXaXbXbXbXaXaXrXrXbXbXrXyXbXbXbXbXbXJXbXbXaXyXaXyXrXaXbXbXbXbXbXbXbXbXaXbXaXyXyXyXbXbXaXbXbXbXrXaXbXbXyXbXbXbXbXyXyXrXbXbXbXbXrXbXrXrXrXrXbXbXbXbXbXaXrXrXrXbXbXbXbXbXbXbXbXbXbXbXbXJXbXyXbXrXrXbXbXbXbXbXbXrXrXaXaXbXbXbXbXZXbXiXbXbXbXbXaXbXbXbXFXbXaX5XJXbXbXrXrXaXyXrXbXiXbXbXaXaXbXbXbXrXbXyXrXbXbXbXrXbXaXbXaXJXrXrXbXbXJX",
"rXbXbXbXbXbXaXrXbXbXbXbXbXbXbXbXaXaXaXbXbXbXrXbXaXrXrXrXrXrXrXbXrXrXrXbXbXaX5XrXrXrXbXJXbXaXbXaXaXbXbXaXbXaXrXrXbXbXuXyXyXrXrXyXbXbXbXbXbXbXaXbXbXbXbXbXbXbXbXbXbXbXbXbXbXbXbXbXbXbXbXbXGXbXbXbXbXbXbXbXbXbXbXbXbXbXbXbXbXbXbXbXbXJXbXbXJXGXbXbXyXbXbXaXbXbXbXbXiXbXpXiXbXbXuXyXuXrXyXbXbXbX5XbXbXuXbXbXbXbXbXaXaXaXbXbXbXbXbXbXaXbXrXyXbXbXaXbXbXbXbXrXrXuXuXrXuXbXbXbXrXbXbXbXFXbXGXbXaXaXrXbXbXbXbXbXbXaXrXrXbXaXaXGXbXaXGXbXbXbXbXbXbXaXbXaXrXaXbXbXrXJXbXrXrXrXrXrXiXbXbXbXiXiXaXiXbXrXrXrXaXrXbXbXbXbXbXrXrXbXaXaXrXbXbXGX",
"aXbXaXbXrXrXaXaXaXaXbXbXbXbXbXbXbXrXbXbXbXrXaXrXrXaXbXrXrXuXbXrXuXrXrXrXbXbXbXrXrXrXbXbXGXrXbXbXbXbXbXaXbXbXbXrXrXyXyXrXyXrXbXbXbXGXbXaXbXbXbXFXbXbXbXbXbXbXbXbXbXbXbXbXbXbXbXbXbXbXbXbXbXaXbXaXbXGXbXbXbXbXbXbXbXbXbXbXbXbXbXbXbXbXbXGXGXJXJXFXbXGXbXbXbXbXbXbXrXrXiXiXbXbXyXbXbXuXbXbXbXbXbXbXbXbXbXbXbXbXbXbXbXbXbXbXbXrXrXaXrXbXaXrXaXbXrXbXbXaXbXbXyXbXuXuXbXrXrXaXrXbXbXbXbXbXbXJXbXbXaXbXbXbXbXbXbXbXbXrXrXrXbXbXbXrXaXbXaXbXbXbXbXaXbXbXbXbXaXaXaXaXbXbXbXbXbXbXrXrXbXbXbXbXaXaXaXrXrXrXrXrXaX8XyXbXbXrXbXbXbXbXbXbXbXJX",
"bXbXbXbXbXaXaXbXaXbXbXbXGXGXbXbXbXrXrXbXbXrXbXrXrXaXaXbXbXbXrXrXrXrXyXbXrXbXbXrXrXbXbXrXrXaXrXaXbXbXrXbXbXrXbXaXrXbXyXrXyXbXaXbXbXbXbXbXbXaXbXbXaXbXbXbXbXrXrXaXbXbXrXuXuXuXbXbXbXbXbXbXbXaXaXbXbXbXbXbXbXrXbXbXaXbXbXbXuXbXbXbXbXbXbXFXJXbXbXbXbXbXbXbXbXbXbXbXrXrXbXiXrXbXbXyXbXbXuXrXyXrXrXbXbXbXyXuXuXuXbXbXbXbXbXbXbXbXrXrXJXbXbXrXrXrXrXbXyXbXuXbXrXrXuXrXrXbXbXrXrXbXaXrXbXbXrXbXaXrXbXbXbXbXbXbXbXbXGXGXbXbXGXbXaXrXrXbXaXbXbXbXbXbXbXbXGXbXbXbXaXbXbXbXbXaXbXbXrX5XrXbXZXbXrXrXrXaXrXrXrXrXrXaXrXaXrXaXbXbXbXbXaXbXbXbX",
"yXbXGXaXaXJXaXaXaXbXbXbXbXbXbXbXbXbXaXbXrXrXaXyXrXrXrXuXrXuXrXeXrXrXrXFXbXrXbXrX5XbXbXaXyXbXbXbXrXaXrXrXJXbXrXbXbXFXbXbXuXrXbXrXaXbXbXbXbXrXrXaXbXbXaXbXaXrXbXaXrXaXbXbXrXuXrXuXyXbXbXbXbXrXrXbXbXbXbXbXrX9XaXbXaXyXuXrXrXbXbXbXbXFXGXJXJXbXaXbXbXbXbXbXbXbXbXbXbXbXbXbXrXbXbXbXuXbXbXrXaXaXbXbXbXrXuXuXrXbXaXbXbXaXbXbXbXrXrXaXbXbXbXrXrXrXaXuXyXbXrXbXuXbXbXrXrXyXrXrXbXrXbXbXrXrXrXrXrXbXGXZXbXbXGXbXGXbXJXFXbXJXGXJXbXbXaXaXaXrXrXrXbXaXaXbXbXbXbXaXbXbXGXbXbXaXbXJXbXrXpXrXqXrXbXbXrXrXrXrXrXrXaXaXaXaXrXbXbXbXbXaXbXrXbXJX",
"bXaXbXbXbXFXbXbXbXbXbXbXrXaXbXbXJXbXbXbXbX5XrXbXrXrXrXyXuXrXrXbXrXyXaXaXrXbXbXrX8XaXbXbXaX8XrXrXrXbXbXbXbXbXbXGXbXbXHXbXbXrXaXbXrXbXbXbXbXbXFXbXbXbXaXbXbXaXbXaXrXrXbXbXbXrXbXbXbXbXaXaXrXrXrXaXbXbXJXbXrXaXrXbXbXrXbXbXuXuXuXyXbXbXbXbXbXbXbXbXbXbXFXGXbXbXbXbXbXJXZXbXrXpXbXyXuXrXbXbXaXbXbXbXbXyXrXuXyXbXbXbXaXbXbXbXaXrXrXaXrXaXbXrXbXbXbXuXrXbXbXbXbXbXuXbXrXrXrXaXrXrXrXbXaXaXyXrXbXGXbXbXbXbXbXaXbXGXbXbXGXGXJXJXbXZXbXaXaXaXaXaXbXbXaXbXbXbXbXaXbXGXGXbXrXbXbXbXbXbXpXrXrXrXrXbXaXrXrXrXrXrXbXrXrXbXrXaXyXrXbXbXbXbXbXJX",
"uXrXbXbXHXbXbXbXbXrXrXbXbXpXrXrXrXuXbXbXrXrXrXrXrXrXbXrXrXrXuXbXrXrXaXrXbXaX8XrXbXbXbXbXrXbXbXrXbXaXbXbXrXaXbXFXbXbXbXGXaXbXrXbXbXrXbXbXbXaXrXaXbXFXbXyXbXrXrXaXbXbXbXbXbXrXrXrXbXyXrXbXrXrXrXrXuXbXFXrXrXbXbXaXaXaXbXbXuXrXyXbXbXbXbXbXbXbXbXbXaXbXFXbXbXbXbXuXbXJXJXbXbXbXaXbXbXaXrXrXbXrXuXbXbXrXrXuXbXbXaXbXaXaXbXrXrX5XrXrXbXaXbXaXbXaXbXbXyXuXuXuXbXrXrXuXrX5X5XrXbXrXrXrXuXuXyX5XbXbXbXJXbXaXaXaXaXbXbXGXGXGXJXJXJXFXbXbXbXaXrXaXaXyXbXbXGXbXbXrXbXbXbXbXaXrXbXbXbXbXbXaXrX8XrXbXbXaXrXrXaXrXbXrXrXbXrXrXaX8XrX8XrXrXaXGX",
"bXbXbXrXrXbXbXbXaXrXrXrXbXrXrXrXrXrXyXyXuXbXrX5XrX5XrXbXrXrXuXrXbXbXbXaXbXrX8XrXrXrXrXbXaXbXbXGXGXbXFXbXbXbXbXbXbXbXbXbXGXbXbXbXbXbXGXbXbXbXaXaXbXFXyXbXbXbXrXyXaXbXbXbXbXrXrXrXyXrXaXrXrXaXbXbXbXrXbXrXbXbXbXbXbXbXbXbXbXrXrXbXbXbXbXbXHXbXbXGXbXbXyXbXbXbXbXbXbXbXJXJXbXbXrXbXbXaXrXbXbXrXrXbXbXyXuXbXbXbXbXaXbXbXrXrXrXrX5XrXbXrXbXbXbXbXbXyXrXrXbXrXuXuXrXuXyXrXrXrXtXrXrXrXbXyXrXrXrXrXbXGXFXaXaXaXaXbXbXJXJXJXJXJXJXGXbXGXGXbXbXaXrXbXFXbXJXJXbXbXGXbXbXbXbXrXaXaXbXbXrXbXrX8XrXbXbXbXrXrXaXrXbXbXbXbXbXrXrXrXrXrXbXrXrXbX",
"yXbXuXrXbXbXbXbXbXrXrXrXpXbXrX5X5XrXrXrXbXuXrXbXaXbXrXrXrXrXrXbXyXbXrXyXbXrXaXbXbXrXrXyXbXrXrXbXbXFXGXbXbXbXbXrXbXbXbXaXbXGXbXbXGXJXJXJXbXJXPXGXJXbXbXbXrXrXaXaXrXrXrXrXrXuXuXrXrXrXaXaXrXrXbXbXuXbXHXyXbXbXbXbXbXbXbXbXyXbXuXbXbXbXbXbXbXaXbXGXJXGXFXbXbXbXbXFXbXbXbXbXbXbXrXbXrXaXbXrXrXyXrXuXbXbXbXbXbXbXbXrXrXrXbXbXrXbXbXrXbXaXrXaXyXbXbXrXbXrXrXrXbXrXrXbXbXuXuXtXrXrXrXrXuXrXuXyXrXrXbXJXbXrXaXrXbXbXGXJXJXJXJXJXFXFXGXGXJXJXJXbXaXbXFXbXGXGXJXFXJXFXbXbXJXbXrXbXrXrXaXbXrXbXbXaXrXbXrXrXrXbXrXaXbXbXrXbXbXrXrXrXaXbXbXJX",
"bXbXbXbXbXrXaXbXbXrXbXtXbXbX5XrXrXrXrXbXuXbXbXbXrXrXaXrXrXrXuXbXrXrXbXbXbXbXaXbXyXrXbXrXbXbXyXrX5XbXbXFXbXbXbXrXJXbXbXaXFXbXbXbXGXIXJXJXGXJXJXGXJXrXrXeXbXrXrXbXaXrXrXrXrXrXrXrXrXrXrXaXaXrXbXbXuXbXbXbXbXbXbXbXbXbXbXbXbXbXyXbXyXbXbXbXbXbXaXbXbXbXFXFXbXbXbXbXbXbXbXbXbXbXbXbXbXyXbXbXbXbXbXyXbXbXbXyXyXbXbXbXbXaXbXGXrXrXbXrXbXbXaXaXaXbXbXuXyXbXyXbXbXrXrXrXuXrXpXrXrXrXpXrXrXrXuXrXrXrXbXbXGXbXbXbXbXbXbXJXJXJXbXJXGXJXJXJXJXJXFXbXbXaXbXbXbXbXbXbXbXbXbXbXGXJXyXbXbXbXbXyXrXrXbXbXbXaXaXaXaXbXrXrXrXbXbXbXbXrXbXrXrXrXrXbX",
"bXbXbXyXbXrXrXbXbXbXaXtXpXpXrXbXrXrXrXrXrXuXbXrXrXaXyXaXrXrXbXbXrXrXbX5X3XrXbXrXrXbXrXrXbXbXbXrXrXrXbXbXbXaXrXaXrXbXGXaXbXbXbXbXGXJXPXJXPXGXGXGXbXbXrX5XbXbXbX5X5XrXaXrXrX5XrXrXeXrXbXrXrXbXrXrXrXbXbXeXbXGXbXbXbXFXbXbXbXbXbXbXbXbXbXrXrXbXbXbXbXbXbXbXGXbXbXbXbXbXbXbXbXbXbXbXbXrXrXbXuXuXbXuXrXbXuXtXbXbXbXaXrXaXbXGXbXrXrXaXaXrXbXbXrXbXbXrXrXrXbXbXrXbXbXrXrXuXrXrXrXrXrXbXbXrXbXbXyXaXbXbXbXbXaXbXbXrXrXbXbXGXJXFXJXGXFXbXbXHXHXJXbXbXbXFXbXbXbXbXbXbXbXbXbXJXbXbXbXJXbXbXGXGX5XrXbXbXrXaXaXaXrXbXaXbXbXaXbXrXrXaXaXrXrXbX",
"bXuXrXrX9XrXrXFXJXrXrXrXbXrXbXbXbXrXbXuXrXrXrXrXaXrXaXrXrXbXbXbXbXrXrXrXrXbXiXbXbXbXuXrXbXbXbXbXbXbXbXbXbXbX8XbXrXGXJXrXaXaXbXFXJXJXJXJXbXGXbXbXbXbXbXFXbXbXbXrXrXbXrXrXrXuXbXrXuXbXrXbXbXrXbXbXbXbXbX5XbXbXbXbXbXbXbXaXbXyXbXbXuXrXbXbXbXbXbXbXbXbXaXZXGXGXbXFXbXJXbXyXrXbXbXbXbXrXaXbXbXrXrXuXbXbXrXbXbXbXbXbXbXaXGXaXbXrXrXrXrXbXbXbXbXbXaXrXrXrXbXJXJXbXyXrXrXrXrXrXrXrXrXbXbXrXyXrXrXrXaXbXbXaXbXbXbXrXyXbXJXbXFXbXJXJXbXbXJXFXFXFXbXbXyXbXFXaXaXbXbXbXbXFXbXbXbXbXbXbXGXbXJXJXrXrXrXrXbXbXbXbXbXbXbXyXaXaXaXrX8XrXbXyXbXJX",
"rXbXbXbXbXyXbXFXbXaXaXrXbXbXbXbXbXyXbXbXrXbXrXaXrXrXrXrXaXrXrXyXbXbXaXbXbXbXaXyXrXrXyXbXbXbXrXbXbXbXbXbXrXbXbXbXaXbXbXbXbXaXGXbXJXJXGXbXbXbXbXbXbXbXbXbXbXaXyXrXbXbXrXuXbXrXuXbXrXrXrXbXbXrXrXbXbXbXbXrXbXbXbXbXbXbXbXbXbXbXaXbXuXuXuXbXbXaXbXbXaXbXbXFXGXFXbXbXHXbXFXrXuXbXbXbXaXbXrXaXbXbXbXbXbXbXbXbXbXbXbXbXbXbXbXiXpXrXrXrXrXrXaXaXbXbXFXuXyXuXbXJXJXrXyXrXrXrXrXrXrXrXrXaXrXuXuXbXrXrXrXbXbXbXbXbXaXrXrXbXJXJXGXbXbXJXFXbXbXbXJXbXbXyXbXbXbXrXrXbXFXbXGXbXJXbXJXFXbXrXaXbXbXbXrXaXaXrXrXbXbXbXbXrXyXrXbXbXrXrXbXrXrXaXaXJX",
"bXbXbXbXbXbXbXyXaXbXrXaXbXbXbXaXrXuXrXrXbXbXrXrXbXbXbXaXbXrXrXbXrXaXbXaXbXbXrXbXbXbXbXbXbXaXrXbXbXbXbXbXbXrXbXbXbXFXyXbXbXFXJXbXbXbXbXyXrXaXbXbXbXGXbXbXbXbXbXbXrXbXbXuXrXuXbXbXrXrXaXrXrXrXyXyXrXbXbXrXaXJXbXGXFXbXbXbXbXbXbXbXbXbXrXrXrXbXbXbXbXbXbXbXbXbXGXbXbXbXFXuXrXbXbXaX5XbXbXbXbXyXuXbXbXbXaXaXrXFXbXbXbXbXbXbXbXbXrXrXrXbXbXbXbXFXJXrXyXbXrXbXbXrXaXrXrXrXrXrXbXrXbXbXbXbXbXbXbXaXaXrXaXrXbXbXrXaXbXJXGXJXJXJXJXbXGXGXbXbXJXJXrXbXbXbXrXaXrXbXJXbXbXbXGXFXbXJXbXbXbXbXbXbXaXrXrXaXaXrXbXbXbXaXbXaXbXbXbXrXaXrXyXbXbXbX",
"bXbXbXbXbXbXbXbXrXbXaXaXbXbXbXbXbXbXbXrXuXbXrXyXbXaXbXbXbXbXbXbXrXaXbXrXbXaXrXbXbXbXuXuXbXbXbXbXbXrXaXaXaXbXrXaXaXrXbXJXGXJXJXJXJXbXbXbXbXbXbXbXbXbXbXaXbXbXbXbXrXrXrXyXbXrXrXbXrXrXrXrXrXaXaXrXrXrXbXbX8XJXaXbXbXbXaXbXbXbXGXbXbXuXbXbXbXyXbXbXbXbXFXGXbXGXbXGXJXJXbXbXbXFXbXbXrXbXbXbXbXbXrXuXuXbXbXrXrXbXaXbXbXbXbXbXrXrXbXbXbXrXbXbXaXbXbXuXuXrXrXrXbXrXbXaXrXrXrXrXbXrXrXrXrXbXbXbXbXbXbXrXrXrXbXbXJXbXbXJXJXFXJXJXJXJXGXbXbXbXbXbXbXbXbXbXbXbXFXbXbXbXbXbXbXbXbXGXbXbXbXrXbXaXaXaXaXbXbXrXbXaXrXaXbXbXFXbXrXrXrXaXrXrXaXbX",
"bXbXbXbXbXbXbXbXbXrXrXbXaXbXbXaXbXbXbXbXbXuXbXbXaXbXaXbXaXbXbXbXrXrXyXaXbXbXbXFXbXbXbXuXbXGXbXbXbXbXbXbXrXaXbXrX8XrXJXJXbXaXbXJXJXbXbXbXbXbXGXbXbXbXbXbXbXbXbXbXrXrXrXuXrXrXrXrXuXrX8XrXrXbXrXuXbXrXuXbX5XJXbXbXbXbXaXaXbXbXbXbXuXuXbXbXbXbXbXbXaXbXbXbXGXbXbXJXJXbXbXFXFXJXFXbXbXbXbXbXJXJXbXbXbXbXbXyXrXrXaXrXbXaXrXbXtXtXbXbXrXrXrXaXbXbXaXbXuXrXyXJXJXbXyXbXbXrXrXrXrXrXrXrXuXuXrXbXbXbXbXaXaXrXaXaXbXFXbXFXbXFXFXbXJXJXJXJXGXbXbXbXbXbXbXbXbXbXbXbXGXFXbXbXbXbXGXJXbXrXaXbXbXrXrXbXaXaXbXrXaXrXbXbXbXrXaXrXrXaXbXbXaXaXrXbX",
"yXrXrXbXbXbXbXbXrXrXyXaXaXbXaXaXbXbXbXbXbXbXrXrXbXbXbXrXbXaXaXaXrXrXaXFXaXbXbXbXyXrXbXbXGXbXbXGXrXbXGXbXbXbXaXbXbXJXJXbXbXbXbXbXbXbXbXbXbXbXbXbXbXbXbXaXaXbXbXbXrXrXuXuXuXrXrXeXrX5XrXbXrXrXrXrXbXrXrXbX5XbXJXbXbXbXbXyXrXrXaXrXrXuXbXbXbXbXbXbXrXbXbXbXbXbXbXJXHXbXbXbXbXbXbXrXbXbXFXbXbXbXbXbXbXaXbXbXrXbXrXbXbXaXrXrXpXbXtXbXtXbXrXaXbXbXbXrXbXbXuXJXJXaXrXaXaXbXrXrXrXrXbXaXbXuXrXrXbXbXbXbXbXrXrXrXaXaXaXbXbXGXJXJXJXJXJXJXbXbXbXbXrX5XHXbXbXyXbXFXbXbXbXbXbXbXrXbXbXrXrXbXrXaXrXrXaXaXaXrXbXrXaXrXaXbXrXbXaXrXaXrXaXbXrXbX",
"bXbXrXrXaXbXbXbXbXrXaXFXbXbXbXbXbXbXJXJXbXrX8X3XrXGXbXbXbXbXbXrXbXGXbXbXbXbXbXrXrXbXbXbXaXbXbXbXGXbXaXaXaXbXJXJXbXJXbXbXbXbXbXFXGXbXbXbXbXGXbXbXbXbXGXbXaXbXbXbXtXpXrXrXpXtXrXbXrXrXrXaXbXbX5XrXbXrXrXuX5XbXbXbXbXGXrXrXbX8XrXrXaXbXbXbXrXaXaXaXbXaXbXbXJXGXbXbXbXbXbXbXbXbXbXbXbXbXbXbXbXGXJXaXaXbXbXbXbXrXyXbXbXFXrXrXbXbXtXtXbXbXbXuXuXbXbXuXbXuXrXrXbXbXyXrXrXbXbXaXaXyXbXbXuXrXuXuXbXbXyXyXaXrXrXrXrXrXrXbXbXFXbXbXbXbXJXGXbXbXbXbXrXbXJXbXGXrXGXFXbXGXbXbXbXbXrX8XbXrXbXaXrXbXrXrXbXbXbXaXaXrXaXrXrXaXaXbXbXrXaXaXbXbXaXbX",
"bXyXaXrXrXbXbXbXbXbXbXbXbXbXbXbXbXyXbXbXbXbXbXaXrXbXbXbXbXbXGXaXaXaXaXbXbXbXbXbXbXbXGXFXbXaXbXbXJXbXrXbXbXJXGXbXJXbXbXbXbXbXJXbXrXbXbXbXbXaXbXbXbXbXGXbXyXrXbXrXtXbXrXrXrXrXrXbXrXbXbXrXrXrXrXrXbXrXuXrXrXbXrXrXGXbXrXbXrXrXbXaXrXyXbXbXbXbXbXbXbXbXaXbXJXGXbXbXbXbXbXyXbXbXbXbXbXbXbXbXaXbXbXbXbXbXbXrXbXbXbXbXrXyXbXbXbXtXbXrXtXrXbXbXbXuXrXrXrXuXrXrXrXbXrXbXJXyXbXbXGXbXJXbXuXbXrXuXuXbXaXaXrXaXaXbXyXuXbXbXbXbXbXFXGXFXFXFXbXbXbXbXbXGXJXFXbXbXbXbXFXbXbXbXbXbXrXrXbXaXbXbXyXrXrXrXbXbXbXaXrXrXbXrXbXbXrXaXbXbXaXaXrXrXbXbX",
"bXbXrXrXrXbXbXbXbXbXGXbXrXbXGXrXbXaXaXbXbXaXbXbXbXrXrXbXJXbXrXbXbXJXbXbXbXbXbXGXbXbXbXbXbXbXJXbXGXbXbXbXbXJXJXJXJXbXbXrXrXrX8XaXbXbXbXGXFXGXbXbXbXbXbXbXaXbXbXrXpXbXbXpXtXtXrXbXbXbXbX5X5XrXrXrXrXbXbX5XrXyXrXrXbXbXrXbXaXaXbXrXyXbXbXbXbXbXaXbXaXbXbXbXbXbXaXJXbXbXbXbXbXbXbXbXbXbXbXGXGXbXaXGXbXrXyXbXbXrXbXbXrXyXJXbXbXpXtXpXrXbXbXbXbXbXrXrXrXuXbXbXuXrXrXrXbXbXJXbXbXbXbXbXrXbXrXbXbXJXbXbXbXbXbXbXuXrXbXbXbXaXbXGXJXGXbXGXbXbXFXbXaXJXbXrXrXrXbXbXaXbXbXbXaXaXaXbXGXbXrXaXbXbXrXrXaXrXrXrXbXrXrXrXrXbXbXbXIXbXbXbXrXrXrXbX",
"aXaXrXrXbXbXbXbXbXbXaXbXaXyXbXbXJXbXrXFXbXrXrXrXrXbXrX8XbXbXbXbXbXJXbXbXGXbXbXbXbXbXbXbXaXFXJXbXbXbXbXbXaXyXbXbXbXbXJXbXaXrXrXbXFXbXrXbXGXJXFXbXbXaXbXbXbXbXbXbXbXtXrXrXrXrXpXrXtXbXrXrXaXyXbXbXrXbXFXrXrXbXrXrXaXbXbX8XrXbXbXrXaXbXbXbXrXaXrXaXyXaXbXbXbXGXbXbXFXbXbXbXaXbXbXbXbXaXbXrX8XbXrXbXbXFXbXbXbXrXbXrXrXbXbX5XrXbXrXpXbXrXrXbXbXbXbXuXrXrXrXrXrXrXrXrXbXbXbXGXaXbXbXbXbXrXbXbXyXbXbXbXbXbXJXbXyXbXbXbXbXbXbXbXbXbXbXbXbXbXGXFXrXbXbXbXbXrXyXbXbXaXbXaXbXbXrXaXGXbXbXrXbXbXbXrXrXbXbXrXaXrXyXrXrXbXbXbXJXJXbXbXbXbXbXbX",
"aXaXrXaXbXbXbXaXbXbXbXbXbXbXbXGXGXJXbXbXrXrXrX5XrXrXrXyXaXbXJXbXaXaXbXbXbXbXbXrXbXbXbXbXbXbXbXbXbXbXbXaXaXbXbXbXbXbXGXbXFXbXFXFXGXGXbXbXbXGXGXFXbXbXbXrXrXbXbXbXbXrXqXrXtXrXrXbXrXrXrXbXrXaXrXrXyXbXJXrXrXbXrXrXrXrXaXrXrXrXrXrXbXbXrXbXbXbXbXbXbXbXbXbXbXbXbXGXGXbXbXbXGXbXbXbXrXrXrXGXGXbXrXaXrXbXbXbXbXrXbXrXrXrXuXbXpXbXbXrXbXbXbXrXuXbXuXbXrXrXrXuXuXbXrXuXbXrXrXiXaXbXbXbXbXbXbXyXrXbXbXrXaXyXrXbXuXbXbXuXaXbXbXbXbXbXbXrXbXJXbXbXrXrXbXbXaXrXbXbXbXrXbXbXbXbXrXrXJXFXbXbXaXyXaXbXbXaXbXrXrXbXbXaXbXaXrXaXaXGXGXbXbXbXbXGX",
"bXrXbXbXbXbXbXbXbXbXbXbXbXbXbXGXbXbXbXbXbXbXiX8XrXrXrXbXrX8XrXiXrXbXaXrXbXaXbXaXbXbXGXGXbXbXrXbXbXbXrXaXaXbXbXyXrXbXbXbXbXbXbXFXJXJXJXJXbXGXFXbXFXFXbXbXbXbXbXbXrXrXtXrXrXrXrXrXbXrXrXbXyXrXyXrXyXrXaXrX5XbXbXbXrXrXbXbXbXrXrXiXrXrXrXbXbXbXbXbXbXbXFXFXbXbXbXbXGXFXbXbXbXbXbXbXyXrXrXFXbXbX8XaXbXaXbXbXbXbXuXuXuXrXrXbXbXbXbXbXtXrXbXbXrXuXtXrXrXbXrXrXrXbXrXuXrXrXrXrXrXaXbXbXbXrXbXrXbXbXrXrXbXJXrXrXbXbXbXbXrXrXaXbXbXrXrXbXyXFXrXrXrXaXGXbXrXbXbXbXbXrXbXbXbXbXaXbXbXbXbXbXyXrXrXrXyXbXbXbXaXbXbXbXbXrXrXrXrXbXbXrXbXbXaXGX",
"GXbXGXbXbXaXrXaXbXbXbXrXrXyXrXbXbXbXbXbXbXbXbXrXpXrXrXrX6X6XbXbXbXbXrXrXbXbXFXbXrXrXbXbXaXGXGXbXbXbXbXaXbXbXbXbXbXbXGXbXbXGXbXbXJXbXaXJXbXGXbXGXJXHXbXbXrXbXbXrXrXrXrXbXrXrXrXrXaXbXbXrXrXrXrXaXrXiXaXaX5XbXbXbXbXrXrXrXrXaXrXrXrXtXrXrXbXGXaXaXbXbXbXbXbXbXbXbXbXbXbXbXbXbXGXbXbXbXbXrXrXbXrXbXaXaXaXbXbXyXrXrXrXrXrXbXrXbXtXrX5X5XtXtXbXpXrXrXtXbXtXrXtXpXtXrXtXtXbXbXrXJXyXaXiXiXiXrXbXJXbXrXGXaXrXbXbXbXbXbXbXbXJXbXbXbXbXbXrXbXbXrXrXrXFXGXrXFXbXbXyXbXaXbXrXrXbXaXaXaXbXbXbXyXyXbXbXbXbXaXaXrXrXaXyXbXbXaXrXaXbXaXbXbXrXbX",
"bXbXbXbXbXbXbXbXbXbXbXyXFXbXbXbXbXbXbXyXrXrXrXrXrXqXrXrXrXrXrXiXbXbXaXbXaXbXGXJXGXbXrXbXJXGXbXbXbXbXbXbXbXbXbXbXbXFXJXbXGXGXbXGXGXGXGXbXJXbXJXyXbXJXbXbXbXbXbXbXbXuXrXbXbXrXrXrXrXyXbXbXuXbXrXrXrXbXyXrX5XbXbXbXbXbXbXbXbXaXrXrXrXrXbXtXbXbXbXbXbXbXbXbXbXaXbXGXbXbXbXbXbXFXbXbXbXbXbXbXbXbXbXaXyXrXaXbXbXaXbXbXyXyXbXbXpXrXrXrXrXrXrXpXbXtXrXpXtXtXbXtXbXbXpXqXrXrXrXbXrXbXbXbXiXbXrXbXbXrXbXaXrXrXbXbXaXbXbXbXbXbXbXbXbXbXbXbXrXyXbXrXaXrXbXbXrXaXbXbXaXbXbXbXrXaXrXrXbXbXbXbXbXbXbXbXbXuXrXrXrXrXrXrXbXbXbXbXrXaXrXrXrXrXrXbX",
"bXbXrXrXbXbXbXbXGXbXFXFXFXJXJXbXbXbXbXbXaXrXrXrX5X5X5X5XrXbXbXbXbXbXaXbXbXrXrXJXJXbXbXbXFXbXbXrXrX8XbXbXrXbXbXbXbXbXFXbXbXbXbXbXbXbXFXJXbXbXJXbXrXrXrXJXbXbXbXbXbXyXrXrXrXrXrXrXrXrXbXbXbXbXbXbXrXbXrXbX5XbXaXbXbXJXbXbXbXbXrXrXtXpXrXrXbXbXaXbXrXaXbXbXbXbXbXbXbXbXbXbXbXbXbXyXrXrXaXbXbXbXbXbXGXbXbXGXbXrXbXbXbXbXbXuXpXrXrXpXrXrXrXbXrXbXrXbXtXrXbXrXrXrXbXtXbXrXrXbXuXuXuXbXbXrXrXpXbXrXrXrXbXbXbXrXbXbXbXbXbXbXbXbXbXbXbXbXrXyXbXbXbXrXbXbXrXbXbXbXbXbXbXbXbXbXaXbXbXJXbXbXaXrXyXrXbXbXrXbXaXrXaXaXbXaXbXbXrXrXrXrXrXrXrXbX",
"bXbXbXrXaXbXbXbXbXbXbXFXbXbXbXbXbXJXJXJXbXyXJX5X5XrXrXrXrXrXbXbXbXiXaXaXbXaXbXbXbXbXbXFXbXrXbXrXbXFXyXbXbXbXaXbXFXFXbXbXZXbXGXbXaXGXbXbXFXFXJXaXrXrXbXJXuXbXbXbXbXbXbXbXaXbXyXbXaXbXbXyXrXrXrXbXaXyXrXbX5XaXaXaXrXaXrXaXrXrXyXrXrXrXbXpXpXaXrXrXaXbXbXbXbXbXbXaXyXrXbXbXbXbXbXbXaXyXbXbXbXbXbXbXaXbXbXbXrXrXbXbXbXyXyXbXbXbXpXrXpXpXpXbXpXbXrXpXpXpXrXtXrXtXtXrXbXbXtXbXuXrXbXtXrXiXbXrXrXaXrXrXbXbXbXbXbXbXbXbXbXbXrXbXyXbXbXbXbXrXbXFXbXbXrXbXrXbXbXbXGXbXbXbXaXrXbXbXFXFXrXaXbXrXyXyXrXuXrXbXbXrXrXiXrXbXaXbXrXrXrXrXrX8XrXbX",
"rXrXrXrXbXbXbXbXbXFXbXbXJXbXbXbXbXGXPXJXbXaXHXrXrXrX5XtXbXbXbXbXiXrXJXbXbXbXbXbXbXGXbXbXbXbXbXbXbXbXaXbXbXbXbXbXbXbXaXbXbXGXGXbXaXbXaXbXGXGXbXGXJXrXuXJXHXFXHXbXbXbXbXbXbXbXbXyXaXbXyXbXbXbXrXrXrXrXrXbX7XrXbXbXrX8XaXbXyXaXaXrXrXtXbXpXrXrXbXrXrXbXbXaXaXaXbXbXbXyXbXbXyXaXbXbXbXbXbXbXaXbXbXbXbXbXaXbXrXrXbXbXbXuXrXbXbXpXbXbXbXtXpXbXbXbXtXrXbXbX5XrXbXtXrXpXrXrXbXrXrXuXbXSXbXrXbXbXpXbXbXbXrXrXbXrXGXbXrXrXaXbXbXbXbXbXbXuXbXbXbXbXbXbXyXyXrXbXbXbXbXbXbXaXbXbXbXbXyXJXbXbXaXrXrXrXrXrXuXbXrXrX8XbXrXrXaXbXaXrXrXrXrXaXbXbX",
"yXyXrXrXrXaXaXbXbXbXbXbXFXbXbXbXbXbXHXbXbXbXrXbXbXAXrXrXrXbXbXaXbXrXbXbXbXbXbXbXbXbXbXbXbXbXbXaXbXbXbXbXbXrXJXbXbXbXaXbXbXbXGXaXrXaXbXJXbXbXGXbXbXJXaXbXbXrXaXbXaXbXbXbXbXbXbXbXbXrXbXbXrXtXrXbXrXrXbXrX3XbXbXaXrXrXbXrXbXaXaXbXrXrXrX5XrXbXbXrXrXyXbXaXbXbXbXbXbXbXbXbXbXbXbXbXJXbXbXbXbXbXbXyXbXbXbXaXbXbXaXrXbXbXbXrXiXbXiXbXbXrXpXrXpXtXtXrXbXbXrXrXbXuXbXrXrXuXbXyXrXaXFXbXbXiXiXiXiXbXpXZXbXbXbXrXbXGXrXaXrXbXbXbXuXbXbXbXbXbXbXbXyXbXbXbXaXbXbXbXbXaXbXaXbXbXbXJXrXbXGXJXrXrXrXrXrXrXiXpXrXrXrXbXbXbXbXrXrXyXbXaXrXbXbXbX",
"rXrXrXrXbXbXbXbXbXbXbXbXbXaXbXbXyXbXbXbXbXrXrXrXrXbXbXrXrXaXbXbXbXbXaXbXGXbXbXbXyXbXJXbXaXbXJXbXbXbXbXbXbXbXbXbXJXbXbXGXGXGXGXaXbXGXbXbXbXGXGXbXbXJXbXbXJXbXbXrXrXrXbXbXbXbXbXbXbXbXbXbXtXtXtXrXrXrXuXeX5XJXbXbXrXbXrXrXbXbXrXbXrX5X8X8XaXrXrXrXyXbXyXrXrXbXbXbXbXbXbXbXFXbXaXbXJXFXFXbXbXbXrXrXbXbXbXaXbXbXiXiXbXbXbXrXbXbXbXrXZXbXpXpXbXpXbXrXrXrXrXtXrXyXbXbXuXbXbXbXrXrXrXrXrX6XbXbXrXiXpXZXbXrXbXbXbXbXaXaXrXbXuXyXyXbXbXFXbXbXbXbXrXbXbXbXbXbXaXbXbXrXbXbXJXbXaXbXFXbXbXbXaXrXpXiXiXrXrXrXrXpXrXbXbXuXtXbXrXrXrXbXrXbXbXbX",
"rXbXbXbXbXbXbXbXbXaXbXbXbXbXbXbXbXrXbXbXuXrXrXrX8XrXbXbXaXaXbXbXbXbXJXbXJXbXbXbXbXbXbXbXrXbXbXbXFXbXJXGXbXbXbXFXbXbXaXGXJXbXGXbXbXbXbXrXbXbXFXFXbXGXbXrXbXbXbXbXbXGXyXbXGXbXaXbXbXbXbXbXrXrXtXyXrXuXuXrXrXbXbXbXrX8X5XaXaXbXrXaXrXrXrXrXaXbXrXrXrXrXrXbXbXbXbXbXbXbXbXbXbXbXbXbXbXbXbXbXbXbXbXbXrXbXbXbXbXbXbXiXbXbXbXbXbXrXZXrXrXbXtXbXSXbXbXpXrXrXrXrXrXrXbXHXbXbXbXaXrXyXrXrXpXiXiXbXbXbXiXrXrXrXbXGXbX8XbXaXuXbXbXbXuXbXJXbXbXbXbXbXaXbXrXbXaXbXGXbXbXbXbXbXbXbXbXbXbXbXbXbXbXrXrXiXrXqXrXrXrXrXrXrXiXrXbXbXyXrXrXrXrXbXrXbX",
"bXbXrXbXbXbXbXbXbXbXbXbXbXbXbXbXbXbXbXbXbXrXaXbXJXbXbXbXbXbXaXbXGXbXJXbXbXyXyXFXrXbXJXrXrXrXrXJXFXFXGXJXFXbXbXFXbXbXaXGXbXGXGXGXbXbXbXbXFXFXbXbXbXGXbXrXbXbXbXGXbXbXbXbXbXrXaXbXbXbXbXbXtXtXpXuXrXbXrXyXrXbXbXrX5X5XbXaXrXrXrXrXbXrX8XrXbXbXrXrXrXrXrXrXbXbXbXJXbXrXuXrXrXyXbXbXbXbXbXyXuXrXbXbXaXaXbXbXbXbXbXiXbXbXiXbXbXbXiXrX5XrXrXbXtXbXbXpXrXqXrXbXrXrXuXbXbXrXaXaXyXbXbXrXrXiXrXbXiXiXZXbXrXiXiXbXrXaXbXaXuXbXrXbXbXbXbXbXrXbXbXbXrXaXaXbXbXbXGXbXbXbXbXbXbXbXbXbXbXbXaXbXbXiXrXrXrXbXiX6XrXrXrXrXrXbXbXbXbXrXrXrX8XrXaXbX",
"bXbXyXyXbXbXbXaXbXbXbXrXbXbXbXrXyXbXbXbXyXrXrXaXGXGXGXJXbXaXbXbXJXJXbXbXbXrXbXbXbXbXGXbXbXbXbXbXFXbXJXJXJXbXbXbXbXbXrXaXbXbXbXbXbXbXbXbXaXbXGXaXbXbXrXbXFXbXJXFXbXbXbXbXbXbXbXbXbXpXpXpXbXbXbXyXuXyXyXrX8XbXbXrX8XrX8XaXaXrX8XrXrXrXrXrXbXJXbXHXbXbXyXaXrXrXbXbXbXbXbXuXyXyXbXaXbXbXbXrXrXrXrXbXbXaXbXbXbXbXbXrXrXbXrXbXiXiXiXrXrX5X5XbXbXbXbXrXrXtXrXbXrXbXrXrXrXuXrXyXbXrXrXbXiXrXiXbXbXrXbXbXiXrXrXbXbXrXbXbXrXbXbXbXbXbX3XrXJXbXbXbXrXbXbXrXbXbXGXbXbXbXbXbXbXFXbXbXbXbXbXbXbXrXrXiXpXrXrXrXrXrXrXiXrXrXbXbXrXrXbXbXbXrXrXbX",
"yXbXyXrXbXFXbXrXyXrXrXrXbXbXrX9XrXbXbXbXbXrXrXaXbXbXaXbXbXbXbXbXbXbXbXJXbXbXbXrXbXbXbXbXbXGXbXJXbXbXaXbXbXbXbXFXbXbXbXbXbXbXbXbXrXbXbXbXbXbXbXaXbXbXFXGXFXbXbXGXGXFXJXbXbXbXbXbXbXrXrXrXrXrXaXbXbXrXrXrX5XaXbXrXrXbXbXbXrXbXFXrXiXaXrXrXbXbXFXbXbXbXyXbXrXrXbXbXyXrXbXyXyXyXaXaXbXbXaXbXyXyXbXbXrXaXbXbXbXbXbXiXbXpXbXrXpXrXbXrX6XrXrXbXrXpXbXbXrXpXbXpXrXyXuXbXrXbXaXyXbXrXrXbXSXbXiXbXbXbXbXbXJXbXiXbXaXbXbXrXrXbXrXbXbXbXrXbXJXbXbXbXaXbXyXbXbXbXGXbXaXbXbXbXFXbXGXbXbXbXbXbXbXrXiXbXrXrXrXiXrXqXrXiXrXrXrXrXrXtXrXrXaXaXiXbX",
"rXrXrXaXbXbXbXbXrXrXrXaXbXbXbXbXGXbXbXbXaXbXGXbXbXbXbXbXGXbXbXbXbXJXGXGXbXbXFXbXbXaXbXbXGXGXLXIXLXFXbXaXbXaXFXFXJXGXaXFXbXbXbXbXbXaXbXbXGXbXbXrXbXbXbXbXbXbXbXbXFXFXGXbXaXbXbXrXrXbXbXbXaXrXrXbXbXrXrXaX5XrXaXbXrXbXGXrXrXbXbXrXiXbXbXrXrXGXaX5XbXbXbXbXbXbXbXbXbXbXrXbXbXrXaXaXbXbXaXbXbXbXbXbXaXaXaXbXbXbXrXbXuXbXbXbXtXpXbXtXrXrXbXbXiXaXaXbXbXbXbXbXbXuXbXuXrXrXrXrXaXbXbXbXJXbXiXiXrXaXbXbXJXbXrXuXbXuXbXbXrXrXbXrXrXbXbXbXbXFXbXbXyXGXbXbXaXaXbXbXbXbXbXbXGXGXbXrXbXrXrXbXbXbXbXbXrXbXrXrXrXqXrXiXpXrXtXrX5XrXbXaXrXrXaXbX",
"bXbXrXbXrXrX5XrXrXbXbXbXbXbXbXbXbXbXbXbXbXbXGXbXaXbXGXbXbXGXGXbXbXJXGXbXbXbXGXJXbXrXrXbXJXIXIXPXGXGXbXbXbXbXbXbXbXFXbXbXbXJXFXbXbXGXbXFXbXaXaXbXbXbXJXbXbXbXbXbXbXbXbXbXbXbXbXbXbXbXbXrXrXaXaXaXbXbXaXrXrXbXaXbXbXbXbXrXrXaXbXrXrXrXrXbXJXrX5XbXbXaXbXbXbXbXbXbXaXyXrXrXrXaXaXrXbXrXaXaXbXbXbXbXbXbXbXbXbXbXbXbXbXyXbXbXpXpXpXrXpXrXrXrXbXbXaXbXbXbXbXuXbXbXuXrXrXuXrXbXbXbXbXbXbXbXJXbXrXiXaXaXGXbXyXbXrXuXbXuXbXrXpXbXrXrXrXaXGXbXbXbXrXbXFXJXJXbXaXbXbXaXaXbXbXbXrXaXbX8XrXbXbXbXaXbXbXbXbXrXqXrXrXrXiXbX5X5X5XrXrXbXaXaXbXbX",
"rXbXrXbXbXbXbXrXrXbXpXbXbXbXbXbXbXbXGXbXbXGXbXaXbXbXbXbXbXJXFXbXaXbXFXbXbXbXFXLXGXbXaXrXaXLXPXLXFXFXbXbXbXbXbXbXbXbXbXbXFXJXJXFXbXbXbXbXaXbXbXbXbXbXbXrXbXbXbXGXbXaXbXaXbXaXbXbXbXrXrXrXbXbXbXaXaXbXbXbXrXaXbXyXrXrXrXrXrXrXrXrXrXiXiXbXrXrXbXbXbXbXbXbXbXbXbXaXbXbXaXbXrXrXbXbXaXaXaXbXbXbXbXbXbXaXbXbXbXbXbXbXbXbXrXbXbXpXrXrXbXbXbXbXrXbXbXbXbXbXbXbXbXuXbXyXrXbXrXaXbXbXbXrXrXbXbXbXbXrXaXbXJXbXbXJXuXrXbXuXaXrXrXiXbXbXbXbXbXbXbXbXrXbXGXGXJXFXbXbXbXbXbXbXbXbXbXrXrXaXbXbXbXbXbXbXbXrXaXrXrXrXrXrXrXrX5X5XqXrXrXrXaXbXaXbX",
"rXrXrXbXbXbXrXqXbXqXrXrXrXrXrXrXrXbXbXbXbXbXJXGXJXPXGXbXbXbXbXbXbXbXJXJXJXGXbXFXGXbXrXbXrXaXJXLXGXbXaXaXbXbXbXbXaXbXGXJXJXaXbXJXbXbXbXFXGXJXGXbXGXaXbXbXbXbXGXGXbXbXbXbXbXbXbXaXaXbXaXbXbXbXbXbXaXbXbXbXrX8XbXyXrXaXrXaXrXrXrXrXiXbXbXrXrXaXaXrXbXbXbXbXbXbXbXbXbXbXbXaXrX5XrXbXaXrXyXbXbXbXbXbXbXbXbXbXbXbXbXuXbXyXyXbXrXbXbXbX5XqXpXiXrXrXbXbXbXbXbXbXbXrXuXuXyXbXaXrXbXbXrXaXrXbXbXbXbXbXbXbXbXbXrXbXbXrXrXrXiXiXbXbXbXbXbXbXbXbXbXbXrXJXbXJXFXrXbXbXbXbXbXbXbXbXbXaXyXbXGXbXaXGXaXbXbXbXbXiXrXrXrXrXqXqXrXqXrXrXrXrXrXbXbXbX",
"rXrXbXbXaXrXqXrXbXrXrXbXaXaXbXbXbXbXJXFXbXGXJXbXbXbXaXbXbXbXbXFXJXbXbXJXJXbXbXbXJXJXbXbXJXbXFXbXbXJXbXbXbXrXbXbXbXbXbXGXGX5XbXbXbXbXbXbXbXbXbXGXJXJXbXFXbXbXbXrXbXbXbXbXbXbXrXaXbXbXrXrXbXrXrXbXrXrXrXaXrX5XbXrXaXbXrXaXrX5XrXbXrXbXrXrXrXrXrXaXaXaXbXbXaXaXaXbXbXbXJXbXrXrXrXrXrXaXbXbXbXbXaXbXaXaXbXbXbXbXbXbXbXyXbXyXrXpXbXbXrXrXtXrXiXbXbXbXbXrXtXrXbXuXbXbXbXbXrXaXaXbXrXbXrXbXbXbXpXbXGXJXbXbXbXbXbXbXuXrXrXiXrXbXrXbXbXbXbXbXbXbXrXbXbXJXJXbXyXbXbXbXrXbXyXbXbXbXrXaXaXaXaXbXbXbXbXbXbXbXrXrXrXrXrXrXrXrXrXbXbXuXbXbXrXbX",
"aXbXbXbXbXbXrXbXbXrXbXbXbXbXbXbXbXFXJXbXbXGXbXbXbXaXbXbXGXbXrXbXbXbXJXJXbXbXbXGXLXJXbXbXbXGXbXFXyXbXbXbXbXbXbXbXbXbXbXGXJXGXbXbXbXbXbXbXrXbXbXbXbXJXJXbXbXrXaXbXbXbXaXbXbXrXaXbXbXrXiXrXiXrXbXbXbXbXbXuXrX5XrXrXrXrXyXrXrX5X9XbXaXrXbXrXrXbXaXaXbXaXaXFXbXrXaXbXbXbXbXbXbXbXbXbX5XrXbXbXbXrXaXbXbXaXbXbXbXbXbXbXbXbXbXbXbXrXrXbXbXbXbXbXaXaXaXyXbXyXrXbXbXaXFXbXaXbXbXbXbXbXrXiXiXbXbXrXiXrXrXbXbXbXbXbXbXrXaXrXrXrXpXbXrXrXbXpXbXbXbXbXrXbXbXJXJXGXbXbXbXrXrXbXFXbXbXbXaXaXaXaXaXaXbXJXbXbXrXrXbXrXrXbXrXrXrXrXrXbXbX5X5XbXrXrX",
"bXbXbXbXbXbXbXbXuXrXbXbXbXbXyXbXrXbXbXbXGXbXbXbXrXbXGXbXbXaXbXGXbXrXbXbXaXbXGXrXrXrXbXbXbXbXbXGXbXbXaXbXbXbXbXbXbXbXbXGXJXGXrXbXyXrXbXaXbXbXaXyXbXbXbXaXaXbXbXbXrXrXbXbXrXbXJXFXbXbXZXbXbXiXrXrXrXbXrXrXrX5XeXrXrXrXuXbXrXeXrXrXrXaXrXrXaXbXaXaXbXaXbXbXFXrXaXbXbXJXbXbXJXbXbXbXrXrXbXaXyXrXaXrXbXbXaXaXaXbXbXiXpXbXpXbXbXaXrXaXbXbXbXaXbXaXbXbXbXbXbXbXbXbXbXbXbXbXbXbXbXpXpXrXpXbXbXrXrXbXaXbXbXbXbXbXbXbXaXaXbXrXbXbXtXrXrXbXbXbXpXbXrXbXrXbXbXbXGXGXbXbXbXbXaXbXrXaXbXbXaXaXbXbXaXbXrXaXrXbXbXbXrXbXaXrXrXrXaXaXbXqX3XrXtXrX",
"aXbXbXbXbXbXbXeXrXrXbXbXbXbXrXbXbXbXbXbXbXFXbXbXbXbXaXbXbXbXJXbXbXrXaXbXbXGXGXrXrXrXaXbXbXGXaXbXGXbXbXbXbXbXbXbXbXbXyXrXFXbXbXbXrXGXbXrXJXbXrXFXbXbXFXbXbXbX5XrXaXaXbXbXaXbXFXbXbXbXbXbXiXbXrXrXbXbXrXrXrXrXrXrXrXrXuXrXbXbXrXrXyXbXrXbXrXrXyXbXbXaXbXbXbXaXbXbXbXbXbXbXFXbXbXJXbXbXbXbXaXbXrXbXbXbXaXaXbXbXbXbXrXbXbXbXbXbXbXbXbXbXbXrXaXaXaXbXbXbXFXFXbXbXbXbXbXbXbXaXiXpXpXbXbXiXrXbXiXbXbXbXaXbXbXbXJXbXaXbXbXrXbXbXtXrXbXbXbXiXbXbXrXbXbXJXbXbXbXbXbXbXbXbXbXbXaXbXbXbXaXaXbXbXrXrX8XrXaXbXbXJXbXaXbXbXbXbXbXyXrXrXrXrXbXbX",
"rXaXaXrXbXbXbXrXbXuXFXGXJXGXHXbXbXbXbXbXbXbXbXGXJXrXrXbXJXJXbXrXbXJXbXbXJXbXbXFXaXyXrXyXGXbXbXbXJXGXGXbXbXrXbXFXbXaXrXaXbXbXbXaXrXrXbXbXJXbXbXJXbXaXbXbXbX8XaXbXJXbXbXbXGXGXbXrXrXbXbXiXbXiXiXrXrXrXtXrX5XeXrXrXrXrXrXrXbXrXrXrXrXbXrXbXaXrXaXbXbXbXbXbXbXbXbXbXrXyXbXGXFXbXbXGXJXGXbXbXFXbXGXbXbXbXbXbXbXbXiXbXiXrXrXbXbXrXbXaXbXbXbXbXbXbXrXbXaXbXGXGXaXaXbXbXrXaXaXrXbXiXrXpXiXiXbXrXrXbXaXrXaXaXaXaXbXbXbXbXbXbXrXbXbXbXbXbXbXpXiXiXrXbXbXbXbXbXJXbXbXrXaXFXbXbXbXbXbXbXrXrXaXbXbXrXrXrXbXrXbXaXaXaXaXbXbXbXaXbXrXZXbXrXrXbX",
"aXaXrXyXbXrXrXFXbXbXbXGXbXbXbXbXbXaXbXbXGXbXbXbXrX8XrXbXGXbXJXGXbXbXbXbXaXrXFXbXyXaXrXyXaXbXGXaXbXGXbXJXFXbXJXbXbXbXbXbXbXrXbXrXyXGXbXbXbXbXbXbX8X8XaXbXbXbXbXbXbXaXbXbXbXbXyXbXbXrXbXiXiXbXrXrXrXrXtXrXeX5XrXrXrXrXrXrXrXuXrXrXrXrXbXbXbXaXaXbXaXaXbXbXbXaXbXaXaXFXbXFXbXbXbXbXbXGXGXGXJXbXGXJXbXbXbXbXbXbXiXbXiXrXiXrXaXrXrXaXaXbXbXbXbXaXrXrXaXbXbXbXbXbXaXbXaXrXrXiXbXrXrXrXiXpXrXrXrXaXaXaXbXbXbXbXaXbXbXbXbXrX5XrXbXbXpXbXbXbXbXbX8XbXaXGXbXbXrXrXbXyXbXbXbXbXbXbXbXbXaXrXbXbXbXbXbXbXbXbXbXrXrXaXrXbXbXbXrXbXbXiXbXrXrXbX",
"bXyXyXaXbXyXrXbXbXbXbXGXbXbXbXbXuXbXaXrXyXyXaXyXbXGXGXbXFXFXJXGXbXbXbXbXbXrXrXbXbXbXbXaXaXbXbXbXbXaXbXbXFXFXJXJXbXaXaXbXbXbXbXbXJXGXrXbXbXbXbXaXrXrXaXyXbXJXbXbXbXbXbXbXaX8XbXJXrXrXiXiXiXiXpXtXrXrXrXrXrXqXrXrXrXrXrXrXbXbXbXbXaXbXbXbXbXbXaXbXaXaXbXaXyXbXbXbXbXbXbXJXbXbXbXFXbXbXGXbXbXbXbXbXbXbXbXbXbXbXbXiXiXiXrXrXrXaXrXrXrXbXbXbXbXrXbXrXbXbXbXaXbXaXbXbXaXaXiXbXiXbXZXbXiXiXbXiXpXiXbXbXGXbXbXbXaXbXbXbXbXbXrXrXtXbXrXbXrXbXbXrXrXGXbXJXGXbXrXbXbXaXrXbXbXbXbXbXGXbXbXbXbXbXGXbXbXGXbXFXaXrXrXrXrXrXrXrXrXrXaXaXiXiXrXbX",
"rXyXbXyXuXbXGXaXaXbXaXGXbXaXrXrXrXbXaXrXrXrXrXbXbXGXFXJXGXLX9XrXLXbXbXbXbXbXGXGXbXbXbXbXbXbXbXbXbXbXbXbXbXbXGXGXbXbXbXyXbXaXbXbXbXaXbXJXJXbXaXbXFXbXbXbXbXrXbXbXrXrXpXpXiXrXrXiXrXqXrXrXrXrXrXrXrXrXrXrXrXqXrXrXrXrXrXbXaXrXaXrXaXbXrXrXbXbXbXbXbXbXbXbXbXrXbXbXbXbXbXbXbXbXbXbXbXJXrXrXbXrXbXbXbXbXbXbXbXaXrXrXiXrXrXaXrXaXrXrXbXbXpXbXbXbXbXrXrXaXbXbXbXbXbXaXbXaXaXaXrXbXbXbXbXbXFXbXrXrXrXbXbXrXrXbXbXbXbXbXrXbXuXbXbXbXrXuXbXrXbXrXbXbXbXbXbXaXrXbXbXaXrXrXrXrXaXbXrXbXbXbXbXbXbXGXbXbXbXbXbXbXrXrXrXrXrXrXrXrXaXbXbXrXrXrX",
"rXyXrXyXbXbXbXaXbXbXrXbXbXrXbXbXbXbXbXbXbXbXrXbXrXbXbXJXIXJXaXJXGXbXbXbXbXbXJXGXbXbXbXbXbXbXbXaXbXaXaXbXFXGXbXJXbXaXGXaXaXbXbXbX8XaXbXbXGXbXbXaXrXbXbXJXGXbXiXiXrXrXrXbXrXrXbXiXpXrXrXrXtXrXqXrXqXqXrXqXrXqXrXrXrXbXrXrXyXbXrXaXaXaXrXrXbXaXaXaXbXbXbXGXbXrXbXbXbXbXGXaXbXbXJXaXbXaXbXbXbXbXbXbXbXbXGXGXbXbXaXbXiXbXpXiXbXrXyXrXbXiXiXbXbXiXrXaXbXaXaXbXbXbXbXaXrXbXbXbXbXaXbXbXaXrXbXbXrXbXbXaXrXaXrXrXrXrXiXrXrXbXbXbXbXbXbXyXbXbXbXbXiXbXGXbXbXbXbXbXbXaXrXrXrXrXbXbXbXbXbXbXbXbXbXbXGXbXbXFXbXbXbXaXaXbXbXbXaXbXbXaXbXbXaXaX",
"rXrXrXyXbXbXGXbXbXbXbXaXrXaXbXbXbXbXbXbXGXJXJXbXbXbXbXFXLXaXyXGXbXbXbXbXbXGXGXGXbXaXbXbXrXrXaXaXbXbXbXbXbXbXbXbXbXFXbXbXbXbXbXbXbXbXaXaXbXbXbXbXrXbXbXbXbXbXrXrXrX6XpXrXbXbXbXiXbXbXrXtXtXrXrXrXrXrXrX5XqXqXrXrXrXbXyXyXyXaXbXbXbXbXrXrXaXbXaXaXbXbXaXbXbXbXbXbXbXbXbXFXbXbXbXbXbXaXFXFXyXbXbXbXbXbXbXbXbXbXbXiXpXpXrXrXbXbXrXaXrXiXiXiXrXiXbXaXaXbXbXbXbXGXbXbXbXbXbXbXaXaXbXbXbXaXbXbXbXbXbXbXbXbXbXiXrXrXbXbXrXbXbXbXuXuXbXbXuXbXJXrXbXbXbXbXbXbXGXaXaXaXrXrXrXrXbXbXbXbXbXbXbXbXrXbXbXbXbXbXbXbXbXbXaXbXbXaXaXaXbXaXbXbXrXbX",
"bXuXrXeXrXbXbXbXbXbXGXyXrXrXrXyXrXbXbXbXGXGXGXbXrXbXbXGXGXFXJXFXFXbXGXGXGXGXJXJXJXJXFXbXbXbXbXbXbXJXGXGXbXrXGXGXbXbXrXbXbXbXaXbXbXGXbXbXbXbXbXbXbXrXbXaXrXrXrXrXiX5XrX6XbXiXrXbXrXrXrXrXrXrXtXrXrXpXrXrXrXrXrXtXrXrXrXbXbXbXrXaXbXbXaXrXbXbXbXbXbXGXaXaXaXbXbXbXbXbXFXrXrXrXrXbXaXaXJXbXbXbXbXaXyXaXJXbXbXbXbXrXiXbXiXbXyXrXrXyXrXbXiXrXrXpXbXrXbXbXaXbXbXbXbXbXbXbXbXbXbXbXbXbXbXbXbXbXaXrXbXrXbXbXbXbXbXbXbXbXrXrXrXbXbXbXbXbXbXyXbXrXbXbXGXbXbXFXPXJXaXbXaXrXyXrXbXFXbXrX6XbXZXbXbXbXbXbXbXbXbXbXbXbXrXaXbXrXrXaXyXrXrXbXaXrX",
"rXrXrXrXrXbXbXrXbXuXrXyXrXrXrXrXbXyXJXbXaXbXbXaXrXrXbXJXLXPXJXFXbXGXJXJXJXGXGXaXbXGXJXbX8XrXaXbXbXbXbXbXbXbXbXbXaXGXFXbXbXbXyXyXuXbXbXbXbXbXbXbXaXbXbXaXrXbXbXbXbXiXiXiXrXrXbXbXrXrXrXrXrXrX5X5X5XrXrXrXrXqX5XrXrXrXbXbXbXbXrXrXaXaXaXaXbXbXbXbXbXGXbXbXyXyXaXrXbXbXbXbXbXbXbXGXbXGXGXbXbXrXbXrX8XbXbXFXbXbXbXbXrXbXpXrXrXbXyXyXrXrXbXrXrXbXbXbXbXyXbXrXrXbXbXbXbXbXbXrXaXbXbXbXaXGXGXbXbXaXrXrXrXbXbXbXbXbXrXiXbXbXrXbXbXbXyXuXbXbXJXbXbXbXbXJXbXbXaXbXbXbXbXyXbXbXbXbXbX5X5XbXbXbXbXbXbXbXbXbXbXaXbXbXbXbXbXaXrXrXrXrXrXrX5X8X",
"rXrXrXrXrXtXtXtXbXrXeXbXbXrXaXbXbXbXJXJXGXGXbXaXrXaXaXFXPXGXbXLXLXJXbXbXJXJXGXaXaXFXbXbXbXaXaXrXrX8X8XrXbXJXbXGXbXbXbXaXrXbXbXrXaXGXFXbXbXrXbXbXbXaXyXbXbXbXbXbXbXrXbXbXbXrXrXbXrXrXtXbXtXrXrX5X5XrXrXpXtXrXqXrXrXrXrXrXaXbXbXrXrXbXbXbXbXrXbXaXaXaXbXbXrXaXrXaXyXbXbXJXGXFXbXFXFXbXbXbXrXbXbXJXrXrXbXbXbXGXJXZXiXiXiXrXyXyXbXrXrXbXrXaXbXrXbXbXbXbXaXrXyXrXrXbXbXaXiXrXaXbXiXaXaXbXbXbXJXbXrXuXrXbXbXbXbXrXbXbXbXbXrXbXbXbXbXbXbXbXbXrXbXbXbXaXbXGXbXaXbXbXbXrXrXrXbXrXrXbXbXbXbXbXbXbXbXbXbXbXaXaXaXbXbXbXbXbXrXrXaXbXbXaX5X8X",
"qXrXqX5XrXqXqXrXrXqXrXrXbXbXbXbXbXGXJXJXPXPXaXaXbXbXbXbXLXPXLXGXFXGXbXbXbXJXbXbXbXbXbXyXbXbXrXrX8X5XaXbXbXbXbXbXFXbXbXrXbXbXbXJXbXGXbXaXrXbXJXGXrXrXaXrXbXGXbXFXbXbXbXbXbXaXrXaXbXbXbXrXbXrX5XqXqXtXqXpXrXtXqXrXrXrXrXrXrXbXaXbXbXbXrXrXaXbXaXrXbXbXbXyXrXaXaXbXaXbXbXbXbXJXbXGXGXrXbXbXbXbXbXJXaXaXGXbXbXJXZXbXbXiXiXrXuXuXrXrXrXbXyXrXrXrXrXrXbXbXrXbXrXbXbXrXaXaXiXbXbXbXbXbXbXiXbXiXZXbXrXbXbXrXbXbXbXbXaXbXbXbXbXbXbXrXbXbXbXbXbXbXbXbXbXJXbXbXbXyXbXbXrXrXrXiXbXbXbXrXbXGXbXaXbXbXbXbXbXbXbXbXbXbXbXbXbXaXrXrXbXbXbXbX8XrX",
"tXtX5X4XJXrX5X5XrXrXrXrXrXbXbXbXbXbXaXbXJXJXGXaXbXbXbXbXaXPXLXGXLXGXbXbXrXbXbXaXbXGXrX8XrXbXbXaXrXbXbXbXFXrXrXbXyXrXaXaXaXrXrXbXGXbXbXbXbXrXJXbXrXbXbXrXrXrXbXbXbXbXbXbXbXbXbXrXJXbXbXbXtX5X4XqX>X>XtXtXrXtX4XqXrXrXrXbXbXbXbXaXJXrXrXbXbXbXaXrXbXbXaXbXbXrXrXaXaXbXbXbXbXJXbXGXbXbXbXbXbXGXJXbXbXbXaXbXbXGXbXbXZXbXpXrXrXrXrXrXbXbXbXrXrXrXrXrXrXuXbXrXrXrXaXbXrXaXrXiXbXbXbXbXpXbXiXiXbXFXaXiXiXpXbXrXbXbXbXbXbXbXbXbXbXuXyXaXbXbXbXGXbXbXbXbXbXaXaXbXbXrXrXrXrXiXZXbXaXbXbXbXrXrXbXbXbXbXbXbXbXbXbXrXbXbXbXbXbXrXaXbXbXaXrXaX",
"tXrXrXbXrXrXtXrXrXpXrXrXrXbXbXbXaX5X9XaXGXJXJXGXbXbXaXbXbXLXGXJXPXGXFXbXbXbXbXrXaXJXaX8XrXbXbXbXrXbXbXrXbXaXbXbXrXrXrXbXbXaXbXbXJXbXrXbXrXqXrXrXrXrXrXrXrXrXbXbXbXrXbXbXbXbXbXbXbXbXbXrXrXtX5X>XUX%X3XtXrXtX5XqXrXrXrXaXbXbXrXbXbXbXrXbXbXrXbXGXaXrXbXbXbXbXrXaXrXyXbXbXbXbXJXGXbXrXrXaXGXJXJXbXbXGXbXbXbXGXJXbXbXZXbXbXyXrXbXbXrXrXbXuXbXrXrXbXyXrXuXuXrXaXaXrXrXrXiXiXiXbXpXpXiXrXiXpXpXaXbXbXrXiXbXrXbXbXbXbXbXbXbXbXbXbXbXbXbXbXaXJXFXGXbXbXbXrXbXbXrXbXbXiXiXrXrXrXbXbXaXaXaXbXbXbXbXbXbXbXbXbXbXbXaXbXbXbXbXrXrXbXrXbXrXrX",
"tXrXtXrX5XrXrXrXtXtXtXrXrXbXaXaXaXbXbXaXbXJXGXLXPXGXbXbXaXFXaXGXFXbXbXbXbXFXbXbXbXyXbXaXrXrXaXbXbXbXrXbXJXJXrXbXbXrXbXbXFXaXrXbXbXrXbXrXpXrXrXrXrXrXaXrXrXaXuXbXyXrXyXyXbXrXrXrXrXbXrXrXrXrXrXqX4X3XqXqXrXtX5XqXrXrXrXrXbXrXaXrXbXbXGXaXbXrXbXaXbXaXbXbXbXbXrXrXrXyXaXbXbXbXbXGXGXbXaXbXJXFXJXFXbXbXbXbXbXbXZXbXbXbXbXbXbXyXbXuXrXbXbXuXbXbXuXrXbXyXrXrXuXrXrXrXrXrXrXrXrXbXbXbXiXbXrXiXbXrXaXbXbXbXSXrX5XbXtXuXuXuXrXbXbXuXbXbXrXbXrXbXGXGXbXGXGXbXGXbXaXFXbXiXiXrXbXbXbXbXrXrXaXbXbXaXbXbXbXbXbXbXbXbXbXaXbXbXbXaXrXaXrXbXrXrX",
"rXbXrXqXrXrXrXrXbXrXrXaXrXaXrXrXaXbXbXbXbXbXGXaXbXJXJXJXbXGXGXGXGXbXGXbXbXbXbXbXbXbXbXbXrXrXrXrXbXbXrXrXGXbXaXaXaXbXGXbXbXbXrXrXaXbXbXbXbXqXrXbXaXaXbXbXbXrXbXbXbXFXyXbXbXrX8XrXbXbXbXbXbX5X5X5XrXrXrXrXpXpXqXqXrXrXrXrXbXaXbXrXrXrXrXrXbXrXaXaXaXbXbXaXaXbXrXrXrXrXyXrXrXbXbXbXbXbXGXbXbXJXJXbXFXJXJXbXbXaXbXJXbXiXbXbXrXrXbXbXrXbXuXuXuXrXbXrXrXrXbXrXbXrXrXbXaXbXbXbXrXrXbXbXbXbXpXbXbXaXaXbXbXZXbXrXrXrXrXtXyXbXbXuXrXrXrXrXaXbX8XbXGXZXFXFXbXbXJXJXbXbXbXrXrXrXbXbXbXrXbXrXrXrXaXbXbXbXGXbXbXbXbXbXaXaXbXbXbXbXrXbXbXbXaXbX"
};
