/* XPM */
static char *result[] = {
/* columns rows colors chars-per-pixel */
"102 97 160 2 ",
"   c gray5",
".  c #0E0E0E",
"X  c gray6",
"o  c #101010",
"O  c #111111",
"+  c gray7",
"@  c #131313",
"#  c gray8",
"$  c #151515",
"%  c #161616",
"&  c gray9",
"*  c #181818",
"=  c #191919",
"-  c gray10",
";  c #1B1B1B",
":  c gray11",
">  c #1D1D1D",
",  c #1E1E1E",
"<  c gray12",
"1  c #202020",
"2  c gray13",
"3  c #222222",
"4  c #232323",
"5  c gray14",
"6  c #252525",
"7  c gray15",
"8  c #272727",
"9  c #282828",
"0  c gray16",
"q  c #2A2A2A",
"w  c gray17",
"e  c #2C2C2C",
"r  c #2D2D2D",
"t  c gray18",
"y  c #2F2F2F",
"u  c gray19",
"i  c #313131",
"p  c #323232",
"a  c gray20",
"s  c #343434",
"d  c #353535",
"f  c gray21",
"g  c #373737",
"h  c gray22",
"j  c #393939",
"k  c #3A3A3A",
"l  c gray23",
"z  c #3C3C3C",
"x  c gray24",
"c  c #3E3E3E",
"v  c #3F3F3F",
"b  c gray25",
"n  c #414141",
"m  c gray26",
"M  c #434343",
"N  c #444444",
"B  c gray27",
"V  c #464646",
"C  c gray28",
"Z  c #484848",
"A  c #494949",
"S  c gray29",
"D  c #4B4B4B",
"F  c gray30",
"G  c #4E4E4E",
"H  c gray31",
"J  c #505050",
"K  c #515151",
"L  c gray32",
"P  c #535353",
"I  c gray33",
"U  c #555555",
"Y  c #565656",
"T  c gray34",
"R  c #585858",
"E  c gray35",
"W  c #5A5A5A",
"Q  c #5B5B5B",
"!  c gray36",
"~  c #5D5D5D",
"^  c gray37",
"/  c #5F5F5F",
"(  c #606060",
")  c gray38",
"_  c #626262",
"`  c gray39",
"'  c #646464",
"]  c #656565",
"[  c gray40",
"{  c #676767",
"}  c #686868",
"|  c DimGray",
" . c #6A6A6A",
".. c gray42",
"X. c #6C6C6C",
"o. c #6D6D6D",
"O. c gray43",
"+. c #6F6F6F",
"@. c gray44",
"#. c #717171",
"$. c #727272",
"%. c gray45",
"&. c #747474",
"*. c gray46",
"=. c #767676",
"-. c gray47",
";. c #797979",
":. c gray48",
">. c #7B7B7B",
",. c #7C7C7C",
"<. c #808080",
"1. c #818181",
"2. c gray51",
"3. c #848484",
"4. c gray55",
"5. c gray57",
"6. c gray61",
"7. c #9D9D9D",
"8. c gray63",
"9. c gray64",
"0. c #A5A5A5",
"q. c gray66",
"w. c #A9A9A9",
"e. c #ACACAC",
"r. c #B1B1B1",
"t. c gray70",
"y. c gray71",
"u. c #B6B6B6",
"i. c #BBBBBB",
"p. c #C3C3C3",
"a. c gray77",
"s. c gray78",
"d. c #C8C8C8",
"f. c #CACACA",
"g. c #D0D0D0",
"h. c LightGray",
"j. c gray83",
"k. c gray84",
"l. c #D8D8D8",
"z. c gray85",
"x. c gray87",
"c. c #E2E2E2",
"v. c #E4E4E4",
"b. c gray90",
"n. c #E7E7E7",
"m. c gray91",
"M. c #E9E9E9",
"N. c #EAEAEA",
"B. c #ECECEC",
"V. c gray93",
"C. c gray94",
"Z. c gray95",
"A. c #F4F4F4",
"S. c gray96",
"D. c #F6F6F6",
"F. c #F8F8F8",
"G. c gray98",
"H. c #FBFBFB",
"J. c #FDFDFD",
"K. c white",
/* pixels */
"* ; , = = = = = = = = : = % % * - * % , , , , , , , , , , , , , , , , < , , , , > > > ; ; ; ; ; ; ; ; : : : : : : : : ; ; ; ; : : : : , , , , , , , , , , , , , , , , : > > , , , , , = = = = = = = = < * * ",
"& # ; ; ; ; ; ; ; ; ; ; > > : = = > 1 & & & & & & & & & & & & & & & & * * & & & & % % & & & & & & & & * * * * * * * * * * * * * * * * & & & & & & & & & & & & & & & & * & & & * * & & - - - - - - - - 4 - & ",
"* * ; - - - - - - - - + $ * ; ; - * & ; ; ; ; ; ; ; ; ; ; ; ; ; ; ; ; ; ; ; ; ; - - - > > > > > > > > > > > > > > > > : : : : : ; ; ; ; ; ; ; ; ; ; ; ; ; ; ; ; ; ; ; ; - = = ; : : ; : : : : : : : : - * % ",
"1 1 = = = = = = = = = 6 , * * > 1 : & ; ; ; ; ; ; ; ; ; ; ; ; ; ; ; ; : ; ; ; ; - - - = = = = = = = = * * * * * * * * * * * * * * * * ; ; ; ; ; ; ; ; ; ; ; ; ; ; ; ; : ; ; : , , ; = - - - - - - - - - : > ",
"; = $ - - - - - - - - = * = : 2 6 7 7 6 6 6 6 6 6 6 6 6 6 6 6 6 6 6 6 6 6 6 5 5 5 5 4 7 7 7 7 7 7 7 7 6 6 6 6 6 6 6 6 8 8 8 8 8 8 8 9 6 6 6 6 6 6 6 6 6 6 6 6 6 6 6 6 6 6 7 9 8 3 - @ = = = = = = = = = * - ",
"$ $ 2 - - - - - - - - 4 j U [ | }  .O.................................X.X......... . . . . . . . . . . . . . . . . . ...........X.X.X.................................| | ....} ^ J V - - - - - - - - : $ & ",
"# 5 > - & : > $ % 7 p ( X.O.@.+.[ } o. . . . . . . . . . . . . . . . . . . . . . . . . . . . . . . . . . . . . . . . . . . . . . . . . . . . . . . . . . . . . . . . ...X...|  .o.o. .Q h 4 % 3 * # - -   3 ",
"* + # : - = % $ 8 M P { o.{ ` {  .X. . . . . . . . . . . . . . . . . . . . . . . . . . . . . . . . . . . . . . . . . . . . . . . . . . . . . . . . . . . . . . . . . .' }  .| | | { ' +.E c & $ = 1 - , > - ",
"w + : - : & O , b ( +.X.$.@. .X.%.@.} X.X.X.X.X.X.X.X.X.X.X.X.X.X.X.X.X.X.X.X.X.X.X.X.X.X.X.X.X.X.X.X.X.X.X.X.X.X.X.X.X.X.X.X.X.X.X.X.X.X.X.X.X.X.X.X.X.X.X.X.X.X.X.X...+.@.O.X.O.+.+.X.@.' p ; - 5 @ $ < & ",
"A 3 , $ : * % u T o.@.| ' ' E K P J G G G G G G G G G G G G G G G G G G G G G G G G G G G G G G G G G G G G G G G G G G G G G G G G G G G G G G G G G G G G G G G G G L P K H J R ` X.( +.=.U i % , % % & 1 ",
") i O $ ; & , B } O.} @.J N g e t r s u u u u u u u u u u u u u u u u u u u u u u u u u u u u u u u u u u u u u u u u u u u u u u u u u u u u u u u u u u u u u u u u y t r e u k A I o.| ..{ D $ = 2 6 $ s ",
" .Z & - ; $ 8 U #.O.| | k p y r a w y y y y y y y y y y y y y y y y y y y y y y y y y y y y y y y y y y y y y y y y y y y y y y y y y y y y y y y y y y y y y y y y y u y t r r y d z $.} _ @.[ 2 $ > 3 + D ",
"O.W 3 : = $ u ) $. .o.D 6 t p u j t r u u u u u u u u u u u u u u u u u u u u u u u u u u u u u u u u u u u u u u u u u u u u u u u u u u u u u u u u u u u u u u u u f a p a u e q e Y  .} #.o.0 % & * @ / ",
"#.Q = ; & % g } @.] O.m 8 j p 7 a y a u u u u u u u u u u u u u u u u u u u u u u u u u u u u u u u u u u u u u u u u u u u u u u u u u u u u u u u u u u u u u u u u i r r i a i u p g O.$.{ / 7 : , > - } ",
".. .- ; : = s  .......i i i i i i i i u u u u u u u u u u u u u u u u u u u u u u u u u u u u u u u u u u u u u u u u u u u u u u u u u u u u u u u u u u u u u u u u u u u u u u u u a ..X. ...w = ; : * O.",
".. .- ; : = s  .......i i i i i i i i u u u u u u u u u u u u u u u u u u u u u u u u u u u u u u u u u u u u u u u u u u u u u u u u u u u u u u u u u u u u u u u u u u u u u u u u a ..X. ...w = ; : * O.",
".. .- ; : = s  .......i i i i i i i i u u u u u u u u u u u u u u u u u u u u u u u u u u u u u u u u u u u u u u u u u u u u u u u u u u u u u u u u u u u u u u u u u u u u u u u u a ..X. ...w = ; : * O.",
".. .- ; : = s  .......i i i i i i i i u u u u u u u u u u u u u u u u u u u u u u u u u u u u u u u u u u u u u u u u u u u u u u u u u u u u u u u u u u u u u u u u u u u u u u u u a ..X. ...w = ; : * O.",
".. .- ; : = s  .......i i i i i i i i u u u u u u u u u u u u u u u u u u u u u u u u u u u u u u u u u u u u u u u u u u u u u u u u u u u u u u u u u u u u u u u u u u u u u u u u a ..X. ...w = ; : * O.",
".. .- ; : = s  .......i i i i i i i i u u u u u u u u u u u u u u u u u u u u u u u u u u u u u u u u u u u u u u u u u u u u u u u u u u u u u u u u u u u u u u u u u u u u u u u u a ..X. ...w = ; : * O.",
".. .- ; : = s  .......i i i i i i i i u u u u u u u u u u u u u u u u u u u u u u u u u u u u u u u u u u u u u u u u u u u u u u u u u u u u u u u u u u u u u u u u u u u u u u u u a ..X. ...w = ; : * O.",
".. .- ; : = s  .......i i i i i i i i u u u u u u u u u u u u u u u u u u u u u u u u u u u u u u u u u u u u u u u u u u u u u u u u u u u u u u u u u u u u u u u u u u u u u u u u a ..X. ...w = ; : * O.",
".. .- ; : = s  .......i i i i i i i i u u u u u u u u u u u u u u u u u u u u u u u u u u u u u u u u u u u u u u u u u u u u u u u u u u u u u u u u u u u u u u u u u u u u u u u u u O. . .o.e , - : * O.",
".. .- ; : = s  .......i i i i i i i i u u u u u u u u u u u u u u u u u u u u u u u u u u u u u u u u u u u u u u u u u u u u u u u u u u u u u u u u u u u u u u u u u u u u u u u u u O. . .o.e , - : * O.",
".. .- ; : = s  .......i i i i i i i i u u u u u u u u u u u u u u u u u u u u u u u u u u u u u u u u u u u u u u u u u u u u u u u u u u u u u u u u u u u u u u u u u u u u u u u u u O. . .o.e , - : * O.",
".. .- ; : = s  .......i i i i i i i i u u u u u u u u u u u u u u u u u u u u u u u u u u u u u u u u u u u u u u u u u u u u u u u u u u u u u u u u u u u u u u u u u u u u u u u u u O. . .o.e , - : * O.",
".. .- ; : = s  .......i i i i i i i i u u u u u u u u u u u u u u u u u u u u u u u u u u u u u u u u u u u u u u u u u u u u u u u u u u u u u u u u u u u u u u u u u u u u u u u u u O. . .o.e , - : * O.",
".. .- ; : = s  .......i i i i i i i i u u u u u u u u u u u u u u u u u u u u u u u u u u u u u u u u u u u u u u u u u u u u u u u u u u u u u u u u u u u u u u u u u u u u u u u u u O. . .o.e , - : * O.",
".. .- ; : = s  .......i i i i i i i i u u u u u u u u u u u u u u u u u u u u u u u u u u u u u u u u u u u u u u u u u u u u u u u u u u u u u u u u u u u u u u u u u u u u u u u u u O. . .o.e , - : * O.",
".. .- ; : = s  .......i i i i i i i i u u u u u u u u u u u u u u u u u u u u u u u u u u u u u u u u u u u u u u u u u u u u u u u u u u u u u u u u u u u u u u u u u u u u u u u u u O. . .o.e , - : * O.",
".. .- ; : = s  .......i i i i i i i i u u u u u u u u u u u u u u u u u u u u u u u u u u u u u u u u u u u u u u u u u u u u u u u u u u u u u u u u u u u u u u u u u u u u u u u u u O. . .o.e , - : * O.",
".. .- ; : = s  .......i i i i i i i i u u u u u u u u u u u u u u u u u u u u u u u u u u u u u u u u u u u u u u u u u u u u u u u u u u u u u u u u u u u u u u u u u u u u u u u u u O. . .o.e , - : * O.",
".. .- ; : = s  .......i i i i i i i i u u u u u u u u u u u u u u u u u u u u u u u u u u u u u u u u u u u u u u u u u u u u u u u u u u u u u u u u u u u u u u u u u u u u u u u u u O. . .o.e , - : * O.",
".. .- ; : = s  .......i i i i i i i i u u u u u u u u u u u u u u u u u u u u u u u u u u u u u u u u u u u u u u u u u u u u u u u u u u u u u u u u u u u u u u u u u u u u u u u u u O. . .o.e , - : * O.",
".. .- ; : = s  .......i i i i i i i i u u u u u u u u u u u u u u u u u u u u u u u u u u u u u u u u u u u u u u u u u u u u u u u u u u u u u u u u u u u u u u u u u u u u u u u u u O. . .o.e , - : * O.",
".. .- ; : = s  .......i i i i i i i i u u u u u u u u u u u u u u u u u u u u u u u u u u u u u u u u u u u u u u u u u u u u u u u u u u u u u u u u u u u u u u u u u u u u u u u u u O. . .o.e , - : * O.",
".. .- ; : = s  .......i i i i i i i i u u u u u u u u u u u u u u u u u u u u u u u u u u u u u u u u u u u u u u u u u u u u u u u u u u u u u u u u u u u u u u u u u u u u u u u u u O. . .o.e , - : * O.",
".. .- ; : = s  .......i i i i i i i i u u u u u u u u u u u u u u u u u u u u u u u u u u u u u u u u u u u u u u u u u u u u u u u u u u u u u u u u u u u u u u u u u u u u u u u u u O. . .o.e , - : * O.",
".. .- ; : = s  .......i i i i i i i i u u u u u u u u u u u u u u u u u u u u u u u u q w y s p t y d d u t i i r e y u u u u u u u u u u u u u u u u u u u u u u u u u u u u u u u u u O. . .o.e , - : * O.",
".. .- ; : = s  .......i i i i i i i i u u u u u u u u u u u u u u u u u u u u u u u u n d 0 0 i d y 8 5 w i i y y a h u u u u u u u u u u u u u u u u u u u u u u u u u u u u u u u u u O. . .o.e , - : * O.",
".. .- ; : = s  .......i i i i i i i i u u u u u u u u u u u u u u u u u u u u u u u u q e u p y r p k v p 0 r s s t 0 u u u u u u u u u u u u u u u u u u u u u u u u u u u u u u u u u O. . .o.e , - : * O.",
".. .- ; : = s  .......i i i i i i i i u u u u u u u u u u u u u u u u u u u u u u u u r e u h h t 7 7 9 0 u f s r t d u u u u u u u u u u u u u u u u u u u u u u u u u u u u u u u u u O. . .o.e , - : * O.",
".. .- ; : = s  .......i i i i i i i i u u u u u u u u u u u u u u u u u u u u u u u u s h p 7 6 u h g u d p 8 6 t a p u u u u u u u u u u u u u u u u u u u u u u u u u u u u u u u u u O. . .o.e , - : * O.",
".. .- ; : = s  .......i i i i i i i i u u u u u u u u u u u u u u u u u u u u u u u u 0 s y 6 n <.t.p.a.r.,.c 5 y p 6 u u u u u u u u u u u u u u u u u u u u u u u u u u u u u u u u u O. . .o.e , - : * O.",
".. .- ; : = s  .......i i i i i i i i u u u u u u u u u u u u u u u u u u u u u u u u f q s X.i.A.K.S.J.K.C.y.{ a e j u u u u u u u u u u u u u u u u u u u u u u u u u u u u u u u u u O. . .o.e , - : * O.",
".. .- ; : = s  .......i i i i i i i i u u u u u u u u u u u u u u u u u u u u u u u u i 7 W f.K.D.u.5.4.u.G.K.s.I 3 p u u u u u u u u u u u u u u u u u u u u u u u u u u u u u u u u u O. . .o.e , - : * O.",
".. .- ; : = s  .......i i i i i i i i u u u u u u u u u u u u u u u u u u u u u u u u a e d.K.N.O.r y 7 p %.C.F.d.0 d u u u u u u u u u u u u u u u u u u u u u u u u u u u u u u u u u O. . .o.e , - : * O.",
".. .- ; : = s  .......i i i i i i i i u u u u u u u u u u u u u u u u u u u u u u u u i T B.H.7.Z t t t q b 9.G.M.D r u u u u u u u u u u u u u u u u u u u u u u u u u u u u u u u u u O. . .o.e , - : * O.",
".. .- ; : = s  .......i i i i i i i i u u u u u u u u u u u u u u u u u u u u u u u u i 3.K.A.G 8 i p a r 2 Y F.K.-.q u u u u u u u u u u u u u u u u u u u u u u u u u u u u u u u u u O. . .o.e , - : * O.",
".. .- ; : = s  .......i i i i i i i i u u u u u u u u u u u u u u u u u u u u u u u u a 7.K.m.e 5 a f p h t g V.K.6.i u u u u u u u u u u u u u u u u u u u u u u u u u u u u u u u u u O. . .o.e , - : * O.",
".. .- ; : = s  .......i i i i i i i i u u u u u u u u u u u u u u u u u u u u u u u u s q.H.l.9 t p a y s h a c.K.e.f u u u u u u u u u u u u u u u u u u u u u u u u u u u u u u u u u O. . .o.e , - : * O.",
".. .- ; : = s  .......i i i i i i i i u u u u u u u u u u u u u u u u u u u u u u u u s 9.K.h.p u u e i 7 q h v.K.8.a u u u u u u u u u u u u u u u u u u u u u u u u u u u u u u u u u O. . .o.e , - : * O.",
".. .- ; : = s  .......i i i i i i i i u u u u u u u u u u u u u u u u u u u u u u u u a 2.K.b.F r u e s 7 6 G Z.K.>.t u u u u u u u u u u u u u u u u u u u u u u u u u u u u u u u u u O. . .o.e , - : * O.",
".. .- ; : = s  .......i i i i i i i i u u u u u u u u u u u u u u u u u u u u u u u u s Q K.J.X.r a a d p i | K.K.T e u u u u u u u u u u u u u u u u u u u u u u u u u u u u u u u u u O. . .o.e , - : * O.",
".. .- ; : = s  .......i i i i i i i i u u u u u u u u u u u u u u u u u u u u u u u u 6 Q a.K.g.P < l u , R z.K.p.I 4 u u u u u u u u u u u u u u u u u u u u u u u u u u u u u u u u u O. . .o.e , - : * O.",
".. .- ; : = s  .......i i i i i i i i u u u u u u u u u u u u u u u u u u u u u u u u 5 y -.M.K.h. .w e +.j.K.b.&.t e u u u u u u u u u u u u u u u u u u u u u u u u u u u u u u u u u O. . .o.e , - : * O.",
".. .- ; : = s  .......i i i i i i i i u u u u u u u u u u u u u u u u u u u u u u u u j 4 p <.x.K.K.n.M.K.K.k.1.h 5 f u u u u u u u u u u u u u u u u u u u u u u u u u u u u u u u u u O. . .o.e , - : * O.",
".. .- ; : = s  .......i i i i i i i i u u u u u u u u u u u u u u u u u u u u u u u u t e 0 s / 0.m.K.K.B.w.~ f t w 9 u u u u u u u u u u u u u u u u u u u u u u u u u u u u u u u u u O. . .o.e , - : * O.",
".. .- ; : = s  .......i i i i i i i i u u u u u u u u u u u u u u u u u u u u u u u u u h j y 0 p b C c Z x 7 5 i j k u u u u u u u u u u u u u u u u u u u u u u u u u u u u u u u u u O. . .o.e , - : * O.",
".. .- ; : = s  .......i i i i i i i i u u u u u u u u u u u u u u u u u u u u u u u u 5 6 7 w i a t 8 8 s s q 7 6 7 0 u u u u u u u u u u u u u u u u u u u u u u u u u u u u u u u u u O. . .o.e , - : * O.",
".. .- ; : = s  .......i i i i i i i i u u u u u u u u u u u u u u u u u u u u u u u u j g a u t y i a s i q w g k d a u u u u u u u u u u u u u u u u u u u u u u u u u u u u u u u u u O. . .o.e , - : * O.",
".. .- ; : = s  .......i i i i i i i i u u u u u u u u u u u u u u u u u u u u u u u u e y i u y y u i w p a p i w q a u u u u u u u u u u u u u u u u u u u u u u u u u u u u u u u u u O. . .o.e , - : * O.",
".. .- ; : = s  .......i i i i i i i i u u u u u u u u u u u u u u u u u u u u u u u u u u u u u u u u u u u u u u u u u u u u u u u u u u u u u u u u u u u u u u u u u u u u u u u u u O. . .o.e , - : * O.",
".. .- ; : = s  .......i i i i i i i i u u u u u u u u u u u u u u u u u u u u u u u u u u u u u u u u u u u u u u u u u u u u u u u u u u u u u u u u u u u u u u u u u u u u u u u u u O. . .o.e , - : * O.",
".. .- ; : = s  .......i i i i i i i i u u u u u u u u u u u u u u u u u u u u u u u u u u u u u u u u u u u u u u u u u u u u u u u u u u u u u u u u u u u u u u u u u u u u u u u u u O. . .o.e , - : * O.",
".. .- ; : = s  .......i i i i i i i i u u u u u u u u u u u u u u u u u u u u u u u u u u u u u u u u u u u u u u u u u u u u u u u u u u u u u u u u u u u u u u u u u u u u u u u u u O. . .o.e , - : * O.",
".. .- ; : = s  .......i i i i i i i i u u u u u u u u u u u u u u u u u u u u u u u u u u u u u u u u u u u u u u u u u u u u u u u u u u u u u u u u u u u u u u u u u u u u u u u u u O. . .o.e , - : * O.",
".. .- ; : = s  .......i i i i i i i i u u u u u u u u u u u u u u u u u u u u u u u u u u u u u u u u u u u u u u u u u u u u u u u u u u u u u u u u u u u u u u u u u u u u u u u u u O. . .o.e , - : * O.",
".. .- ; : = s  .......i i i i i i i i u u u u u u u u u u u u u u u u u u u u u u u u u u u u u u u u u u u u u u u u u u u u u u u u u u u u u u u u u u u u u u u u u u u u u u u u u O. . .o.e , - : * O.",
".. .- ; : = s  .......i i i i i i i i u u u u u u u u u u u u u u u u u u u u u u u u u u u u u u u u u u u u u u u u u u u u u u u u u u u u u u u u u u u u u u u u u u u u u u u u u O. . .o.e , - : * O.",
".. .- ; : = s  .......i i i i i i i i u u u u u u u u u u u u u u u u u u u u u u u u u u u u u u u u u u u u u u u u u u u u u u u u u u u u u u u u u u u u u u u u u u u u u u u u u O. . .o.e , - : * O.",
".. .- ; : = s  .......i i i i i i i i u u u u u u u u u u u u u u u u u u u u u u u u u u u u u u u u u u u u u u u u u u u u u u u u u u u u u u u u u u u u u u u u u u u u u u u u u O. . .o.e , - : * O.",
".. .- ; : = s  .......i i i i i i i i u u u u u u u u u u u u u u u u u u u u u u u u u u u u u u u u u u u u u u u u u u u u u u u u u u u u u u u u u u u u u u u u u u u u u u u u u O. . .o.e , - : * O.",
".. .- ; : = s  .......i i i i i i i i u u u u u u u u u u u u u u u u u u u u u u u u u u u u u u u u u u u u u u u u u u u u u u u u u u u u u u u u u u u u u u u u u u u u u u u u u O. . .o.e , - : * O.",
".. .- ; : = s  .......i i i i i i i i u u u u u u u u u u u u u u u u u u u u u u u u u u u u u u u u u u u u u u u u u u u u u u u u u u u u u u u u u u u u u u u u u u u u u u u u u O. . .o.e , - : * O.",
".. .- ; : = s  .......i i i i i i i i u u u u u u u u u u u u u u u u u u u u u u u u u u u u u u u u u u u u u u u u u u u u u u u u u u u u u u u u u u u u u u u u u u u u u u u u u O. . .o.e , - : * O.",
".. .- ; : = s  .......i i i i i i i i u u u u u u u u u u u u u u u u u u u u u u u u u u u u u u u u u u u u u u u u u u u u u u u u u u u u u u u u u u u u u u u u u u u u u u u u u O. . .o.e , - : * O.",
".. .- ; : = s  .......i i i i i i i i u u u u u u u u u u u u u u u u u u u u u u u u u u u u u u u u u u u u u u u u u u u u u u u u u u u u u u u u u u u u u u u u u u u u u u u u u O. . .o.e , - : * O.",
"{ +.& > - - d } ..O. .s u y i 5 s r p u u u u u u u u u u u u u u u u u u u u u u u u u u u u u u u u u u u u u u u u u u u u u u u u u u u u u u u u u u u u u u u u u u u u u u u u t O.[ X.#.8 ; , ; & o.",
"{ @.& > - - d | ..o...p u e s t a w y u u u u u u u u u u u u u u u u u u u u u u u u u u u u u u u u u u u u u u u u u u u u u u u u u u u u u u u u u u u u u u u u u u u u u u u u i O.] | O.9 - - ; * o.",
"{ #.* : : - s  ...X.X.i p 9 a s i w y u u u u u u u u u u u u u u u u u u u u u u u u u u u u u u u u u u u u u u u u u u u u u u u u u u u u u u u u u u u u u u u u u u u u u u u u s O.} } X.q : * ; - X.",
"} #.; ; > = p ..X. .X.t d 0 r p y u u u u u u u u u u u u u u u u u u u u u u u u u u u u u u u u u u u u u u u u u u u u u u u u u u u u u u u u u u u u u u u u u u u u u u u u u u d X.X.....r , - : :  .",
"| X.> = < * u X.X.} o.e a u w y u a t u u u u u u u u u u u u u u u u u u u u u u u u u u u u u u u u u u u u u u u u u u u u u u u u u u u u u u u u u u u u u u u u u u u u u u u u f { O.O. .r > : : , { ",
"| ' , * < & t o...[ o.a w h y y s p q u u u u u u u u u u u u u u u u u u u u u u u u u u u u u u u u u u u u u u u u u u u u u u u u u u u u u u u u u u u u u u u u u u u u u u u u c ` X.O.} q = : ; , ` ",
"| W > % 1 % e o. .` o.D 4 j u t d u r u u u u u u u u u u u u u u u u u u u u u u u u u u u u u u u u u u u u u u u u u u u u u u u u u u u u u u u u u u u u u u u u u u u u u u u u J ]  .O.} q % ; * : / ",
"} P ; $ 1 $ w o. ._ X.` < f r q a y s u u u u u u u u u u u u u u u u u u u u u u u u u u u u u u u u u u u u u u u u u u u u u u u u u u u u u u u u u u u u u u u u u u u u u u u u )  . .O.| w % ; & ; ~ ",
"O.s - & - < % U ;.L #.X.J d r y u u p i i i i i i i i i i i i i i i i i i i i i i i i i i i i i i i i i i i i i i i i i i i i i i i i i i i i i i i i i i i i i i i i y x a q u 0 u L &.) ` :.F ; 3 o , & x ",
"P 4 & , . 1 & t O.%.[ | { W B g d p e p p p p p p p p p p p p p p p p p p p p p p p p p p p p p p p p p p p p p p p p p p p p p p p p p p p p p p p p p p p p p p p p i g u i m D I  . .o. .' i X 3 = * # u ",
"c - > 1   < * @ H -.} | o...[ } @.#...................................................................................................................................o.O...} ..o... .' *.{ S 1 . 1 & ; $ & ",
"3 O : - - ; ; * 8 H ..$.| ] | | ' ] ..| | | | | | | | | | | | | | | | | | | | | | | | | | | | | | | | | | | | | | | | | | | | | | | | | | | | | | | | | | | | | | | | ' { O.o.[  .+.{ X.X.D t : & < & : - + ",
"# $ : * 1 & > < + 8 F ] | $.*.X.) [ $.................................................................................................................................@...@.o.`  .#.[ { H 6 % - = : 1 & ; < ",
", 2 , : = % : - # : , m U [ ....o. .'  . . . . . . . . . . . . . . . . . . . . . . . . . . . . . . . . . . . . . . . . . . . . . . . . . . . . . . . . . . . . . . . ..._ { o.X.O.{ I x 9 $ & , & # > ; % > ",
"< = * > $ * = & : - O $ 3 p m T { { ^ / / / / / / / / / / / / / / / / / / / / / / / / / / / / / / / / / / / / / / / / / / / / / / / / / / / / / / / / / / / / / / / / _ E W ! U V p < = $ = , < ; # $ : - $ ",
"- o > = - ; % > : + 2 : * = > ; $ & < = = = = = = = = = = = = = = = = = = = = = = = = = = = = = = = = = = = = = = = = = = = = = = = = = = = = = = = = = = = = = = = = : = ; 1 > * & = * = , % # , , * X 7 : ",
"- - - - - - - - - - - = = = - ; ; - * # : 1 ; & = - * & : < > = * - ; & ; > ; - : > : - - - - - - - - - - - - - - - - - - - - - - - - - - - - - - - - - - - - - - - - - - - - - - - - - - - - - - - - - - - ",
"- - - - - - - - - - - : ; = = - ; ; - : % $ : 2 1 , > > & @ % = = - : % * = = - : ; & - - - - - - - - - - - - - - - - - - - - - - - - - - - - - - - - - - - - - - - - - - - - - - - - - - - - - - - - - - - ",
"- - - - - - - - - - - > : - - ; : > > - - = % O o % > 1 - - 2 4 , - - < , ; = - : - $ - - - - - - - - - - - - - - - - - - - - - - - - - - - - - - - - - - - - - - - - - - - - - - - - - - - - - - - - - - - "
};
