/* XPM */
static char *result[] = {
/* columns rows colors chars-per-pixel */
"100 97 121 2 ",
"   c #000100",
".  c #0B0C0C",
"X  c #11110F",
"o  c #141414",
"O  c #1B1B1B",
"+  c #042504",
"@  c gray14",
"#  c #262826",
"$  c #303030",
"%  c #393A36",
"&  c #3C3D3C",
"*  c #403F3F",
"=  c #034005",
"-  c #035203",
";  c #035A03",
":  c #026603",
">  c #047203",
",  c #057C05",
"<  c #396939",
"1  c #41413E",
"2  c #3F4140",
"3  c #444444",
"4  c #474847",
"5  c #494947",
"6  c #474A4A",
"7  c #4B4B4B",
"8  c #504F4D",
"9  c #51514E",
"0  c #4F4F51",
"q  c #504F50",
"w  c #4F5050",
"e  c #535353",
"r  c #585757",
"t  c #575856",
"y  c #595957",
"u  c #5B5B5B",
"i  c #437E43",
"p  c #5E605E",
"a  c #60615E",
"s  c #656564",
"d  c #686767",
"f  c #676866",
"g  c #696966",
"h  c #676768",
"j  c #696768",
"k  c #676968",
"l  c #6B6C6B",
"z  c #706F6D",
"x  c #6E706D",
"c  c #71726F",
"v  c #6F7170",
"b  c #737373",
"n  c #797977",
"m  c #777778",
"M  c #7D7D7C",
"N  c #038403",
"B  c #028A02",
"V  c #039B03",
"C  c #159A15",
"Z  c #208C1E",
"A  c #02A302",
"S  c #01AC01",
"D  c #02B303",
"F  c #00BB00",
"G  c #2EB82E",
"H  c #02C302",
"J  c #01CE02",
"K  c #02D402",
"L  c #02DD01",
"P  c #01E301",
"I  c #01EB01",
"U  c #00F700",
"Y  c green",
"T  c #579F58",
"R  c #4BA44B",
"E  c #4ABC4A",
"W  c #5FA35F",
"Q  c #4DC74D",
"!  c #4EC84E",
"~  c #50C84E",
"^  c #4FC850",
"/  c #50C850",
"(  c #80807F",
")  c #7F7F80",
"_  c #848483",
"`  c #888785",
"'  c #888887",
"]  c #8A8A8A",
"[  c #949493",
"{  c #989797",
"}  c #999997",
"|  c #98979B",
" . c #9A9A9A",
".. c #9EA09F",
"X. c #A4A5A4",
"o. c #A6A8A7",
"O. c #ADADAC",
"+. c #AFB0AC",
"@. c #B0B0AD",
"#. c #B3B4B3",
"$. c #B7B9B6",
"%. c #B7B8B8",
"&. c #BCBCBB",
"*. c #C0BFBD",
"=. c #BEC0BE",
"-. c #C0C0BE",
";. c #C3C4C3",
":. c #C9C9C7",
">. c #C7C7C8",
",. c #C9C7C8",
"<. c #CCCCCB",
"1. c #D1D1CE",
"2. c #D3D3D2",
"3. c gray85",
"4. c #DFE1E0",
"5. c #E5E5E4",
"6. c #ECECEC",
"7. c #EFF0F0",
"8. c #F3F4F3",
"9. c #F9FAF6",
"0. c #FDFDFD",
/* pixels */
"Y Y Y Y Y Y Y Y Y Y Y Y Y Y Y Y Y Y Y Y Y Y Y Y Y Y Y Y Y Y Y Y Y Y Y Y Y Y Y Y Y Y Y Y Y Y Y Y Y Y Y Y Y Y Y Y Y Y Y Y Y Y Y Y Y Y Y Y Y Y Y Y Y Y Y Y Y Y Y Y Y Y Y Y Y Y Y Y Y Y Y Y Y Y Y Y Y Y Y Y ",
"Y Y Y Y Y Y Y Y Y Y Y Y Y Y Y Y Y Y Y Y Y Y Y Y Y Y Y Y Y Y Y Y Y Y Y Y Y Y Y Y Y Y Y Y Y Y Y Y Y Y Y Y Y Y Y Y Y Y Y Y Y Y Y Y Y Y Y Y Y Y Y Y Y Y Y Y Y Y Y Y Y Y Y Y Y Y Y Y Y Y Y Y Y Y Y Y Y Y Y Y ",
"Y Y Y Y Y Y Y Y Y Y Y Y Y Y Y Y Y Y Y Y Y Y Y Y Y Y Y Y Y Y Y Y Y Y Y Y Y Y Y Y Y Y Y Y Y Y Y Y Y Y Y Y Y Y Y Y Y Y Y Y Y Y Y Y Y Y Y Y Y Y Y Y Y Y Y Y Y Y Y Y Y Y Y Y Y Y Y Y Y Y Y Y Y Y Y Y Y Y Y Y ",
"Y Y Y Y Y Y Y Y Y Y Y Y Y Y Y Y Y Y Y Y Y Y Y Y Y Y Y Y Y Y Y Y Y Y Y Y Y Y Y Y Y Y Y Y Y Y Y Y Y Y Y Y Y Y Y Y Y Y Y Y Y Y Y Y Y Y Y Y Y Y Y Y Y Y Y Y Y Y Y Y Y Y Y Y Y Y Y Y Y Y Y Y Y Y Y Y Y Y Y Y ",
"Y Y Y Y Y Y Y Y Y Y Y Y U F F F F F F F F F F F F F F F F F F F F F F F F F F F F F F F F F F F F F F F F F F F F F F F F F F F F F F F F F F F F F F F F F F F F F F K Y Y Y Y Y Y Y Y Y Y Y Y Y Y Y Y ",
"Y Y Y Y Y Y Y Y Y Y F       . o o o O o o o o o o o o o o o o o o o o o X o o X o o o X o o o o o o o o o o o o O o o o o o o O o o o o O o o o O o o o o O O o O X       N P Y Y Y Y Y Y Y Y Y Y Y Y Y ",
"Y Y Y Y Y Y Y Y P ,   @ 7 a f l b b l b x x z l l l l k l l l l l l l l l l l l l l l l j l l l l l l l l l l l l l l l l l z l l x l l l l l v z l l v b v v b v z s u 4 o   S Y Y Y Y Y Y Y Y Y Y Y Y ",
"Y Y Y Y Y Y Y P   . 8 s s f k l l x l l l l l g h k g k f s l j k g h j j h j h h j h j j k k s s j l h k k k k k k s j k j l s l j j j j l j l l l l l z v l l k j s f s h 3   B Y Y Y Y Y Y Y Y Y Y Y ",
"Y Y Y Y Y Y Y - @ p j f s s s s g k l l l z l l k j j l k k h f k h h k j j j h f h g j k k l l g s g k h k k g l s j k k k l j l h j h h l j j l l l j l b l j s s s s g k l e   B Y Y Y Y Y Y Y Y Y Y ",
"Y Y Y Y Y Y S X s k k k s s a u r r u u u u u u u u u u u t r r r u r r r u u r r r r r t t t y t u u u u u u u u u u u u u r u r r r r r r r r r r u r r r r r r a s s s g l z 9 , P Y Y Y Y Y Y Y Y Y ",
"Y Y Y Y Y I B W k l k s a 9 % % * 4 4 6 7 9 7 7 7 8 7 7 5 7 5 7 5 5 7 7 5 7 7 5 7 7 7 6 6 7 6 7 7 7 5 6 7 7 7 7 7 5 8 7 7 7 5 7 7 7 7 7 7 7 7 7 0 0 0 7 0 0 3 3 * $ * u l j l v b G V Y Y Y Y Y Y Y Y Y ",
"Y Y Y Y Y H Z x l l l j 1 % M ..{ -.O.&.<.<.<.1.1.<.<.<.<.<.,.,.<.:.<.:.;.,.&.:.-.;.=.%.&.=.-.#.&.;.;.#.#.%.&.&.$.&.#.*.;.;.-.&.%.#.*.O.#.&.;.&.*.,.*.;.;...X.O. .O.z % u l l l b W N I Y Y Y Y Y Y Y Y ",
"Y Y Y Y Y   e z l l x e 1 +.} & $ $ $ $ $ $ $ $ $ $ $ $ $ $ $ $ $ $ $ $ $ $ $ $ $ $ $ $ $ $ $ $ $ $ $ $ $ $ $ $ $ $ $ $ $ $ $ $ $ $ $ $ $ $ $ $ $ $ $ $ $ $ $ $ $ u :.` 1 s l v z b C F Y Y Y Y Y Y Y Y ",
"Y Y Y Y I   a z c c l 1 ..&.$ $ $ $ $ $ $ $ $ $ $ $ $ $ $ $ $ $ $ $ $ $ $ $ $ $ $ $ $ $ $ $ $ $ $ $ $ $ $ $ $ $ $ $ $ $ $ $ $ $ $ $ $ $ $ $ $ $ $ $ $ $ $ $ $ $ $ $ b 1.l e z z v v * > Y Y Y Y Y Y Y Y ",
"Y Y Y Y F   l l l c u e 1.c $ $ $ $ $ $ $ $ $ $ $ $ $ $ $ $ $ $ $ $ $ $ $ $ $ $ $ $ $ $ $ $ $ $ $ $ $ $ $ $ $ $ $ $ $ $ $ $ $ $ $ $ $ $ $ $ $ $ $ $ $ $ $ $ $ $ $ $ $ $.#.3 g z z l q   Y Y Y Y Y Y Y Y ",
"Y Y Y Y F ; g l l b 9 M 2.$ $ $ $ $ $ $ $ $ $ $ $ $ $ $ $ $ $ $ $ $ $ $ $ $ $ $ $ $ $ $ $ $ $ $ $ $ $ $ $ $ $ $ $ $ $ $ $ $ $ $ $ $ $ $ $ $ $ $ $ $ $ $ $ $ $ $ $ $ $  ...3 s l l l e   Y Y Y Y Y Y Y Y ",
"Y Y Y Y F : s l l v 0 ] 2.$ $ $ $ $ $ $ $ $ $ $ $ $ $ $ $ $ $ $ $ $ $ $ $ $ $ $ $ $ $ $ $ $ $ $ $ $ $ $ $ $ $ $ $ $ $ $ $ $ $ $ $ $ $ $ $ $ $ $ $ $ $ $ $ $ $ $ $ $ $ [ X.4 s l k k 7   Y Y Y Y Y Y Y Y ",
"Y Y Y Y F N l k l z 0 ] 2.$ $ $ $ $ $ $ $ $ $ $ $ $ $ $ $ $ $ $ $ $ $ $ $ $ $ $ $ $ $ $ $ $ $ $ $ $ $ $ $ $ $ $ $ $ $ $ $ $ $ $ $ $ $ $ $ $ $ $ $ $ $ $ $ $ $ $ $ $ $ }  .3 a l k j 0   Y Y Y Y Y Y Y Y ",
"Y Y Y Y F A k l l l 7 ] 2.$ $ $ $ $ $ $ $ $ $ $ $ $ $ $ $ $ $ $ $ $ $ $ $ $ $ $ $ $ $ $ $ $ $ $ $ $ $ $ $ $ $ $ $ $ $ $ $ $ $ $ $ $ $ $ $ $ $ $ $ $ $ $ $ $ $ $ $ $ $ [ ..1 a g k j 8   Y Y Y Y Y Y Y Y ",
"Y Y Y Y F S l l l l 5 ] 1.$ $ $ $ $ $ $ $ $ $ $ $ $ $ $ $ $ $ $ $ $ $ $ $ $ $ $ $ $ $ $ $ $ $ $ $ $ $ $ $ $ $ $ $ $ $ $ $ $ $ $ $ $ $ $ $ $ $ $ $ $ $ $ $ $ $ $ $ $ % ] ..1 u s j j 7   Y Y Y Y Y Y Y Y ",
"Y Y Y Y F A k l j k 7 ] <.$ $ $ $ $ $ $ $ $ $ $ $ $ $ $ $ $ $ $ $ $ $ $ $ $ $ $ $ $ $ $ $ $ $ $ $ $ $ $ $ $ $ $ $ $ $ $ $ $ $ $ $ $ $ $ $ $ $ $ $ $ $ $ $ $ $ $ $ $ $ [  .* t f j f 0   Y Y Y Y Y Y Y Y ",
"Y Y Y Y F S l k s j 6 ] <.$ $ $ $ $ $ $ $ $ $ $ $ $ $ $ $ $ $ $ $ $ $ $ $ $ $ $ $ $ $ $ $ $ $ $ $ $ $ $ $ $ $ $ $ $ $ $ $ $ $ $ $ $ $ $ $ $ $ $ $ $ $ $ $ $ $ $ $ $ $ ] } & u f f h 0   Y Y Y Y Y Y Y Y ",
"Y Y Y Y F F j l j h 4 ] <.$ $ $ $ $ $ $ $ $ $ $ $ $ $ $ $ $ $ $ $ $ $ $ $ $ $ $ $ $ $ $ $ $ $ $ $ $ $ $ $ $ $ $ $ $ $ $ $ $ $ $ $ $ $ $ $ $ $ $ $ $ $ $ $ $ $ $ $ $ $ W  .3 t j s g 8   Y Y Y Y Y Y Y Y ",
"Y Y Y Y F F l s s j 4 ] ,.$ $ $ $ $ $ $ $ $ $ $ $ $ $ $ $ $ $ $ $ $ $ $ $ $ $ $ $ $ $ $ $ $ $ $ $ $ $ $ $ $ $ $ $ $ $ $ $ $ $ $ $ $ $ $ $ $ $ $ $ $ $ $ $ $ $ $ $ $ $ m [ * u j k s 8   Y Y Y Y Y Y Y Y ",
"Y Y Y Y F F l j s g 5 ` >.$ $ $ $ $ $ $ $ $ $ $ $ $ $ $ $ $ $ $ $ $ $ $ $ $ $ $ $ $ $ $ $ $ $ $ $ $ $ $ $ $ $ $ $ $ $ $ $ $ $ $ $ $ $ $ $ $ $ $ $ $ $ $ $ $ $ $ $ $ $ m | * r j j j q   Y Y Y Y Y Y Y Y ",
"Y Y Y Y F F l j g g 5 ` <.$ $ $ $ $ $ $ $ $ $ $ $ $ $ $ $ $ $ $ $ $ $ $ $ $ $ $ $ $ $ $ $ $ $ $ $ $ $ $ $ $ $ $ $ $ $ $ $ $ $ $ $ $ $ $ $ $ $ $ $ $ $ $ $ $ $ $ $ $ $ z | 3 r j k j e   Y Y Y Y Y Y Y Y ",
"Y Y Y Y F F l l s l 5 ` *.$ $ $ $ $ $ $ $ $ $ $ $ $ $ $ $ $ $ $ $ $ $ $ $ $ $ $ $ $ $ $ $ $ $ $ $ $ $ $ $ $ $ $ $ $ $ $ $ $ $ $ $ $ $ $ $ $ $ $ $ $ $ $ $ $ $ $ $ $ $ j | 3 r j k k e   Y Y Y Y Y Y Y Y ",
"Y Y Y Y F F j j k k 7 ] *.$ $ $ $ $ $ $ $ $ $ $ $ $ $ $ $ $ $ $ $ $ $ $ $ $ $ $ $ $ $ $ $ $ $ $ $ $ $ $ $ $ $ $ $ $ $ $ $ $ $ $ $ $ $ $ $ $ $ $ $ $ $ $ $ $ $ $ $ $ $ ) | 3 u j s k e   Y Y Y Y Y Y Y Y ",
"Y Y Y Y F F l l j l 6 ` -.$ $ $ $ $ $ $ $ $ $ $ $ $ $ $ $ $ $ $ $ $ $ $ $ $ $ $ $ $ $ $ $ $ $ $ $ $ $ $ $ $ $ $ $ $ $ $ $ $ $ $ $ $ $ $ $ $ $ $ $ $ $ $ $ $ $ $ $ $ $ b | 3 u z k j e   Y Y Y Y Y Y Y Y ",
"Y Y Y Y F F l j j l 7 _ #.$ $ $ $ $ $ $ $ $ $ $ $ $ $ $ $ $ $ $ $ $ $ $ $ $ $ $ $ $ $ $ $ $ $ $ $ $ $ $ $ $ $ $ $ $ $ $ $ $ $ $ $ $ $ $ $ $ $ $ $ $ $ $ $ $ $ $ $ $ $ m | * u j j k e   Y Y Y Y Y Y Y Y ",
"Y Y Y Y F F l l l l 7 ] ;.$ $ $ $ $ $ $ $ $ $ $ $ $ $ $ $ $ $ $ $ $ $ $ $ $ $ $ $ $ $ $ $ $ $ $ $ $ $ $ $ $ $ $ $ $ $ $ $ $ $ $ $ $ $ $ $ $ $ $ $ $ $ $ $ $ $ $ $ $ $ m | 3 u j k l e   Y Y Y Y Y Y Y Y ",
"Y Y Y Y F F l l l l 7 ] -.$ $ $ $ $ $ $ $ $ $ $ $ $ $ $ $ $ $ $ $ $ $ $ $ $ $ $ $ $ $ $ $ $ $ $ $ $ $ $ $ $ $ $ $ $ $ $ $ $ $ $ $ $ $ $ $ $ $ $ $ $ $ $ $ $ $ $ $ $ $ ) | 3 p j j j r   Y Y Y Y Y Y Y Y ",
"Y Y Y Y F F l l l j 7 ' ,.$ $ $ $ $ $ $ $ $ $ $ $ $ $ $ $ $ $ $ $ $ $ $ $ $ $ $ $ $ $ $ $ $ $ $ $ $ $ $ s k h % $ $ $ $ $ $ $ $ $ $ $ $ $ $ $ $ $ $ $ $ $ $ $ $ $ $ $ ] | 3 u j k l e   Y Y Y Y Y Y Y Y ",
"Y Y Y Y F F l l l j 7 ] <.$ $ $ $ $ $ $ $ $ $ $ $ $ $ $ $ $ $ $ $ $ $ $ $ $ $ $ $ $ $ $ $ $ $ $ $ $ $ 2 M |  .u $ $ $ $ $ $ $ $ $ $ $ $ $ $ $ $ $ $ $ $ $ $ $ $ $ $ $ ) | 3 u j l l q   Y Y Y Y Y Y Y Y ",
"Y Y Y Y F F l l l j 7 ' >.$ $ $ $ $ $ $ $ $ $ $ $ $ $ $ $ $ $ $ $ $ $ $ $ $ $ $ $ $ $ $ $ $ $ $ $ $ $ $ :.0.0.b $ $ $ $ $ $ $ $ $ $ $ $ $ $ $ $ $ $ $ $ $ $ $ $ $ $ $ M | 3 a l k l e   Y Y Y Y Y Y Y Y ",
"Y Y Y Y F F l l l l 7 ' >.$ $ $ $ $ $ $ $ $ $ $ $ $ $ $ $ $ $ $ $ $ $ $ $ $ $ $ $ $ $ $ $ $ $ $ $ $ $ % :.0.0.b $ $ $ $ $ $ $ $ $ $ $ $ $ $ $ $ $ $ $ $ $ $ $ $ $ $ $ m | 3 a j l k e   Y Y Y Y Y Y Y Y ",
"Y Y Y Y F F l l l l 7 ' <.$ $ $ $ $ $ $ $ $ $ $ $ $ $ $ $ $ $ $ $ $ $ $ $ $ $ $ $ $ $ $ $ $ $ $ $ $ $ $ >.0.9.b $ $ $ $ $ $ $ $ $ $ $ $ $ $ $ $ $ $ $ $ $ $ $ $ $ $ $ j | 3 u j j k r   Y Y Y Y Y Y Y Y ",
"Y Y Y Y F F l l l l 7 ] ;.$ $ $ $ $ $ $ $ $ $ $ $ $ $ $ $ $ $ $ $ $ $ $ $ $ $ $ $ $ $ $ $ $ $ $ $ $ $ % <.0.0.b $ $ $ $ $ $ $ $ $ $ $ $ $ $ $ $ $ $ $ $ $ $ $ $ $ $ $ b | 5 u z l l q   Y Y Y Y Y Y Y Y ",
"Y Y Y Y F F z l l l 0 ' <.$ $ $ $ $ $ $ $ $ $ $ $ $ $ $ $ $ $ $ $ $ $ $ $ $ $ $ $ $ $ $ $ $ $ $ $ $ $ & <.0.0.m $ $ $ $ $ $ $ $ $ $ $ $ $ $ $ $ $ $ $ $ $ $ $ $ $ $ $ b | 3 a j k l e   Y Y Y Y Y Y Y Y ",
"Y Y Y Y F D l l l l 7 ] <.$ $ $ $ $ $ $ $ $ $ $ $ $ $ $ $ $ $ $ $ $ $ $ $ $ $ $ $ $ $ $ $ u u 7 0 r $ & <.0.0.m $ $ $ $ $ $ $ $ $ $ $ $ $ $ $ $ $ $ $ $ $ $ $ $ $ $ $ m | 5 u l l l 9   Y Y Y Y Y Y Y Y ",
"Y Y Y Y F F l l l l 7 ] ;.$ $ $ $ $ $ $ $ $ $ $ $ $ $ $ $ $ $ $ $ $ $ $ $ $ $ $ $ $ $ 5 3 b +.;.;.X.k & <.0.0.M $ $ $ $ $ $ $ $ $ $ $ $ $ $ $ $ $ $ $ $ $ $ $ $ $ $ $ z  .3 a l j l e   Y Y Y Y Y Y Y Y ",
"Y Y Y Y F F v l l z 7 ] <.$ $ $ $ $ $ $ $ $ $ $ $ $ $ $ $ $ $ $ $ $ $ $ $ $ $ $ $ $ % u 3.9.9.0.0.0.0...<.0.0.M 6 $ $ $ $ $ $ $ $ $ $ $ $ $ $ $ $ $ $ $ $ $ $ $ $ $ $ z  .3 u l l l e   Y Y Y Y Y Y Y Y ",
"Y Y Y Y F F l l l v 7 _ <.$ $ $ $ $ $ $ $ $ $ $ $ $ $ $ $ $ $ $ $ $ $ $ $ $ $ $ $ r r 5.9.9.9.5.2.6.0.0.8.0.0.M r $ $ $ $ $ $ $ $ $ $ $ $ $ $ $ $ $ $ $ $ $ $ $ $ $ $ b | 4 u l l l e   Y Y Y Y Y Y Y Y ",
"Y Y Y Y F F z l l l 7 ] -.$ $ $ $ $ $ $ $ $ $ $ $ $ $ $ $ $ $ $ $ $ $ $ $ $ $ $ $ 7 <.9.9.5.n a s a ( 6.0.0.0.M e $ $ $ $ $ $ $ $ $ $ $ $ $ $ $ $ $ $ $ $ $ $ $ $ $ $ M  .3 a j l l e   Y Y Y Y Y Y Y Y ",
"Y Y Y Y F F l l l v 7 ] ;.$ $ $ $ $ $ $ $ $ $ $ $ $ $ $ $ $ $ $ $ $ $ $ $ $ $ $ 7 k 0.0.8.k & $ $ $ % s 8.0.0.M % $ $ $ $ $ $ $ $ $ $ $ $ $ $ $ $ $ $ $ $ $ $ $ $ $ $ m | 3 a z l z e   Y Y Y Y Y Y Y Y ",
"Y Y Y Y F F l l l l 8 ] :.$ $ $ $ $ $ $ $ $ $ $ $ $ $ $ $ $ $ $ $ $ $ $ $ $ $ $ e #.0.0.;.a $ $ $ $ $ r 2.0.0._ 7 $ $ $ $ $ $ $ $ $ $ $ $ $ $ $ $ $ $ $ $ $ $ $ $ $ $ ) | 3 u z l l e   Y Y Y Y Y Y Y Y ",
"Y Y Y Y F F z l l v 7 ] :.$ $ $ $ $ $ $ $ $ $ $ $ $ $ $ $ $ $ $ $ $ $ $ $ $ $ $ $ 3.0.0._ t $ $ $ $ $ % :.0.0.) q $ $ $ $ $ $ $ $ $ $ $ $ $ $ $ $ $ $ $ $ $ $ $ $ $ $ _  .5 a j z l e   Y Y Y Y Y Y Y Y ",
"Y Y Y U F F z l l l 7 ] :.$ $ $ $ $ $ $ $ $ $ $ $ $ $ $ $ $ $ $ $ $ $ $ $ $ $ $ c 7.0.0.u $ $ $ $ $ $ $ ,.0.0._ * $ $ $ $ $ $ $ $ $ $ $ $ $ $ $ $ $ $ $ $ $ $ $ $ $ $ _ | 3 u z l l e   Y Y Y Y Y Y Y Y ",
"Y Y Y Y F F l l l l 7 ] :.$ $ $ $ $ $ $ $ $ $ $ $ $ $ $ $ $ $ $ $ $ $ $ $ $ $ $ h 9.0.9.a $ $ $ $ $ $ $ ;.0.0.) 7 $ $ $ $ $ $ $ $ $ $ $ $ $ $ $ $ $ $ $ $ $ $ $ $ $ $ (  .3 p l l l e   Y Y Y Y Y Y Y Y ",
"Y Y Y Y F F c l l l 7 ] :.$ $ $ $ $ $ $ $ $ $ $ $ $ $ $ $ $ $ $ $ $ $ $ $ $ $ $ s 0.0.9.p $ $ $ $ $ $ % ;.0.0.M e $ $ $ $ $ $ $ $ $ $ $ $ $ $ $ $ $ $ $ $ $ $ $ $ $ $ b  .3 a l l l e   Y Y Y Y Y Y Y Y ",
"Y Y Y Y F F l l l c w ] <.$ $ $ $ $ $ $ $ $ $ $ $ $ $ $ $ $ $ $ $ $ $ $ $ $ $ $ h 7.0.0.u $ $ $ $ $ $ $ ;.9.0.M u $ $ $ $ $ $ $ $ $ $ $ $ $ $ $ $ $ $ $ $ $ $ $ $ $ $ _  .3 u l l l e   Y Y Y Y Y Y Y Y ",
"Y Y Y Y F F z l l x 7 ] 1.$ $ $ $ $ $ $ $ $ $ $ $ $ $ $ $ $ $ $ $ $ $ $ $ $ $ $ u 3.0.0._ $ $ $ $ $ $ $ ;.0.9.) u $ $ $ $ $ $ $ $ $ $ $ $ $ $ $ $ $ $ $ $ $ $ $ $ $ $ _  .3 a l l z r   Y Y Y Y Y Y Y Y ",
"Y Y Y Y F F z l l v w ] <.$ $ $ $ $ $ $ $ $ $ $ $ $ $ $ $ $ $ $ $ $ $ $ $ $ $ $ 7 %.0.0.;.0 $ $ $ $ $ r <.9.9._ f $ $ $ $ $ $ $ $ $ $ $ $ $ $ $ $ $ $ $ $ $ $ $ $ $ $ b | 3 u l x l w   Y Y Y Y Y Y Y Y ",
"Y Y Y Y F F l k l l 6 ] ;.$ $ $ $ $ $ $ $ $ $ $ $ $ $ $ $ $ $ $ $ $ $ $ $ $ $ $ % l 0.0.9.b 3 $ $ $ & j 8.0.9._ l $ $ $ $ $ $ $ $ $ $ $ $ $ $ $ $ $ $ $ $ $ $ $ $ $ $ W | 4 a l l l e   Y Y Y Y Y Y Y Y ",
"Y Y Y Y F F l b l l 7 ] :.$ $ $ $ $ $ $ $ $ $ $ $ $ $ $ $ $ $ $ $ $ $ $ $ $ $ $ $ u <.0.0.6.] k 0 p ) 6.0.0.0._ b $ $ $ $ $ $ $ $ $ $ $ $ $ $ $ $ $ $ $ $ $ $ $ $ $ $ ]  .4 p l l l e   Y Y Y Y Y Y Y Y ",
"Y Y Y Y F F l l l l w ] <.$ $ $ $ $ $ $ $ $ $ $ $ $ $ $ $ $ $ $ $ $ $ $ $ $ $ $ $ u u 6.0.0.0.8.4.7.0.0.7.0.0._ m $ $ $ $ $ $ $ $ $ $ $ $ $ $ $ $ $ $ $ $ $ $ $ $ $ $ ` | 3 p l x z e   Y Y Y Y Y Y Y Y ",
"Y Y Y Y F F z l l c 7 ] <.$ $ $ $ $ $ $ $ $ $ $ $ $ $ $ $ $ $ $ $ $ $ $ $ $ $ $ $ $ 3 h 4.0.0.0.0.0.0.#.O.0.0.] m $ $ $ $ $ $ $ $ $ $ $ $ $ $ $ $ $ $ $ $ $ $ $ $ $ $ j | 3 u j x l r   Y Y Y Y Y Y Y Y ",
"Y Y Y Y F F l l l c 7 ] <.$ $ $ $ $ $ $ $ $ $ $ $ $ $ $ $ $ $ $ $ $ $ $ $ $ $ $ $ $ $ e 3 ] -.:.>.#.s 4 s | | u r $ $ $ $ $ $ $ $ $ $ $ $ $ $ $ $ $ $ $ $ $ $ $ $ $ $ j | 3 u z l l e   Y Y Y Y Y Y Y Y ",
"Y Y Y Y F F v l l l 7 ] <.$ $ $ $ $ $ $ $ $ $ $ $ $ $ $ $ $ $ $ $ $ $ $ $ $ $ $ $ $ $ $ $ e 7 & 2 u $ $ 7 b b u $ $ $ $ $ $ $ $ $ $ $ $ $ $ $ $ $ $ $ $ $ $ $ $ $ $ $ m | 4 a j l l e   Y Y Y Y Y Y Y Y ",
"Y Y Y U F F l l l l 9 ] ;.$ $ $ $ $ $ $ $ $ $ $ $ $ $ $ $ $ $ $ $ $ $ $ $ $ $ $ $ $ $ $ $ $ $ $ $ $ $ $ $ $ $ $ $ $ $ $ $ $ $ $ $ $ $ $ $ $ $ $ $ $ $ $ $ $ $ $ $ $ $ z | 4 u z l l e   Y Y Y Y Y Y Y Y ",
"Y Y Y Y F F z l l l 7 ] <.$ $ $ $ $ $ $ $ $ $ $ $ $ $ $ $ $ $ $ $ $ $ $ $ $ $ $ $ $ $ $ $ $ $ $ $ $ $ $ $ $ $ $ $ $ $ $ $ $ $ $ $ $ $ $ $ $ $ $ $ $ $ $ $ $ $ $ $ $ $ ) [ 3 u z l l r   Y Y Y Y Y Y Y Y ",
"Y Y Y Y F F z l x v 7 ' ;.$ $ $ $ $ $ $ $ $ $ $ $ $ $ $ $ $ $ $ $ $ $ $ $ $ $ $ $ $ $ $ $ $ $ $ $ $ $ $ $ $ $ $ $ $ $ $ $ $ $ $ $ $ $ $ $ $ $ $ $ $ $ $ $ $ $ $ $ $ $ b [ * u z l l e   Y Y Y Y Y Y Y Y ",
"Y Y Y Y F F v l l l 7 ] :.$ $ $ $ $ $ $ $ $ $ $ $ $ $ $ $ $ $ $ $ $ $ $ $ $ $ $ $ $ $ $ $ $ $ $ $ $ $ $ $ $ $ $ $ $ $ $ $ $ $ $ $ $ $ $ $ $ $ $ $ $ $ $ $ $ $ $ $ $ $ b | 3 u z l l e   Y Y Y Y Y Y Y Y ",
"Y Y Y Y F F l l l l 7 ] &.$ $ $ $ $ $ $ $ $ $ $ $ $ $ $ $ $ $ $ $ $ $ $ $ $ $ $ $ $ $ $ $ $ $ $ $ $ $ $ $ $ $ $ $ $ $ $ $ $ $ $ $ $ $ $ $ $ $ $ $ $ $ $ $ $ $ $ $ $ $ q | 4 u j l k e   Y Y Y Y Y Y Y Y ",
"Y Y Y Y F F l l j l 7 ] ;.$ $ $ $ $ $ $ $ $ $ $ $ $ $ $ $ $ $ $ $ $ $ $ $ $ $ $ $ $ $ $ $ $ $ $ $ $ $ $ $ $ $ $ $ $ $ $ $ $ $ $ $ $ $ $ $ $ $ $ $ $ $ $ $ $ $ $ $ $ $ z [ 3 u j l j e   Y Y Y Y Y Y Y Y ",
"Y Y Y Y F F z l l l 0 ` <.$ $ $ $ $ $ $ $ $ $ $ $ $ $ $ $ $ $ $ $ $ $ $ $ $ $ $ $ $ $ $ $ $ $ $ $ $ $ $ $ $ $ $ $ $ $ $ $ $ $ $ $ $ $ $ $ $ $ $ $ $ $ $ $ $ $ $ $ $ $ l { 3 u l l l q   Y Y Y Y Y Y Y Y ",
"Y Y Y Y F F l l l l 7 ` <.$ $ $ $ $ $ $ $ $ $ $ $ $ $ $ $ $ $ $ $ $ $ $ $ $ $ $ $ $ $ $ $ $ $ $ $ $ $ $ $ $ $ $ $ $ $ $ $ $ $ $ $ $ $ $ $ $ $ $ $ $ $ $ $ $ $ $ $ $ $ m { 3 u l l l e   Y Y Y Y Y Y Y Y ",
"Y Y Y Y F F l l j l 7 ] ;.$ $ $ $ $ $ $ $ $ $ $ $ $ $ $ $ $ $ $ $ $ $ $ $ $ $ $ $ $ $ $ $ $ $ $ $ $ $ $ $ $ $ $ $ $ $ $ $ $ $ $ $ $ $ $ $ $ $ $ $ $ $ $ $ $ $ $ $ $ $ z | 3 u k g l e   Y Y Y Y Y Y Y Y ",
"Y Y Y Y F F l l j l 0 ` ;.$ $ $ $ $ $ $ $ $ $ $ $ $ $ $ $ $ $ $ $ $ $ $ $ $ $ $ $ $ $ $ $ $ $ $ $ $ $ $ $ $ $ $ $ $ $ $ $ $ $ $ $ $ $ $ $ $ $ $ $ $ $ $ $ $ $ $ $ $ $ l | 3 u j g k e   Y Y Y Y Y Y Y Y ",
"Y Y Y Y F F l l j l 6 ] *.$ $ $ $ $ $ $ $ $ $ $ $ $ $ $ $ $ $ $ $ $ $ $ $ $ $ $ $ $ $ $ $ $ $ $ $ $ $ $ $ $ $ $ $ $ $ $ $ $ $ $ $ $ $ $ $ $ $ $ $ $ $ $ $ $ $ $ $ $ $ m [ 3 u j g k 9   Y Y Y Y Y Y Y Y ",
"Y Y Y Y F F l g j l 7 ] <.$ $ $ $ $ $ $ $ $ $ $ $ $ $ $ $ $ $ $ $ $ $ $ $ $ $ $ $ $ $ $ $ $ $ $ $ $ $ $ $ $ $ $ $ $ $ $ $ $ $ $ $ $ $ $ $ $ $ $ $ $ $ $ $ $ $ $ $ $ $ h [ 3 r j g l 9   Y Y Y Y Y Y Y Y ",
"Y Y Y Y F F l l j j 0 ] 1.$ $ $ $ $ $ $ $ $ $ $ $ $ $ $ $ $ $ $ $ $ $ $ $ $ $ $ $ $ $ $ $ $ $ $ $ $ $ $ $ $ $ $ $ $ $ $ $ $ $ $ $ $ $ $ $ $ $ $ $ $ $ $ $ $ $ $ $ $ $ _ { 3 u j g l e   Y Y Y Y Y Y Y Y ",
"Y Y Y Y F F l j s l 8 ] 2.$ $ $ $ $ $ $ $ $ $ $ $ $ $ $ $ $ $ $ $ $ $ $ $ $ $ $ $ $ $ $ $ $ $ $ $ $ $ $ $ $ $ $ $ $ $ $ $ $ $ $ $ $ $ $ $ $ $ $ $ $ $ $ $ $ $ $ $ $ $ s [ 3 u j g l e   Y Y Y Y Y Y Y Y ",
"Y Y Y Y F F l j l l 5 ] 2.$ $ $ $ $ $ $ $ $ $ $ $ $ $ $ $ $ $ $ $ $ $ $ $ $ $ $ $ $ $ $ $ $ $ $ $ $ $ $ $ $ $ $ $ $ $ $ $ $ $ $ $ $ $ $ $ $ $ $ $ $ $ $ $ $ $ $ $ $ $ M | 3 u j j k e   Y Y Y Y Y Y Y Y ",
"Y Y Y Y F F z j l v 8 ] <.$ $ $ $ $ $ $ $ $ $ $ $ $ $ $ $ $ $ $ $ $ $ $ $ $ $ $ $ $ $ $ $ $ $ $ $ $ $ $ $ $ $ $ $ $ $ $ $ $ $ $ $ $ $ $ $ $ $ $ $ $ $ $ $ $ $ $ $ $ $ ] | 4 u l l k e   Y Y Y Y Y Y Y Y ",
"Y Y Y Y F F z s j v q ] 1.$ $ $ $ $ $ $ $ $ $ $ $ $ $ $ $ $ $ $ $ $ $ $ $ $ $ $ $ $ $ $ $ $ $ $ $ $ $ $ $ $ $ $ $ $ $ $ $ $ $ $ $ $ $ $ $ $ $ $ $ $ $ $ $ $ $ $ $ $ $ b  .4 p z l j q   Y Y Y Y Y Y Y Y ",
"Y Y Y Y F F l l l v q ] 1.$ $ $ $ $ $ $ $ $ $ $ $ $ $ $ $ $ $ $ $ $ $ $ $ $ $ $ $ $ $ $ $ $ $ $ $ $ $ $ $ $ $ $ $ $ $ $ $ $ $ $ $ $ $ $ $ $ $ $ $ $ $ $ $ $ $ $ $ $ $ ] #.7 p l l l e   Y Y Y Y Y Y Y Y ",
"Y Y Y Y F F l z l z 7 ] -.$ $ $ $ $ $ $ $ $ $ $ $ $ $ $ $ $ $ $ $ $ $ $ $ $ $ $ $ $ $ $ $ $ $ $ $ $ $ $ $ $ $ $ $ $ $ $ $ $ $ $ $ $ $ $ $ $ $ $ $ $ $ $ $ $ $ $ $ $ $ _ X.7 p v k l e   Y Y Y Y Y Y Y Y ",
"Y Y Y Y F F v z z l q ] #.$ $ $ $ $ $ $ $ $ $ $ $ $ $ $ $ $ $ $ $ $ $ $ $ $ $ $ $ $ $ $ $ $ $ $ $ $ $ $ $ $ $ $ $ $ $ $ $ $ $ $ $ $ $ $ $ $ $ $ $ $ $ $ $ $ $ $ $ $ $ M X.7 s l x l e   Y Y Y Y Y Y Y Y ",
"Y Y Y Y F F v z l v r h &.$ $ $ $ $ $ $ $ $ $ $ $ $ $ $ $ $ $ $ $ $ $ $ $ $ $ $ $ $ $ $ $ $ $ $ $ $ $ $ $ $ $ $ $ $ $ $ $ $ $ $ $ $ $ $ $ $ $ $ $ $ $ $ $ $ $ $ $ $ $ ] X.* f v l c e   Y Y Y Y Y Y Y Y ",
"Y Y Y Y L ; f z v l s & } a $ $ $ $ $ $ $ $ $ $ $ $ $ $ $ $ $ $ $ $ $ $ $ $ $ $ $ $ $ $ $ $ $ $ $ $ $ $ $ $ $ $ $ $ $ $ $ $ $ $ $ $ $ $ $ $ $ $ $ $ $ $ $ $ $ $ $ $ $ ] c 3 z l z z 7   Y Y Y Y Y Y Y Y ",
"Y Y Y Y Y - T l l l k 4 u @.9 $ $ $ $ $ $ $ $ $ $ $ $ $ $ $ $ $ $ $ $ $ $ $ $ $ $ $ $ $ $ $ $ $ $ $ $ $ $ $ $ $ $ $ $ $ $ $ $ $ $ $ $ $ $ $ $ $ $ $ $ $ $ $ $ $ $ $ u z * u l z l c $ V Y Y Y Y Y Y Y Y ",
"Y Y Y Y Y N < b v l k s & u [ #.| ' ] >.-.>.<.<.-.;.&.%.%.#.#.#.#.#.#.o.#.o.#.o.%.O.*.#.#.%.@.%.;.=.%.=.;.#.;.;.=.%.-.&.=.%.-.@.&.#.O.*.#.#.%.&.&.#.&.#.@.[ l l m z ] * 8 s s z z l A K Y Y Y Y Y Y Y Y ",
"Y Y Y Y Y H . k z k g g a 1 % s & & & * * * * * * * 2 2 * & & & & * * & & & & & * & & & & & & & & 2 & & 2 2 & 2 & 2 & & & 2 & % & & & & * * & * * * * * & & & % u 8 % 8 s s g z z R N U Y Y Y Y Y Y Y Y ",
"Y Y Y Y Y Y + $ l s s s s s r 7 4 3 7 7 q 7 0 0 7 7 7 6 7 7 6 7 6 6 6 7 7 7 7 7 6 4 4 6 7 6 7 6 6 6 6 6 6 6 6 6 4 7 6 7 7 6 6 7 6 4 4 4 5 6 5 7 7 7 7 0 9 5 6 5 4 8 a s s s d g g . V Y Y Y Y Y Y Y Y Y ",
"Y Y Y Y Y Y L   3 s s f s s s s l l l v b l l l l l l l l l l j x l l l l l k l l l l x l l l l l l x x l l v l l l v k l l l l l l l l l l l l l l z z l c c l g s s s s s s j #   Y Y Y Y Y Y Y Y Y Y ",
"Y Y Y Y Y Y Y B   % s s f s k l l l l l l l l z l l l l l l l l l l l l k l l l l l l l l l l l l l l l l l x l l z l l l l l l l l h j l k k l k l l z l x c l l k k s s d a @   P Y Y Y Y Y Y Y Y Y Y ",
"Y Y Y Y Y Y Y Y B   O 8 j l z v l l z v z l l l l z l l l l l l l z l l l l l k l l x l l l l l l x l l l l l l x l l l l k l l l l l l k l l l l l l l x x l c z l l l a 3     P Y Y Y Y Y Y Y Y Y Y Y ",
"Y Y Y Y Y Y Y Y Y K     X % E / / / ^ ~ ! ! ! ! ^ ^ ^ ^ ! ^ ^ ! ! ! ! ! ! ! ! ! ! ! ! ! ! / ! ! Q Q ^ ! ! ! ^ ! / ! ! ! ! ! ! ! ^ ^ ^ ! Q ! ! ! / ! ! ! ^ ! ~ ~ / / i @     A Y Y Y Y Y Y Y Y Y Y Y Y Y ",
"Y Y Y Y Y Y Y Y Y Y Y J F S N =                                                                                                                                     + F F U Y Y Y Y Y Y Y Y Y Y Y Y Y Y ",
"Y Y Y Y Y Y Y Y Y Y Y Y Y Y Y Y Y Y Y Y Y Y Y Y Y Y Y Y Y Y Y Y Y Y Y Y Y Y Y Y Y Y Y Y Y Y Y Y Y Y Y Y Y Y Y Y Y Y Y Y Y Y Y Y Y Y Y Y Y Y Y Y Y Y Y Y Y Y Y Y Y Y Y Y Y Y Y Y Y Y Y Y Y Y Y Y Y Y Y Y ",
"Y Y Y Y Y Y Y Y Y Y Y Y Y Y Y Y Y Y Y Y Y Y Y Y Y Y Y Y Y Y Y Y Y Y Y Y Y Y Y Y Y Y Y Y Y Y Y Y Y Y Y Y Y Y Y Y Y Y Y Y Y Y Y Y Y Y Y Y Y Y Y Y Y Y Y Y Y Y Y Y Y Y Y Y Y Y Y Y Y Y Y Y Y Y Y Y Y Y Y Y ",
"Y Y Y Y Y Y Y Y Y Y Y Y Y Y Y Y Y Y Y Y Y Y Y Y Y Y Y Y Y Y Y Y Y Y Y Y Y Y Y Y Y Y Y Y Y Y Y Y Y Y Y Y Y Y Y Y Y Y Y Y Y Y Y Y Y Y Y Y Y Y Y Y Y Y Y Y Y Y Y Y Y Y Y Y Y Y Y Y Y Y Y Y Y Y Y Y Y Y Y Y ",
"Y Y Y Y Y Y Y Y Y Y Y Y Y Y Y Y Y Y Y Y Y Y Y Y Y Y Y Y Y Y Y Y Y Y Y Y Y Y Y Y Y Y Y Y Y Y Y Y Y Y Y Y Y Y Y Y Y Y Y Y Y Y Y Y Y Y Y Y Y Y Y Y Y Y Y Y Y Y Y Y Y Y Y Y Y Y Y Y Y Y Y Y Y Y Y Y Y Y Y Y ",
"Y Y Y Y Y Y Y Y Y Y Y Y Y Y Y Y Y Y Y Y Y Y Y Y Y Y Y Y Y Y Y Y Y Y Y Y Y Y Y Y Y Y Y Y Y Y Y Y Y Y Y Y Y Y Y Y Y Y Y Y Y Y Y Y Y Y Y Y Y Y Y Y Y Y Y Y Y Y Y Y Y Y Y Y Y Y Y Y Y Y Y Y Y Y Y Y Y Y Y Y ",
"Y Y Y Y Y Y Y Y Y Y Y Y Y Y Y Y Y Y Y Y Y Y Y Y Y Y Y Y Y Y Y Y Y Y Y Y Y Y Y Y Y Y Y Y Y Y Y Y Y Y Y Y Y Y Y Y Y Y Y Y Y Y Y Y Y Y Y Y Y Y Y Y Y Y Y Y Y Y Y Y Y Y Y Y Y Y Y Y Y Y Y Y Y Y Y Y Y Y Y Y ",
"Y Y Y Y Y Y Y Y Y Y Y Y Y Y Y Y Y Y Y Y Y Y Y Y Y Y Y Y Y Y Y Y Y Y Y Y Y Y Y Y Y Y Y Y Y Y Y Y Y Y Y Y Y Y Y Y Y Y Y Y Y Y Y Y Y Y Y Y Y Y Y Y Y Y Y Y Y Y Y Y Y Y Y Y Y Y Y Y Y Y Y Y Y Y Y Y Y Y Y Y "
};
