/* XPM */
static char *result[] = {
/* columns rows colors chars-per-pixel */
"143 100 125 2 ",
"   c #010101",
".  c #0D0D0D",
"X  c #100D0F",
"o  c #121212",
"O  c #191917",
"+  c #1B1B1B",
"@  c #022403",
"#  c #023402",
"$  c #232323",
"%  c #2E2E2D",
"&  c #30302F",
"*  c #303030",
"=  c #373938",
"-  c #3C3C3C",
";  c #403F3F",
":  c #034A03",
">  c #015101",
",  c #026402",
"<  c #026C02",
"1  c #017601",
"2  c #2F572F",
"3  c #3E403F",
"4  c #41413F",
"5  c #413F41",
"6  c #3F4140",
"7  c #434343",
"8  c #484647",
"9  c #494947",
"0  c #474948",
"q  c #4C4C4C",
"w  c #504F4E",
"e  c #4F504B",
"r  c #50514F",
"t  c #4F4F50",
"y  c #514F50",
"u  c #4F5150",
"i  c #525252",
"p  c #565857",
"a  c #595957",
"s  c #575658",
"d  c #595758",
"f  c #5B5B5B",
"g  c #605E5F",
"h  c #60625D",
"j  c #666665",
"k  c #686666",
"l  c #676864",
"z  c #696966",
"x  c #676769",
"c  c #696768",
"v  c #676968",
"b  c #6B6B6B",
"n  c #6F706D",
"m  c #70716F",
"M  c #6E6E70",
"N  c #737373",
"B  c #777975",
"V  c #787977",
"C  c #777978",
"Z  c #7A7B7A",
"A  c #028502",
"S  c #018A01",
"D  c #029502",
"F  c #029C02",
"G  c #02A301",
"H  c #01B401",
"J  c #00BB00",
"K  c #299D28",
"L  c #01CC01",
"P  c #01DA00",
"I  c #01E301",
"U  c #00F700",
"Y  c green",
"T  c #589F56",
"R  c #7F817E",
"E  c #80807E",
"W  c #858585",
"Q  c #868887",
"!  c #898987",
"~  c #878788",
"^  c #898788",
"/  c #8A8A8A",
"(  c #908E8F",
")  c #8F918E",
"_  c #90918E",
"`  c #918F90",
"'  c #8F9190",
"]  c #919191",
"[  c #999897",
"{  c #979898",
"}  c #9C9C9C",
"|  c #9F9FA1",
" . c #A5A5A5",
".. c #A6A8A6",
"X. c #A8A8A6",
"o. c #A7A9A8",
"O. c #A9AAA9",
"+. c #AEB0AD",
"@. c #B6B6B5",
"#. c #B8B6B7",
"$. c #B7B8B7",
"%. c #B8B8B6",
"&. c #B9B7B8",
"*. c #BABABA",
"=. c #C1C1BF",
"-. c #C1BFC0",
";. c #C3C3C3",
":. c #C8C7C7",
">. c #C6C8C7",
",. c #C6C6C8",
"<. c #CBCBCB",
"1. c #D1D1CE",
"2. c #D4D3D3",
"3. c #D9D9D7",
"4. c #DCDCDC",
"5. c #E0DEDF",
"6. c #E5E4E4",
"7. c #EBEBEA",
"8. c #F0F0EE",
"9. c #F6F6F5",
"0. c #F8F7F6",
"q. c #F9F9F6",
"w. c #FAF7F8",
"e. c #F7F9F8",
"r. c #FDFDFD",
/* pixels */
"Y Y Y Y Y Y Y Y Y Y Y Y Y Y Y Y Y Y Y Y Y Y Y Y Y Y Y Y Y Y Y Y Y Y Y Y Y Y Y Y Y Y Y Y Y Y Y Y Y Y Y Y Y Y Y Y Y Y Y Y Y Y Y Y Y Y Y Y Y Y Y Y Y Y Y Y Y Y Y Y Y Y Y Y Y Y Y Y Y Y Y Y Y Y Y Y Y Y Y Y Y Y Y Y Y Y Y Y Y Y Y Y Y Y Y Y Y Y Y Y Y Y Y Y Y Y Y Y Y Y Y Y Y Y Y Y Y Y Y Y Y Y Y ",
"Y Y Y Y Y Y Y Y Y Y Y Y Y Y Y Y Y Y Y Y Y Y Y Y Y Y Y Y Y Y Y Y Y Y Y Y Y Y Y Y Y Y Y Y Y Y Y Y Y Y Y Y Y Y Y Y Y Y Y Y Y Y Y Y Y Y Y Y Y Y Y Y Y Y Y Y Y Y Y Y Y Y Y Y Y Y Y Y Y Y Y Y Y Y Y Y Y Y Y Y Y Y Y Y Y Y Y Y Y Y Y Y Y Y Y Y Y Y Y Y Y Y Y Y Y Y Y Y Y Y Y Y Y Y Y Y Y Y Y Y Y Y Y ",
"Y Y Y Y Y Y Y Y Y Y Y Y Y Y Y Y Y Y Y Y Y Y Y Y Y Y Y Y Y Y Y Y Y Y Y Y Y Y Y Y Y Y Y Y Y Y Y Y Y Y Y Y Y Y Y Y Y Y Y Y Y Y Y Y Y Y Y Y Y Y Y Y Y Y Y Y Y Y Y Y Y Y Y Y Y Y Y Y Y Y Y Y Y Y Y Y Y Y Y Y Y Y Y Y Y Y Y Y Y Y Y Y Y Y Y Y Y Y Y Y Y Y Y Y Y Y Y Y Y Y Y Y Y Y Y Y Y Y Y Y Y Y Y ",
"Y Y Y Y Y Y Y Y Y Y Y Y Y Y Y Y Y Y Y Y Y Y Y Y Y Y Y Y Y Y Y Y Y Y Y Y Y Y Y Y Y Y Y Y Y Y Y Y Y Y Y Y Y Y Y Y Y Y Y Y Y Y Y Y Y Y Y Y Y Y Y Y Y Y Y Y Y Y Y Y Y Y Y Y Y Y Y Y Y Y Y Y Y Y Y Y Y Y Y Y Y Y Y Y Y Y Y Y Y Y Y Y Y Y Y Y Y Y Y Y Y Y Y Y Y Y Y Y Y Y Y Y Y Y Y Y Y Y Y Y Y Y Y ",
"Y Y Y Y Y Y Y Y Y Y Y Y Y Y Y Y Y Y Y Y Y Y Y Y Y Y Y Y Y Y Y Y Y Y Y Y Y Y Y Y Y Y Y Y Y Y Y Y Y Y Y Y Y Y Y Y Y Y Y Y Y Y Y Y Y Y Y Y Y Y Y Y Y Y Y Y Y Y Y Y Y Y Y Y Y Y Y Y Y Y Y Y Y Y Y Y Y Y Y Y Y Y Y Y Y Y Y Y Y Y Y Y Y Y Y Y Y Y Y Y Y Y Y Y Y Y Y Y Y Y Y Y Y Y Y Y Y Y Y Y Y Y Y ",
"Y Y Y Y Y Y Y Y Y Y Y Y Y I J H >                   @           @                             @                                                         @                                                                 @     @                           # A J L Y Y Y Y Y Y Y Y Y Y Y Y Y ",
"Y Y Y Y Y Y Y Y Y Y Y I 1     $ = ; - ; ; 5 - 7 ; ; 5 6 7 7 7 5 6 7 7 - 7 7 7 6 8 6 6 6 7 ; 7 6 7 7 7 6 5 6 7 6 ; 7 7 6 7 7 7 6 7 7 6 6 6 7 6 6 7 7 ; 7 6 6 7 6 3 7 7 - 7 6 3 6 7 7 7 6 7 7 7 4 8 7 7 7 7 7 7 7 7 7 7 7 7 7 5 7 7 7 7 7 7 7 7 7 7 7 7 7 7 7 ; * o     J Y Y Y Y Y Y Y Y Y Y Y ",
"Y Y Y Y Y Y Y Y Y Y F   $ d n M M n b b b b b b b b b b b b b b b b b b b b b b b b b b b b b b b b b b b b b b b b b b b b b b b b b b M b b b b b b b b c b M b b x b b b b b b b b b b b b b b b b b b b b b b b b b b b b b b b b b b b M b b b b b b b M M b d =   > I Y Y Y Y Y Y Y Y Y ",
"Y Y Y Y Y Y Y Y Y S   9 n n n n b b b b b b b b b b b b b x b b z b b j b b c x x b b b b b b x b x b b b c b b b c b b b c b z b x b b x b j b b b b x b b j b x b b b b b x b b b b b b b b x x z b b b b z b v x b b x b x b b z b b b b b b b b b b b b x b c j b d +   I Y Y Y Y Y Y Y Y ",
"Y Y Y Y Y Y Y Y S   p b b b b M m N b M x x b b b b x b x b b b b z c b b b b z b b b b b j b b b b b b c b b x b b b x b b v b b b b b b b c b b x b b x z b b b x b x z v b b b j b b x b x b b b b x z z b x b c z b b b b b b b b b b b b b b b x b b x x j x j j b j $   I Y Y Y Y Y Y Y ",
"Y Y Y Y Y Y Y P   9 b b b b n b M m n b b b b b b b b b b b b b b z b z b b b b b x b c b b b b b b x b b c b b b b b b b b b b b b b b b x b z b b b b b b z b b b b b b b x b c b b b b b b b z b b b b b b b b b b b b b b b b b b b b b b b b b b b b c x j j c j c b j . S Y Y Y Y Y Y Y ",
"Y Y Y Y Y Y Y < $ n b b c b b M j p 9 0 7 0 7 7 7 7 7 5 4 6 7 - ; ; 3 7 - 7 5 7 7 3 7 - 7 - 7 4 - 4 3 7 7 7 7 7 7 7 - 7 5 7 7 7 7 ; 6 3 7 7 7 7 7 6 6 - ; 7 7 - 6 ; 7 7 7 7 7 4 7 3 4 7 3 7 ; 7 3 7 6 3 7 7 7 7 7 - 7 7 7 7 7 7 7 7 7 7 7 8 7 7 7 7 7 7 7 0 i j j j c j j j u   P Y Y Y Y Y Y ",
"Y Y Y Y Y Y P   a b M b c b x q 5 f ^ ] ] { ] ] ] ] ] ] ] ' ' _ ] ] ] ] ] ] ` ] ) / ] ] ] ] ] _ _ _ _ ] / ] ] / ] ( ( ' ( ( ( ' ( ' ( ( ( ) ] ] / ' ) ) / ] ] ) / ] ' ] ' ] ] _ ) ) ) _ ] ) ' ( ] / ( ' / ] ) / / ] ] ] ] ] ' ' _ _ _ _ _ ] _ ) ( ( ( / ^ N 7 = s j j k j x b $ S Y Y Y Y Y Y ",
"Y Y Y Y Y Y H . b n b b c j 7 9  .*.*.*.*.*.&.$.$.&.$.$.#.#.#.&.&.$.&.&.$.$.&.*.$.*.&.*.&.*.*.*.%.%.$.*.*.*.&.$.$.#.$.$.$.*.*.$.$.$.*.$.*.$.$.$.*.#.$.#.&.&.#.$.#.#.$.$.#.*.$.$.#.#.#.*.&.*.*.$.*.%.*.&.*.%.#.#.$.#.$.#.$.#.#.#.@.#.%.$.#.&.#.#.@.@.@.@.@.@.+.N = p j j c b b q   Y Y Y Y Y Y ",
"Y Y Y Y Y Y , % N n M n n q 8 O.*.^ * * * * * * * * * * * * * * * * * * * * * * * * * * * * * * & * * * % * * * * * * * * * * * * * * * * * * * * * * * * * * * * * * * * * * * * * & & * * * * * * * * * * * * * * * * * * * * * * * * * * & & % & * * % g | @.B = j j j b b f   L Y Y Y Y Y ",
"Y Y Y Y Y Y   7 b b b n c = [ &.j * * * * * * * * * * * * * * * * * * * * * * * * * * * * * * * & * * * * * * * * * * * * * * * * * * * * * * * * * * * * * * * * * * * * * * * * * * * * * * * * * * * * * * * * * * * * * * * * * * * * & & & & & * * * * & } @.9 q j j b b c . J Y Y Y Y Y ",
"Y Y Y Y Y Y   0 b n b n f 0 *.' * * * * * * * * * * * * * * * * * * * * * * * * * * * * * * * * * * * * * * * * * * * * * * * * * * * * * * * * * * * * * * * * * * * * * * * * * * * * * * * * * * * * * * * * * * * * * * * * * * * * * * * * * * * * * * * t #.W 7 c b b b n . J Y Y Y Y Y ",
"Y Y Y Y Y Y   9 b b M M e x -.Z * * * * * * * * * * * * * * * * * * * * * * * * * * * * * % * * * * * * * * * * * * * * * * * * * * * * * * * * * * * * * * * * * * * * * * * * * * * * * * * * * * * * * * * * * * * * * * * * * * * * * * * * * * * * * * * * @.[ = b b b b M . J Y Y Y Y Y ",
"Y Y Y Y Y Y   9 b M M M e v ;.M * * * * * * * * * * * * * * * * * * * * * * * * * * * * * * * * * * * * * * * * * * * * * * * * * * * * * * * * * * * * % * * * * * * * * * * * * * * * * * * * * * * * * * * * * * * * * * * * * * * * * * * * * * * * * * * * @. .- b b b n M . J Y Y Y Y Y ",
"Y Y Y Y Y Y   q b b b b q v ;.N * * * * * * * * * * * * * * * * * * * * * * * * * * * * * * * * * * * * * * * * * * * * * * * * * * * * * * * * * * * * * * * * * * * * * * * * * * * * * * * * * * * * * * * * * * * * * * * * * * * * * * * * * * * * * * * * #. .- b M b b n . J Y Y Y Y Y ",
"Y Y Y Y Y Y   9 b b b b e j ;.C * * * * * * * * * * * * * * * * * * * * * * * * * * * * * * * * * * * * * * * * * * * * * * * * * % * * * * * * * * * * * * * * * * * * * * * * * * * * * * * * * * * * * * * * * * * * * * * * * * * * * * * * * * * * * * * * @. .- b M b M b . J Y Y Y Y Y ",
"Y Y Y Y Y Y   9 b b b b e j -.C * * * * * * * * * * * * * * * * * * * * * * * * * * * * * * * * * * * * * * * * * * * * * * * * * * * * * * * * * * * * * * * * * * * * * * * * * * * * * * * * * * * * * * * * * * * * * * * * * * * * * * * * * * * * * * * * @. .- z b b b n . J Y Y Y Y Y ",
"Y Y Y Y Y Y   9 b n b b q j ;.x * * * * * * * * * * * * * * * * * * * * * * * * * * * * * * * * * * * * * * * % * * * * * * * * * * * * * * * * * * * * * * * * * * * * * * * * * * * * * * * * * * * * * * * * * * * * * * * * * * * * * * * * * * * * * * * * @. .- b n n b M . J Y Y Y Y Y ",
"Y Y Y Y Y Y   q b b b b u j ;.n * * * * * * * * * * * * * * * * * * * * * * * * * * * * * * * * * * * * * * * * * * * * * * * * * * * * * * * * * * * * * * * * * * * * * * * * * * * * * * * * * * * * * * * * * * * * * * * * * * * * * * * * * * * * % * * * #.X.5 b b b b n . J Y Y Y Y Y ",
"Y Y Y Y Y Y   q n b b b e x ;.M * * * * * * * * * * * * * * * * * * * * * * * * * * * * * * * * * * * * * * * * * * * * * * * * * * * * * * * * * * * * * * * * * * * * * * * * * * * * * * * * * * * * * * * * * % * * * * * * * * * * * * * * * * * * * * * * @...- z b b M b . J Y Y Y Y Y ",
"Y Y Y Y Y Y   q b b b n u j ;.b * * * * * * * * * * * * * * * * * * * * * * * * * * * * * * * * * * * * * * * * * * * * * * * * * * * * * * * * * * * * * * * * * * * * * * * * * * * * * * * * * * * * * * * * * * * * * * * * * * * * * * * * * * * * * * * * @. .4 l b n b b . J Y Y Y Y Y ",
"Y Y Y Y Y Y   9 b n b M t j =.M * * * * * * * * * * * * * * * * * * * * * * * * * * * * * * * * * * * * * * * * * * * * * * * * * * * * * * * * * * * * * * * * * * * * * * * * * * * * * * * * * * * * * * * * * * * * * * * * * * * * * * * * * * * * * * * * @. .- b M b n b . J Y Y Y Y Y ",
"Y Y Y Y Y Y   q b n b b q j =.N * * * * * * * * * * * * * * * * * * * * * * * * * * * * * * * * * * * * * * * * * * * * * * * * * * * * * * * * * * * * * * * * * * * * * * * * * * * * * * * % * * * * * * * * * * * * * * * * * * * * * * * * * * * * * * * * @.X.- b b b b b . J Y Y Y Y Y ",
"Y Y Y Y Y Y   9 n b n M q l ;.Z * * * * * * & * * * * * * * * * * * * * * * * * * * * * * * * * * * * * * * * * * * * * * * * * * * * * * * * * * * * * * * * * * * * * * * * * * * * * * * * * * * * * * * * * * * * * * * * * * * * * * * * * * * * * * * * * @. .- c b b b n . J Y Y Y Y Y ",
"Y Y Y Y Y Y   q b b b b q j =.b * * * * * * * * * * * * * * * * * * * * * * * * * * * * * * * * * * * * * * * * * * * * * * * * * * * * * * * * * * * * * * * * * * * * * * * * * * * * * * * * * * * * * * * % * * * * * * * * * * * * * * * * * * * * * * * * @. .- c b b b b . J Y Y Y Y Y ",
"Y Y Y Y Y Y   q M n b b u j *.n * * * * * * * * * * * * * * * * * * * * * * * * * % * * * * * * * * * * * * * * * * * * * * * * * * * * * * * * * * * * * * * * * * * * * * * * * * * * * * * * * * * * * * * * * * * * * * * * * * * * * * * * * * * * * * * * @. .- b b b b b . J Y Y Y Y Y ",
"Y Y Y Y Y Y   q b b M b q j -.N * * * * * * * * * * * * * * * * * * * * * * * * * * * * * * * * * * * * * * * * * * * * * * * * * * * * * * * * * * * * * * * * * * * * * * * * * * * * * * * * * * * * * * * * * * * * * * * * * * * * * * * * * * * * * * * * @. .- z b b b c . J Y Y Y Y Y ",
"Y Y Y Y Y Y   q b b n b i j ;.b * * * * * * * * * * * * * * * * * * * * * * * * * * * * * * * * * * * * * * * * * * * * * * * * * * * * * * * * * * * * * * * * * * * * * * * * * * * * * * * * * * * * * * * * * * * * * * * * * * * * * * * * * * * * * * * * @. .= x b b b n . J Y Y Y Y Y ",
"Y Y Y Y Y Y   q n b b M i j =.N * * * * * * * * * * * * * * * * * * % * * * * * * * * * * * * * * * * * * * * * * * * * * * * * * * * * * * & * * * * * * * * * * * * * * * * * * * * * * * * * * * * * * * * * * * * * * * * * * * * * * * * * * * * * * * * * @. .- j b b b b . J Y Y Y Y Y ",
"Y Y Y Y Y Y   q b b b b e j ;.C * * * * * * * * * * * * * * * * * * * * * * * * * * * * * * * * * * * * * * * * * * * * * * * * * * * * * * * * * * * * * * * * * * * * * * * * * * * * * * * * * * * * * * * * * * * * * * * * * * * * * * * * * * * * * % * * @. .- x b b b b . J Y Y Y Y Y ",
"Y Y Y Y Y Y   9 n M M b t j ;.b * * * * * * * * * * * * * * * * * * * * * * * * * * * * * * * * * * * * * * * * * * * * * * * * * * * * * * * * * * * * * * * * * * * * * * * * * * * * * * * * * * * * * * * * * * * * * * * * * * * * * * * * * * * * * * * * #. .- x b b b b . J Y Y Y Y Y ",
"Y Y Y Y Y Y   q b b n n u j ;.N * * * * * * * * * * * * * * * * * * * * * * * * * * * * * * * * * * * * * * & & * * % * * * * * * * * * * * * * * * * * * * * * * * * * * * * * * & * * * * * * * * * * * * * * * * * * * * * * * * * * * * * * * * * * * * * * +. .; x b b b M . J Y Y Y Y Y ",
"Y Y Y Y Y Y   q n b b b t j ;.N * * * * * * * * * * * * * * * * * * * * * * * * * * * * * * * * * * * * * * & % & - 7 * * * * * * * * * * * * * * * * * * * * * * * * * * * * * * 8 x b N s * * * * * * * * * * * * * * * * * * * * * * * * * * * * * * * * * * @. .- x b b b b . J Y Y Y Y Y ",
"Y Y Y Y Y Y   9 b M b M u j ;.x * * * * * * * * * * * * * * * * * * * * * * * * * * * * * * * * * * * * * 8 - j '  . .W d = = * * * * * * * * * * % * * * * * * * * * * * * * * * * 5.r.r.f * * * * * * * * * * * * * * * * * * * * * * * * * * * * * * * * * * @. .- j b b b n . J Y Y Y Y Y ",
"Y Y Y Y Y Y   q n b b b q j ;.M * * * * * * * * * * * * * * * * * * * * * * * * * * * * * * * * * * * 8 *  .6.r.r.r.r.r.r.2.C % * * * * * & w i i 8 * * * * * * * * * * * * * * * * 4.r.r.f * * * * * * * * * * * * * * * * * * * * * * * * * * * * * * * * * * #. .- c b b b M . J Y Y Y Y Y ",
"Y Y Y Y Y Y   q b b b M i j ;.N * * * * * * * * * * * * * * * * * * * * * * * * * * * * * * * * * * 5 i 4.w.r.r.r.r.r.r.r.r.r.| q * * * * - W  . .q % * * * * * * * * * * * * * * * 4.r.r.f * * * * * * * * * * * * * * * * * * * * * * * * * * * * * * * * * * @. .; x b b b b . J Y Y Y Y Y ",
"Y Y Y Y Y Y   9 b M b b e x ;.b * * * * * * * * * * * * * * * * * * * * * * * * * * * * * * * * * * 9 5.9.w.8.O.b i a W 2.r.r.r.E = * * * % ,.w.9.j * * * * * * * * * * * * * * * * 4.r.r.d * * * * * * * * * * * * * * * * * * * * * * * * * * * * * * * * * * +. .- j b x b b . J Y Y Y Y Y ",
"Y Y Y Y Y Y   q b b b M t j ;.N * * * * * * * * * * * * * * * * * * * * * * * * * * * * * * * * * - *.9.9.6.f 7 & * * = 7 #.r.r.5.q % * * & ,.r.e.j * % * * * * * * * * * * * * * * 5.r.r.f * * * * * * * * * * * * * * * * * * * * * * * * * * * * * * * * * * @. .- v b x b b . J Y Y Y Y Y ",
"Y Y Y Y Y Y   q b b b b t j ;.M * * * * * * * * * * * * * * * * * * * * * * * * * * * * * * * * * f 9.e.9.z - & * * * % % = 6.q.r.N 8 * * % :.9.q.h d s 9 * * q s q * * 8 7 - q * * 5.r.r.f * * * * * * * * * * * * * * * * * * * * * * * * * * * * * * * * * * @.o.- x b b b b . J Y Y Y Y Y ",
"Y Y Y Y Y Y   q b b b b q j ;.M * * * * * * * * * * * * * * * * * * * * * * * * * * * * * * * * 8 @.9.w.;.9 * * * * * * * q ..q.q.@.f h W E 4.q.e.` E W q * 7 V { [ d 7 { ;.:.{ 8 * 4.r.r.d * * * * * * * * * * * * * * * * * * * * * * * * * * * * * * * * * * @. .- j b b b M . J Y Y Y Y Y ",
"Y Y Y Y Y Y   q n b b M u j ;.b * * * * % * * * * * * * * * * * * * * * * * * * * * * * * * * * % 4.r.r.W 7 * * * * * * * * b 9.9.<.i *.q.q.r.q.r.w.r.9.N = - *.r.9.j <.r.r.r.@.i * 4.r.r.g * * * * * * * * * * * * * * * % * * * * * * * * * * * * * * * * * * #. .- x b b b b . J Y Y Y Y Y ",
"Y Y Y Y Y Y   q b b b b q j ;.M * * * * * * * * * * * * * * * * * * * * * * % * * * * * * * * * i e.r.r.q % * * * * * * * * q i i a 0  .6.7.e.r.r.6.3.4.c - = *.9.9.1.q.q.r.w.%.i * 4.r.r.f * * * * * * * * * * * * * * * * * * * * * * * * * * * * * * * * * * @. .- b b b b M . J Y Y Y Y Y ",
"Y Y Y Y Y Y   q b b b b u j ;.b * * * * * * * * * * * * * * * * * * * * * * * * * * * * * * * * i r.r.9.q & * * * * * * * * * * & & 7 * & * <.r.r.c % 0 q * - *.w.e.0.6._ f g f 7 & 4.r.r.j * * * * * * * * * * * * * * * * * * * * * * * * * * * * * * * * * * @. .- c b b b b . J Y Y Y Y Y ",
"Y Y Y Y Y Y   9 M b b b y x ;.N * * * * * * * * * * * * * * * * * * * * * * * * * * * * * * * * d r.r.7.i * * * * * * * * * * * & * * * * = <.r.r.N * * * * ; *.w.e.6.9 q * * * * % 3.r.r.f * * * * * * * * * * * * * * * * * * * * * * * * * * * * * * * * * * @. .- x b b b b X J Y Y Y Y Y ",
"Y Y Y Y Y Y   q b b M b y k ,.b * * * * * * * * * * * * * * * * * * * * * * * * * * * * * * * * g r.r.6.p * * * * * * * * * * * & * * * * = <.r.r.N * * * * 7 *.9.e.| 8 * * * * * * 3.r.r.j * * * * * * * * * * * * * * * * * * * * * * * * * * * * * * * * * * @. .- x b b b b . J Y Y Y Y Y ",
"Y Y Y Y Y Y   q M M M M q j ;.b * * * * * * * * * * * * * * * * * * * * * * * * * * * * * * * * d r.r.6.i * * * * * * * * * * * * * * * * = <.r.r.N % * * * 7 *.e.9.W 9 * * * * % % 2.r.r.d * * * * * * * * * * * * * * * * * * * * * * * * * * * * * * * * * * @. .- x b M b M . J Y Y Y Y Y ",
"Y Y Y Y Y Y   9 b b b b y j -.C * * * * * * * * * * * * * * * * * * * * * * * * * * * * * * * * p r.r.9.i * * * * * * * * * * * * * * * * - <.r.r.N * * * * 7 -.r.r.W 7 * * * * % % 2.r.w.d * * * * * * * * * % * * * * * * * * * * * * * * * * * * * * * * * * @. .; x b M b b . J Y Y Y Y Y ",
"Y Y Y Y Y Y   q M b b b w j ;.C * * * * * * * * * * * * * * * * * * * * * * * * * * * * * * * * r r.r.q.9 * * * * * * * * * * & & * % * * = <.r.r.M * * * * 0 ;.r.r./ q * * * * * % 1.w.e.s * * * * * * * * * * * * * * * * * * * * * * * * * * * * * * * * * * @. .; x n b b n . J Y Y Y Y Y ",
"Y Y Y Y Y Y   q b n b M w j -.C * * * * * * * * * * * * * * * * * * * * * * * * * * * * * * * * 9 7.r.r.g * * * * * * * * * 7 x N N 7 & % = <.r.r.M * * * * 8 ;.r.r.] 8 * * * * % % 2.e.9.s * * * * * * * * * * * * * * * * * * * * * * * * * * * * * * * * * * @.X.; j M b b b . J Y Y Y Y Y ",
"Y Y Y Y Y Y   q b b b b t j ;.C * * * * * * * * * * * * * * * * * * * * * * * * * * * * * * * * = <.r.w.| 9 * * * * * & * * j r.r.4.& & * = :.r.r.b * * * * 8 ;.r.r.( = * * * * * % <.9.w.p % * * * * * * * * * * * * * * * * * * * * * * * * * * * * * * * * * @. .; x b b b M . J Y Y Y Y Y ",
"Y Y Y Y Y Y   9 b b M b q j ;.C * * * * * * * * * * * * * * * * * * * * * * * * * * * * * * * * 7 ] w.w.3.7 * * * * * & & q ..r.r.*.4 & * = ,.q.r.b * * * * 8 ;.r.r.( * * * * * * % 2.r.r.p % * * * * * * * * * * * * * * * * * * * % * * * * * * * * * * * * * &.X.- b b b n b . J Y Y Y Y Y ",
"Y Y Y Y Y Y   q b b M b r j ;.B * * * * * * * * * * * * * * * * * * * * * * * * * * * * * * * * * q 7.q.q._ 9 & * & * * * 8 7.r.r.n 8 * * * ;.r.r.b * * * * 9 ,.r.r.] * * * * * * % 2.e.w.p * % * * * * * * * * * * * * * * * * * * * * * * * * * * * * * * * * #...- j b z b n . J Y Y Y Y Y ",
"Y Y Y Y Y Y   9 b b M b q j ;.B * * * * * * * * * * * * * * * * * * * * * * * % * * * * * * * * * 9 [ q.q.7.E 7 8 & * 4 7 :.r.r.3.- * * * = -.w.r.~ = % 9 * 8 ;.r.r./ = * * * * * % 2.r.r.d * * * * * * * * * * * * * * * * * * * * * * * * * % * * * * * * * * #...- v b b b m . J Y Y Y Y Y ",
"Y Y Y Y Y Y   q b b b n q j =.m * * * * * * * * * * * * * * * * * * * * * * * * * * * * * * * * & & = =.9.0.q.:.} Z W +.7.r.r.9.b 7 * * * q X.9.9.6.Z C N e 7 ;.r.r./ ; * * * * * * 2.q.w.p * * * * * * * * * * * * * * * * * * * * * * * * * * * * * * * * * * @...- l b b b b . J Y Y Y Y Y ",
"Y Y Y Y Y Y   q n M b b r j ;.B * * * * * * * * * * * * * * * * * * * * * * * * * * * * * * * * & % % = @.e.r.r.r.r.r.r.r.r.8.Z = * * * * * s 9.r.0.r.w. .i 7 -.r.r.] = * * * * * & 2.r.r.s * * * * * * * * * * * * * * * * * * * * * * * * * * * * * * * * * * $.O.- z n b b m . J Y Y Y Y Y ",
"Y Y Y Y Y Y   9 b b b n w j =.C * * * * * * * * % * * * * * * * * * * * * * * * * * * * * * * * * * * * w n :.9.r.r.r.r.6.O.q - * * * * * * 9 W 6.r.r.9.{ w 7 @.7.7.~ * * * * * * % >.6.7.s * * * * * * * * * * * * * * * * * * * * * * * * * * * * * * * * * * #.O.- z b b b n . J Y Y Y Y Y ",
"Y Y Y Y Y Y   q b n b n q j ;.V * * * * * * * * * * * * * * * * * * * * * * * * * * * * * * * * * * * * % 8 = 8 f b j d * 7 * * * * * * * * * = 7 i p q - = 7 * - - = * * * * * * = * 7 p 9 * * * * * * * * * * * * * * * * * * * * * * * * * * * * * * * * * * $.O.- x b M b b . J Y Y Y Y Y ",
"Y Y Y Y Y Y   q n b b b t j ;.V * * * * * * * * * * * * * * * * * * * * * * * * * * * * * * * * * * * * * * * * * * * * * * * * * * * * * * * * * * * * * * % * * * * * * * * * * * * * * * * * * * * * * * * * * * * * * * * * * * * * * * * * * * * * * * * * #.X.- c n M b M . J Y Y Y Y Y ",
"Y Y Y Y Y Y   q b M b n q v =.C * * * * * * * * * * * * * * * * * * * * * * * * * * * * * * * * * * * * * * * * * * * * * * * * * * * * * * * * * * * * * * * * * * * * * * * * * * * * * * * * * * * * * * * * * * * * * * * * * * * * * * * * * * * * * * * * &.O.- c b b b b . J Y Y Y Y Y ",
"Y Y Y Y Y Y   q n n b n q j -.B * * * * * * * * * * * * * * * * * * * * * & * * * * * * * * * & * * * * * * * * & * * * * * * * * * * * * * * * * * * * * * * * * * * * * * * * * * * * * & * * * * * * * * * * * * * * * * * * * * * * * * * * * * * * * * * * #.o.- v b b b b o J Y Y Y Y Y ",
"Y Y Y Y Y Y   q M b b n q j ;.C * * * * * * * * * * * * * * * * * * * * * * * * * * * * * * * * * * * * * * * * * * * * * * * * * * * * * * * * * * * * * * * * * * * * * * * * * * * * * * * * * * * * * * * * * * * * * * * * * * * * * * * * * * * * * * * * #.O.- x b b b N . J Y Y Y Y Y ",
"Y Y Y Y Y Y   q b b b n q v ;.B * * * * * * * * * * * * * * * * * * * * * * * * * * * * * * * * * * * * * * * * * * * * * * * * * * * * * * * * * * * * * * * * * * * * * & * * * * * * * * * * * * * * * * * * * * * * * * * * * * * * * * * * * * * * * * * * $.O.- v b n b b . J Y Y Y Y Y ",
"Y Y Y Y Y Y   q b b b b q j ;.N * * * * * * * * * * * * * * * * * * * * * * * * * * * * * * * * * & * * * * * * * * * * * * * * * * * * * * * * * * * * * * * * * * * * * * * * * * * * * * * * * * * * * * * * * * * * * % * * * * * * * * * * * * * * * * * * $.O.- v b b b b . J Y Y Y Y Y ",
"Y Y Y Y Y Y   q M M b b q v ;.C * * * * * * * * * * * * * * * * * * * * * * * * * * * * * * * * * * * * * * * * * * * * * * * * * * * * * * * * * * * * * * * * * * * * * * * * * * * * * * * * * * * * * * * * * * * * * * * * * * * * * * * * * * * * * * * * $.o.- x n v b m . J Y Y Y Y Y ",
"Y Y Y Y Y Y   q M v v M u j ;.C * * * * * * * * * * * * * * * * * * * * * * * * * * * * * * * * * * * * * * * * * * * * * * * * * * * * * * * * * * * * * * * * * * * * * * * * * * * * * * * * * * * * * * * * * * * * * * * * * * * * * * * * * * * * * * * * #...- x b b b b o J Y Y Y Y Y ",
"Y Y Y Y Y Y   q b b v n q j ;.C * * * * * * * * * * * * * * * * * * * * * * * * * * * * * * * * * * * * * * * * * * * * * * * * * * * * * * * * * * * * * * * * * * * * * * * * * * * * * * * * * * * * * * * * * * * * * * * * * * * * * * * * * * * * * * * * #.o.- x x b b b . J Y Y Y Y Y ",
"Y Y Y Y Y Y   q v b v v q j ;.C * * * * * * * * * * * * * * * * * * * * * * * * * * * * * * * * * * * * * * * * * * * * * * * * * * * * * * * * * * * * * * * * * * * * * * * * * * * * * * * * % * * * * * * * * * * * * * * * * * * * * * * * * * * * * * * * #.o.- j b b b b . J Y Y Y Y Y ",
"Y Y Y Y Y Y   9 b z b b q j ;.Z * * * * * * * * * * * * * * * * * * * * * * * * * * * * * * * * * * * * * * * * * * * * * * * * * * * * * * * * * * * * * * * * * * * * * * * * * * * * * * * * * * * * * * * * * * * * * * * * * * * * * * * * * * * * % * * * #. .- v b b b b . J Y Y Y Y Y ",
"Y Y Y Y Y Y   q b b b v q j ;.C * * * * * * * * * * * * * * * * * * * * * * * * * * * * * * * * * * * * * * * * * * * * * * * * * * * * * * * * * * * * * * * * * * * * & * * * * * * * * * * * * * * * * * * * * * * * * * * * * * * * * * * * * * * * * * * * #.X.- j z b b b X J Y Y Y Y Y ",
"Y Y Y Y Y Y   0 b b x x q j ;.C * * * * * * * * * * * * * * * * * * * * * & * * * * * * * * * * * * * * * * * * & * * * * * * * * * * * * * * * * * * * * * * * * * * * * * * * * * * * * * * * * * * * * * * * * * * * * * * * * * * * * * * * * * * * * * * * @...- z b b x b . J Y Y Y Y Y ",
"Y Y Y Y Y Y   8 x b x b q v ;.N * * * * * * * * * * * * * * * * * * * * * * * * * * * * * * * * * * * * * * * * * * * * * * * * * * * * * * * * * * * * * * * * * * * * * * * * & * * * * * * * * * * * * * * * * * * * * * * * * * * * * * * * * * * * * * * * #.O.- j c b b b . J Y Y Y Y Y ",
"Y Y Y Y Y Y   0 x b z c q x ,.V * * * * * * * * * * * * * * * * * * * * * * * * * * * * * * * * * * & & * * * * * * * * * * * * * * * * * * * * * * * * * * * * * * * * * * * * * * * * * * * * * * * * * * * * * * * * * * * * * * * * * * * * * * * * * * * * $.o.- j b b b b X J Y Y Y Y Y ",
"Y Y Y Y Y Y   0 b b b j q j ,.Z * * * * * * * * * * * * * * * * * * * * * * * * * * * * * * * * * * & & * * * * * * * * * * * * * * * * * * * * * * * * * * * * * * * * * * * * * * * * * * * * * * * * * * * * * * * * * * * * * * * * * * * * * * * * * * * * #.O.- j b b z b X J Y Y Y Y Y ",
"Y Y Y Y Y Y   9 b c x b t j >.V * * * * * * * * * * * * * * * * * * * * * * * * * * * & * * * * * * & & * * * * * * * * * * * * * * * * * * * * * * * * * * * * * * * * * * * * * * * * * * * * * * * * * * * * * * * * * * * * * * * * * * * * * * * * * * * * #.o.- j x b b b X J Y Y Y Y Y ",
"Y Y Y Y Y Y   9 b b x b e x >.Z * * * * * * * * * * * * * * * * * * * * * * * * * * * * * * * * * * & & * * * * * * * * * * * * * * * * * * * * * * * * * * * * * * * * * * * * * * * * * * * * * * * * * * * * * * * * * * * * * * * * * * * * * * * * * * * * $.O.- j b b b b X J Y Y Y Y Y ",
"Y Y Y Y Y Y   0 b c b b y c ,.Z * * * * * * * * & * * * * * * * * * * * * * * * * * * * * * * * * * * * * * * * * * * * * * * * * * * * * * * * * * * * * * * * * * * * * * * * * & * * * * * * * * * * * * * * * * * * * * * * * * * * * * * * * * * * * * * * @.X.; c b b c b X J Y Y Y Y Y ",
"Y Y Y Y Y Y   9 b b b M s c :.Z * * * * * * * * * * * * * * * * * * * * * * * * * * * * * * * * * * * * * * * * * * * * * * * * * * * * * * * * * * * * * * * * * * * * * * * * * * * * * * * * * * * * * * * * * * * * * * * * * * * * * * * * * * * * * * * * @. .- h b c b b o J Y Y Y Y Y ",
"Y Y Y Y Y Y   0 b b b M i j ,.Z * * * * * * * * * * * * * * * * * * * * * * * * * * * * * * * * * * * * * * * * * * * * * * * * * * * * * * * * * * * * * * * * * * * * * * * * * * * * * * * * * * * * * * * * * * * * * * * * * * * * * * * * * * * * * * * * &. .; c b n b b X J Y Y Y Y Y ",
"Y Y Y Y Y Y   0 b b b M f 0 -.[ * * * * * * * * * * * * * * * * * * * * * * * * * * * * * * * * * * * * * * * * * * * * * * * * * * * * * * * * * * * * * * * * * * * * * * * * * * * * * * * * * * * * * * * * * * * * * * * * * * * * * * * * * * * * * * * p *._ ; b b b b b X J Y Y Y Y Y ",
"Y Y Y Y Y Y : 5 M b n b c 5 / -.c & & & * * * * * * * * * * * * * * * * * * * * * * * * * * * * * * * * * * * * * * * * * * * * * * * * * * * * * * * * * * * * * * * * * * * * * * * * * * * * * * * * * * * * * * * * * * * * * * * * * * * * * * * * * * * } @.i q b n b b b . J Y Y Y Y Y ",
"Y Y Y Y Y Y H 2 M b b b M i ;  .%.W & & * * * * * * * * * * * * * * * * * * * * * * * * * * * * * * * * * * * * * * * * * * * & * * * * * * * * * * * * * * * * * * * * * * * * & & * * * * * * * * * * * * * * * * * * * * * * * * * * * * * * * * * * * b | @.E = h b b b b j   J Y Y Y Y Y ",
"Y Y Y Y Y Y J o M b b b b v 7 4 ] %.*.$.#.$.*.*.*.*.=.*.*.*.*.*.*.*.*.*.*.*.*.*.*.*.*.*.*.*.*.*.*.=.*.*.*.*.*.*.$.*.*.*.*.*.*.*.*.*.*.*.*.&.$.*.*.*.*.*.*.*.*.*.*.*.*.*.*.*.*.*.*.*.*.*.*.*.*.*.*.*.*.*.*.*.*.*.*.*.*.*.*.*.*.*.$.*.*.*.$.*.$.*.*.&.$.$.*.#.O.N * r l k b b b a   U Y Y Y Y Y ",
"Y Y Y Y Y Y I   T c z c z c c q - q N R W W ! ! ^ ^ ^ ^ / / / ~ Q Q / Q / Q Q Q ~ / ~ ~ Q / ~ Q ~ ~ ~ ! ! ~ / ^ ~ ^ / ! / / / / ^ / / ^ / / / ^ ^ / ^ / / / ^ ^ / / / ~ / ~ / / / / ^ ~ / / ~ ! Q / / ) / / / / ~ ! / / / ~ / ~ ~ ~ / / ~ ~ ^ / ^ ^ ^ W W b - = a h k c c b n * # Y Y Y Y Y Y ",
"Y Y Y Y Y Y Y A K n b b c c b c f q 8 4 7 9 8 8 8 9 7 0 8 7 7 7 7 8 7 7 7 7 8 7 8 7 7 7 7 8 7 8 7 7 7 7 7 0 7 7 7 7 7 7 7 7 7 7 7 8 7 7 7 8 7 7 7 8 7 7 7 7 7 7 0 6 8 8 7 7 7 7 8 7 7 7 7 8 7 0 6 7 7 7 0 0 8 7 7 8 8 7 0 8 8 7 8 8 0 8 8 8 8 0 0 9 9 9 q q i j j j h k k z g   J Y Y Y Y Y Y ",
"Y Y Y Y Y Y Y I   w b b z b z c b j z l n b b n b b b n b b b b b b b b b b b b b b b b b b b b b n b b b b b b b b b b b b b b b b b b b b b b M b b b b b b b b b b b b b b b b b M b b b b b n n b b b b b b b b b b b b b b b b b b b b b b b M n M b b j j j j k j j v $ @ Y Y Y Y Y Y Y ",
"Y Y Y Y Y Y Y Y D   g c c j j j c z z b z n b n b n z b b c b b x b b x b b j b x x b x b b b b b v b x x b x b b b z b b b b b b x b b b b b z b b b b b b b b b b b x b z b z b c b b b x b b v v b b b b b b b b c b b b b b x b b b b v b c b b b b b b z j j j j j j =   I Y Y Y Y Y Y Y ",
"Y Y Y Y Y Y Y Y U >   i j j j j z b b b z m m b b z z b b x b x b b c v b x b b b b b b x b x b v z b b b z z z z b z z b b b b b b b b b b x b b x b b b x z x b b x x b j b b c b b b b b b b b b b b b b z b x b b b x b b x b b b x x b b b b b b b b b b z j j j j *   J Y Y Y Y Y Y Y Y ",
"Y Y Y Y Y Y Y Y Y I 1   * p j z z b b b b b n b b b b b b b b b v b b x x b b b b b b c b b b v b v z b b b z b x b v b b b b b b x b b b b b z b b b b j b c b x x b c b b b b b b b b b b b b b b b b v b z b b b c b b x b b x x z b b b c c c b z b b b n n b b q o   L Y Y Y Y Y Y Y Y Y ",
"Y Y Y Y Y Y Y Y Y Y Y G     O - w p a p a i p i i r i r i q q i r i i r i y q i q i q i u i i q i i e i i e i e i e i r i q i t u i i i i y i i i u i i u i i i i i t i i q i i r i i i i i i r i i i r i i i i i i i u i i w i i i i r i i u y y i w i i i y 0 * .   S I Y Y Y Y Y Y Y Y Y Y ",
"Y Y Y Y Y Y Y Y Y Y Y Y U J G @     @                                                                                                                                                                                                                           , J I Y Y Y Y Y Y Y Y Y Y Y Y ",
"Y Y Y Y Y Y Y Y Y Y Y Y Y Y Y Y Y Y Y Y Y Y Y Y Y Y Y Y Y Y Y Y Y Y Y Y Y Y Y Y Y Y Y Y Y Y Y Y Y Y Y Y Y Y Y Y Y Y Y Y Y Y Y Y Y Y Y Y Y Y Y Y Y Y Y Y Y Y Y Y Y Y Y Y Y Y Y Y Y Y Y Y Y Y Y Y Y Y Y Y Y Y Y Y Y Y Y Y Y Y Y Y Y Y Y Y Y Y Y Y Y Y Y Y Y Y Y Y Y Y Y Y Y Y Y Y Y Y Y Y Y Y Y ",
"Y Y Y Y Y Y Y Y Y Y Y Y Y Y Y Y Y Y Y Y Y Y Y Y Y Y Y Y Y Y Y Y Y Y Y Y Y Y Y Y Y Y Y Y Y Y Y Y Y Y Y Y Y Y Y Y Y Y Y Y Y Y Y Y Y Y Y Y Y Y Y Y Y Y Y Y Y Y Y Y Y Y Y Y Y Y Y Y Y Y Y Y Y Y Y Y Y Y Y Y Y Y Y Y Y Y Y Y Y Y Y Y Y Y Y Y Y Y Y Y Y Y Y Y Y Y Y Y Y Y Y Y Y Y Y Y Y Y Y Y Y Y Y ",
"Y Y Y Y Y Y Y Y Y Y Y Y Y Y Y Y Y Y Y Y Y Y Y Y Y Y Y Y Y Y Y Y Y Y Y Y Y Y Y Y Y Y Y Y Y Y Y Y Y Y Y Y Y Y Y Y Y Y Y Y Y Y Y Y Y Y Y Y Y Y Y Y Y Y Y Y Y Y Y Y Y Y Y Y Y Y Y Y Y Y Y Y Y Y Y Y Y Y Y Y Y Y Y Y Y Y Y Y Y Y Y Y Y Y Y Y Y Y Y Y Y Y Y Y Y Y Y Y Y Y Y Y Y Y Y Y Y Y Y Y Y Y Y ",
"Y Y Y Y Y Y Y Y Y Y Y Y Y Y Y Y Y Y Y Y Y Y Y Y Y Y Y Y Y Y Y Y Y Y Y Y Y Y Y Y Y Y Y Y Y Y Y Y Y Y Y Y Y Y Y Y Y Y Y Y Y Y Y Y Y Y Y Y Y Y Y Y Y Y Y Y Y Y Y Y Y Y Y Y Y Y Y Y Y Y Y Y Y Y Y Y Y Y Y Y Y Y Y Y Y Y Y Y Y Y Y Y Y Y Y Y Y Y Y Y Y Y Y Y Y Y Y Y Y Y Y Y Y Y Y Y Y Y Y Y Y Y Y ",
"Y Y Y Y Y Y Y Y Y Y Y Y Y Y Y Y Y Y Y Y Y Y Y Y Y Y Y Y Y Y Y Y Y Y Y Y Y Y Y Y Y Y Y Y Y Y Y Y Y Y Y Y Y Y Y Y Y Y Y Y Y Y Y Y Y Y Y Y Y Y Y Y Y Y Y Y Y Y Y Y Y Y Y Y Y Y Y Y Y Y Y Y Y Y Y Y Y Y Y Y Y Y Y Y Y Y Y Y Y Y Y Y Y Y Y Y Y Y Y Y Y Y Y Y Y Y Y Y Y Y Y Y Y Y Y Y Y Y Y Y Y Y Y "
};
