/* XPM */
static char *result[] = {
/* columns rows colors chars-per-pixel */
"203 100 140 2 ",
"   c #010101",
".  c #0B0B0B",
"X  c #131313",
"o  c #1B1C1C",
"O  c #022402",
"+  c #043404",
"@  c #252525",
"#  c #2D2D2D",
"$  c #303030",
"%  c #383737",
"&  c #383836",
"*  c #373738",
"=  c #373938",
"-  c #3D3D3C",
";  c #403E3F",
":  c #054005",
">  c #034A03",
",  c #045904",
"<  c #1C461B",
"1  c #195D19",
"2  c #057C05",
"3  c #3E403F",
"4  c #41413F",
"5  c #3F3F40",
"6  c #413F40",
"7  c #3F4140",
"8  c #424342",
"9  c #494847",
"0  c #474748",
"q  c #494748",
"w  c #4C4C4B",
"e  c #504F4F",
"r  c #465E45",
"t  c #50514E",
"y  c #4F4F51",
"u  c #504F50",
"i  c #4F5150",
"p  c #545453",
"a  c #585755",
"s  c #575956",
"d  c #595957",
"f  c #575759",
"g  c #5B5B5B",
"h  c #61615E",
"j  c #656565",
"k  c #686766",
"l  c #676866",
"z  c #696966",
"x  c #676768",
"c  c #696768",
"v  c #676969",
"b  c #6B6B6B",
"n  c #706F6F",
"m  c #6E706E",
"M  c #71716E",
"N  c #6E6E70",
"B  c #6F7170",
"V  c #737373",
"C  c #797977",
"Z  c #7C7C7B",
"A  c #018001",
"S  c #028B02",
"D  c #029C02",
"F  c #178B17",
"G  c #03A503",
"H  c #02AA02",
"J  c #00BB00",
"K  c #2EAC2E",
"L  c #02CB02",
"P  c #02D402",
"I  c #02DC02",
"U  c #00E100",
"Y  c #02EE02",
"T  c #00F600",
"R  c #00FF00",
"E  c #468F46",
"W  c #44A144",
"Q  c #4AB649",
"!  c #5EA25E",
"~  c #62A462",
"^  c #4CC74B",
"/  c #4FC84E",
"(  c #50C84E",
")  c #4FC850",
"_  c #50C850",
"`  c #81817F",
"'  c #868585",
"]  c #888987",
"[  c #878789",
"{  c #898788",
"}  c #878988",
"|  c #8A8A8A",
" . c #8F918E",
".. c #91918F",
"X. c #8F8E90",
"o. c #918F91",
"O. c #8F9190",
"+. c #919191",
"@. c #9B9B97",
"#. c #9C9C9B",
"$. c #A09F9E",
"%. c #A1A19F",
"&. c #A5A5A5",
"*. c #A8A7A7",
"=. c #A8A8A6",
"-. c #AAAAAA",
";. c #B4B4AF",
":. c #B4B4B3",
">. c #B9B9B7",
",. c #B6B7B9",
"<. c #B9B7B8",
"1. c #B7BAB9",
"2. c #BBBBBA",
"3. c #C0BFBE",
"4. c #BEC0BF",
"5. c #C1C1BE",
"6. c #C0BEC1",
"7. c #BFC1C0",
"8. c #C2C2C2",
"9. c #C8C6C7",
"0. c #C9C9C7",
"q. c #C9C7C8",
"w. c #CCCCCB",
"e. c #D3D3D3",
"r. c #DADAD5",
"t. c #DCDCDB",
"y. c #DFE0DD",
"u. c #E2E3DE",
"i. c #E4E4E3",
"p. c #E9E8E5",
"a. c #E7E9E9",
"s. c #ECECEC",
"d. c #F0F0EF",
"f. c #F4F4F3",
"g. c #F8F6F7",
"h. c #F6F8F6",
"j. c #F9FAF6",
"k. c #F9F7F8",
"l. c #F7FAFB",
"z. c #FDFDFD",
/* pixels */
"R R R R R R R R R R R R R R R R R R R R R R R R R R R R R R R R R R R R R R R R R R R R R R R R R R R R R R R R R R R R R R R R R R R R R R R R R R R R R R R R R R R R R R R R R R R R R R R R R R R R R R R R R R R R R R R R R R R R R R R R R R R R R R R R R R R R R R R R R R R R R R R R R R R R R R R R R R R R R R R R R R R R R R R R R R R R R R R R R R R R R R R R R R R R R R R R R R R R R R R R R R R ",
"R R R R R R R R R R R R R R R R R R R R R R R R R R R R R R R R R R R R R R R R R R R R R R R R R R R R R R R R R R R R R R R R R R R R R R R R R R R R R R R R R R R R R R R R R R R R R R R R R R R R R R R R R R R R R R R R R R R R R R R R R R R R R R R R R R R R R R R R R R R R R R R R R R R R R R R R R R R R R R R R R R R R R R R R R R R R R R R R R R R R R R R R R R R R R R R R R R R R R R R R R R R ",
"R R R R R R R R R R R R R R R R R R R R R R R R R R R R R R R R R R R R R R R R R R R R R R R R R R R R R R R R R R R R R R R R R R R R R R R R R R R R R R R R R R R R R R R R R R R R R R R R R R R R R R R R R R R R R R R R R R R R R R R R R R R R R R R R R R R R R R R R R R R R R R R R R R R R R R R R R R R R R R R R R R R R R R R R R R R R R R R R R R R R R R R R R R R R R R R R R R R R R R R R R R R ",
"R R R R R R R R R R R R R R R R R R R R R R R R R R R R R R R R R R R R R R R R R R R R R R R R R R R R R R R R R R R R R R R R R R R R R R R R R R R R R R R R R R R R R R R R R R R R R R R R R R R R R R R R R R R R R R R R R R R R R R R R R R R R R R R R R R R R R R R R R R R R R R R R R R R R R R R R R R R R R R R R R R R R R R R R R R R R R R R R R R R R R R R R R R R R R R R R R R R R R R R R R R R ",
"R R R R R R R R R R R R R R R R R R R R R R R R R R R R R R R R R R R R R R R R R R R R R R R R R R R R R R R R R R R R R R R R R R R R R R R R R R R R R R R R R R R R R R R R R R R R R R R R R R R R R R R R R R R R R R R R R R R R R R R R R R R R R R R R R R R R R R R R R R R R R R R R R R R R R R R R R R R R R R R R R R R R R R R R R R R R R R R R R R R R R R R R R R R R R R R R R R R R R R R R R R R ",
"R R R R R R R R R R R R L J S O                                                   O       O                                                                     O                                                                                                                                                                                                                     > H J I R R R R R R R R R R R R ",
"R R R R R R R R R R J     . $ - 8 6 8 8 ; 8 8 8 6 6 - 8 8 4 8 7 8 7 7 8 8 8 7 8 8 8 8 8 8 8 8 8 8 8 5 7 8 8 8 - 7 8 6 5 8 5 6 5 8 7 6 5 8 7 8 6 8 5 5 7 8 8 8 5 8 8 - 8 8 8 6 7 8 8 - 7 8 7 6 5 6 7 - 7 8 3 8 8 - 8 5 5 8 8 6 - 8 4 8 ; 8 4 8 7 8 8 8 8 7 8 8 8 8 8 8 8 8 6 ; ; 8 7 8 7 8 8 7 8 8 8 7 8 8 8 8 7 8 7 8 8 8 7 7 7 8 7 7 8 8 8 8 8 8 8 8 8 8 8 8 8 8 8 4 8 8 8 8 8 8 8 - = @ .   S U R R R R R R R R R R ",
"R R R R R R R R U A   * g n n b b b b b b b b b b b b b b b v b b b b b b b b b b b b b b b b b b b b b b b b b b b b b b b b b b b b b b b b b b N b b b b b b b b b b b b b b b b b b b b b b b b b b b x b b b b b b b b b b b b b b b b b b N b b b b b b b b b b b b b b b b b b b b b b b b b b b b B b b b B b b N b m B b N b B N b b B b b b b b b b b b b b b b b b b b b b b n b f #   S R R R R R R R R R ",
"R R R R R R R U   X d b n b b b b b b b b b b b c b b b k z b b b b b b b v c b b b b b b v b b b z b b b z b b b b b c b b c c b k b b k b b j x b x b b x b v b b b b b b l b b b b k j b b c b x b b b x b j b b b b b b b b b b b b z b l b b v v b v b b v j b j b x b c b j b b b v l b b v b v b v b b b b b b b b b m b B b b N m b m b b N b b b b b z b b v b b b b b b b b b b V b b p   S R R R R R R R R ",
"R R R R R R Y   X g b b n b b b b b b b b b b b x b b b c b j b b b b l b b b b b b b b b b b b b x b b b b b k j b c b l j b b b b x j b v b b b x b b b b b b b b b v b b b c b b b b b b z b b b v b x b b b b k j b b b v b l b v v b b b b b b b b b b v b b b b b b b b b b c b z b b v b b v b b b b v b m v v b b b v b b b b b b b b b b b b b z b b k z v b b b m m b b b N b b b b B V j . S R R R R R R R ",
"R R R R R R S   g k b b n b b b b b m m b b b m b b b b b b b b b b b b z b b b b b b b b b b b b b b x b z b b z b b b b b b b b b b b b b b b b b b b b b b b b b b b v b b b c b b b b b b b b b b b b b z b b b b b b b b b b z b b b b b b v b b b b b b b b b b b b b b b b b b b b b b b b b b b b m b b m v m m b b b b b b b m b b b b b b b b b b b c b b b b b b b b b n b b b b b m b n p + U R R R R R R ",
"R R R R R U   0 j c z b b b b g w 9 8 0 8 8 0 0 8 8 8 8 8 8 8 4 8 8 8 4 8 8 8 8 8 5 8 8 7 7 8 8 8 8 - 8 8 8 4 4 4 8 8 8 8 8 8 8 8 8 8 8 8 8 8 8 8 7 7 7 8 8 8 8 8 8 8 8 8 6 8 8 6 8 8 8 8 8 8 8 ; 3 8 8 8 8 4 8 5 8 8 8 8 8 8 8 8 8 7 8 8 8 8 8 8 8 8 8 8 8 8 8 8 8 8 8 - 8 6 8 8 ; 8 8 8 4 8 8 6 8 7 8 8 8 8 8 8 0 7 7 8 7 8 8 8 8 8 8 8 8 8 8 8 8 8 8 5 8 8 8 8 8 7 8 3 7 8 8 8 9 p j V M b m V n V K , R R R R R R ",
"R R R R R S X l k k z z z g 4 8 Z +.+.#.@.+.+.+.+.+.+...+.+.+.+.+.+.+. ... .+. .| +.+...+.O.O.+.+.| +.+.+.+.+. ...+.+...O.+.O.+. . .+. .+. .+.O.+.O.+.+.O.O.O.O.+.+.+.+.O.X.+.+.+.+.+.+. .o.+.+.+...+.+.+.+...O.+.+.+.+.+.O. . . .+.+.X.+...+. .+. .+.+.O.+.O.O.+.+.+.O.+.+. .O.+.O.+.O.o.+.....X.O.+.+.O.+.+.+.O.+.+.+.+.+.O.+.+. .+.+.+.+.+.+.+.+.+.+.X.O.O.o.O.| +.O. .+.O.| ..{ j 8 i b V m n V B ! > L R R R R R ",
"R R R R R   8 z z z z z a & b ;.2.6.2.2.2.<.2.<.2.2.2.2.<.<.<.<.<.<.2.2.<.2.<.<.2.<.<.>.2.<.<.1.<.2.<.>.<.<.<.>.<.<.2.<.<.<.2.<.<.<.<.>.<.<.<.1.<.2.1.1.<.1.<.<.<.<.1.<.<.<.1.<.<.:.<.<.<.<.<.>.>.>.<.<.2.2.1.1.<.<.<.<.<.<.<.>.<.1.<.<.>.1.2.<.<.2.2.<.<.<.<.1.<.<.1.<.:.<.:.>.:.<.<.:.<.:.:.<.<.,.,.2.<.1.<.1.1.1.1.<.1.<.<.<.1.<.:.1.<.1.1.<.<.<.,.1.<.<.<.<.<.1.>.<.<.<.<.>.<.2.6.-.f w b m b V M V F G R R R R R ",
"R R R R I   f c z z z h & M >.&.j $ $ $ $ $ $ $ $ $ $ $ $ $ $ $ $ $ $ $ $ $ $ $ $ $ $ $ $ $ $ $ $ $ $ $ $ $ $ $ $ $ $ $ $ $ $ $ $ $ $ $ $ $ $ $ $ $ $ $ $ $ $ $ $ $ $ $ $ $ $ $ $ $ $ $ $ $ $ $ $ $ $ $ $ $ $ $ $ $ $ $ $ $ $ $ $ $ $ $ $ $ $ $ $ $ $ $ $ $ $ $ $ $ $ $ $ $ $ $ $ $ $ $ $ $ $ $ # $ $ $ $ $ $ $ $ $ $ $ $ $ $ $ $ $ $ $ $ $ $ $ $ $ $ $ $ $ $ $ $ $ $ $ $ $ $ $ $ $ ' <.:.i p m m M m V 7   R R R R R ",
"R R R R J   j z b j z 9 9 ;.$.$ $ $ $ $ $ $ $ $ $ $ $ $ $ $ $ $ $ $ $ $ $ $ $ $ $ $ $ $ $ $ $ $ $ $ $ $ $ $ $ $ $ $ $ $ $ $ $ $ $ $ $ $ $ $ $ $ $ $ $ $ $ $ $ $ $ $ $ $ $ $ $ $ $ $ $ $ $ $ $ $ $ $ $ $ $ $ $ $ $ $ $ $ $ $ $ $ $ $ $ $ $ $ $ $ $ $ $ $ $ $ $ $ $ $ $ $ $ $ $ $ $ $ $ $ $ $ $ $ $ $ $ $ $ $ $ $ $ $ $ $ $ $ $ $ $ $ $ $ $ $ $ $ $ $ $ $ $ $ $ $ $ $ $ $ $ $ $ $ $ $ $ j 2.#.8 j b m M b w   R R R R R ",
"R R R R J   b b b v c = ' ,.y $ $ $ $ $ $ $ $ $ $ $ $ $ $ $ $ $ $ $ $ $ $ $ $ $ $ $ $ $ $ $ $ $ $ $ $ $ $ $ $ $ $ $ $ $ $ $ $ $ $ $ $ $ $ $ $ $ $ $ $ $ $ $ $ $ $ $ $ $ $ $ $ $ $ $ $ $ $ $ $ $ $ $ $ $ $ $ $ $ $ $ $ $ $ $ $ $ $ $ $ $ $ $ $ $ $ $ $ $ $ $ $ $ $ $ $ $ $ $ $ $ $ $ $ $ $ $ $ $ $ $ $ $ $ $ $ $ $ $ $ $ $ $ $ $ $ $ $ $ $ $ $ $ $ $ $ $ $ $ $ $ $ $ $ $ $ $ $ $ $ $ $ $ } 7.w f V b b b p   R R R R R ",
"R R R R J   b n b b j $ #.;.$ $ $ $ $ $ $ $ $ $ $ $ $ $ $ $ $ $ $ $ $ $ $ $ $ $ $ $ $ $ $ $ $ $ $ $ $ $ $ $ $ $ $ $ $ $ $ $ $ $ $ $ $ $ $ $ $ $ $ $ $ $ $ $ $ $ $ $ $ $ $ $ $ $ $ $ $ $ $ $ $ $ $ $ $ $ $ $ $ $ $ $ $ $ $ $ $ $ $ $ $ $ $ $ $ $ $ $ $ $ $ $ $ $ $ $ $ $ $ $ $ $ $ $ $ $ $ $ $ $ $ $ $ $ $ $ $ $ $ $ $ $ $ $ $ $ $ $ $ $ $ $ $ $ $ $ $ $ $ $ $ $ $ $ $ $ $ $ $ $ $ $ $ $ B 8.j w b V b b w   R R R R R ",
"R R R R J   b b b b j * &.$.$ $ $ $ $ $ $ $ $ $ $ $ $ $ $ $ $ $ $ $ $ $ $ $ $ $ $ $ $ $ $ $ $ $ $ $ $ $ $ $ $ $ $ $ $ $ $ $ $ $ $ $ $ $ $ $ $ $ $ $ $ $ $ $ $ $ $ $ $ $ $ $ $ $ $ $ $ $ $ $ $ $ $ $ $ $ $ $ $ $ $ $ $ $ $ $ $ $ $ $ $ $ $ $ $ $ $ $ $ $ $ $ $ $ $ $ $ $ $ $ $ $ $ $ $ $ $ $ $ $ $ $ $ $ $ $ $ $ $ $ $ $ $ $ $ $ $ $ $ $ $ $ $ $ $ $ $ $ $ $ $ $ $ $ $ $ $ $ $ $ $ $ $ $ p 8.b w N b b b p   R R R R R ",
"R R R R L   b b N N x = &.-.$ $ $ $ $ $ $ $ $ $ $ $ $ $ $ $ $ $ $ $ $ $ $ $ $ $ $ $ $ $ # $ $ $ $ $ $ $ $ $ $ $ $ $ $ $ $ $ $ $ $ $ $ $ $ $ $ $ $ $ # $ $ $ $ $ $ $ $ $ $ $ $ $ $ $ $ $ $ $ $ $ $ $ $ $ # $ $ $ $ $ $ $ $ $ $ $ $ $ $ $ $ $ $ $ $ $ $ $ $ $ $ $ $ $ $ $ $ $ $ $ $ $ $ $ $ $ $ $ $ $ $ $ $ $ $ $ $ $ # $ $ $ $ $ $ $ $ $ $ $ $ $ $ $ $ $ $ $ $ $ $ $ $ $ $ $ $ $ $ $ $ $ w 7.b w B b x b p   R R R R R ",
"R R R R J . b b N N b = &.:.# $ $ $ $ $ $ $ $ $ $ $ $ $ $ $ $ $ $ $ $ $ $ $ $ $ $ $ $ $ $ $ $ $ $ $ $ $ $ $ $ $ $ $ $ $ $ $ $ $ $ $ $ $ $ $ $ $ $ $ $ $ $ $ $ $ $ $ $ $ $ $ $ $ $ $ $ $ $ $ $ $ $ $ $ $ $ $ $ $ $ $ $ $ $ $ $ $ $ $ $ $ $ $ $ $ $ $ $ $ $ $ $ $ $ $ $ $ $ $ $ $ $ $ $ $ $ $ $ $ $ $ $ $ $ $ $ $ $ $ $ $ $ $ $ $ $ $ $ $ $ $ $ $ $ $ $ $ $ $ $ $ $ $ $ # $ $ $ $ $ $ $ $ w 7.b w b m b b p   R R R R R ",
"R R R R J   b b b N b - &.;.$ $ $ $ $ $ $ $ $ $ $ $ $ $ $ $ $ $ $ $ $ $ $ $ $ $ $ $ $ $ $ $ $ $ $ $ $ $ $ $ $ $ $ $ $ $ $ $ $ $ $ $ $ $ $ $ $ $ $ $ $ $ $ $ $ $ $ $ $ $ $ $ $ $ $ $ $ $ $ $ $ $ $ $ $ $ $ $ $ $ $ $ $ $ $ $ $ $ $ $ $ $ $ $ $ $ $ $ $ $ $ $ $ $ $ $ $ $ $ $ $ $ $ $ $ $ $ $ $ $ $ $ $ $ $ $ $ $ $ $ $ $ $ $ $ $ $ $ $ $ $ $ $ $ $ $ $ $ $ $ $ $ $ $ $ $ $ $ $ $ $ $ $ $ i 7.b w N b b b p   R R R R R ",
"R R R R J   b V n N c - &.;.$ $ $ $ $ $ $ $ $ $ $ $ $ $ $ $ $ $ $ $ $ $ $ $ $ $ $ $ $ $ $ $ $ $ $ $ $ $ $ $ $ $ $ $ $ $ $ $ $ $ $ $ $ $ $ $ $ $ $ $ $ $ $ $ $ $ $ $ $ $ $ $ $ $ $ $ $ $ $ $ $ $ $ $ $ $ $ $ $ $ $ $ $ $ $ $ $ $ $ $ $ $ $ $ $ $ $ $ $ $ $ $ $ $ $ $ $ $ $ $ $ $ $ $ $ $ $ $ $ $ $ $ $ $ $ $ $ $ $ $ $ $ $ $ $ $ $ $ $ $ $ $ $ $ $ $ $ $ $ $ $ $ $ $ $ $ $ $ $ $ $ $ $ $ w 7.b w N b b b p   R R R R R ",
"R R R R J   b b b b b - *.;.$ $ $ $ $ $ $ $ $ $ $ $ $ $ $ $ $ $ $ $ $ $ $ $ $ $ $ $ $ $ $ $ $ $ # $ $ $ $ $ $ $ $ $ $ $ $ $ $ $ $ $ $ $ $ $ $ $ $ $ $ $ $ $ $ $ $ $ $ $ $ $ $ $ $ $ $ $ $ $ $ $ $ $ $ $ $ $ $ $ $ $ $ $ $ $ $ $ $ $ $ $ $ $ $ $ $ $ $ $ $ $ $ $ # $ $ $ $ $ $ $ $ $ $ $ $ $ $ $ $ $ $ $ $ $ $ $ $ $ $ $ $ $ $ $ $ $ $ $ $ $ $ $ $ $ $ $ $ $ $ $ $ $ $ $ $ $ $ $ $ $ $ $ i 7.v w m b b b p   R R R R R ",
"R R R R J   b n b V b - *.:.$ $ $ $ $ $ $ $ $ $ $ $ $ $ $ $ $ $ $ $ $ $ $ $ $ $ $ $ $ $ $ $ $ $ $ $ $ $ $ $ $ $ $ $ $ $ $ $ $ $ $ $ $ $ $ $ $ $ $ $ $ $ $ $ $ $ $ $ $ $ $ $ $ $ $ $ $ $ $ $ $ $ $ $ $ $ $ $ $ $ $ $ $ $ $ $ $ $ $ $ $ $ $ $ $ $ $ $ $ $ $ $ $ $ $ $ $ $ $ $ $ $ $ $ $ $ $ $ $ $ $ $ $ $ $ $ $ $ $ $ $ $ $ $ $ $ $ $ $ $ $ $ $ $ $ $ $ $ $ $ $ $ $ $ $ $ $ $ $ $ $ $ $ $ p 7.b w b b b b p   R R R R R ",
"R R R R J   c N b b b - *.:.$ $ $ $ $ $ $ $ $ $ $ $ # $ $ $ $ $ $ $ $ $ $ $ $ $ $ $ $ $ $ $ $ $ $ $ $ $ $ $ $ $ $ # $ $ $ $ $ $ $ $ $ $ $ $ $ $ $ $ $ $ $ $ $ $ $ $ $ $ $ $ # $ $ $ $ $ $ $ $ $ $ $ $ $ $ $ $ $ $ $ $ $ $ $ $ $ $ $ $ $ $ $ $ $ $ $ $ $ $ $ $ $ $ $ $ $ $ $ $ $ $ $ $ $ $ $ $ $ $ $ $ $ $ $ $ $ $ $ $ $ $ $ $ $ $ $ $ $ $ $ $ $ $ $ $ $ $ $ $ $ $ $ $ $ $ $ $ $ $ $ $ $ 8 6.b w B b b m f   R R R R R ",
"R R R R J . c b b V b 6 *.:.$ $ $ $ $ $ $ $ $ $ $ $ $ $ $ $ $ $ $ $ $ $ $ $ $ $ $ $ $ $ $ $ $ $ $ $ $ $ $ $ $ $ $ $ $ $ $ $ $ $ $ $ $ $ $ $ $ $ $ $ $ $ $ $ $ $ $ $ $ $ $ $ $ $ $ $ $ $ $ $ $ $ $ $ $ $ $ $ $ $ $ $ $ $ $ $ $ $ $ $ $ $ $ $ $ $ $ $ $ $ $ $ $ $ $ $ $ $ $ $ $ $ $ $ $ $ $ $ $ $ $ $ $ $ $ $ $ $ $ $ $ $ $ $ $ $ $ $ $ $ $ $ $ $ $ $ $ $ $ $ $ $ $ $ $ $ $ $ $ $ $ $ $ $ j 6.z w b B b b p   R R R R R ",
"R R R R J   c n m b x - *.:.$ $ $ $ $ $ $ $ $ $ $ $ $ $ $ $ $ $ $ $ $ $ $ $ $ $ $ $ $ $ $ $ $ $ $ $ $ $ $ $ $ $ $ $ $ $ $ $ $ $ $ $ $ $ $ $ $ $ $ $ $ $ $ $ $ $ $ $ $ $ $ $ $ $ $ $ $ $ $ $ $ $ $ $ $ $ $ $ $ $ $ $ $ $ $ $ $ $ $ $ $ $ $ $ $ $ $ $ $ $ $ $ $ $ $ $ $ $ $ $ $ $ $ $ $ $ $ $ $ $ $ $ $ $ $ $ $ $ $ $ $ $ $ $ $ $ $ $ $ $ $ $ $ $ $ $ $ $ $ $ $ $ $ $ $ $ $ $ $ $ $ $ $ $ p 2.b w b b b N p   R R R R R ",
"R R R R J   b b m m b 5 *.:.$ $ $ $ $ $ $ $ $ $ $ $ $ $ $ $ $ $ $ $ $ $ $ $ $ $ $ $ $ $ $ $ $ $ $ $ $ $ $ $ $ $ $ $ $ $ $ $ $ $ $ $ $ $ $ $ $ $ $ $ $ $ $ $ $ $ $ $ $ $ $ $ $ $ $ $ $ $ $ $ $ $ $ $ $ $ $ $ $ $ $ $ $ $ $ # $ $ $ $ $ $ $ $ $ $ $ $ $ $ $ $ $ $ $ $ $ $ $ $ $ $ $ $ $ $ $ $ $ $ $ $ $ $ $ $ $ $ $ $ $ $ $ $ $ $ $ $ $ $ $ $ $ $ $ $ $ # $ $ $ $ $ $ $ $ $ $ $ $ $ $ $ $ 8 2.b w b b b b p   R R R R R ",
"R R R R J   b b b m j - *.:.$ $ $ $ $ $ $ $ $ $ $ $ $ $ $ $ $ $ $ $ $ $ $ $ $ $ $ $ $ $ $ $ $ $ $ $ $ $ $ $ $ $ $ $ $ $ $ $ $ $ $ $ $ $ $ $ $ $ $ $ $ $ $ $ $ $ $ $ $ $ $ $ $ $ $ $ $ $ $ $ $ $ $ $ $ $ $ $ $ $ $ $ $ $ $ $ $ $ $ $ $ $ $ $ $ $ $ $ $ $ $ $ $ $ $ $ $ $ $ $ $ $ $ $ $ $ $ $ $ $ # $ $ $ $ $ $ $ $ $ $ $ $ $ $ $ $ $ $ $ $ $ $ $ $ $ $ $ $ $ $ $ $ $ $ $ $ $ $ $ $ $ $ $ t 8.b w n b b b p   R R R R R ",
"R R R R J . b b b b v 3 *.:.$ $ $ $ $ $ $ $ $ $ $ $ $ $ $ $ $ $ $ # $ $ $ $ $ $ $ $ $ $ $ $ $ $ $ $ $ $ $ $ $ $ $ $ $ $ $ $ $ $ $ $ $ $ $ $ $ $ $ $ $ $ $ $ $ $ $ $ $ $ $ $ $ $ $ $ $ $ $ $ $ $ $ $ $ $ $ $ $ $ $ $ $ $ $ $ $ $ $ $ $ $ $ $ $ $ $ $ $ $ $ $ $ $ $ $ $ $ $ $ $ $ $ $ $ $ $ $ $ $ $ $ $ $ $ $ $ $ $ $ $ $ $ $ $ $ $ $ $ $ $ $ $ $ $ $ $ $ $ $ $ $ $ $ $ $ $ $ $ $ $ $ $ $ - 8.b w b b b b p   R R R R R ",
"R R R R J   b b b b b 3 &.:.$ $ $ $ $ $ $ $ $ $ $ $ $ $ $ $ $ $ $ $ $ $ $ $ $ $ $ $ $ $ $ $ $ $ $ $ $ $ $ $ $ $ $ $ $ $ $ $ $ $ $ $ $ $ $ $ $ $ $ $ $ $ $ $ $ $ $ $ $ $ $ $ $ $ $ $ $ $ $ $ $ $ $ $ $ $ $ $ $ $ $ $ $ $ $ $ $ $ $ $ $ $ $ $ $ $ $ $ $ $ $ $ $ $ $ $ $ $ $ $ $ $ $ $ $ $ $ $ $ $ $ $ $ $ $ $ $ $ $ $ $ $ $ $ $ $ $ $ $ $ $ $ $ $ $ $ $ $ $ $ $ $ $ $ $ $ $ $ $ $ $ $ $ $ g 8.b w n b b b p   R R R R R ",
"R R R R J   b b b b j - =.:.$ $ $ $ $ $ $ $ $ $ $ $ $ $ $ $ $ $ $ $ $ $ $ $ $ $ $ $ $ $ $ $ $ $ $ $ $ $ $ $ $ $ $ $ $ $ $ $ $ $ $ $ $ $ $ $ $ $ $ $ $ $ $ $ $ $ $ $ $ $ $ $ $ $ $ $ $ $ $ $ $ $ $ $ $ $ $ $ $ $ $ $ $ $ $ $ $ $ $ $ $ $ $ $ $ $ $ $ $ $ $ $ $ $ $ $ $ $ $ $ $ $ $ $ $ $ $ $ $ $ $ $ $ $ $ $ $ $ $ $ $ $ $ $ $ $ $ $ $ $ $ $ $ $ $ $ $ $ $ $ $ $ $ $ $ $ $ $ $ $ $ $ $ $ * 8.z w n b b n p   R R R R R ",
"R R R R J   b b b m b 4 =.:.$ $ $ $ $ $ $ $ $ $ $ $ $ $ $ $ $ $ $ $ $ $ $ $ $ $ $ $ $ $ $ $ $ $ $ $ $ $ $ $ $ $ $ $ $ $ $ $ $ $ $ $ $ $ $ $ $ $ $ $ $ $ $ $ $ $ $ $ $ $ $ $ $ $ $ $ $ $ $ $ $ $ $ $ $ $ $ $ $ $ $ $ $ $ $ $ $ $ $ $ $ # $ $ $ $ $ $ $ $ $ $ $ $ $ $ $ $ $ $ $ $ $ $ $ $ $ $ $ $ $ $ $ $ $ $ $ $ $ $ $ $ $ $ $ $ $ $ $ $ $ $ $ $ $ $ $ $ $ $ $ $ $ $ $ $ $ $ $ $ $ $ $ $ # 3.b w b b b b a   R R R R R ",
"R R R R J   v b b b b ; *.:.$ $ $ $ $ $ $ $ $ $ $ $ $ $ $ $ $ $ $ # $ $ $ $ $ $ $ $ $ $ $ $ $ $ $ $ $ $ $ $ $ $ $ $ $ $ $ $ $ $ $ $ $ $ $ $ $ $ $ $ $ $ $ $ $ $ $ $ $ $ $ $ $ $ $ $ $ $ $ $ $ $ $ $ $ $ $ $ $ $ $ $ $ $ $ $ $ $ $ $ $ $ $ $ $ $ $ $ $ $ $ $ $ $ $ $ $ $ $ $ $ $ $ $ $ $ $ $ $ $ $ $ $ $ $ $ $ $ $ $ $ $ $ $ $ $ $ $ $ $ $ $ $ $ $ $ $ $ $ $ $ $ $ $ $ $ $ $ $ $ $ $ $ $ 8 8.z w V b n b p   R R R R R ",
"R R R R J . v N b n j - *.:.$ $ $ $ $ $ $ $ $ $ $ $ $ $ $ $ $ $ $ $ $ $ $ $ $ $ $ $ $ $ $ $ $ $ $ $ $ $ $ $ $ $ $ $ $ $ $ $ $ $ $ $ $ $ $ $ $ $ $ $ $ $ $ $ $ $ $ $ $ $ $ $ $ $ $ $ $ $ $ $ $ $ $ $ $ $ $ $ $ $ $ $ $ $ $ $ $ $ $ $ $ $ $ $ $ $ $ $ $ $ $ $ $ $ $ $ $ $ $ $ $ $ $ $ $ $ $ $ $ $ $ $ $ $ $ $ $ $ $ $ $ $ $ $ $ $ $ $ $ $ $ $ $ $ $ $ $ $ $ $ $ $ $ $ $ $ $ $ $ $ $ $ $ $ p 8.z w b m b b p   R R R R R ",
"R R R R J   b b b b l - *.;.$ $ $ $ $ $ $ $ $ $ $ $ $ $ $ $ $ $ $ $ $ $ $ $ $ $ $ $ $ $ $ $ $ $ $ $ $ $ $ $ $ $ $ $ $ $ $ $ $ $ $ $ $ $ $ $ $ $ $ $ $ $ $ $ $ # $ $ $ $ $ $ $ $ $ $ $ $ $ $ $ $ $ $ $ # $ $ $ $ $ $ $ $ $ $ $ $ $ $ $ $ $ $ $ w p a - # $ $ $ $ $ $ $ $ $ $ $ $ $ $ $ $ $ $ $ $ $ $ $ $ $ $ $ $ $ $ $ $ $ $ $ $ $ $ $ $ $ $ $ $ $ $ $ $ $ $ $ $ $ $ $ $ $ $ $ $ $ $ $ $ 8 5.b w m b b n p   R R R R R ",
"R R R R J . b b b b j - *.:.$ $ $ $ $ $ $ $ $ $ $ $ $ $ $ $ $ $ $ $ $ $ $ $ $ $ $ $ $ $ $ $ $ $ $ $ $ $ $ $ $ $ $ $ $ $ $ $ $ $ $ $ $ $ $ $ $ $ $ $ $ $ $ - t & $ $ $ $ $ $ $ $ 9 b V C e $ $ $ $ $ $ $ $ $ $ $ $ $ $ 0 u $ $ $ $ $ $ $ $ q d @.-.&.Z w $ $ $ $ $ $ $ $ $ $ $ $ $ $ $ $ $ $ $ $ $ $ $ $ $ $ $ $ $ $ $ $ $ $ # $ $ $ $ $ $ $ $ $ $ $ $ $ $ $ $ $ $ $ $ $ $ $ $ $ $ $ $ $ g 5.b w n b b b p   R R R R R ",
"R R R R J   b b b b x - &.:.$ $ $ $ $ $ $ $ $ $ $ $ $ $ $ $ $ $ $ $ $ $ $ $ $ $ $ $ $ $ $ $ $ $ $ $ # $ $ $ $ $ $ $ $ $ $ $ $ $ $ $ $ $ $ $ $ $ $ 9 $ a ' %.=.+.z 8 % $ $ $ $ $ & 8.k.l.j $ $ $ $ $ $ $ $ $ $ $ $ $ p [ -.g % $ $ $ $ $ w 3.k.k.z.z.e.$ $ $ $ $ $ $ $ $ $ $ $ $ $ $ $ $ $ $ $ $ $ $ $ $ $ $ $ $ $ $ $ $ $ $ $ $ $ $ $ $ $ $ $ $ $ $ $ $ $ $ $ $ $ $ $ $ $ $ $ $ $ $ $ $ p 2.b w b b b n p   R R R R R ",
"R R R R J   b b b b v - &.:.$ $ $ $ $ $ $ $ $ $ $ $ $ $ $ $ $ $ $ $ $ $ $ $ $ $ $ $ $ $ $ $ $ $ $ $ $ $ $ $ $ $ $ $ $ $ $ $ $ $ $ $ $ $ $ $ $ $ 8 C e.z.z.z.z.z.z.p.-.- 8 $ $ $ & 5.f.k.k $ $ $ $ $ $ $ $ $ $ $ $ 6 ` z.k.u.q $ $ $ $ 0 6.k.h.k.a.i.2.$ $ w p t 8 $ $ $ $ $ $ $ $ $ $ $ $ $ $ $ $ $ $ $ $ $ $ $ $ $ $ $ $ $ $ $ $ $ $ $ $ $ $ $ $ $ $ $ $ $ $ $ $ $ $ $ $ $ $ $ $ $ $ $ a 5.b w n b b b p   R R R R R ",
"R R R R J   b b b b j - *.:.# $ $ $ $ $ $ $ $ $ $ $ $ $ $ $ $ $ $ $ $ $ $ $ $ $ $ $ $ $ $ $ $ $ $ $ $ $ $ $ $ $ $ $ $ $ $ $ $ $ $ $ $ $ $ $ $ p *.z.z.z.z.d.d.k.z.k.j.u.s 4 $ $ $ 5.l.k.z $ $ $ $ $ $ $ $ $ $ $ $ w  .k.l.s.9 $ $ $ # j h.j.f.] i p t 3 $ p -.&.' 0 # $ $ $ $ $ $ $ $ $ $ $ $ $ $ $ $ $ $ $ $ $ $ $ $ $ $ $ $ $ $ $ $ $ $ $ $ $ $ $ $ $ $ $ $ # $ $ $ $ $ $ $ $ $ $ $ $ p 5.b w b b b b p   R R R R R ",
"R R R R J   b b b B b = *.:.$ $ $ $ $ $ $ $ $ $ $ $ $ $ $ $ $ $ $ $ $ $ $ $ $ $ $ $ $ $ $ $ $ $ $ $ $ $ $ $ $ $ $ $ $ $ $ $ $ $ $ $ $ $ $ $ =  .z.z.l.3.k w t e ..u.j.j.r.& $ $ * 5.l.z.b $ $ $ $ $ $ $ $ $ $ $ $ $ e 6.t.+.e $ $ # p *.l.z.2.8 $ $ $ $ $ V z.z.q.- $ $ $ $ $ $ $ $ $ $ $ $ $ $ $ $ $ $ $ $ $ $ $ $ $ $ $ $ $ $ $ $ $ $ $ $ $ # $ $ $ $ $ $ $ $ $ $ $ $ $ $ $ $ $ $ $ $ p 5.b w V m b b p   R R R R R ",
"R R R R J . b b b m v - &.:.$ $ $ $ $ $ $ # $ $ $ $ $ $ $ $ $ $ $ $ $ $ $ $ $ $ $ $ $ $ $ $ $ $ $ $ $ $ $ $ $ $ $ $ $ $ $ $ $ $ $ $ $ $ $ $ 0 i.z.l.%.8 $ $ $ $ - t u.j.j. .4 $ * 9.z.z.b $ $ $ $ $ $ $ $ $ $ $ $ $ q % q 6 $ $ $ $ 8 2.z.z.+.0 $ $ $ $ $ N z.z.w.* $ $ $ $ $ $ $ $ $ $ $ $ $ $ $ $ $ $ $ $ $ $ $ $ $ $ $ $ $ $ $ $ $ $ $ $ $ $ $ $ $ $ $ $ $ $ $ $ $ $ $ $ $ $ $ $ $ $ d 2.b w b b b b p   R R R R R ",
"R R R R J   b b N b x - &.:.$ $ $ $ $ $ $ $ $ $ $ $ $ $ $ $ $ $ $ $ $ $ $ $ $ $ $ $ $ $ $ $ $ $ $ $ $ $ $ $ $ $ $ $ $ $ $ $ $ $ $ $ $ $ $ $ h z.z.p.w $ $ $ $ $ $ 4 ` j.j.w.& $ = 0.z.z.n $ $ 8 0 8 p $ $ $ $ $ $ $ $ $ $ $ $ $ $ $ ; 8.z.z.' $ w p - $ $ V z.z.w.* $ $ $ $ $ $ $ $ $ $ $ $ $ $ $ $ $ $ $ $ $ $ $ $ $ $ $ $ $ $ $ $ $ $ $ $ $ $ $ $ $ $ $ $ $ $ $ $ $ $ $ $ $ $ $ $ $ $ d 8.b p n b b b p   R R R R R ",
"R R R R J . c b b b b - *.;.# # $ $ $ $ $ $ $ $ $ $ $ $ $ $ $ $ $ $ $ $ $ $ $ $ $ $ $ $ $ # $ $ $ $ $ $ $ $ $ $ $ $ $ $ $ $ $ $ $ $ $ $ $ $ C z.z.e.# $ $ $ $ $ $ $ p h.j.d.a $ - 0.z.z.z 8 j -.9.0.<.V w $ $ $ $ $ u Z Z b - $ w Z C e.z.z.&.{ ' ' - { ` @.z.z.e.' ' V = $ $ $ $ $ $ $ $ $ $ $ $ $ $ $ $ $ $ $ $ $ $ $ $ $ $ $ $ $ $ $ $ $ $ $ $ $ $ $ $ $ $ $ $ $ $ $ $ $ $ $ $ $ $ $ j 8.b i n b N b p   R R R R R ",
"R R R R J   c b b b j - &.:.$ $ $ $ $ $ $ $ $ $ $ $ $ $ $ $ $ $ $ $ $ $ $ $ $ $ $ $ $ $ $ $ $ $ $ $ $ $ $ $ $ $ $ $ $ $ $ $ $ $ $ $ $ $ $ $ j z.z.f.8 $ $ $ $ $ $ $ 8 j j h p $ = q.z.z.h 3.z.z.z.z.z.z.9.w $ $ $ $ d l.z.e.# $ p z.z.z.z.z.z.z.z.t.w h.l.l.l.z.z.z.z.e.# $ $ $ $ $ $ $ $ $ $ $ $ $ $ $ $ $ $ $ $ $ $ $ $ $ $ $ $ $ $ $ $ $ $ $ $ $ $ $ $ $ $ $ $ $ $ $ $ $ $ $ $ $ $ $ j 8.b w b b b n p   R R R R R ",
"R R R R J   b b b b b 5 &.:.$ $ $ $ $ $ $ $ $ $ $ $ $ $ $ $ $ $ $ $ $ $ $ $ $ $ $ $ $ $ $ $ $ $ $ $ $ $ $ $ $ $ $ $ $ $ $ $ $ $ $ $ $ $ $ $ w a.z.z.<.- 9 $ $ $ $ $ $ $ $ $ $ $ = 0.z.z.t.z.z.i.t.f.z.z.l.:.w $ $ $ d l.z.w.# $ w a.a.h.z.z.f.a.a.e.- y.u.p.k.k.f.t.t.8.# $ $ $ $ $ $ $ $ $ $ $ $ $ $ $ $ $ $ $ $ $ $ $ $ $ $ $ $ $ $ $ $ $ $ $ $ $ $ $ $ $ $ $ $ $ $ $ $ $ $ $ $ $ $ $ j 8.b w V b b b p   R R R R R ",
"R R R R J . b b b n j - &.:.$ $ $ $ $ $ $ $ $ $ $ $ $ $ $ $ $ $ $ $ $ $ $ $ $ $ $ $ $ $ $ $ $ $ $ $ $ $ $ $ $ $ $ $ $ $ $ $ $ $ $ $ $ $ $ $ w #.z.z.z.r.Z t $ ; $ $ $ $ $ $ $ $ - w.z.z.z.i.x w $ 8 -.z.l.f.e $ $ $ g l.g.w.@ $ w - * 6.z.z.| ; $ $ * # # a z.k.q.= e w * $ $ $ $ $ $ $ $ $ $ $ $ $ $ $ $ $ $ $ $ $ $ $ $ $ $ $ $ $ $ $ $ $ $ $ $ $ $ $ $ $ $ $ $ $ $ $ $ $ $ $ $ $ $ # j 8.b y b b V b p   R R R R R ",
"R R R R J   b b b b b 3 &.;.$ $ $ $ $ $ $ $ $ $ $ $ $ $ $ $ $ $ $ $ $ $ $ $ $ $ $ $ $ $ $ $ $ $ $ $ $ $ $ $ $ $ $ $ $ $ $ $ $ $ $ $ $ $ $ $ $ 8 -.z.z.j.j.p.5...e * - $ $ $ $ $ - 0.z.z.p.= 8 $ $ $ w e.l.k.` w $ $ g l.z.w.# $ $ $ 8 2.z.z.+.$ $ $ $ $ $ h z.l.0.# $ $ $ $ $ $ $ $ $ $ $ $ $ $ $ $ $ $ $ $ $ $ $ $ $ $ $ $ $ $ $ $ $ $ $ $ $ $ $ $ $ $ $ $ $ $ $ $ $ $ $ $ $ $ $ $ $ $ b 8.b w b b b b p   R R R R R ",
"R R R R J   b b n b z 3 &.:.$ $ $ $ $ $ $ $ $ $ $ $ $ $ $ $ $ $ $ $ $ $ $ $ $ $ $ $ $ $ $ $ $ $ $ $ $ $ $ $ $ $ $ $ $ $ $ $ $ # $ $ $ $ $ $ $ $ w ' t.k.j.j.j.z.l.w.C 8 $ $ $ $ - 0.z.z.+.9 $ $ $ # p *.l.k.&.p $ $ d l.l.w.# $ $ $ 8 6.z.z.+.$ $ $ $ $ $ j z.z.w.$ $ $ $ $ $ $ $ $ $ $ $ $ $ $ $ $ $ $ $ # $ $ $ $ $ $ $ $ $ $ $ $ $ $ $ $ $ $ $ $ $ $ $ $ $ $ $ $ $ $ $ $ $ $ $ $ $ $ g 8.b w b n b b p   R R R R R ",
"R R R R J   b N b b b - &.;.# $ $ $ $ $ $ $ $ $ $ $ $ # $ $ $ $ $ $ $ $ $ $ $ $ $ $ $ $ $ $ $ $ $ $ $ $ $ $ $ $ $ $ $ $ $ $ $ $ $ $ $ $ $ $ $ $ $ 4 - M 2.p.j.z.z.z.z.9.w 8 $ $ = w.z.z.C $ $ $ $ $ a @.g.g.*.u $ $ g z.z.e.# $ $ $ 8 7.z.z.+.$ $ $ $ $ $ j z.z.w.* $ $ $ $ $ $ $ $ $ $ $ $ $ $ $ $ $ $ $ $ $ $ $ $ $ $ $ $ $ $ $ $ $ $ $ $ $ $ $ $ $ $ $ $ $ $ $ $ $ $ $ $ $ $ $ $ $ $ j 8.b w n b b b p   R R R R R ",
"R R R R J   b b b b j 5 &.:.# $ $ $ $ $ $ $ $ $ $ $ $ $ $ $ $ $ $ $ $ $ $ $ $ $ $ $ $ $ $ $ $ $ $ $ $ $ $ $ $ $ $ $ $ $ $ $ $ $ $ $ $ $ $ $ $ $ $ $ $ 8 & w b 2.s.z.z.z.t.8 $ $ = 0.z.z.C $ $ $ $ $ a @.k.j.-.u $ $ j z.z.e.# $ $ # 0 2.z.z.+.$ $ $ $ $ $ j z.z.w.$ $ $ $ $ $ $ $ $ $ $ $ $ $ $ $ $ $ $ $ $ $ $ $ $ $ $ $ $ $ $ $ $ $ $ $ $ $ $ $ $ $ $ $ $ $ $ $ $ $ $ $ $ $ $ $ $ $ $ g 8.b w b b b b p   R R R R R ",
"R R R R J   N b b b b - &.:.$ $ $ $ $ $ $ $ $ $ $ $ $ $ $ $ $ $ $ # $ $ $ $ $ $ $ $ $ $ $ $ $ $ $ $ $ $ $ $ $ $ $ $ $ $ $ $ $ $ $ $ $ $ $ $ $ $ $ $ $ $ $ $ & 8 8 =.z.z.z.-.8 $ % 9.k.z.V $ $ $ $ $ p @.k.j.-.u $ $ j z.z.e.$ $ $ $ 8 2.z.l.X.$ $ $ $ $ $ j z.z.e.* # $ $ $ $ $ $ $ $ $ $ $ $ $ $ $ $ $ $ $ $ $ $ $ $ $ $ $ $ $ $ $ $ $ $ $ $ $ $ $ $ $ $ $ $ $ $ $ $ $ $ $ $ $ $ $ $ $ g 8.b y N b b b p   R R R R R ",
"R R R R J . b b b N j 5 &.:.$ $ $ $ $ $ $ $ $ $ $ $ $ $ $ $ $ $ $ $ $ $ $ $ $ $ $ $ $ $ $ $ $ $ $ $ $ $ $ $ $ $ $ $ $ $ $ $ $ $ $ $ $ $ $ - 8 8 9 8 $ $ $ $ $ $ $ p =.z.z.p.p $ * 8.k.z.M $ $ $ $ $ p #.l.l.;.p $ $ b z.z.e.$ $ $ $ 8 <.k.z.| $ $ $ $ $ $ j z.z.w.* $ $ $ $ $ $ $ $ $ $ $ $ $ $ $ $ $ $ $ $ $ $ $ $ $ $ $ $ $ $ $ $ $ $ $ $ $ $ $ $ $ $ $ $ $ $ $ $ $ $ $ $ $ $ $ $ $ $ f 8.b w b b b b p   R R R R R ",
"R R R R J   N b b b x 5 -.:.$ $ $ $ $ $ $ $ $ $ $ $ $ $ $ $ $ $ $ $ $ $ $ $ $ $ $ $ $ $ $ $ $ $ $ $ $ $ $ $ $ $ $ $ $ $ $ $ $ $ $ $ $ $ $ w 2.8.>.t $ $ $ $ $ $ $ $ f l.z.z.9 $ * 9.k.j.V $ $ $ $ $ p #.z.z.:.p $ $ j z.z.e.# $ $ $ 8 <.j.k.| $ $ $ $ $ # j z.z.w.$ $ $ $ $ $ $ $ $ $ $ $ $ $ $ $ $ $ $ $ $ $ $ $ $ $ $ $ $ $ $ $ $ $ $ $ $ $ $ $ $ $ $ $ $ $ $ $ $ $ $ $ $ $ $ $ $ $ $ f 8.b i b b b b p   R R R R R ",
"R R R R J   b b b b j 5 &.:.$ $ $ $ $ $ $ $ $ $ $ $ $ $ $ $ $ $ $ $ $ $ $ $ $ $ $ $ $ # $ $ $ $ $ $ $ $ $ $ $ $ $ $ $ $ $ $ $ $ $ $ $ $ $ a i.j.k.t $ $ $ $ $ $ $ $ t f.z.z.q $ * 8.j.j.M $ $ $ $ $ p #.l.z.:.d $ $ j z.z.e.# $ $ $ 8 >.j.h.| $ $ $ $ $ # j z.z.w.$ $ $ $ $ $ $ $ $ $ $ $ $ $ $ $ $ $ $ $ $ $ $ $ $ $ $ $ $ $ $ $ $ $ $ $ $ $ $ $ $ $ $ $ # $ $ $ $ $ $ $ $ $ $ $ $ $ $ b 8.b w b b b b p   R R R R R ",
"R R R R J   N b b N x 5 &.:.# $ $ $ $ $ $ $ $ $ $ $ $ $ $ $ $ $ $ $ $ $ $ $ $ $ $ $ $ $ $ $ $ $ $ $ $ $ $ $ $ $ $ $ $ $ $ $ $ $ $ $ $ $ $ & 8.j.k.=.w $ $ $ $ $ $ - V z.l.d.8 $ & 5.j.j.V $ $ $ $ $ a #.z.z.:.p $ $ j z.z.e.$ $ $ $ 8 2.l.l.{ - $ $ $ $ $ g l.l.w.# $ $ $ $ $ $ $ $ $ $ $ $ $ $ $ $ $ $ $ $ $ $ $ $ $ $ $ $ $ $ $ $ $ $ $ $ $ $ $ $ $ $ $ $ $ $ $ $ $ $ $ $ $ $ $ $ $ $ g 8.b w b b b b y   R R R R R ",
"R R R R J   b b N b j 5 *.:.# $ $ $ $ $ $ $ $ $ $ $ $ $ $ $ $ $ $ $ $ $ $ $ $ $ $ $ $ $ $ $ $ $ $ $ $ $ $ $ $ $ $ $ $ $ $ $ $ $ $ $ $ $ $ 9 b f.j.h.| w 0 $ $ $ y w i.k.z.9.9 $ * 5.z.z.V $ $ $ $ $ a &.z.z.:.d $ $ j z.z.e.$ $ $ $ ; 2.z.z.| 3 $ $ $ $ $ p k.k.e.* $ 0 w $ $ $ $ $ $ $ $ $ $ $ $ $ $ $ $ $ $ $ $ $ $ $ $ $ $ $ $ $ $ $ $ $ $ $ $ $ $ $ $ $ $ $ $ $ $ # $ $ $ $ $ $ $ $ w 8.b w N b b b p   R R R R R ",
"R R R R J   x b b b x = =.:.$ $ $ $ $ $ $ $ $ $ $ $ $ $ $ $ $ $ $ $ $ $ $ $ $ $ $ $ $ $ $ $ $ $ $ $ $ $ $ $ $ $ $ $ $ $ $ $ $ $ $ $ $ $ $ # i &.z.z.z.t.=.` V ` ;.a.z.l.s.h 8 $ & 5.z.z.C # $ $ $ $ f &.z.z.:.p $ $ j z.z.e.$ $ $ $ 8 8.z.z. .- $ $ $ $ $ 9 s.k.h.-.C | 8 $ $ $ $ $ $ $ $ $ $ $ $ $ $ $ $ $ $ $ $ $ $ $ $ $ $ $ $ $ $ $ $ $ $ $ $ $ $ $ $ $ $ $ $ $ $ $ $ $ $ $ $ $ $ $ w 8.b w m b b N p   R R R R R ",
"R R R R J   b b N b x 5 =.:.$ $ $ $ $ # $ $ $ $ $ $ $ $ $ $ $ $ $ $ $ $ $ $ $ $ $ $ $ $ $ $ $ $ $ $ $ $ $ $ $ $ $ $ $ $ $ $ $ $ $ $ $ $ $ $ $ w @.d.z.z.z.z.z.z.z.z.j.p.C w $ $ * 8.z.z.C # $ $ $ $ p *.z.z.:.p $ $ j z.z.e.$ $ $ $ 8 8.z.z.| - $ $ $ $ $ ; ;.j.l.k.l.p.p # $ $ $ # $ $ $ $ $ $ $ $ $ $ $ $ $ $ $ $ $ $ $ $ $ $ $ $ $ $ $ $ $ $ $ $ $ $ $ $ $ $ $ $ $ $ $ $ $ $ $ $ $ $ p 6.b w b b b b t   R R R R R ",
"R R R R J   b N b b j 5 &.:.$ $ $ $ $ $ $ $ $ $ $ $ $ $ $ $ $ $ $ $ $ $ $ $ $ $ $ $ $ $ $ $ $ $ $ $ $ $ $ $ $ $ $ $ $ $ $ $ $ $ $ $ $ $ $ $ $ $ w p :.t.z.z.z.z.k.t.=.w - $ $ $ * :.a.d.V # $ $ $ $ a &.f.f.-.p $ $ g s.a.w.$ $ $ $ 8 <.d.d.] * $ $ $ $ $ $ 4 >.f.k.l.i.d $ $ $ $ $ $ $ $ $ $ $ $ $ $ $ $ $ $ $ $ $ $ $ $ $ $ $ $ $ $ $ $ $ $ $ $ $ $ $ $ $ $ $ $ $ $ $ $ $ $ $ $ $ $ $ p 6.b w b b M b t   R R R R R ",
"R R R R J   b b b b x 6 &.:.$ $ $ $ $ $ $ $ $ $ $ $ $ $ $ $ $ $ $ $ $ $ $ $ $ $ $ $ $ $ $ $ $ $ $ $ $ $ $ $ $ $ $ $ $ $ $ $ $ $ $ $ $ $ $ $ $ $ # # w $ a g z g t - w $ $ $ $ $ = 9 f 8 = $ $ $ $ $ # = * * - $ $ $ 8 8 p - 4 $ $ $ 8 * & - = $ $ $ $ $ $ $ $ & w f p p = $ $ $ $ $ $ $ $ $ $ $ $ $ $ $ $ $ $ $ $ $ $ $ $ $ $ $ $ $ $ $ $ $ $ $ $ $ $ $ $ $ $ $ $ $ $ $ $ $ $ $ $ $ $ $ y 8.b w b n b b p   R R R R R ",
"R R R R J   b b N b b - -.:.# $ $ $ $ $ $ $ $ $ $ $ $ $ $ $ $ $ $ $ $ $ $ $ $ $ $ $ $ $ $ $ $ $ $ $ $ $ $ $ $ $ $ $ $ $ $ $ $ $ $ $ $ $ $ $ $ $ $ $ $ $ $ $ $ $ $ $ $ $ $ $ $ $ $ $ $ $ $ $ $ $ $ $ $ $ $ $ $ $ $ $ $ $ # $ $ $ $ $ $ $ $ $ $ $ $ $ $ $ $ $ $ $ $ $ $ $ $ $ $ $ $ $ $ $ $ $ $ $ $ $ $ $ $ $ $ $ $ $ $ $ $ $ # $ $ $ $ $ $ $ $ $ $ $ $ $ $ $ $ $ $ $ $ $ $ $ $ $ $ $ $ $ p 2.c w n b b b p   R R R R R ",
"R R R R J . b N b b x - *.:.$ $ $ $ $ $ $ $ $ $ $ $ $ $ $ $ $ $ $ $ $ $ $ $ $ $ $ $ $ $ $ $ $ $ $ $ $ $ $ # $ $ $ $ $ $ $ $ $ $ $ $ $ $ $ $ $ $ $ $ $ $ $ $ $ $ $ $ $ $ $ $ $ $ $ $ $ $ $ $ $ $ $ $ $ $ $ $ $ $ $ $ $ $ $ $ $ $ $ $ $ $ $ $ $ $ $ $ $ $ $ $ $ $ $ $ $ $ $ $ $ $ $ $ $ $ $ $ $ $ $ $ $ $ $ $ $ $ $ $ $ $ $ $ $ $ $ $ $ $ $ $ $ $ $ $ $ $ $ $ $ $ $ $ $ $ $ $ $ $ $ $ $ $ p 2.b w b b n b p   R R R R R ",
"R R R R J . b b b b j 3 *.;.$ $ $ $ $ $ $ $ $ $ $ $ $ $ $ $ $ $ $ $ $ $ $ $ $ $ $ $ $ $ $ $ $ $ $ $ $ $ $ $ $ $ $ $ $ $ $ $ $ $ $ $ $ $ $ $ $ $ $ $ $ $ $ $ $ $ $ $ $ $ $ $ $ $ $ $ $ $ $ $ $ $ $ $ $ $ $ $ $ $ $ $ $ $ $ $ $ $ $ $ $ $ $ $ $ $ $ $ $ $ $ $ $ $ $ $ $ $ $ $ $ $ $ $ $ $ $ $ $ $ $ $ $ $ $ $ $ $ $ $ $ $ $ $ $ $ $ $ $ $ $ $ $ $ $ $ $ $ $ $ $ $ $ $ $ $ $ $ $ $ $ $ $ $ g 4.b w b b b b p   R R R R R ",
"R R R R J   b b b b z - &.:.$ $ $ $ $ $ $ $ $ $ $ $ $ $ $ $ $ $ $ $ $ $ $ $ $ $ $ $ $ $ $ $ $ $ $ $ $ $ $ $ $ $ $ $ $ $ $ $ $ $ $ $ $ $ $ $ $ $ $ $ $ $ $ $ $ $ $ $ $ $ $ $ $ $ $ $ $ $ $ $ $ $ $ $ $ $ $ $ $ $ $ $ $ $ $ $ $ $ $ $ $ $ $ $ $ $ $ $ $ $ $ $ $ $ $ $ $ $ $ $ $ $ $ $ $ $ $ $ $ $ $ $ $ $ $ $ $ $ $ $ $ $ $ $ $ $ $ $ $ $ $ $ $ $ $ $ $ $ $ $ $ $ $ $ $ $ $ $ $ $ $ $ $ $ w 8.b w n n b b p   R R R R R ",
"R R R R J . b b b b l 3 &.:.$ $ $ $ $ $ $ $ $ $ $ $ $ $ $ $ $ $ $ $ $ $ $ $ $ $ $ $ $ $ $ $ $ $ $ $ $ $ $ $ $ $ $ $ $ $ $ $ $ $ $ $ $ $ $ $ $ $ $ $ $ $ $ $ $ $ $ $ $ $ $ $ $ $ $ $ $ $ $ $ $ $ $ $ $ $ $ $ $ $ $ $ $ $ $ $ # $ $ $ $ $ $ $ $ $ $ $ $ $ $ $ $ $ $ $ $ $ $ $ $ $ $ $ $ $ $ $ $ $ $ $ $ $ $ $ $ $ $ $ # $ $ $ $ $ $ $ $ $ $ $ $ $ $ $ $ $ $ $ $ $ $ $ $ $ $ $ $ $ $ $ $ $ w 6.b w b b b b p   R R R R R ",
"R R R R J   b b b M l 3 =.;.$ $ $ $ $ $ $ $ $ $ $ $ $ $ $ $ $ $ $ $ $ $ $ $ $ $ $ $ $ $ $ $ $ $ $ $ # $ $ $ $ $ $ $ $ $ $ $ $ $ $ $ $ $ $ $ $ $ $ $ $ $ $ $ $ $ $ $ $ $ $ $ $ $ $ $ # $ $ $ $ $ $ $ $ $ $ $ $ $ $ $ $ $ $ $ $ $ $ $ $ $ $ $ $ $ $ $ $ $ $ $ $ $ $ $ $ $ $ $ $ $ $ $ $ $ $ $ $ $ $ $ $ $ $ $ $ $ $ $ $ $ $ $ $ $ $ $ $ $ $ $ $ $ $ $ $ $ $ $ $ $ $ $ $ $ $ $ $ $ $ $ $ $ 8 3.b w b N b b p   R R R R R ",
"R R R R J   b b b b z 4 =.:.$ $ $ $ $ $ $ $ $ $ $ $ $ $ $ $ $ $ $ $ $ $ $ $ $ $ $ $ $ $ $ $ $ $ $ $ $ $ $ $ $ $ $ $ $ $ $ $ $ $ $ $ $ $ $ $ $ $ $ $ $ $ $ $ $ $ $ $ $ $ $ $ $ $ $ $ $ $ $ $ $ $ $ $ $ $ $ $ $ $ $ $ $ $ $ $ $ $ $ $ $ $ $ $ $ $ $ $ $ $ $ $ $ $ $ $ $ $ $ $ $ $ $ $ $ $ $ $ $ $ $ $ $ $ $ $ $ $ $ $ $ $ $ $ $ $ $ $ $ $ $ $ $ $ $ $ $ $ $ $ $ $ $ $ $ $ $ $ $ $ $ $ $ $ 9 3.z w V n b b p   R R R R R ",
"R R R R J . b b b n b 4 =.:.$ $ $ $ $ $ $ $ $ $ $ $ $ $ $ $ $ $ $ $ $ $ $ $ $ $ $ $ $ $ $ $ $ $ $ $ $ $ $ $ $ $ $ $ $ $ $ $ $ $ $ $ $ $ $ $ $ $ $ $ $ $ $ $ $ $ $ $ $ $ $ $ $ $ $ $ $ $ $ $ $ $ $ $ $ $ $ $ $ $ $ $ $ $ $ $ $ $ $ $ $ $ $ $ $ $ $ $ $ $ $ $ $ $ $ $ $ $ $ $ $ $ $ $ $ $ $ $ $ $ $ $ $ $ $ $ $ $ $ $ $ $ $ $ $ $ $ $ $ $ $ $ $ $ $ $ $ $ $ $ $ $ $ $ $ $ $ $ $ $ $ $ $ $ 4 2.b w b b n M p   R R R R R ",
"R R R R J   b b b b j - =.:.$ $ $ $ $ $ $ $ $ $ $ $ $ $ $ $ $ $ $ $ $ $ $ $ $ $ $ $ $ $ $ $ $ $ $ $ $ $ $ $ $ $ $ $ $ $ $ $ $ $ $ $ $ $ $ $ $ $ $ $ $ # $ $ $ $ $ $ $ $ $ $ $ $ $ $ $ $ $ $ $ $ $ $ $ $ $ $ $ $ $ $ $ $ $ $ $ $ $ $ $ $ $ $ $ $ $ $ $ $ $ $ $ $ $ $ $ $ $ $ $ $ $ $ $ $ $ $ $ $ $ $ $ $ $ $ $ $ $ $ $ $ $ $ $ $ $ $ $ $ $ $ $ $ # $ $ $ $ $ $ $ $ $ $ $ $ $ $ $ $ $ $ $ - 3.b w m m b M a   R R R R R ",
"R R R R J   b b b b z - -.:.$ $ $ $ $ $ $ $ $ $ $ $ $ $ $ $ $ $ $ $ $ $ $ $ $ $ $ $ $ $ $ $ $ $ $ $ $ $ $ $ $ $ $ $ $ $ $ $ $ $ $ $ $ $ $ $ $ $ $ $ $ $ $ $ $ $ $ $ $ $ $ $ $ $ $ $ $ $ $ $ $ $ $ $ $ $ $ $ $ $ $ $ $ $ $ $ $ $ $ $ $ $ $ $ $ $ $ $ $ $ $ $ $ $ $ $ $ $ $ $ $ $ $ $ $ $ $ $ $ $ $ $ $ $ $ $ $ $ $ $ $ $ $ $ $ $ $ $ $ $ $ $ $ $ $ $ $ $ $ $ $ $ $ $ $ $ $ $ $ $ $ $ $ $ $ 5.z w b b m b p   R R R R R ",
"R R R R J   b b b b b - -.:.$ $ $ $ $ $ $ $ $ $ $ $ $ $ $ $ $ $ $ $ # $ $ $ $ $ $ $ $ $ $ $ $ $ $ $ $ $ $ $ $ $ $ $ $ $ $ $ $ $ $ $ $ $ $ $ $ $ $ $ $ $ $ $ $ $ $ $ $ $ $ $ $ $ $ $ $ $ $ $ $ $ $ $ $ $ $ $ $ $ $ $ $ $ $ $ $ $ $ $ $ $ $ $ $ $ $ $ # $ $ $ $ $ $ $ $ $ $ $ $ $ $ $ $ $ $ $ $ $ $ $ $ $ $ $ $ $ $ $ $ $ $ $ $ $ $ $ $ $ $ $ $ $ $ $ $ $ $ $ $ $ $ $ $ $ $ $ $ $ $ $ $ $ $ 5.b w m z n n t   R R R R R ",
"R R R R J   b b b b b 4 =.:.$ $ $ $ $ $ $ $ $ $ $ $ $ $ $ $ $ $ $ $ $ $ $ $ $ $ $ $ $ $ $ $ $ $ $ $ $ $ $ $ $ $ $ $ $ $ $ $ $ $ $ $ $ $ $ $ $ $ $ $ $ $ $ $ $ $ $ $ $ $ $ $ $ $ $ $ $ $ $ $ $ $ $ $ $ $ $ $ $ $ $ $ $ $ $ $ $ $ $ $ $ $ $ $ $ $ $ $ $ $ $ $ $ $ $ $ $ $ $ $ $ $ $ $ $ $ $ $ $ $ $ $ $ $ $ $ $ $ $ $ $ $ $ $ $ $ $ $ $ $ $ $ $ $ $ $ $ $ $ $ $ $ $ $ $ $ $ $ $ $ $ $ $ $ $ 2.b w n m b b a   R R R R R ",
"R R R R J   b b b b l - =.;.$ $ $ $ $ $ $ $ $ $ $ $ $ $ $ $ $ $ $ $ $ $ $ $ $ $ $ $ $ $ $ # $ $ $ $ $ $ $ $ $ $ $ $ $ $ $ $ $ $ $ $ $ $ $ $ $ $ $ $ $ $ $ $ $ $ $ $ $ $ $ $ $ $ $ $ $ $ $ $ $ $ $ $ $ $ $ $ $ $ $ $ $ $ $ $ $ $ $ $ $ $ $ $ $ $ $ $ $ $ $ $ $ $ $ $ $ $ $ $ $ $ $ $ $ $ $ $ $ $ $ $ # $ $ $ $ $ $ $ $ $ $ $ $ $ $ $ $ $ $ $ $ $ $ $ $ $ $ $ $ $ $ $ $ $ $ $ $ $ $ $ $ $ & 2.b w m n n n p   R R R R R ",
"R R R R J   b b b b z 3 =.:.$ $ $ $ $ $ $ $ $ $ $ $ $ $ $ $ $ $ $ $ $ $ $ $ $ $ $ $ $ $ $ $ $ $ $ $ $ $ $ $ $ $ $ $ $ $ $ $ $ $ $ $ $ $ $ $ $ $ $ $ $ $ $ $ $ $ $ $ $ $ $ $ $ $ $ $ $ $ $ $ $ $ $ $ $ $ $ $ $ $ $ $ $ $ $ $ $ $ $ $ $ $ $ $ $ $ $ $ $ $ $ $ $ $ $ $ $ $ $ $ $ $ $ $ $ $ $ $ $ $ $ $ $ $ $ $ $ $ $ $ $ $ $ $ $ $ $ $ $ $ $ $ $ $ $ $ $ $ $ $ $ $ $ $ $ $ $ $ $ $ $ $ $ $ $ 5.b w m z b n p   R R R R R ",
"R R R R J   b b b b v 8 *.:.$ $ $ $ $ $ $ $ $ $ $ $ $ $ $ $ $ $ $ $ $ $ $ $ $ $ $ $ $ $ $ $ $ $ $ $ $ $ $ $ $ $ $ $ $ $ $ $ $ $ $ $ $ $ $ $ $ $ $ $ $ $ $ $ $ $ $ $ $ $ $ $ $ $ $ $ $ $ $ $ $ $ $ $ $ $ $ $ $ $ $ $ $ $ $ $ $ $ $ $ $ $ $ $ $ $ $ $ $ $ $ $ $ $ $ $ $ $ $ $ $ $ $ $ $ $ $ $ $ $ $ $ $ $ $ $ $ $ $ $ $ $ $ $ $ $ $ $ $ $ $ $ $ $ $ $ $ $ $ $ $ $ $ $ $ $ $ $ $ $ $ $ $ $ $ 3.z w b N b n p   R R R R R ",
"R R R R J . b b b b b 3 *.;.$ $ $ $ $ $ $ $ $ $ $ $ $ $ $ $ $ $ $ $ $ $ $ $ $ $ $ $ $ $ $ $ $ $ $ $ $ $ $ $ $ $ $ $ $ $ $ $ $ $ $ $ $ $ $ $ $ $ $ $ $ $ $ $ $ $ $ $ $ $ $ $ $ $ $ $ $ $ $ $ $ $ $ $ $ $ $ # $ $ $ $ $ $ $ $ $ $ $ $ $ $ $ $ $ $ $ $ $ $ $ $ $ $ $ $ $ $ $ $ $ $ $ $ $ $ $ $ $ $ $ $ $ $ $ $ $ $ $ $ $ $ $ $ $ $ $ $ $ $ $ $ $ $ $ $ $ $ $ $ $ $ $ $ $ $ $ $ $ $ $ $ $ $ $ 3.b w b b n b p   R R R R R ",
"R R R R J . b b b b v 7 *.:.$ $ $ $ $ $ $ $ $ $ $ $ $ $ $ $ $ $ $ $ $ $ $ $ $ $ $ $ $ $ $ $ $ $ $ $ $ $ $ $ $ $ $ $ $ $ $ $ $ $ $ $ $ $ $ $ $ $ $ $ $ $ $ $ $ $ $ $ $ $ $ $ $ $ $ $ $ $ $ $ $ $ $ $ $ $ $ $ $ $ $ $ $ $ $ $ $ $ $ $ $ $ $ $ $ $ $ $ $ $ $ $ $ $ $ $ $ $ $ $ $ $ $ $ $ $ $ $ $ $ $ $ $ $ $ $ $ $ $ $ $ $ $ $ $ $ $ $ $ $ $ $ $ $ $ $ $ $ $ $ $ $ $ $ $ $ $ $ $ $ $ $ $ $ $ 6.b w n b b b p   R R R R R ",
"R R R R J   c b b v l 3 *.:.$ $ $ $ $ $ $ $ $ $ $ $ $ $ $ $ $ $ $ $ $ $ $ $ $ $ $ $ $ $ $ $ $ $ $ $ $ $ $ $ $ $ $ $ $ $ $ $ $ $ $ $ $ $ $ $ $ $ $ $ $ $ $ $ $ $ $ $ $ $ $ $ $ $ $ $ $ $ $ $ $ $ $ $ $ $ $ $ $ $ $ $ $ $ $ $ $ $ $ $ $ $ $ $ $ $ $ $ $ $ $ $ $ $ $ $ $ $ $ $ $ $ $ $ $ $ $ $ $ $ $ $ $ $ $ $ $ $ $ $ $ $ $ $ $ $ $ $ $ $ $ $ $ $ $ $ $ $ $ $ $ $ $ $ $ $ $ $ $ $ $ $ $ $ = 2.b w n b b b p   R R R R R ",
"R R R R J . x b b z b - *.;.# # $ $ $ $ $ $ $ $ $ $ $ $ $ $ $ $ $ $ $ $ $ $ $ $ $ $ $ $ $ $ $ $ $ $ $ $ $ $ $ $ $ $ $ $ $ $ $ $ $ $ $ $ $ $ $ $ $ $ $ $ $ $ $ $ $ $ $ $ $ $ $ $ $ $ $ $ $ $ $ $ $ $ $ $ $ $ $ $ $ $ $ $ $ $ $ $ $ $ $ $ $ $ $ $ $ $ $ $ $ $ $ $ $ $ $ $ $ $ $ $ $ $ $ $ $ $ $ $ $ $ $ $ $ $ $ $ $ $ $ $ $ $ $ $ $ $ $ $ $ $ $ $ $ $ $ $ $ $ $ $ $ $ $ $ $ $ $ $ $ $ $ $ - 2.j w b b b b p   R R R R R ",
"R R R R J   x b b b c - &.;.$ $ $ $ $ $ $ $ $ $ $ $ $ $ $ $ $ $ $ $ $ $ $ $ $ $ $ $ $ $ $ $ $ $ $ $ $ $ $ $ $ $ $ $ $ # $ $ $ $ $ $ $ $ $ $ $ $ $ $ $ $ $ $ $ $ $ $ $ $ $ $ $ $ $ $ $ $ $ $ $ $ $ $ $ $ $ $ $ $ $ $ $ $ $ $ $ $ $ $ $ $ $ $ $ $ $ $ $ $ $ $ $ $ $ $ $ $ $ $ $ $ $ $ $ $ $ $ $ $ $ $ $ $ $ $ $ $ $ $ $ $ $ $ $ $ $ $ $ $ $ $ $ # $ $ $ $ $ $ $ $ $ $ $ $ $ $ $ $ $ $ $ $ w 5.b 8 b b b x w   R R R R R ",
"R R R R J . x b b b x - #.:.$ $ $ $ $ $ $ $ $ $ $ $ $ $ $ $ $ $ $ $ $ $ $ $ $ $ $ $ $ $ $ $ $ $ $ $ $ $ $ $ $ $ $ $ $ $ $ $ $ $ $ $ $ $ $ $ $ $ $ $ $ $ $ $ $ $ $ $ $ $ $ $ $ $ $ $ $ $ $ $ $ $ $ $ $ $ $ $ $ $ $ $ $ $ $ $ $ $ $ $ $ $ $ $ $ $ $ $ $ $ $ $ $ $ $ $ $ $ $ $ $ $ $ $ $ $ $ $ $ $ $ $ $ $ $ $ $ $ $ $ $ $ $ $ $ $ $ $ $ $ $ $ $ $ $ $ $ $ $ $ $ $ $ $ $ $ $ $ $ $ $ $ $ $ C 8.g w z z z c y   Y R R R R ",
"R R R R J   j b b b b - [ <.g $ $ $ $ $ $ $ $ $ $ $ $ $ $ $ $ $ $ $ $ $ $ $ $ $ $ $ $ $ $ $ $ $ $ $ $ $ $ $ $ $ $ $ $ $ $ $ $ $ $ $ # $ $ $ $ $ $ $ $ $ $ $ $ $ $ $ $ $ $ $ $ $ $ $ $ $ $ $ $ $ $ $ $ $ $ $ $ $ $ $ $ $ $ $ $ $ $ $ $ $ $ $ $ $ $ $ $ $ $ $ $ $ $ $ $ $ $ $ $ $ $ $ $ $ $ $ $ $ $ $ $ $ $ $ $ $ $ $ $ $ $ $ $ $ $ $ $ $ $ $ $ $ $ $ $ $ $ $ $ $ $ $ $ $ $ $ $ $ $ $ $ $ $.6.8 a j k k k e   R R R R R ",
"R R R R J   j v b b k w w :.%.$ $ $ $ $ $ $ $ $ $ $ $ $ $ $ $ $ $ $ $ $ $ $ $ $ $ $ $ $ $ $ $ $ $ $ $ $ $ $ $ $ $ $ $ $ $ $ $ $ $ $ $ $ $ $ $ $ $ $ $ $ $ $ $ $ $ $ $ $ $ $ $ $ $ $ $ $ $ $ $ $ $ $ $ $ $ $ $ $ $ $ $ $ $ $ $ $ $ $ $ $ $ $ $ $ $ $ $ $ $ $ $ $ $ $ $ $ $ $ $ $ $ $ $ $ $ $ $ $ $ $ $ $ $ $ $ $ $ $ $ $ $ $ $ $ $ $ $ $ $ $ $ $ $ $ $ $ $ $ $ $ $ $ $ $ $ $ $ $ $ $ $ b 2.#.8 j j k z j w   R R R R R ",
"R R R R I   d b b z k h = b 1.&.C $ $ $ $ $ $ # $ $ $ $ $ $ $ $ $ $ $ $ $ $ $ $ $ $ $ $ $ $ $ $ $ $ $ $ $ $ $ $ $ $ $ $ $ $ $ $ $ $ $ $ $ $ $ $ $ $ $ $ $ $ $ $ $ $ $ $ $ $ $ $ $ $ $ $ $ $ $ $ $ $ $ $ $ $ $ $ $ $ $ $ $ $ $ $ $ $ $ $ $ $ $ $ $ $ $ $ $ $ $ $ $ $ $ $ $ $ $ $ $ $ $ $ $ $ $ $ $ $ $ $ $ $ $ $ $ $ $ $ $ $ $ $ $ $ $ $ $ $ $ $ $ $ $ $ $ $ $ $ $ $ $ $ $ $ $ $ # p #.8.:.w f b j b z k -   R R R R R ",
"R R R R R   w b b k j j p * j -.6.2.2.2.6.2.6.2.2.2.2.2.2.2.2.2.2.2.2.2.2.2.4.2.2.2.2.2.2.2.2.2.2.2.2.2.2.2.<.2.2.2.2.2.2.2.2.2.2.2.2.4.2.2.2.2.2.4.4.2.>.2.2.4.2.2.2.2.2.2.<.2.2.2.2.<.2.2.<.2.2.2.2.2.2.4.4.2.2.4.2.2.4.4.6.2.2.2.2.2.2.6.2.4.2.7.2.2.2.2.<.2.2.2.2.2.2.2.2.2.2.2.2.2.4.2.2.2.4.2.2.2.2.2.2.2.4.2.2.2.2.6.2.2.2.2.2.2.2.<.1.2.2.2.2.<.2.<.<.2.2.2.2.2.2.6.7.2.5.8.2.&.w t b b b b b b o   R R R R R ",
"R R R R R S o b b k j j j f - 8 v ' { [ [ } } { } [ { { } { { { | { { } { | | { | { | } | { } } } } ] { { { ' [ { | { } } { | | | { | { | { | | | | | | | { | ] | { ] ] ] { ] | { } { { } { { [ | } } | } { { } | | { { { { { | } { | | | | | | { { } } | } } | | | { | { { { [ { { | | | { { | { | | | | | | | | | { | { | | | { { [ } } ] ' ] [ ] ' ' { { { { } { | | { | O.+.| ' g 8 p b b b b b b g   H R R R R R ",
"R R R R R P   p z j j j x j j p w w 8 w q 8 q 8 8 8 8 0 8 0 8 8 0 0 8 8 8 q 8 8 8 0 8 8 8 8 0 8 8 8 0 8 8 8 8 8 8 8 8 8 0 8 8 8 8 8 8 8 8 8 8 8 8 0 8 8 8 8 8 0 8 8 8 8 8 8 8 8 8 8 8 8 8 8 8 8 8 8 8 8 8 0 8 8 8 8 8 8 8 8 8 8 8 9 8 8 0 8 8 8 8 8 8 8 8 8 8 0 8 8 8 8 8 w 8 0 8 8 8 8 8 8 8 8 8 0 8 8 8 8 0 8 8 9 8 8 8 q 8 8 8 8 0 8 8 8 8 6 8 6 8 8 8 8 8 8 8 0 w 8 w w w w w p p j b b b z z b n 6   I R R R R R ",
"R R R R R R S o j j j j x z b b n n b b b b c b b b b b b b b b b b b b b b b b m b b v b b b b b b b b b b b b b b b b b b b b b b m b b b b b b b b b b v b b b b b m b b b b b b b b b b b b b b b b b b z b b b b b b b n b b b b b b b b b b m b b b b b b b b b b b b b b b b b z b b b b b b b b b b b b b b n b b b b b b b b b b b b b b b b b b b z b b b b b b b b b b b b b z b z b b b j   J R R R R R R ",
"R R R R R R I   # j b x b b b b b b b b b b b b b b b b b b b b b b b b b b b b v b b b b b b b b b b b b b c z b b b z k b z b b b b b b b b b b b b b b b b b b b b b c b x b c b b b b b b c b z b j l b b z b b b b b b b b b b c b b c b b v b b b b b b b b v b b b b b b b b b z z b z b b v b b b b b b b b c b b b b k z z b b b c k j x b x k b b b b b b b b b b b b b v b z b z b b b b 1 S R R R R R R R ",
"R R R R R R R U   @ j j b b b M b b k b b b b b b b b b c b b c z b b b b b b b b b z b v b b b b x b b b c k b z b j c c b b b b b b b b b c b z b b b b b c b z b b z b b b b v b b c b b c b b b b b b b z z l b b b b b b b b b b b b b b z b b b v j b z b l b b b b b c b b z z b z b b b b b b b v b b b c b b b b b c b b j b v c c b b b b c b b b b b b b b b z b b b b b b b b b b b ~ < S T R R R R R R R ",
"R R R R R R R R U   . w z V b b b b b c b b c b b b c b b b b b b z b b b b z b b v c b v v b b b b b c b v c b b b b c b b c b b b b b b b b b b b b b b c b x b b b x b b j b b z b b b b b b z b b b b l b z z z b b b b b z b b b b b b b k b b b b b b b b b b k z b j b b z b b b b b b b b b x b z b b b b z b l b c b k b v j b c b c b b b b N b n n b b b b z b k l z j z j k b b j W G H R R R R R R R R R ",
"R R R R R R R R R T D     # E ( / / / / / / / / ) ) _ _ / / / _ ( ( / / / / / / ) ) / / _ _ ) ) ) / / ) / / / / _ _ ) / / / / ( ) / _ / ) / / / ) / / / / / / / / / / / / ^ / / / / / / ) ) / / / / / / / / / / / / ( / / / / / ( / / _ ) / / _ ) ) / / / ) / / / / / / _ / / / _ ( ( ( / / ) / / _ / / / / ) ) / / ^ / ^ / / / / / / / / ) _ ) ) ) _ _ _ _ _ _ _ _ _ _ / ^ ^ ^ ^ ^ Q r - @ : 2 P R R R R R R R R R R ",
"R R R R R R R R R R R T J A                                                                                                                                                                                                                                                                                                                               :     O                         S L R R R R R R R R R R R R ",
"R R R R R R R R R R R R R R R R R R R R R R R R R R R R R R R R R R R R R R R R R R R R R R R R R R R R R R R R R R R R R R R R R R R R R R R R R R R R R R R R R R R R R R R R R R R R R R R R R R R R R R R R R R R R R R R R R R R R R R R R R R R R R R R R R R R R R R R R R R R R R R R R R R R R R R R R R R R R R R R R R R R R R R R R R R R R R R R R R R R R R R R R R R R R R R R R R R R R R R R R R R R ",
"R R R R R R R R R R R R R R R R R R R R R R R R R R R R R R R R R R R R R R R R R R R R R R R R R R R R R R R R R R R R R R R R R R R R R R R R R R R R R R R R R R R R R R R R R R R R R R R R R R R R R R R R R R R R R R R R R R R R R R R R R R R R R R R R R R R R R R R R R R R R R R R R R R R R R R R R R R R R R R R R R R R R R R R R R R R R R R R R R R R R R R R R R R R R R R R R R R R R R R R R R R R ",
"R R R R R R R R R R R R R R R R R R R R R R R R R R R R R R R R R R R R R R R R R R R R R R R R R R R R R R R R R R R R R R R R R R R R R R R R R R R R R R R R R R R R R R R R R R R R R R R R R R R R R R R R R R R R R R R R R R R R R R R R R R R R R R R R R R R R R R R R R R R R R R R R R R R R R R R R R R R R R R R R R R R R R R R R R R R R R R R R R R R R R R R R R R R R R R R R R R R R R R R R R R R ",
"R R R R R R R R R R R R R R R R R R R R R R R R R R R R R R R R R R R R R R R R R R R R R R R R R R R R R R R R R R R R R R R R R R R R R R R R R R R R R R R R R R R R R R R R R R R R R R R R R R R R R R R R R R R R R R R R R R R R R R R R R R R R R R R R R R R R R R R R R R R R R R R R R R R R R R R R R R R R R R R R R R R R R R R R R R R R R R R R R R R R R R R R R R R R R R R R R R R R R R R R R R R ",
"R R R R R R R R R R R R R R R R R R R R R R R R R R R R R R R R R R R R R R R R R R R R R R R R R R R R R R R R R R R R R R R R R R R R R R R R R R R R R R R R R R R R R R R R R R R R R R R R R R R R R R R R R R R R R R R R R R R R R R R R R R R R R R R R R R R R R R R R R R R R R R R R R R R R R R R R R R R R R R R R R R R R R R R R R R R R R R R R R R R R R R R R R R R R R R R R R R R R R R R R R R R "
};
