/* XPM */
static char *result[] = {
/* columns rows colors chars-per-pixel */
"100 97 111 2 ",
"   c #010101",
".  c gray5",
"X  c #141414",
"o  c #171918",
"O  c #1C1C1C",
"+  c #032504",
"@  c #043406",
"#  c #202020",
"$  c gray16",
"%  c #303030",
"&  c #373838",
"*  c #3C3C3C",
"=  c #403E3F",
"-  c #024002",
";  c #035203",
":  c #025902",
">  c #036003",
",  c #046D05",
"<  c #1C641C",
"1  c #3E403C",
"2  c #41413F",
"3  c #3F3F41",
"4  c #434342",
"5  c #494A47",
"6  c #474949",
"7  c #4B4B4B",
"8  c #504F4F",
"9  c #4E504F",
"0  c #50504F",
"q  c #4F4F51",
"w  c #4F5150",
"e  c #545454",
"r  c #585757",
"t  c #575856",
"y  c #585956",
"u  c #575758",
"i  c #575958",
"p  c #5C5C5B",
"a  c #4D6E4D",
"s  c #5E605E",
"d  c #60605F",
"f  c #656564",
"g  c #686767",
"h  c #666867",
"j  c #686867",
"k  c #666769",
"l  c #696769",
"z  c #676869",
"x  c #6B6B6B",
"c  c #6E706F",
"v  c #70706E",
"b  c #6F7170",
"n  c #717171",
"m  c #797977",
"M  c #7D7D7D",
"N  c #058505",
"B  c #018901",
"V  c #029502",
"C  c #029B02",
"Z  c #1A9B1A",
"A  c #02A302",
"S  c #03B303",
"D  c #00BB00",
"F  c #288A28",
"G  c #319031",
"H  c #3E943E",
"J  c #39AE3A",
"K  c #32B932",
"L  c #02C402",
"P  c #02CD01",
"I  c #02D402",
"U  c #02DC02",
"Y  c #01E301",
"T  c #00F700",
"R  c green",
"E  c #38C237",
"W  c #61A461",
"Q  c #848484",
"!  c #8B8B8B",
"~  c #918F90",
"^  c #949394",
"/  c #999997",
"(  c #969698",
")  c #979998",
"_  c #9A9B9A",
"`  c #9EA09F",
"'  c #A1A19F",
"]  c #9E9EA0",
"[  c #A3A3A3",
"{  c #A7A8A9",
"}  c #ABACAB",
"|  c #B0B1AE",
" . c #B4B4B4",
".. c #B8B6B7",
"X. c #B7B9B7",
"o. c #BCBCBC",
"O. c #C4C4C3",
"+. c #CACAC7",
"@. c #C7C9C8",
"#. c #CBCBCA",
"$. c #CFD0CB",
"%. c #D1D1CF",
"&. c #CFD1D0",
"*. c #D2D2D1",
"=. c #DBDBDB",
"-. c #E3E3E3",
";. c #ECECEC",
":. c #F1F1EF",
">. c #F5F5F5",
",. c #FBFCF7",
"<. c #FDFDFD",
/* pixels */
"R R R R R R R R R R R R R R R R R R R R R R R R R R R R R R R R R R R R R R R R R R R R R R R R R R R R R R R R R R R R R R R R R R R R R R R R R R R R R R R R R R R R R R R R R R R R R R R R R R R R ",
"R R R R R R R R R R R R R R R R R R R R R R R R R R R R R R R R R R R R R R R R R R R R R R R R R R R R R R R R R R R R R R R R R R R R R R R R R R R R R R R R R R R R R R R R R R R R R R R R R R R R ",
"R R R R R R R R R R R R R R R R R R R R R R R R R R R R R R R R R R R R R R R R R R R R R R R R R R R R R R R R R R R R R R R R R R R R R R R R R R R R R R R R R R R R R R R R R R R R R R R R R R R R ",
"R R R R R R R R R R R R R R R R R R R R R R R R R R R R R R R R R R R R R R R R R R R R R R R R R R R R R R R R R R R R R R R R R R R R R R R R R R R R R R R R R R R R R R R R R R R R R R R R R R R R ",
"R R R R R R R R R R R R R R R R Y D D D D D D D D D D D D D D D D D D D D D D D D D D D D D D D D D D D D D D D D D D D D D D D D D D D D D D D D D D D D D D D D P D D D D D P R R R R R R R R R R R R ",
"R R R R R R R R R R R R R R S       X o o o o o X o o o X X X o X X o X X X X X X X o X X X X o X X o o X o o X o X o o o X X X X o X X X X X o o X X o o o o o o o o o X       - L R R R R R R R R R R ",
"R R R R R R R R R R R R Y N C 6 f l b v v v c x x x x l l l l l l l l x x l l l l x x l l x x x l x x x g l x x l l l x x l l l l x x x l x x x l l x x l l x x x x x x j l f t 1 C A Y R R R R R R R R ",
"R R R R R R R R R R R U : J l n x b x x x x x l f g g g g g z g g j h g h j l l h j l g g l j z l l l l g g l z l l h h g h g g k z z k k k h z k g j g g g l l l l j l x x l x v x K + Y R R R R R R R ",
"R R R R R R R R R R Y N a n v x v x x x x b x l g g g g g g g j g j h g j g l j j j j h l j l j h x x j l j l j l l l j h g h g g j g g g g h l g g g f j g l j l l l x x v x v v v n E ; Y R R R R R R ",
"R R R R R R R R R Y + 4 n n x n n v x f p p p p u e u u u u y r t u u u y y y t y y p p p p p i i i i y p y y y t p i i p u u u r r u u t u e u u y r u u u r r p r p d f x v v v v n v F > R R R R R R ",
"R R R R R R R R R B O x x c b v l 7 * 6 e 8 7 7 6 5 6 6 6 6 6 5 7 6 6 7 5 5 7 7 7 7 5 6 7 7 7 7 7 7 7 7 7 5 5 7 7 7 7 6 7 7 6 7 7 6 6 7 6 7 7 6 7 5 6 7 6 5 7 7 7 7 w 9 4 2 e x v v n x f   A R R R R R ",
"R R R R R R R R Y   e x b v v k 6 p } #.*.#.#.#.#.+.#.+.+.+.#.#.#.+.#.#.+.#.#.+.#.#.#.#.#.#.#.#.#.+.#.#.#.#.+.#.+.#.#.+.+.#.+.#.#.+.#.$.#.O.O.O. .O.O. .O.O.o.+.#.$.&.$.O._ 5 6 x n b n x %   R R R R R ",
"R R R R R R R R D   f x x c x 6 n #. .v % % % % % % % % % % % % % % % % % % % % % % % % % % % % % % % % % % % % % % % % % % % % % % % % % % % $ % % % % % % % % % % % 6 ! } O.9 7 n c x l u   I R R R R ",
"R R R R R R R R V $ h l x n u u +. .% % % % % % % % % % % % % % % % % % % % % % % % % % % % % % % % % % % % % % % % % % % % % % % % % % % % % % % % % % % % % % % % % % % %  . .4 d n x j f   D R R R R ",
"R R R R R R R R : 4 l x x l 4 [ #.% % % % % % % % % % % % % % % % % % % % % % % % % % % % % % % % % % % % % % % % % % % % % % % % % % % % % % % % % % % % % % % % % % % % % d *.x e v v l l . D R R R R ",
"R R R R R R R R   6 x l x f & } _ % % % % % % % % % % % % % % % % % % % % % % % % % % % % % % % % % % % % % % % % % % % % % % % % % % % % % % % % % % % % % % % % % % % % % % @.( 5 x x l x o D R R R R ",
"R R R R R R R R   6 x x x d * _ ( % % % % % % % % % % % % % % % % % % % % % % % % % % % % % % % % % % % % % % % % % % % % % % % % % % % % % % % % % % % % % % % % % % % % % % ..] 6 n x x v o D R R R R ",
"R R R R R R R R   7 x x x p 3 _ M % % % % % % % % % % % % % % % % % % % % % % % % % % % % % % % % % % % % % % % % % % % % % % % % % % % % % % % % % % % % % % % % % % % % % % ] ] 3 v v v b o S R R R R ",
"R R R R R R R R   7 x x x s 3 _ m % % % % % % % % % % % % % % % % % % % % % % % % % % % % % % % % % % % % % % % % % % % % % % % % % % % % % % % % % % % % % % % % % % % % % % b ( 3 v x x n O D R R R R ",
"R R R R R R R R   6 x x l d * ! m % % % % % % % % % % % % % % % % % % % % % % % % % % % % % % % % % % % % % % % % % % % % % % % % % % % % % % % % % % % % % % % % % % % % % % p Q = x x b n # D R R R R ",
"R R R R R R R R   7 x x l s 2 ( M % % % % % % % % % % % % % % % % % % % % % % % % % % % % % % % % % % % % % % % % % % % % % % % % % % % % % % % % % % % % % $ % % % % % % % % q ! 3 l x x n # D R R R R ",
"R R R R R R R R   7 x x l s 2 ( M % % % % % % % % % % % % % % % % % % % % % % % % % % % % % % % % % % % % % % % % % % % % % % % % % % % % % % % % % % % % % % % % % % % % % % q s 3 l x x b O D R R R R ",
"R R R R R R R R   q x x x s 3 _ Q % % % % % % % % % % % % % % % % % % % % % % % % % % % % % % % % % % % % % % % % % % % % % % % % % % % % % % % % % % % % % % % % % % % % % % 3 q 2 l l x b # D R R R R ",
"R R R R R R R R   7 x x l d 2 _ M % % % % % % % % % % % % % % % % % % % % % % % % % % % % % % % % % % % % % % % % % % % % % % % % % % % % % % % % % % % % % % % % % % % % % % x M 2 l x x b O D R R R R ",
"R R R R R R R R   7 x x x d 3 _ M % % % % % % % % % % % % % % % % % % % % % % % % % % % % % % % % % % % % % % % % % % % % % % % % % % % % % % % % % % % % % % % % % % % % % % d m 3 l x x c # D R R R R ",
"R R R R R R R R   7 x x x d 3 ( Q % % % % % % % % % % % % % % % % % % % % % % % % % % % % % % % % % % % % % % % % % % % % % % % % % % % % % % % % % % % % % % % % % % % % % % m m 3 l x x b O D R R R R ",
"R R R R R R R R   7 x x x d 4 _ Q % % % % % % % % % % % % % % % % % % % % % % % % % % % % % % % % % % % % % % % % % % % % % % % % % % % % % % % % % % % % % % % % % % % % % % Q Q 2 x l x b O D R R R R ",
"R R R R R R R R   7 x x l d 2 ( Q % % % % % % % % % % % % % % % % % % % % % % % % % % % % % % % % % % % % % % % % % % % % % % % % % % % % % % % % % % % % % % % % % % % % % % M Q 3 x x x n O D R R R R ",
"R R R R R R R R   7 x x x f 2 _ Q % % % % % % % % % % % % % % % % % % % % % % % % % % % % % % % % % % % % % % % % % % % % % % % % % % % % % % % % % % % % % % % % % % % % % % ! ~ 2 l x x b O D R R R R ",
"R R R R R R R R   7 x x x d 4 ( ! % % % % % % % % % % % % % % % % % % % % % % % % % % % % % % % % % % % % % % % % % % % % % % % % % % % % % % % % % % % % % % % % % % % % % % ^ ^ 2 x x x x O D R R R R ",
"R R R R R R R R   7 x x x d 2 _ Q % % % % % % % % % % % % % % % % % % % % % % % % % % % % % % % % % % % % % % % % % % % % % % % % % % % % % % % % % % % % % % % % % % % % % % [ _ 2 x x x b O D R R R R ",
"R R R R R R R R   7 x x x d 2 ( Q $ % % % % % % % % % % % % % % % % % % % % % % % % % % % % % % % % % % % % % % % % % % % % % % % % % % % % % % % % % % % % % % % % % % % % % ~ ~ 4 x x x b O D R R R R ",
"R R R R R R R R   7 x x x p 2 _ Q % % % % % % % % % % % % % % % % % % % % % % % % % % % % % % % % % % % % % % % % % % % % % % % % % % % % % % % % % % % % % % % % % % % % % % ^ ^ 4 x x x n o D R R R R ",
"R R R R R R R R   7 x x l f * _ ~ % % % % % % % % % % % % % % % % % % % % % % % % % % % % % % % % % % % % % % % % % % % % % % % % % % % % % % % % % % % % % % % % % % % % % % { _ 4 x x x v O D R R R R ",
"R R R R R R R R   7 c x x f 4 / Q % % % % % % % % % % % % % % % % % % % % % % % % % % % % % % % % % % % % % % % % % % % % % % % % % % % % % % % % % % % % % % % % % % % % % % { ( 4 x x x n O D R R R R ",
"R R R R R R R R   7 x x l p * _ Q % % % % % % % % % % % % % % % % % % % % % % % % % % % % % % % % % % % % % % % % % % % % % % % % % % % % % % % % % % % % % % % % % % % % % % | _ 4 v x x n O D R R R R ",
"R R R R R R R R   7 x x x f = _ ! % % % % % % % % % % % % % % % % % % % % % % % % % % % % % % % % % % % % % % % % % % % % % % % % % % % % % % % % % % % % % % % % % % % % % % ' _ 6 x x x b O D R R R R ",
"R R R R R R R R   0 v x x p 2 / ~ % % % % % % % % % % % % % % % % % % % % % % % % % % % % % % % % % % % % % % % % % % % % % % % % % % % % % % % % % % % % % % % % % % % % % % _ ( 4 x x x b O D R R R R ",
"R R R R R R R R   5 x x l f 4 _ ! % % % % % % % % % % % % % % % % % % % % % % % % % % % % % % % % % % $ % % % % % % % % % % % % % % % % % % % % % % % % % % % % % % % % % % % } ^ 2 x b x n O D R R R R ",
"R R R R R R R R   8 x x x f 4 _ ^ % % % % % % % % % % % % % % % % % % % % % % % % % % % % % % % % p p 6 7 p p % % % % % % % % % % % % % % % % % % % % % % % % % % % % % % % % ~ ^ 4 x x x n O D R R R R ",
"R R R R R R R R   0 x x x f 2 ( ! % % % % % % % % % % % % % % % % % % % % % % % % % % % % % % * g Q ..O.O.| m g * % % % % % % % % % % % % % % % % % % % % % % % % % % % % % % / ' 2 x x x n O D R R R R ",
"R R R R R R R R   7 c x x d 4 ( ~ % % % % % % % % % % % % % % % % % % % % % % % % % % % % % n ! ;.<.<.<.<.<.,.-.Q x % % % % % % % % % % % % % % % % % % % % % % % % % % % % % ' ~ 2 v x x n O D R R R R ",
"R R R R R R R R   7 x x x f 4 _ ^ % % % % % % % % % % % % % % % % % % % % % % % % % % % % * ! <.<.,.;.#.#.>.,.<.<.Q q % % % % % % % % % % % % % % % % % % % % % % % % % % % % ' _ 2 x x x n O D R R R R ",
"R R R R R R R R   0 x x x f 2 _ ~ % % % % % % % % % % % % % % % % % % % % % % % % % % % $ f ;.<.<.} 6 & & f X.<.<.;.f $ % % % % % % % % % % % % % % % % % % % % % % % % % % % ' ' 2 x j x n O D R R R R ",
"R R R R R R R R   7 x x c s 4 _ ( % % % % % % % % % % % % % % % % % % % % % % % % % % % % f <.<.=.6 % % % % 4 -.<.<.b & % % % % % % % % % % % % % % % % % % % % % % % % % % % ' ' 2 x x x v O D R R R R ",
"R R R R R R R R   9 c x x s 4 ) ^ % % % % % % % % % % % % % % % % % % % % % % % % % % % % v <.<.*.& % % % % p !  . .l e % % % % % % % % % % % % % % % % % % % % % % % % % % & ' _ 4 x x x c O D R R R R ",
"R R R R R R R R   9 x c x s 4 ` ( % % % % % % % % % % % % % % % % % % % % % % % % % % % % s <.<.<.! p g % % $ p p p l % % % % % % % % % % % % % % % % % % % % % % % % % % % % ' ' 4 x x x n o D R R R R ",
"R R R R R R R R   7 x x x s 4 _ ! % % % % % % % % % % % % % % % % % % % % % % % % % % % % 5  .<.<.,.=.{ l g = e % % % % % % % % % % % % % % % % % % % % % % % % % % % % % % % ' _ 4 x x x n o D R R R R ",
"R R R R R R R R   8 x x x d 4 _ ~ % % % % % % % % % % % % % % % % % % % % % % % % % % % % % 4 ..<.<.<.<.<.:.@.! 6 8 % % % % % % % % % % % % % % % % % % % % % % % % % % % % % / ^ 4 x x x b O D R R R R ",
"R R R R R R R R   7 x x l d 4 / ~ % % % % % % % % % % % % % % % % % % % % % % % % % % % % % % 7 l X.=.>.<.,.<.<.-.n 4 % % % % % % % % % % % % % % % % % % % % % % % % % % % % } _ 4 x c x n o D R R R R ",
"R R R R R R R R   8 x x x f 4 / ! % % % % % % % % % % % % % % % % % % % % % % % % % % % % % % % % p p p l } ;.<.<.>.f % % % % % % % % % % % % % % % % % % % % % % % % % % % % _ ( 4 x x x n O S R R R R ",
"R R R R R R R R   7 x x x p = _ Q % % % % % % % % % % % % % % % % % % % % % % % % % % % 7 & & & u % % % % d f -.<.<.{ p % % % % % % % % % % % % % % % % % % % % % % % % % % % _ ~ 3 x x x b O D R R R R ",
"R R R R R R R R   7 x x x d 4 _ ! % % % % % % % % % % % % % % % % % % % % % % % % % % % % } O.O.l % % % % % r ! <.<.O.6 % % % % % % % % % % % % % % % % % % % % % % % % % % % ' ! 4 x x x n O D R R R R ",
"R R R R R R R R   8 x x x s 4 _ ! % % % % % % % % % % % % % % % % % % % % % % % % % % % * O.<.,.[ s % % % % 4 ] <.<.O.e % % % % % % % % % % % % % % % % % % % % % % % % % % % ' ( 4 x x x b O D R R R R ",
"R R R R R R R R   8 c x x p = _ M % % % % % % % % % % % % % % % % % % % % % % % % % % % 8 M ,.,.:.Q e & * r m :.<.<.Q p % % % % % % % % % % % % % % % % % % % % % % % % % % % { _ 4 x x x b O D R R R R ",
"R R R R R R R R   q x x x f * / Q % % % % % % % % % % % % % % % % % % % % % % % % % % % % r ..<.,.,.-.#.#.-.<.<.<.*.u % % % % % % % % % % % % % % % % % % % % % % % % % % % % _ ( 4 x x x c O D R R R R ",
"R R R R R R R R   7 x x x d 2 _ m % % % % % % % % % % % % % % % % % % % % % % % % % % % % % 4 { >.<.<.<.<.<.<.,.X.4 % % % % % % % % % % % % % % % % % % % % % % % % % % % % % [ _ 2 x x x n O D R R R R ",
"R R R R R R R R   7 v x b f 3 _ Q % % % % % % % % % % % % % % % % % % % % % % % % % % % % % % 8 r _ o.@.#.o._ p 6 % % % % % % % % % % % % % % % % % % % % % % % % % % % % % % ' _ 3 x x x n O D R R R R ",
"R R R R R R R R   7 b x x d 3 _ M % % % % % % % % % % % % % % % % % % % % % % % % % % % % % % % % v 7 & & 6 l % % % % % % % % % % % % % % % % % % % % % % % % % % % % % % % % ] _ 3 x x x b O D R R R R ",
"R R R R R R R R   7 x x x d 4 ( x % % % % % % % % % % % % % % % % % % % % % % % % % % % % % % % % % % % % % % % % % % % % % % % % % % % % % % % % % % % % % % % % % % % % % % ( ^ 6 x x x n O S R R R R ",
"R R R R R R R R   7 x x x d 4 _ Q % % % % % % % % % % % % % % % % % % % % % % % % % % % % % % % % % % % % % % % % % % % % % % % % % % % % % % % % % % % % % % % % % % % % % % { ( 4 x x x x O D R R R R ",
"R R R R R R R R   q x x b d 3 _ M % % % % % % % % % % % % % % % % % % % % % % % % % % % % % % % % % % % % % % % % % % % % % % % % % % % % % % % % % % % % % % % % % % % % % % { ] 4 x x x n O D R R R R ",
"R R R R R R R R   q x x x d 4 _ M % % % % % % % % % % % % % % % % % % % % % % % % % % % % % % % % % % % % % % % % % % % % % % % % % % % % % % % % % % % % % % % % % % % % % % o.] 4 x x x m O D R R R R ",
"R R R R R R R R   7 x x x d 4 ( M % % % % % % % % % % % % % % % % % % % % % % % % % % % % % % % % % % % % % % % % % % % % % % % % % % % % % % % % % % % % % % % % % % % % % % { _ 6 x x x c O D R R R R ",
"R R R R R R R R   7 x x x s 2 ( Q % % % % % % % % % % % % % % % % % % % % % % % % % % % % % % % % % % % % % % % % % % % % % % % % % % % % % % % % % % % % % % % % % % % % % % ] Q 4 x x v b # D R R R R ",
"R R R R R R R R   7 x x x d 2 _ m % % % % % % % % % % % % % % % % % % % % % % % % % % % % % % % % % % % % % % % % % % % % % % % % % % % % % % % % % % % % % % % % % % % % % % _ Q 6 b x x n # D R R R R ",
"R R R R R R R R   7 x x l s 3 ( M % % % % % % % % % % % % % % % % % % % % % % % % % % % % % % % % % % % % % % % % % % % % % % % % % % % % % % % % % % % % % % % % % % % % % % ! ~ 2 x v x b O D R R R R ",
"R R R R R R R R   q x x x p 3 ( ^ % % % % % % % % % % % % % % % % % % % % % % % % % % % % % % % % % % % % % % % % % % % % % % % % % % % % % % % % % % % % % % % % % % % % % % ! ( = x x x b # D R R R R ",
"R R R R R R R R   7 l x l p 1 / m % % % % % % % % % % % % % % % % % % % % % % % % % % % % % % % % % % % % % % % % % % % % % % % % % % % % % % % % % % % % % % % % % % % % % % M ~ = x x v n # D R R R R ",
"R R R R R R R R   q x x x s * / f % % % % % % % % % % % % % % % % % % % % % % % % % % % % % % % % % % % % % % % % % % % % % % % % % % % % % % % % % % % % % % % % % % % % % % ! Q = x x x n # D R R R R ",
"R R R R R R R R   q x x l p = _ x % % % % % % % % % % % % % % % % % % % % % % % % % % % % % % % % % % % % % % % % % % % % % % % % % % % % % % % % % % % % % % % % % % % % % % ! ! 3 x x x n # D R R R R ",
"R R R R R R R R   7 x l k p * _ ! % % % % % % % % % % % % % % % % % % % % % % % % % % % % % % % % % % % % % % % % % % % % % % % % % % % % % % % % % % % % % % % % % % % % % % n ! * l x b n # D R R R R ",
"R R R R R R R R   7 x x g y = _ ! % % % % % % % % % % % % % % % % % % % % % % % % % % % % % % % % % % % % % % % % % % % % % % % % % % % % % % % % % % % % % % % % % % % % % % f l * j l x n # D R R R R ",
"R R R R R R R R   7 x x j p * _ ! % % % % % % % % % % % % % % % % % % % % % % % % % % % % % % % % % % % % % % % % % % % % % % % % % % % % % % % % % % % % % % % % % % % % % % d p * g l x m # D R R R R ",
"R R R R R R R R   7 x x j p = _ Q % % % % % % % % % % % % % % % % % % % % % % % % % % % % % % % % % % % % % % % % % % % % % % % % % % % % % % % % % % % % % % % % % % % % % % p e * l l x n # D R R R R ",
"R R R R R R R R   6 x l x y * ` ( % % % % % % % % % % % % % % % % % % % % % % % % % % % % % % % % % % % % % % % % % % % % % % % % % % % % % % % % % % % % % % % % % % % % % % p q * l x x n # D R R R R ",
"R R R R R R R R   7 g x g p = _ _ % % % % % % % % % % % % % % % % % % % % % % % % % % % % % % % % % % % % % % % % % % % % % % % % % % % % % % % % % % % % % % % % % % % % % % n 0 * x x x v o D R R R R ",
"R R R R R R R R   6 x j x d 4 ' _ % % % % % % % % % % % % % % % % % % % % % % % % % % % % % % % % % % % % % % % % % % % % % % % % % % % % % % % % % % % % % % % % % % % % % % ( e * x x x v O D R R R R ",
"R R R R R R R R   6 x x v f = [ ] % % % % % % % % % % % % % % % % % % % % % % % % % % % % % % % % % % % % % % % % % % % % % % % % % % % % % % % % % % % % % % % % % % % % % % O.0 4 l x x x O D R R R R ",
"R R R R R R R R   4 x x x x = |  .% % % % % % % % % % % % % % % % % % % % % % % % % % % % % % % % % % % % % % % % % % % % % % % % % % % % % % % % % % % % % % % % % % % % % p %.e 5 x l x x X D R R R R ",
"R R R R R R R R   & n x c x 7 m *.n % % % % % % % % % % % % % % % % % % % % % % % % % % % % % % % % % % % % % % % % % % % % % % % % % % % % % % % % % % % % % % % % % % % % ..+.2 y l g f f   D R R R R ",
"R R R R R R R R C X b x x l h 4 ] %.m % % % % % % % % % % % % % % % % % % % % % % % % % % % % % % % % % % % % % % % % % % % % % % % % $ % % % % % % % % % % % % % % % % 0 ..$.v 4 x x j g p   D R R R R ",
"R R R R R R R R P   d x x x c r 4 ! O.#...n n 8 6 d d m Q Q ] _ } [  . . ... .o.o. .O.X.o.X.| | O.#.o.@.o. .o.o...O.| .. . . ... .}  .o./ [ } [ ' [ Q Q c ! _ ! / o.$.$.*.O.v 4 f x x g l 4   Y R R R R ",
"R R R R R R R R R , H n v n v v p 4 7 l & & * * * & * * = * * 3 * * * * * * * * * 3 * * * * = * * * * * 3 * * * 3 & * * * * * * * * * * * * & * & * * & * & * * * & * * e 6 4 d x x x x x X B R R R R R ",
"R R R R R R R R R I A W n n n x x l u 6 4 4 4 4 4 4 4 6 6 6 6 6 6 6 6 6 6 6 7 6 6 7 7 6 6 6 6 6 6 6 6 6 7 6 6 6 6 6 6 6 6 6 7 6 6 6 6 6 5 5 5 6 5 4 5 2 4 4 4 2 2 4 5 5 8 p x x x x v n 5   Y R R R R R ",
"R R R R R R R R R R S Z x n v j l l f l l l f f l g g l l l x x x x x x x x x x x x x x x x x x l x x x x x x c x x x x x x x c x x v x x x x l j x x j j j j j d f j j f j j x x x n p   A R R R R R R ",
"R R R R R R R R R R R V < W x j l f f f f f f f j l l l x x x x l x x x x x x x x x x x x x x x x x x x x l x x x x x l x l x x x x x x j x x j x x j j l h g f j d j d f f j x x n r   B R R R R R R R ",
"R R R R R R R R R R R T C   4 s l f f f f f l l l x x x j x x x l x l x x l x x x x x l x x x l x x x x x x x l x x x x x x x x x x x x x c v x x x x x l l g g j j j f j j x x p G @ B R R R R R R R R ",
"R R R R R R R R R R R R R C     O & 6 6 6 7 7 7 e 7 e 8 8 e 7 0 8 e q 0 7 w w q 7 e 7 w 7 q q e 8 w 7 e 7 q 9 7 8 8 7 8 q w 7 w 8 8 7 e e e 7 0 e 9 e 7 9 7 8 7 6 5 6 6 6 4 % X   , U R R R R R R R R R ",
"R R R R R R R R R R R R R R Y D ;                                                                                                                                             V L R R R R R R R R R R R ",
"R R R R R R R R R R R R R R R R R R R R R R R R R R R R R R R R R R R R R R R R R R R R R R R R R R R R R R R R R R R R R R R R R R R R R R R R R R R R R R R R R R R R R R R R R R R R R R R R R R R R ",
"R R R R R R R R R R R R R R R R R R R R R R R R R R R R R R R R R R R R R R R R R R R R R R R R R R R R R R R R R R R R R R R R R R R R R R R R R R R R R R R R R R R R R R R R R R R R R R R R R R R R ",
"R R R R R R R R R R R R R R R R R R R R R R R R R R R R R R R R R R R R R R R R R R R R R R R R R R R R R R R R R R R R R R R R R R R R R R R R R R R R R R R R R R R R R R R R R R R R R R R R R R R R ",
"R R R R R R R R R R R R R R R R R R R R R R R R R R R R R R R R R R R R R R R R R R R R R R R R R R R R R R R R R R R R R R R R R R R R R R R R R R R R R R R R R R R R R R R R R R R R R R R R R R R R ",
"R R R R R R R R R R R R R R R R R R R R R R R R R R R R R R R R R R R R R R R R R R R R R R R R R R R R R R R R R R R R R R R R R R R R R R R R R R R R R R R R R R R R R R R R R R R R R R R R R R R R ",
"R R R R R R R R R R R R R R R R R R R R R R R R R R R R R R R R R R R R R R R R R R R R R R R R R R R R R R R R R R R R R R R R R R R R R R R R R R R R R R R R R R R R R R R R R R R R R R R R R R R R ",
"R R R R R R R R R R R R R R R R R R R R R R R R R R R R R R R R R R R R R R R R R R R R R R R R R R R R R R R R R R R R R R R R R R R R R R R R R R R R R R R R R R R R R R R R R R R R R R R R R R R R "
};
