/* XPM */
static char *result[] = {
/* columns rows colors chars-per-pixel */
"100 97 108 2 ",
"   c #010101",
".  c gray5",
"X  c #141414",
"o  c #171918",
"O  c #1C1C1C",
"+  c #032504",
"@  c #043406",
"#  c #202020",
"$  c gray16",
"%  c #333333",
"&  c #3E3E3D",
"*  c #403E3F",
"=  c #035203",
"-  c #025902",
";  c #036003",
":  c #046D05",
">  c #1C641C",
",  c #3E403C",
"<  c #41413F",
"1  c #3F3F41",
"2  c #424342",
"3  c #494A47",
"4  c #474949",
"5  c #4B4B4B",
"6  c #504F4F",
"7  c #4E504F",
"8  c #50504F",
"9  c #4F4F51",
"0  c #4F5150",
"q  c #555555",
"w  c #585757",
"e  c #575856",
"r  c #585956",
"t  c #575758",
"y  c #575958",
"u  c #5C5C5C",
"i  c #4D6E4D",
"p  c #5E605E",
"a  c #60605E",
"s  c #656565",
"d  c #686767",
"f  c #666867",
"g  c #686867",
"h  c #666769",
"j  c #696769",
"k  c #676869",
"l  c #6B6B6B",
"z  c #6E706F",
"x  c #70706E",
"c  c #6F7170",
"v  c #717171",
"b  c #797977",
"n  c #7C7C7B",
"m  c #058505",
"M  c #018901",
"N  c #029502",
"B  c #029B02",
"V  c #1A9B1A",
"C  c #02A302",
"Z  c #03B303",
"A  c #00BB00",
"S  c #288A28",
"D  c #319031",
"F  c #3E943E",
"G  c #39AE3A",
"H  c #32B932",
"J  c #02C402",
"K  c #02CD01",
"L  c #02D402",
"P  c #02DC02",
"I  c #01E301",
"U  c #00F700",
"Y  c green",
"T  c #38C237",
"R  c #61A461",
"E  c #838383",
"W  c #8D8D8D",
"Q  c #939393",
"!  c #979799",
"~  c #9C9C9C",
"^  c #9EA09F",
"/  c #9E9EA0",
"(  c #9FA0A0",
")  c #A4A4A4",
"_  c #A7A8A9",
"`  c #ABABAB",
"'  c #B0B0AD",
"]  c #B7B7B7",
"[  c #BDBDBC",
"{  c #C0BEBF",
"}  c #C0C0BF",
"|  c #BFBFC0",
" . c #C3C3C3",
".. c #C6C8C7",
"X. c #C9C9C7",
"o. c #C7C7C9",
"O. c #C7C9C8",
"+. c #CBCBC9",
"@. c #CFD0CB",
"#. c #D1D1CF",
"$. c #D2D2D1",
"%. c #DBDBDB",
"&. c #E3E3E3",
"*. c #ECECEC",
"=. c #F1F1EF",
"-. c #F5F5F5",
";. c #FBFCF7",
":. c #FDFDFD",
/* pixels */
"Y Y Y Y Y Y Y Y Y Y Y Y Y Y Y Y Y Y Y Y Y Y Y Y Y Y Y Y Y Y Y Y Y Y Y Y Y Y Y Y Y Y Y Y Y Y Y Y Y Y Y Y Y Y Y Y Y Y Y Y Y Y Y Y Y Y Y Y Y Y Y Y Y Y Y Y Y Y Y Y Y Y Y Y Y Y Y Y Y Y Y Y Y Y Y Y Y Y Y Y ",
"Y Y Y Y Y Y Y Y Y Y Y Y Y Y Y Y Y Y Y Y Y Y Y Y Y Y Y Y Y Y Y Y Y Y Y Y Y Y Y Y Y Y Y Y Y Y Y Y Y Y Y Y Y Y Y Y Y Y Y Y Y Y Y Y Y Y Y Y Y Y Y Y Y Y Y Y Y Y Y Y Y Y Y Y Y Y Y Y Y Y Y Y Y Y Y Y Y Y Y Y ",
"Y Y Y Y Y Y Y Y Y Y Y Y Y Y Y Y Y Y Y Y Y Y Y Y Y Y Y Y Y Y Y Y Y Y Y Y Y Y Y Y Y Y Y Y Y Y Y Y Y Y Y Y Y Y Y Y Y Y Y Y Y Y Y Y Y Y Y Y Y Y Y Y Y Y Y Y Y Y Y Y Y Y Y Y Y Y Y Y Y Y Y Y Y Y Y Y Y Y Y Y ",
"Y Y Y Y Y Y Y Y Y Y Y Y Y Y Y Y Y Y Y Y Y Y Y Y Y Y Y Y Y Y Y Y Y Y Y Y Y Y Y Y Y Y Y Y Y Y Y Y Y Y Y Y Y Y Y Y Y Y Y Y Y Y Y Y Y Y Y Y Y Y Y Y Y Y Y Y Y Y Y Y Y Y Y Y Y Y Y Y Y Y Y Y Y Y Y Y Y Y Y Y ",
"Y Y Y Y Y Y Y Y Y Y Y Y Y Y Y Y Y Y Y Y Y Y Y Y Y Y Y Y Y Y Y Y Y Y Y Y Y Y Y Y Y Y Y Y Y Y Y Y Y Y Y Y Y Y Y Y Y Y Y Y Y Y Y Y Y Y Y Y Y Y Y Y Y Y Y Y Y Y Y Y Y Y Y Y Y Y Y Y Y Y Y Y Y Y Y Y Y Y Y Y ",
"Y Y Y Y Y Y Y Y Y Y Y Y Y Y Y I A A A A A A A A A A A A A A A A A A A A A A A A A A A A A A A A A A A A A A A A A A A A A A A A A A A A A A A A A A A A A A A A K A A A A A K Y Y Y Y Y Y Y Y Y Y Y Y Y ",
"Y Y Y Y Y Y Y Y Y Y Y Y Y Z       X X o O o X X o X X X X X X X X X X X X X X X X X X X X X X X X X X X X X X X X X X X X X X X X o X X X X X X X X X X O X O O o X o .       @ J Y Y Y Y Y Y Y Y Y Y Y ",
"Y Y Y Y Y Y Y Y Y Y Y P m B 2 s j z x x x x l l l l l l j l j l l j l l l l j j g g l l l l l l l l l l l l l l l l l l l l j l l l j k l l l l j z z l j z l l l l l l l s y , B C I Y Y Y Y Y Y Y Y Y ",
"Y Y Y Y Y Y Y Y Y Y P ; G l v z c l l l l l g h d g h s d f s h d h h s g d d s g g d h k l h g f k g l g h d g j j s d f h h s h l h h h h k k s h s h s h d j l h j l g l l x l H + I Y Y Y Y Y Y Y Y ",
"Y Y Y Y Y Y Y Y Y I m i v v v l l l l c v l g h d s h h h h g d j d h d g g g g g g g g g g h g l f l g f l g g j d d d g l s h h j h h h j g l h h s l s h l g l l l l x x x x x v T = I Y Y Y Y Y Y Y ",
"Y Y Y Y Y Y Y Y I + 2 v v v x v x l s u u u w u t q w w r r r w w w t r r r r r r u u u u u u u r y r u r r w w u u t u w w w w w w w w r t q r e e w w t r r r u u u h l x x x x z x S - Y Y Y Y Y Y Y ",
"Y Y Y Y Y Y Y Y M O l l l l l l 5 2 2 6 q 4 4 3 3 3 3 4 4 3 4 4 4 5 3 3 5 5 5 5 3 3 5 4 5 4 4 5 4 5 5 5 4 3 5 5 4 4 4 4 5 5 3 3 3 5 4 3 3 4 5 4 4 3 3 4 3 3 5 5 4 7 5 < < 8 l x x v x s   C Y Y Y Y Y Y ",
"Y Y Y Y Y Y Y P   0 l l v v f 2 u ` +.$.#.+.+.+.X.+.X.+.+.+.+.+.+.+.X.X.+.+.+.+.+.+.+.+.+.+.+.+.+.+.+.+.@.X.+.X.+.X.+.+.+.+.+.X.X.+.+.@.X.X.o.X.X.X.o.X.X.X.X.+.+.$.#. .^ 4 3 l c v z l %   Y Y Y Y Y Y ",
"Y Y Y Y Y Y Y A   s l l c l 4 v O.+.[ ] ] ] ] ] ] ] ] ] ] ] ] ] ] ] ] ] ] ] ] ] ] ] ] ] ] ] ] ] ] ] ] ] ] ] ] ] ] ] ] ] ] ] ] ] ] ] ] ] ] ] ] ] ] ] ] ] ] ] ] ] ] ] ]  . .} 8 5 v l l l q   L Y Y Y Y Y ",
"Y Y Y Y Y Y Y N $ l h l z t r ..X.] ] ] ] ] ] ] ] ] ] ] ] ] ] ] ] ] ] ] ] ] ] ] ] ] ] ] ] ] ] ] ] ] ] ] ] ] ] ] ] ] ] ] ] ] ] ] ] ] ] ] ] ] ] ] ] ] ] ] ] ] ] ] ] ] ] ] ] X.] 2 s x l l s   A Y Y Y Y Y ",
"Y Y Y Y Y Y Y - 2 l l l l 2 ) +.] ] ] ] ] ] ] ] ] ] ] ] ] ] ] ] ] ] ] ] ] ] ] ] ] ] ] ] ] ] ] ] ] ] ] ] ] ] ] ] ] ] ] ] ] ] ] ] ] ] ] ] ] ] ] ] ] ] ] ] ] ] ] ] ] ] ] ] ] [ #.g q l l l h . A Y Y Y Y Y ",
"Y Y Y Y Y Y Y   4 l l l s & [  .] ] ] ] ] ] ] ] ] ] ] ] ] ] ] ] ] ] ] ] ] ] ] ] ] ] ] ] ] ] ] ] ] ] ] ] ] ] ] ] ] ] ] ] ] ] ] ] ] ] ] ] ] ] ] ] ] ] ] ] ] ] ] ] ] ] ] ] ] ] +.Q 5 v l l j X A Y Y Y Y Y ",
"Y Y Y Y Y Y Y   4 l l l u &  . .] ] ] ] ] ] ] ] ] ] ] ] ] ] ] ] ] ] ] ] ] ] ] ] ] ] ] ] ] ] ] ] ] ] ] ] ] ] ] ] ] ] ] ] ] ] ] ] ] ] ] ] ] ] ] ] ] ] ] ] ] ] ] ] ] ] ] ] ] ] o./ 2 v l z z O A Y Y Y Y Y ",
"Y Y Y Y Y Y Y   4 l j l u 1  .[ ] ] ] ] ] ] ] ] ] ] ] ] ] ] ] ] ] ] ] ] ] ] ] ] ] ] ] [ ] ] ] ] ] ] ] ] ] ] ] ] ] ] ] ] ] ] ] ] ] ] ] ] ] ] ] ] ] ] ] ] ] ] ] ] ] ] ] ] ] ] | / 2 l v l z O A Y Y Y Y Y ",
"Y Y Y Y Y Y Y   5 l l l u &  .[ ] ] ] ] ] ] ] ] ] ] ] ] ] ] ] ] ] ] ] ] ] ] ] ] ] ] ] ] ] ] ] ] ] ] ] ] ] ] ] ] ] ] ] ] ] ] ] ] ] ] ] ] ] ] ] ] ] ] ] ] ] ] ] ] ] ] ] ] ] ] [ / 2 l l l v O A Y Y Y Y Y ",
"Y Y Y Y Y Y Y   5 j l l u & | [ ] ] ] ] ] ] ] ] ] ] ] ] ] ] ] ] ] ] ] ] ] ] ] ] ] ] ] ] ] ] ] ] ] ] ] ] ] ] ] ] ] ] ] ] ] ] ] ] ] ] ] ] ] ] ] ] ] ] ] ] ] ] ] ] ] ] ] ] ] ] ] ! 2 j l v v O A Y Y Y Y Y ",
"Y Y Y Y Y Y Y   5 z l j p 1 | [ ] ] ] ] ] ] ] ] ] ] ] ] ] ] ] ] ] ] ] ] ] ] ] ] ] ] ] ] ] ] ] ] ] ] ] ] ] ] ] ] ] ] ] ] ] ] ] ] ] ] ] ] ] ] ] ] ] ] ] ] ] ] ] ] ] ] ] ] ] ] ] ! 1 j l l b O A Y Y Y Y Y ",
"Y Y Y Y Y Y Y   5 j l j p * | | ] ] ] ] ] ] ] ] ] ] ] ] ] ] ] ] ] ] ] ] ] ] ] ] ] ] ] ] ] ] ] ] ] ] ] ] ] ] ] ] ] ] ] ] ] ] ] ] ] ] ] ] ] ] ] ] ] ] ] ] ] ] ] ] ] ] ] ] ] ] [ Q 2 l l l v O A Y Y Y Y Y ",
"Y Y Y Y Y Y Y   9 l l j a *  .[ ] ] ] ] ] ] ] ] ] ] ] ] ] ] ] ] ] ] ] ] ] ] ] ] ] ] ] ] ] ] ] ] ] ] ] ] ] ] ] ] ] ] ] ] ] ] ] ] ] ] ] ] ] ] ] ] ] ] ] ] ] ] ] ] ] ] ] ] ] ] ] W 1 j j l v O A Y Y Y Y Y ",
"Y Y Y Y Y Y Y   5 l l l a 2  .[ ] ] ] ] ] ] ] ] ] ] ] ] ] ] ] ] ] ] ] ] ] ] ] ] ] ] ] ] ] ] ] ] ] ] ] ] ] ] ] ] ] ] ] ] ] ] ] ] ] ] ] ] ] ] ] ] ] ] ] ] ] ] ] ] ] ] ] ] ] ] [ ! 1 j j l v O A Y Y Y Y Y ",
"Y Y Y Y Y Y Y   5 l l l a *  .| ] ] ] ] ] ] ] ] ] ] ] ] ] ] ] ] ] ] ] ] ] ] ] ] ] ] ] ] ] ] ] ] ] ] ] ] ] ] ] ] ] ] ] ] ] ] ] ] ] ] ] ] ] ] ] ] ] ] ] ] ] ] ] ] ] ] ] ] ] ] ] ! 2 j j l v O A Y Y Y Y Y ",
"Y Y Y Y Y Y Y   5 l l l a 2 | | ] ] ] ] ] ] ] ] ] ] ] ] ] ] ] ] ] ] ] ] ] ] ] ] ] ] ] ] ] ] ] ] ] ] ] ] ] ] ] ] ] ] ] ] ] ] ] ] ] ] ] ] ] ] ] ] ] ] ] ] ] ] ] ] ] ] ] ] ] ] [ Q * j l l v O A Y Y Y Y Y ",
"Y Y Y Y Y Y Y   5 l l l a *  .[ ] ] ] ] ] ] ] ] ] ] ] ] ] ] ] ] ] ] ] ] ] ] ] ] ] ] ] ] ] ] ] ] ] ] ] ] ] ] ] ] ] ] ] ] ] ] ] ] ] ] ] ] ] ] ] ] ] ] ] ] ] ] ] ] ] ] ] ] ] ] | ! * l l l v O A Y Y Y Y Y ",
"Y Y Y Y Y Y Y   5 l l l a * | | ] ] ] ] ] ] ] ] ] ] ] ] ] ] ] ] ] ] ] ] ] ] ] ] ] ] ] ] ] ] ] ] ] ] ] ] ] ] ] ] ] ] ] ] ] ] ] ] ] ] ] ] ] ] ] ] ] ] ] ] ] ] ] ] ] ] ] ] ] ] [ ! * l j l c O A Y Y Y Y Y ",
"Y Y Y Y Y Y Y   5 l l z a *  .[ ] ] ] ] ] ] ] ] ] ] ] ] ] ] ] ] ] ] ] ] ] ] ] ] ] ] ] ] ] ] ] ] ] ] ] ] ] ] ] ] ] ] ] ] ] ] ] ] ] ] ] ] ] ] ] ] ] ] ] ] ] ] ] ] ] ] ] ] ] ] { ! 2 l l l c O A Y Y Y Y Y ",
"Y Y Y Y Y Y Y   5 l l l a 2  .| ] ] ] ] ] ] ] ] ] ] ] ] ] ] ] ] ] ] ] ] ] ] ] ] ] ] ] ] ] ] ] ] ] ] ] ] ] ] ] ] ] ] ] ] ] ] ] ] ] ] ] ] ] ] ] ] ] ] ] ] ] ] ] ] ] ] ] ] ] ] { ~ * l j l c O A Y Y Y Y Y ",
"Y Y Y Y Y Y Y   5 l l l a 2  .| ] ] ] ] ] ] ] ] ] ] ] ] ] ] ] ] ] ] ] ] ] ] ] ] ] ] ] ] ] ] ] ] ] ] ] ] ] ] ] ] ] ] ] ] ] ] ] ] ] ] ] ] ] ] ] ] ] ] ] ] ] ] ] ] ] ] ] ] ] ]  .~ * l l l x O A Y Y Y Y Y ",
"Y Y Y Y Y Y Y   3 l l l u <  .[ ] ] ] ] ] ] ] ] ] ] ] ] ] ] ] ] ] ] ] ] ] ] ] ] ] ] ] ] ] ] ] ] ] ] ] ] ] ] ] ] ] ] ] ] ] ] ] ] ] ] ] ] ] ] ] ] ] ] ] ] ] ] ] ] ] ] ] ] ] ]  .! 2 l l l c O A Y Y Y Y Y ",
"Y Y Y Y Y Y Y   5 l l l s 2  .[ ] ] ] ] ] ] ] ] ] ] ] ] ] ] ] ] ] ] ] ] ] ] ] ] ] ] ] ] ] ] ] ] ] ] ] ] ] ] ] ] ] ] ] ] ] ] ] ] ] ] ] ] ] ] ] ] ] ] ] ] ] ] ] ] ] ] ] ] ] ] { ~ 2 l l l x O A Y Y Y Y Y ",
"Y Y Y Y Y Y Y   5 l l l u 1  .[ ] ] ] ] ] ] ] ] ] ] ] ] ] ] ] ] ] ] ] ] ] ] ] ] ] ] ] ] ] ] ] ] ] ] ] ] ] ] ] ] ] ] ] ] ] ] ] ] ] ] ] ] ] ] ] ] ] ] ] ] ] ] ] ] ] ] ] ] ] ]  .~ 2 z x l x O Z Y Y Y Y Y ",
"Y Y Y Y Y Y Y   5 x l l u 2  . .] ] ] ] ] ] ] ] ] ] ] ] ] ] ] ] ] ] ] ] ] ] ] ] ] ] ] ] ] ] ] ] ] ] ] ] ] ] ] ] ] ] ] ] ] ] ] ] ] ] ] ] ] ] ] ] ] ] ] ] ] ] ] ] ] ] ] ] ] ]  .~ 2 l l l x o A Y Y Y Y Y ",
"Y Y Y Y Y Y Y   5 l x l u &  .[ ] ] ] ] ] ] ] ] ] ] ] ] ] ] ] ] ] ] ] ] ] ] ] ] ] ] ] ] ] ] ] ] ] ] ] ] ] ] ] ] ] ] ] ] ] ] ] ] ] ] ] ] ] ] ] ] ] ] ] ] ] ] ] ] ] ] ] ] ] ]  .( 2 z l l c O A Y Y Y Y Y ",
"Y Y Y Y Y Y Y   5 l l l s <  .[ ] ] ] ] ] ] ] ] ] ] ] ] ] ] ] ] ] ] ] ] ] ] ] ] ] ] ] ] ] ] ] ] ] ] ] ] ] ] ] ] ] ] ] ] ] ] ] ] ] ] ] ] ] ] ] ] ] ] ] ] ] ] ] ] ] ] ] ] ] ]  .~ * z l l c O A Y Y Y Y Y ",
"Y Y Y Y Y Y Y   6 l l l a 2  .[ ] ] ] ] ] ] ] ] ] ] ] ] ] ] ] ] ] ] ] ] ] ] ] ] ] ] ] ] ] ] ] ] ] ] ] ] ] ] ] ] ] ] ] ] ] ] ] ] ] ] ] ] ] ] ] ] ] ] ] ] ] ] ] ] ] ] ] ] ] ] } ~ * z l l v O A Y Y Y Y Y ",
"Y Y Y Y Y Y Y   8 l l l a 2  .[ ] ] ] ] ] ] ] ] ] ] ] ] ] ] ] ] ] ] ] ] ] ] ] ] ] ] ] ] ] ] ] ] ] ] ] ] ] ] ] ] ] ] ] ] ] ] ] ] ] ] ] ] ] ] ] ] ] ] ] ] ] ] ] ] ] ] ] ] ] ]  .~ * l z l c O A Y Y Y Y Y ",
"Y Y Y Y Y Y Y   8 l l l s 2  . .] ] ] ] ] ] ] ] ] ] ] ] ] ] ] ] ] ] ] ] ] ] ] ] ] ] ] ] ] ] ] ] ' ~ Q Q ! ' ] ] ] ] ] ] ] ] ] ] ] ] ] ] ] ] ] ] ] ] ] ] ] ] ] ] ] ] ] ] ] ] { ~ < l l l v O A Y Y Y Y Y ",
"Y Y Y Y Y Y Y   5 l l l a <  .[ ] ] ] ] ] ] ] ] ] ] ] ] ] ] ] ] ] ] ] ] ] ] ] ] ] ] ] ] ] ] ) h E ] }  .' b s ) ] ] ] ] ] ] ] ] ] ] ] ] ] ] ] ] ] ] ] ] ] ] ] ] ] ] ] ] ] ] } ( < x g x v O A Y Y Y Y Y ",
"Y Y Y Y Y Y Y   5 z l l a 2  .{ ] ] ] ] ] ] ] ] ] ] ] ] ] ] ] ] ] ] ] ] ] ] ] ] ] ] ] ] ] W W *.:.:.:.:.:.:.&.E W ] ] ] ] ] ] ] ] ] ] ] ] ] ] ] ] ] ] ] ] ] ] ] ] ] ] ] ] ] { ~ < l l l c O A Y Y Y Y Y ",
"Y Y Y Y Y Y Y   8 z l l s 2  .{ ] ] ] ] ] ] ] ] ] ] ] ] ] ] ] ] ] ] ] ] ] ] ] ] ] ] ] ] ) W ;.:.:.*.+.#.=.:.:.:.W ) ] ] ] ] ] ] ] ] ] ] ] ] ] ] ] ] ] ] ] ] ] ] ] ] ] ] ] ] } ( 2 l x l c O A Y Y Y Y Y ",
"Y Y Y Y Y Y Y   8 l l l s 2  .| ] ] ] ] ] ] ] ] ] ] ] ] ] ] ] ] ] ] ] ] ] ] ] ] ] ] ] ] s *.:.:._ v W W s ] :.:.*.s ] ] ] ] ] ] ] ] ] ] ] ] ] ] ] ] ] ] ] ] ] ] ] ] ] ] ] ] } ( < l l l x O A Y Y Y Y Y ",
"Y Y Y Y Y Y Y   5 l l l u 2  .| ] ] ] ] ] ] ] ] ] ] ] ] ] ] ] ] ] ] ] ] ] ] ] ] ] ] ] ] s :.:.%.b ] ] ] ] v %.:.;.j ] ] ] ] ] ] ] ] ] ] ] ] ] ] ] ] ] ] ] ] ] ] ] ] ] ] ] ] } ( 2 l l l x O A Y Y Y Y Y ",
"Y Y Y Y Y Y Y   7 l l l s 1 ..} ] ] ] ] ] ] ] ] ] ] ] ] ] ] ] ] ] ] ] ] ] ] ] ] ] ] ] ] v :.:.#.W ] ] ] ] ~ W ] ] h ] ] ] ] ] ] ] ] ] ] ] ] ] ] ] ] ] ] ] ] ] ] ] ] ] ] ] ]  .( 2 l l l x O A Y Y Y Y Y ",
"Y Y Y Y Y Y Y   7 l l l p 2  . .] ] ] ] ] ] ] ] ] ] ] ] ] ] ] ] ] ] ] ] ] ] ] ] ] ] ] ] p :.:.:.W n ) ] ] ] ! ! ~ / ] ] ] ] ] ] ] ] ] ] ] ] ] ] ] ] ] ] ] ] ] ] ] ] ] ] ] ] } ( 2 l l l c O A Y Y Y Y Y ",
"Y Y Y Y Y Y Y   5 l l l s 2  .[ ] ] ] ] ] ] ] ] ] ] ] ] ] ] ] ] ] ] ] ] ] ] ] ] ] ] ] ] Q ] :.:.:.%._ l s W ' ] ] ] ] ] ] ] ] ] ] ] ] ] ] ] ] ] ] ] ] ] ] ] ] ] ] ] ] ] ] ]  .~ 2 l l l c o A Y Y Y Y Y ",
"Y Y Y Y Y Y Y   5 l j l p 2  .[ ] ] ] ] ] ] ] ] ] ] ] ] ] ] ] ] ] ] ] ] ] ] ] ] ] ] ] ] ] v ] :.:.:.;.;.=.+.W v ` ] ] ] ] ] ] ] ] ] ] ] ] ] ] ] ] ] ] ] ] ] ] ] ] ] ] ] ] ]  .~ 2 l l l c O A Y Y Y Y Y ",
"Y Y Y Y Y Y Y   5 l l l p 2  . .] ] ] ] ] ] ] ] ] ] ] ] ] ] ] ] ] ] ] ] ] ] ] ] ] ] ] ] ] ] Q g ] %.-.:.;.:.:.&.b _ ] ] ] ] ] ] ] ] ] ] ] ] ] ] ] ] ] ] ] ] ] ] ] ] ] ] ] ]  .~ 2 l l l c O A Y Y Y Y Y ",
"Y Y Y Y Y Y Y   5 z l l p 2  .[ ] ] ] ] ] ] ] ] ] ] ] ] ] ] ] ] ] ] ] ] ] ] ] ] ] ] ] ] ] ] ] ] ~ E p j ` *.:.:.=.a ] ] ] ] ] ] ] ] ] ] ] ] ] ] ] ] ] ] ] ] ] ] ] ] ] ] ] ]  .~ 2 l l l c O A Y Y Y Y Y ",
"Y Y Y Y Y Y Y   5 l l l p *  .[ ] ] ] ] ] ] ] ] ] ] ] ] ] ] ] ] ] ] ] ] ] ] ] ] ] ] ] _ W W W ! ] ] ] ] ~ s &.:.:._ _ ] ] ] ] ] ] ] ] ] ] ] ] ] ] ] ] ] ] ] ] ] ] ] ] ] ] ] { ~ 2 l l c c o Z Y Y Y Y Y ",
"Y Y Y Y Y Y Y   6 l l l p 2  .{ ] ] ] ] ] ] ] ] ] ] ] ] ] ] ] ] ] ] ] ] ] ] ] ] ] ] ] W `  . .g ] ] ] ] ] ` W :.:. .Q ] ] ] ] ] ] ] ] ] ] ] ] ] ] ] ] ] ] ] ] ] ] ] ] ] ] ]  .! 1 j l l v O A Y Y Y Y Y ",
"Y Y Y Y Y Y Y   5 l l l s * ..[ ] ] ] ] ] ] ] ] ] ] ] ] ] ] ] ] ] ] ] ] ] ] ] ] ] ] ] W o.;.;.) ! ] ] ] ] ) ) :.:. .! ] ] ] ] ] ] ] ] ] ] ] ] ] ] ] ] ] ] ] ] ] ] ] ] ] ] ]  .~ 2 l l l c O A Y Y Y Y Y ",
"Y Y Y Y Y Y Y   5 x l l u 2  .[ ] ] ] ] ] ] ] ] ] ] ] ] ] ] ] ] ] ] ] ] ] ] ] ] ] ] ] ` b ;.;.=.E b W W E b *.:.:.W ' ] ] ] ] ] ] ] ] ] ] ] ] ] ] ] ] ] ] ] ] ] ] ] ] ] ] ]  ./ 2 l l l c O A Y Y Y Y Y ",
"Y Y Y Y Y Y Y   6 l l c a *  .| ] ] ] ] ] ] ] ] ] ] ] ] ] ] ] ] ] ] ] ] ] ] ] ] ] ] ] ] n ] :.:.;.&.+.+.&.:.:.:.+.n ] ] ] ] ] ] ] ] ] ] ] ] ] ] ] ] ] ] ] ] ] ] ] ] ] ] ] ]  .! * l l l v O A Y Y Y Y Y ",
"Y Y Y Y Y Y Y   5 l l l a 2  .[ ] ] ] ] ] ] ] ] ] ] ] ] ] ] ] ] ] ] ] ] ] ] ] ] ] ] ] ] ] v ) -.:.:.:.:.:.:.:.] v ] ] ] ] ] ] ] ] ] ] ] ] ] ] ] ] ] ] ] ] ] ] ] ] ] ] ] ] ]  .~ 2 l l l v O A Y Y Y Y Y ",
"Y Y Y Y Y Y Y   5 l l z a 2  .| ] ] ] ] ] ] ] ] ] ] ] ] ] ] ] ] ] ] ] ] ] ] ] ] ] ] ] ] ] ] ! u ! { ..o.[ ! u Q ] ] ] ] ] ] ] ] ] ] ] ] ] ] ] ] ] ] ] ] ] ] ] ] ] ] ] ] ] ]  .~ 2 l l l v O A Y Y Y Y Y ",
"Y Y Y Y Y Y Y   6 l z l a 2 | [ ] ] ] ] ] ] ] ] ] ] ] ] ] ] ] ] ] ] ] ] ] ] ] ] ] ] ] ] ] ] ] ] ) Q W W Q _ ] ] ] ] ] ] ] ] ] ] ] ] ] ] ] ] ] ] ] ] ] ] ] ] ] ] ] ] ] ] ] ]  .~ 2 l l c v O A Y Y Y Y Y ",
"Y Y Y Y Y Y Y   5 c l l a 2  .[ ] ] ] ] ] ] ] ] ] ] ] ] ] ] ] ] ] ] ] ] ] ] ] ] ] ] ] ] ] ] ] ] ] ] ] ] ] ] ] ] ] ] ] ] ] ] ] ] ] ] ] ] ] ] ] ] ] ] ] ] ] ] ] ] ] ] ] ] ] ]  .! 2 l l l c O A Y Y Y Y Y ",
"Y Y Y Y Y Y Y   9 l l l a 2 | | ] ] ] ] ] ] ] ] ] ] ] ] ] ] ] ] ] ] ] ] ] ] ] ] ] ] ] ] ] ] ] ] ] ] ] ] ] ] ] ] ] ] ] ] ] ] ] ] ] ] ] ] ] ] ] ] ] ] ] ] ] ] ] ] ] ] ] ] ] ] o.~ 2 l l l x O A Y Y Y Y Y ",
"Y Y Y Y Y Y Y   9 j l l a 1  .| ] ] ] ] ] ] ] ] ] ] ] ] ] ] ] ] ] ] ] ] ] ] ] ] ] ] ] ] ] ] ] ] ] ] ] ] ] ] ] ] ] ] ] ] ] ] ] ] ] ] ] ] ] ] ] ] ] ] ] ] ] ] ] ] ] ] ] ] ] ]  ./ 2 l l l c O A Y Y Y Y Y ",
"Y Y Y Y Y Y Y   9 l l l a 2  .[ ] ] ] ] ] ] ] ] ] ] ] ] ] ] ] ] ] ] ] ] ] ] ] ] ] ] ] ] ] ] ] ] ] ] ] ] ] ] ] ] ] ] ] ] ] ] ] ] ] ] ] ] ] ] ] ] ] ] ] ] ] ] ] ] ] ] ] ] ] ] +.~ 2 l x l c O A Y Y Y Y Y ",
"Y Y Y Y Y Y Y   9 l l l u 2  .[ ] ] ] ] ] ] ] ] ] ] ] ] ] ] ] ] ] ] ] ] ] ] ] ] ] ] ] ] ] ] ] ] ] ] ] ] ] ] ] ] ] ] ] ] ] ] ] ] ] ] ] ] ] ] ] ] ] ] ] ] ] ] ] ] ] ] ] ] ] ]  .~ 2 l l l v O A Y Y Y Y Y ",
"Y Y Y Y Y Y Y   5 l l l u 2 | [ ] ] ] ] ] ] ] ] ] ] ] ] ] ] ] ] ] ] ] ] ] ] ] ] ] ] ] ] ] ] ] ] ] ] ] ] ] ] ] ] ] ] ] ] ] ] ] ] ] ] ] ] ] ] ] ] ] ] ] ] ] ] ] ] ] ] ] ] ] ]  .! 2 x z l v # A Y Y Y Y Y ",
"Y Y Y Y Y Y Y   9 j l l p 2  .[ ] ] ] ] ] ] ] ] ] ] ] ] ] ] ] ] ] ] ] ] ] ] ] ] ] ] ] ] ] ] ] ] ] ] ] ] ] ] ] ] ] ] ] ] ] ] ] ] ] ] ] ] ] ] ] ] ] ] ] ] ] ] ] ] ] ] ] ] ] ] } ! 2 x l l v # A Y Y Y Y Y ",
"Y Y Y Y Y Y Y   5 z l j u *  .[ ] ] ] ] ] ] ] ] ] ] ] ] ] ] ] ] ] ] ] ] ] ] ] ] ] ] ] ] ] ] ] ] ] ] ] ] ] ] ] ] ] ] ] ] ] ] ] ] ] ] ] ] ] ] ] ] ] ] ] ] ] ] ] ] ] ] ] ] ] ] } ! 2 l x l v O A Y Y Y Y Y ",
"Y Y Y Y Y Y Y   0 l j l u *  .{ ] ] ] ] ] ] ] ] ] ] ] ] ] ] ] ] ] ] ] ] ] ] ] ] ] ] ] ] ] ] ] ] ] ] ] ] ] ] ] ] ] ] ] ] ] ] ] ] ] ] ] ] ] ] ] ] ] ] ] ] ] ] ] ] ] ] ] ] ] ] { ~ 2 l c l v # A Y Y Y Y Y ",
"Y Y Y Y Y Y Y   5 j l j u &  .[ ] ] ] ] ] ] ] ] ] ] ] ] ] ] ] ] ] ] ] ] ] ] ] ] ] ] ] ] ] ] ] ] ] ] ] ] ] ] ] ] ] ] ] ] ] ] ] ] ] ] ] ] ] ] ] ] ] ] ] ] ] ] ] ] ] ] ] ] ] ] { ! * l l l v O A Y Y Y Y Y ",
"Y Y Y Y Y Y Y   9 j l j u &  .] ] ] ] ] ] ] ] ] ] ] ] ] ] ] ] ] ] ] ] ] ] ] ] ] ] ] ] ] ] ] ] ] ] ] ] ] ] ] ] ] ] ] ] ] ] ] ] ] ] ] ] ] ] ] ] ] ] ] ] ] ] ] ] ] ] ] ] ] ] ] { ! * l l l v # A Y Y Y Y Y ",
"Y Y Y Y Y Y Y   9 j l l u & } [ ] ] ] ] ] ] ] ] ] ] ] ] ] ] ] ] ] ] ] ] ] ] ] ] ] ] ] ] ] ] ] ] ] ] ] ] ] ] ] ] ] ] ] ] ] ] ] ] ] ] ] ] ] ] ] ] ] ] ] ] ] ] ] ] ] ] ] ] ] ] { ! & l l x v # A Y Y Y Y Y ",
"Y Y Y Y Y Y Y   5 l l h u &  .[ ] ] ] ] ] ] ] ] ] ] ] ] ] ] ] ] ] ] ] ] ] ] ] ] ] ] ] ] ] ] ] ] ] ] ] ] ] ] ] ] ] ] ] ] ] ] ] ] ] ] ] ] ] ] ] ] ] ] ] ] ] ] ] ] ] ] ] ] ] ] [ ! & h l l v # A Y Y Y Y Y ",
"Y Y Y Y Y Y Y   5 l l h r &  .{ ] ] ] ] ] ] ] ] ] ] ] ] ] ] ] ] ] ] ] ] ] ] ] ] ] ] ] ] ] ] ] ] ] ] ] ] ] ] ] ] ] ] ] ] ] ] ] ] ] ] ] ] ] ] ] ] ] ] ] ] ] ] ] ] ] ] ] ] ] ] ] Q & h l l b O A Y Y Y Y Y ",
"Y Y Y Y Y Y Y   5 l l h u &  .{ ] ] ] ] ] ] ] ] ] ] ] ] ] ] ] ] ] ] ] ] ] ] ] ] ] ] ] ] ] ] ] ] ] ] ] ] ] ] ] ] ] ] ] ] ] ] ] ] ] ] ] ] ] ] ] ] ] ] ] ] ] ] ] ] ] ] ] ] ] ] ] Q & d g l b # A Y Y Y Y Y ",
"Y Y Y Y Y Y Y   5 l l d u & ..[ ] ] ] ] ] ] ] ] ] ] ] ] ] ] ] ] ] ] ] ] ] ] ] ] ] ] ] ] ] ] ] ] ] ] ] ] ] ] ] ] ] ] ] ] ] ] ] ] ] ] ] ] ] ] ] ] ] ] ] ] ] ] ] ] ] ] ] ] ] ] ] Q % l l l c # A Y Y Y Y Y ",
"Y Y Y Y Y Y Y   5 l l j u &  . .] ] ] ] ] ] ] ] ] ] ] ] ] ] ] ] ] ] ] ] ] ] ] ] ] ] ] ] ] ] ] ] ] ] ] ] ] ] ] ] ] ] ] ] ] ] ] ] ] ] ] ] ] ] ] ] ] ] ] ] ] ] ] ] ] ] ] ] ] ] ] Q * j l l c O A Y Y Y Y Y ",
"Y Y Y Y Y Y Y   3 l d l u * .. .] ] ] ] ] ] ] ] ] ] ] ] ] ] ] ] ] ] ] ] ] ] ] ] ] ] ] ] ] ] ] ] ] ] ] ] ] ] ] ] ] ] ] ] ] ] ] ] ] ] ] ] ] ] ] ] ] ] ] ] ] ] ] [ ] ] ] ] ] ] { W & j l l c O A Y Y Y Y Y ",
"Y Y Y Y Y Y Y   3 l j l a < X. .] ] ] ] ] ] ] ] ] ] ] ] ] ] ] ] ] ] ] ] ] ] ] ] ] ] ] ] ] ] ] ] ] ] ] ] ] ] ] ] ] ] ] ] ] ] ] ] ] ] ] ] ] ] ] ] ] ] ] ] ] ] ] ] ] ] ] ] ] ] { Q & g l z l O A Y Y Y Y Y ",
"Y Y Y Y Y Y Y   2 l l l s & +. .] ] ] ] ] ] ] ] ] ] ] ] ] ] ] ] ] ] ] ] ] ] ] ] ] ] ] ] ] ] ] ] ] ] ] ] ] ] ] ] ] ] ] ] ] ] ] ] ] ] ] ] ] ] ] ] ] ] ] ] ] ] ] ] ] ] ] ] ] ] X.W < j l j z O A Y Y Y Y Y ",
"Y Y Y Y Y Y Y   2 l l l l 1 ] +.] ] ] ] ] ] ] ] ] ] ] ] ] ] ] ] ] ] ] ] ] ] ] ] ] ] ] ] ] ] ] ] ] ] ] ] ] ] ] ] ] ] ] ] ] ] ] ] ] ] ] ] ] ] ] ] ] ] ] ] ] ] ] ] ] ] ] ] ] ] $.n 4 l l g l o A Y Y Y Y Y ",
"Y Y Y Y Y Y Y   % x l x l 4 b $.[ ] ] ] ] ] ] ] ] ] ] ] ] ] ] ] ] ] ] ] ] ] ] ] ] ] ] ] ] ] ] ] ] ] ] ] ] ] ] ] ] ] ] ] ] ] ] ] ] ] ] ] ] ] ] ] ] ] ] ] ] ] ] ] ] ] ] ] ] +.X.2 r l g s h   A Y Y Y Y Y ",
"Y Y Y Y Y Y Y B o x l l l s 2 ) #.[ ] ] ] ] ] ] ] ] ] ] ] ] ] ] ] ] ] ] ] ] ] ] ] ] ] ] ] ] ] ] ] ] ] ] ] ] ] ] ] ] ] ] ] ] ] ] ] ] ] ] ] ] ] ] ] ] ] ] ] ] ] ] ] ] ] ] +.+.x 2 l l d s u   A Y Y Y Y Y ",
"Y Y Y Y Y Y Y K   s l l l z u 2 W o.+...[ [ ] ] ] ] [ [ [ |  ... .....o. ...O.o.X.o.o.o.o... .+.+.O.O.o.o.O.o.o.O.o. .....o.O.o. . .O. .|  . . .} } [ [ } } } } X.@.#.$. .l 2 s l l g l 2   I Y Y Y Y Y ",
"Y Y Y Y Y Y Y Y : F x x x l v u * 4 b W W W W W W W W W W W W W W W W W W W Q W W W W W W W W W W W W W W W W W W W W W W W W W W W W W W W W W W W W W W W W W W W W b 3 3 a l l l l l . M Y Y Y Y Y Y ",
"Y Y Y Y Y Y Y Y L C R v v x l l j w 4 2 2 2 * 2 2 2 2 3 4 4 4 3 4 5 5 5 3 4 4 5 3 3 4 4 4 5 3 3 4 3 5 3 3 4 3 5 3 4 3 4 4 5 4 4 4 3 3 4 3 4 3 2 2 3 2 2 2 2 < 2 3 < 3 8 u d l l l l v 3   I Y Y Y Y Y Y ",
"Y Y Y Y Y Y Y Y Y Z V l x x g d j h h d s h s d l j d g l l l l l j l j z l l l x l l l l l l l l l l l l l l c l l l l l l z l l z l l l l l l g l g g g d d a d g g g d g l l l b w   C Y Y Y Y Y Y Y ",
"Y Y Y Y Y Y Y Y Y Y N > R l l h h s s s s s h d j j l l l l g l l j l l j l l l l j l l l l j l l l l l j l l l l l j l l j l l l l l l l l g l g g g g g g a s a g a g d g l l v q . M Y Y Y Y Y Y Y Y ",
"Y Y Y Y Y Y Y Y Y Y U N   2 u l h s s h h g h h l l l l j l l l l l l l l l j j l l l l l l l l l l j l l l l j l l l l l l j l l l l l l l l z l l l l l h j h h g h g l j j u D @ M Y Y Y Y Y Y Y Y Y ",
"Y Y Y Y Y Y Y Y Y Y Y Y B     O % 2 3 4 3 5 5 q 5 q 5 q q 5 8 8 5 q 5 9 0 7 9 6 q 5 7 7 5 9 q 5 6 9 q 5 0 0 q 5 6 5 9 5 5 q 5 q 6 9 q 6 q 8 8 7 7 q 7 7 5 5 5 3 3 5 2 2 2 % X   : P Y Y Y Y Y Y Y Y Y Y ",
"Y Y Y Y Y Y Y Y Y Y Y Y Y I A =                                                                                                                                             N J Y Y Y Y Y Y Y Y Y Y Y Y ",
"Y Y Y Y Y Y Y Y Y Y Y Y Y Y Y Y Y Y Y Y Y Y Y Y Y Y Y Y Y Y Y Y Y Y Y Y Y Y Y Y Y Y Y Y Y Y Y Y Y Y Y Y Y Y Y Y Y Y Y Y Y Y Y Y Y Y Y Y Y Y Y Y Y Y Y Y Y Y Y Y Y Y Y Y Y Y Y Y Y Y Y Y Y Y Y Y Y Y Y Y ",
"Y Y Y Y Y Y Y Y Y Y Y Y Y Y Y Y Y Y Y Y Y Y Y Y Y Y Y Y Y Y Y Y Y Y Y Y Y Y Y Y Y Y Y Y Y Y Y Y Y Y Y Y Y Y Y Y Y Y Y Y Y Y Y Y Y Y Y Y Y Y Y Y Y Y Y Y Y Y Y Y Y Y Y Y Y Y Y Y Y Y Y Y Y Y Y Y Y Y Y Y ",
"Y Y Y Y Y Y Y Y Y Y Y Y Y Y Y Y Y Y Y Y Y Y Y Y Y Y Y Y Y Y Y Y Y Y Y Y Y Y Y Y Y Y Y Y Y Y Y Y Y Y Y Y Y Y Y Y Y Y Y Y Y Y Y Y Y Y Y Y Y Y Y Y Y Y Y Y Y Y Y Y Y Y Y Y Y Y Y Y Y Y Y Y Y Y Y Y Y Y Y Y ",
"Y Y Y Y Y Y Y Y Y Y Y Y Y Y Y Y Y Y Y Y Y Y Y Y Y Y Y Y Y Y Y Y Y Y Y Y Y Y Y Y Y Y Y Y Y Y Y Y Y Y Y Y Y Y Y Y Y Y Y Y Y Y Y Y Y Y Y Y Y Y Y Y Y Y Y Y Y Y Y Y Y Y Y Y Y Y Y Y Y Y Y Y Y Y Y Y Y Y Y Y ",
"Y Y Y Y Y Y Y Y Y Y Y Y Y Y Y Y Y Y Y Y Y Y Y Y Y Y Y Y Y Y Y Y Y Y Y Y Y Y Y Y Y Y Y Y Y Y Y Y Y Y Y Y Y Y Y Y Y Y Y Y Y Y Y Y Y Y Y Y Y Y Y Y Y Y Y Y Y Y Y Y Y Y Y Y Y Y Y Y Y Y Y Y Y Y Y Y Y Y Y Y ",
"Y Y Y Y Y Y Y Y Y Y Y Y Y Y Y Y Y Y Y Y Y Y Y Y Y Y Y Y Y Y Y Y Y Y Y Y Y Y Y Y Y Y Y Y Y Y Y Y Y Y Y Y Y Y Y Y Y Y Y Y Y Y Y Y Y Y Y Y Y Y Y Y Y Y Y Y Y Y Y Y Y Y Y Y Y Y Y Y Y Y Y Y Y Y Y Y Y Y Y Y "
};
