/* XPM */
static char *result[] = {
/* columns rows colors chars-per-pixel */
"100 97 108 2 ",
"   c #000101",
".  c #080A06",
"X  c #0C0C0B",
"o  c #0D100F",
"O  c #151514",
"+  c #191917",
"@  c #161618",
"#  c gray10",
"$  c #022402",
"%  c #023F02",
"&  c #1F2120",
"*  c #242424",
"=  c #2C2C2B",
"-  c #303030",
";  c #383734",
":  c #363837",
">  c #3A3937",
",  c #3C3C3C",
"<  c #054A05",
"1  c #025102",
"2  c #026002",
"3  c #40413F",
"4  c #3F3F40",
"5  c #413F40",
"6  c #3F4140",
"7  c #434343",
"8  c #474945",
"9  c #494947",
"0  c #474748",
"q  c #494749",
"w  c #474948",
"e  c #4B4B4B",
"r  c #4D514E",
"t  c #50504F",
"y  c #4F5150",
"u  c #555554",
"i  c #585756",
"p  c #575956",
"a  c #595957",
"s  c #575759",
"d  c #575958",
"f  c #5A5A5A",
"g  c #60605F",
"h  c #615F60",
"j  c #646464",
"k  c #686667",
"l  c #676966",
"z  c #686966",
"x  c #676769",
"c  c #696768",
"v  c #676968",
"b  c #6B6B6B",
"n  c #6E706F",
"m  c #70716E",
"M  c #6E6E70",
"N  c #737372",
"B  c #7B7B7B",
"V  c #018001",
"C  c #028B02",
"Z  c #019C01",
"A  c #03A302",
"S  c #02AA02",
"D  c #02B002",
"F  c #00BB00",
"G  c #208D21",
"H  c #01CC02",
"J  c #02D402",
"K  c #00D801",
"L  c #01E301",
"P  c #01EC01",
"I  c #00F700",
"U  c green",
"Y  c #31C832",
"T  c #41AD41",
"R  c #848484",
"E  c #878988",
"W  c #8B8C8B",
"Q  c #8F9190",
"!  c #949494",
"~  c #989797",
"^  c #989896",
"/  c #989898",
"(  c #A4A4A4",
")  c #ACACAC",
"_  c #B5B5B5",
"`  c #B9B9B7",
"'  c #B7B9B8",
"]  c #BCBDBC",
"[  c #C0BEBF",
"{  c #BFC1BF",
"}  c #C1C1BF",
"|  c #BFBFC0",
" . c #C1BFC0",
".. c #BFC1C0",
"X. c #C2C2C2",
"o. c #C6C8C7",
"O. c #C9CAC7",
"+. c #C7C9C8",
"@. c #CACBCA",
"#. c #D1D1CF",
"$. c #D2D2D2",
"%. c #DDDDDD",
"&. c #E6E4E5",
"*. c #EDEEED",
"=. c #F4F4F4",
"-. c #F9F9F7",
";. c #F9F7F8",
":. c #FDFDFC",
/* pixels */
"U U U U U U U U U U U U U U U U U U U U U U U U U U U U U U U U U U U U U U U U U U U U U U U U U U U U U U U U U U U U U U U U U U U U U U U U U U U U U U U U U U U U U U U U U U U U U U U U U U U U ",
"U U U U U U U U U U U U U U U U U U U U U U U U U U U U U U U U U U U U U U U U U U U U U U U U U U U U U U U U U U U U U U U U U U U U U U U U U U U U U U U U U U U U U U U U U U U U U U U U U U U U ",
"U U U U U U U U U U U U U U U U U U U U U U U U U U U U U U U U U U U U U U U U U U U U U U U U U U U U U U U U U U U U U U U U U U U U U U U U U U U U U U U U U U U U U U U U U U U U U U U U U U U U ",
"U U U U U U U U U U U U U U U U U U U U U U U U U U U U U U U U U U U U U U U U U U U U U U U U U U U U U U U U U U U U U U U U U U U U U U U U U U U U U U U U U U U U U U U U U U U U U U U U U U U U ",
"U U U U U U U U U U U U U U P F F F F F F F F F F F F F F F F F F F F F F F F F F F F F F F F F F F F F F F F F F F F F F F F F F F F F F F F F F F F F F F F F F F F F F J U U U U U U U U U U U U U U ",
"U U U U U U U U U U U U J 1     . o o O O O O O O O O O O O O O O O O O O O O O O O O @ O O O O O O O @ O O @ O @ O O O O O @ O @ @ @ @ O O O O O @ @ @ + @ @ O @ O O O X     A U U U U U U U U U U U U ",
"U U U U U U U U U U P C . = u f j k z z z b z z z z b b z b b b z b z b b b c b b M z b z b b b b M b b b b b b b b b M M b b b b b b b b b z b b b b b b b z z b b b b b f 9 X   K U U U U U U U U U U ",
"U U U U U U U U U K . # f b z k k k x k x x k k c k z c c c x k z c k v c x c c z z z c x x l k z c c z z z z z z v z z c z z z x x b z v v v k k k z z k k z z l z z b z z b z >   F U U U U U U U U U ",
"U U U U U U U U L . = b N b N z z z x k z z x l k k k v v k z k x k v z z v b l k l z v z z b k z l z z z z z z b x z z z x c x x z c x c k x k x z z z k x z z z z b b z b z b b 9   H U U U U U U U U ",
"U U U U U U U U C @ b N N n m m z f f f a a f s p i i i i f a f s f i i f f s d d a d d p p f f f f f f s a a a s i i a s s i d d s s f p p i s i i s f p f d f f f f j z z z z b m 7   L U U U U U U U ",
"U U U U U U U J   f N n N b M f 3 3 e e e e e q 0 w e q e e q q e e e e e r e e r e e 9 e e e e e e e e e e 9 e e e e e e e e e e r e e e e e e e e e t e e e r e r w 3 9 l z b b b b * C U U U U U U U ",
"U U U U U U U 2 * m m b m m e 4 ! X.#.@.@.@.@.@.+.O.@.@.@.o.@.@.@.@.@.+.@.@.@.@.@.O.@.O.@.O.@.@.@.@.@.@.@.O.O.O.@.O.+.+.+.@.@.@.@.@.@.@.@.@.@.@.@.@.@.@.@.@.@.@.@.@.X._ b 3 g m b b b i   P U U U U U U ",
"U U U U U U P   u b M n m s 0 _ $./ e - - - - - - - - - - - - - = - - - - - - - - - - - - - - - = - - - - - - - - - - - - - - - - - - - - - - - - - - - - - - - - - z ) @.B 3 b m b b b X F U U U U U U ",
"U U U U U U H   f z b b z , ( $.n - = - - - - - - - - - - - - - - - - - - - - - - - - - - - - - - - - - - - - - - - - - - - - - - - - - - - - - - - - - - - - - - - - - Q +.a a N b M M = Z U U U U U U ",
"U U U U U U F . z z z M f u $.R - - - - - - - - - - - - - - - - - - - - - - - - - - - - - - - - - - - - - - - - - - - - - - - - - - - - - - - - - - - - - - - - - - - - - ) ( 3 b b b b 7   U U U U U U ",
"U U U U U U F o b b z z e R $.- - - - - - - - - - - - - - - - - - - - - - - - - - - - - - - - - - - - - - - - - - - - - - - - - - - - - - - - - - - - - - - - - - - - - - ! [ 3 c z b b q   U U U U U U ",
"U U U U U U F O b b z b 9 W @.- - - - - - - - - - - - - - - - - - - - - - - - - - - - - - - - - - - - - - - - - - - - - - - - - - - - - - - - - - - - - - - - - - - - - - !  .7 j b z b q   U U U U U U ",
"U U U U U U F O b c b b q Q +.- - - - - - - - - - - - - - - - - - - - - - - - - - - - - - - - - - - - - - - - - - - - - - - - - - - - - - - - - - - - - - - - - - - - - - ! | , j b v b 0   U U U U U U ",
"U U U U U U F O b b b z q Q +.- - - - - - - - - - - - - - - - - - - - - - - - - - - - - - - - - - - - - - - - - - - - - - - - - - - - - - - - - - - - - - - - - - - - - - ! X.7 g x b b 0   U U U U U U ",
"U U U U U U F O b b z z 9 W X.- - - - - - - - - - - - - - - - - - - - - - - - - - - - - - - - - - - - - - - - - - - - - - - - - - - - - - - - - - - - - - - - - - - - - - ! } , j x z z 0   U U U U U U ",
"U U U U U U F O b b b b 9 W ` - - - - - - - - - - - - - - - - - - - - - - - - - - - - - - - - - - - - - - - - - - - - - - - - - - - - - - - - - - - - - - - - - - - - - - ! ] 7 h x v z q   U U U U U U ",
"U U U U U U F O b b c b e W _ - - - - - - - - - - - - - - - - - - - - - - - - - - - - - - - - - - - - - - - - - - - - - - - - - - - - - - - - - - - - - - - - - - - - - - ! ] 5 j k b b e   U U U U U U ",
"U U U U U U F O b b z b 9 W _ - - - - - - - - - - - - - - - - - - - - - - - - - - - - - - - - - - - - - - - - - - - - - - - - - - - - - - - - - - - - - - - - - - - - - - / | 4 h x b b e   U U U U U U ",
"U U U U U U F O b b z b q W ` - - - - - - - - - - - - - - - - - - - - - - - - - - - - - - - - - - - - - - - - - - - - - - - - - - - - - - - - - - - - - - - - - - - - - - / ] 6 h x b b e   U U U U U U ",
"U U U U U U F O b b c b 9 W _ - - - - - - - - - - - - - - - - - - - - - - - - - - - - - - - - - - - - - - - - - - - - - - - - - - - - - - - - - - - - - - - - - - - - - - ! X.3 h v b b e   U U U U U U ",
"U U U U U U F O b b b b q W [ - - - - - - - - - - - - - - - - - - - - - - - - - - - - - - - - - - - - - - - - - - - - - - - - - - - - - - - - - - - - - - - - - - - - - - / | 6 j v z b e   U U U U U U ",
"U U U U U U F O b c b b q W ` - - - - - - - - - - - - - - - - - - - - - - - - - - - - - - - - - - - - - - - - - - - - - - - - - - - - - - - - - - - - - - - - - - - - - - / X.5 h c c b e   U U U U U U ",
"U U U U U U F O b b c c q W _ - - - - - - - - - - - - - - - - - - - - - - - - - - - - - - - - - - - - - - - - - - - - - - - - - - - - - - - - - - - - - - - - - - - - - - W ..4 j c b b e   U U U U U U ",
"U U U U U U F O b b c b q W ' - - - - - - - - - - - - - - - - - - - - - - - - - - - - - - - - - - - - - - - - - - - - - - - - - - - - - - - - - - - - - - - - - - - - - - ~ | , j k v b e   U U U U U U ",
"U U U U U U F O b b b b e W +.- - - - - - - - - - - - - - - - - - - - - - - - - - - - - - - - - - - - - - - - - - - - - - - - - - - - - - - - - - - - - - - - - - - - - - / ] 7 j k z z e   U U U U U U ",
"U U U U U U F O b b b b q W X.- - - - - - - - - - - - - - - - - - - - - - - - - - - - - - - - - - - - - - - - - - - - - - - - - - - - - - - - - - - - - - - - - - - - - - / ] 7 j k b b e   U U U U U U ",
"U U U U U U F O b b c b e W  .- - - - - - - - - - - - - - - - - - - - - - - - - - - - - - - - - - - - - - - - - - - - - - - - - - - - - - - - - - - - - - - - - - - - - - / ] 7 j c z b e   U U U U U U ",
"U U U U U U F @ b b b b e W  .- - - - - - - - - - - - - - - - - - - - - - - - - - - - - - - - - - - - - = - - - - - - - - - - - - - - - - - - - - - - - - - - - - - - - - ~ | 4 j k x b e   U U U U U U ",
"U U U U U U F O M z b b e W o.- - - - - - - - - - - - - - - - - - - - - - - - - - - - - - - - - - - - - 0 u - - - - - - - - - - - - - - - - - - - - - - - - - - - - - - - ~ | 7 j v z z e   U U U U U U ",
"U U U U U U F @ b b z b e W X.- - - - - - - - - - - - - - - - - - - - - - - - - - - - - - - - - - - > : X.) e - - - - - - - - - - - - - - - - - - - - - - - - - - - - - - ! | 5 h x c b e   U U U U U U ",
"U U U U U U F O b b z b e W ] - - - - - - - - - - - - - - - - - - - - - - - - - - - - - - - - - - - ; X.:.:.) e - - - - - - - - - - - - - - - - - - - - - - - - - - - - - / | 6 j c b b e   U U U U U U ",
"U U U U U U F O b b c b e W ] - - - - - - - - - - - - - - - - - - - - - - - - - - - - - - - - - - : _ :.:.:.:.) q = - - - - - - - - - - - - - - - - - - - - - - - - - - - / } 7 j x z b r   U U U U U U ",
"U U U U U U F O b b z M e W | - - - - - - - - - - - - - - - - - - - - - - - - - - - - - - - - - - e l *.:.:.:.:.) e - - - - - - - - - - - - - - - - - - - - - - - - - - - / ] 7 j x b b e   U U U U U U ",
"U U U U U U F @ b z b M e W X.- - - - - - - - - - - - - - - - - - - - - - - - - - - - - - - - - - - e x *.:.:.:.:.( 0 - - - - - - - - - - - - - - - - - - - - - - - - - - / X.5 j x b M e   U U U U U U ",
"U U U U U U F @ M z x M e W o.- - - - - - - - - - - - - - - - - - - - - - - - - - - - - - - - - - - - 7 b =.:.:.:.:.( 0 - - - - - - - - - - - - - - - - - - - - - - - - - / ] 7 h b b b e   U U U U U U ",
"U U U U U U F @ b b b b e W ] - - - - - - - - - - - - - - - - - - - - - - - - - - - - - - - - - - - - - 0 m *.:.:.-.;.( 0 - - - - - - - - - - - - - - - - - - - - - - - - / ..3 j z b b e   U U U U U U ",
"U U U U U U F @ b b b N e W X.- - - - - - - - - - - - - - - - - - - - - - - - - - - - - - - - - - - - - - e b *.-.-.;.;.) 7 - - - - - - - - - - - - - - - - - - - - - - - / X.7 j x b b e   U U U U U U ",
"U U U U U U F @ b b b n e W X.- - - - - - - - - - - - - - - - - - e , , , 4 , , > > > > , > , , 4 4 4 4 4 , i g &.;.-.:.;.) 7 - - - - - - - - - - - - - - - - - - - - - - ^ { 3 j z b b e   U U U U U U ",
"U U U U U U F @ b b b n e W X.- - - - - - - - - - - - - - - - - - f W X.X.X.X.X.X.X.X.X.X.X.X.+.o.X.o.o.o.X.X.X.%.:.-.:.:.:.) 7 - - - - - - - - - - - - - - - - - - - - - / } 7 j b b b e   U U U U U U ",
"U U U U U U F O b b b n e W ] - - - - - - - - - - - - - - - - - - j ) :.:.:.:.:.:.:.-.:.:.:.:.:.:.:.:.:.:.:.;.;.;.:.:.:.:.:.;.) e - - - - - - - - - - - - - - - - - - - - / X.3 g b v M e   U U U U U U ",
"U U U U U U F O n b b m e Q @.- - - - - - - - - - - - - - - - - - f ) :.:.:.:.:.:.:.:.:.:.:.:.:.:.:.:.:.:.:.;.:.:.;.:.;.:.:.;.*.r f - - - - - - - - - - - - - - - - - - - / } 4 j b b b e   U U U U U U ",
"U U U U U U F + b b b m e W X.- - - - - - - - - - - - - - - - - - f _ -.:.-.:.:.:.:.:.-.:.:.:.:.:.:.:.:.:.:.;.;.;.:.;.;.;.=.*.T z - - - - - - - - - - - - - - - - - - - - /  .7 h b b b r   U U U U U U ",
"U U U U U U F O M b z m t W  .- - - - - - - - - - - - - - - - - - k x W W W W W W E E W W W ! ! ! W ! ! W E R R | ;.;.;.;.*.R B - - - - - - - - - - - - - - - - - - - - - /  .4 j x b M e   U U U U U U ",
"U U U U U U F O b b b n e W +.- - - - - - - - - - - - - - - - - - - N N m N N N m N N N N B s : > q g f z N W W =.-.:.;.*.B M - - - - - - - - - - - - - - - - - - - - - - / ] 7 j b b n e   U U U U U U ",
"U U U U U U F O b b b m e W O.- - - - - - - - - - - - - - - - - - - - - - - - - - - - - = - - - - - - - - M W :.-.:.;.*.B N - - - - - - - - - - - - - - - - - - - - - - - / X.7 j b z b e   U U U U U U ",
"U U U U U U F O n b n b e W @.- - - - - - - - - - - - - - - - - - - - - - - - - - - - - - - - - - - - - N W :.:.:.:.*.B N - - - - - - - - - - - - - - - - - - - - - - - - ! X., j b b M e   U U U U U U ",
"U U U U U U F O b b n n r W X.- - - - - - - - - - - - - - - - - - - - - - - - - - - - - - - - - - - - N W :.:.:.:.=.B m - - - - - - - - - - - - - - - - - - - - - - - - - / } 3 j b z b e   U U U U U U ",
"U U U U U U F O b b n b e W ] - - - - - - - - - - - - - - - - - - - - - - - - - - - - - - - - - - - N W -.:.:.:.;.B N - - - - - - - - - - - - - - - - - - - - - - - - - - ! [ , g b b M e   U U U U U U ",
"U U U U U U F O n b b m e Q ] - - - - - - - - - - - - - - - - - - - - - - - - - - - - - - - - - - e R ;.:.:.:.=.B x - - - - - - - - - - - - - - - - - - - - - - - - - - - ! X.7 j v b b e   U U U U U U ",
"U U U U U U F O n b b m e W ] - - - - - - - - - - - - - - - - - - - - - - - - - - - - - - - - - - s ! :.:.:.-.R 6 - - - - - - - - - - - - - - - - - - - - - - - - - - - - ! X.6 j v b b e   U U U U U U ",
"U U U U U U F O n b b m e W } - - - - - - - - - - - - - - - - - - - - - - - - - - - - - - - - - - - k ^ :.:.E q - - - - - - - - - - - - - - - - - - - - - - - - - - - - - ~ X., j b b M e   U U U U U U ",
"U U U U U U F O n b M M e W X.- - - - - - - - - - - - - - - - - - - - - - - - - - - - - - - - - - - - b / R 7 - - - - - - - - - - - - - - - - - - - - - - - - - - - - - - / X.7 j v b n e   U U U U U U ",
"U U U U U U F O b b b b e W  .- - - - - - - - - - - - - - - - - - - - - - - - - - - - - - - - - - - - - u : - - - - - - - - - - - - - - - - - - - - - - - - - - - - - - - ! ] 7 j z b b e   U U U U U U ",
"U U U U U U F O b b b M t W ' - - - - - - - - - - - - - - - - - - - - - - - - - - - - - - - - - - - - - - - - - - - - - - - - - - - - - - - - - - - - - - - - - - - - - - ! X.7 j b b b e   U U U U U U ",
"U U U U U U F O N b b m q W ' - - - - - - - - - - - - - - - - - - - - - - - - - - - - - - - - - - - - - - - - - - - - - - - - - - - - - - - - - - - - - - - - - - - - - - W X., j z b M e   U U U U U U ",
"U U U U U U F O m b b b q W ' - - - - - - - - - - - - - - - - - - - - - - - - - - - - - - - - - - - - - - - - - - - - - - - - - - - - - - - - - - - - - - - - - - - - - - W X.7 j c b b e   U U U U U U ",
"U U U U U U F O M b b M e W X.- - - - - - - - - - - - - - - - - - - - - - - - - - - - - - - - - - - - - - - - - - - - - - - - - - - - - - - - - - - - - - - - - - - - - - !  .5 h b b M e   U U U U U U ",
"U U U U U U D O M b b m e W o.- - - - - - - - - - - - - - - - - - - - - - - - - - - - - - - - - - - - - - - - - - - - - - - - - - - - - - - - - - - - - - - - - - - - - - ~ X.7 j z M b e   U U U U U U ",
"U U U U U U F O M b b b q W X.- - - - - - - - - - - - - - - - - - - - - - - - - - - - - - - - - - - - - - - - - - - - - - - - - - - - - - - - - - - - - - - - - - - - - - ~ X., j z b b e   U U U U U U ",
"U U U U U U F O M b v b e W ] - - - - - - - - - - - - - - - - - - - - - - - - - - - - - - - - - - - - - - - - - - - - - - - - - - - - - - - - - - - - - - - - - - - - - - ! ..4 j z b b e   U U U U U U ",
"U U U U U U D O M b b b q W X.- - - - - - - - - - - - - - - - - - - - - - - - - - - - - - - - - - - - - - - - - - - - - - - - - - - - - - - - - - - - - - - - - - - - - - / | 7 j z b b e   U U U U U U ",
"U U U U U U F O M b b M q W X.- - - - - - - - - - - - - - - - - - - - - - - - - - - - - - - - - - - - - - - - - - - - - - - - - - - - - - - - - - - - - - - - - - - - - - ~ X.5 j z b b e   U U U U U U ",
"U U U U U U F O M b z b q W +.- - - - - - - - - - - - - - - - - - - - - - - - - - - - - - - - - - - - - - - - - - - - - - - - - - - - - - - - - - - - - - - - - - - - - - ~ X.4 h x b b e   U U U U U U ",
"U U U U U U F O b b b b q W X.- - - - - - - - - - - - - - - - - - - - - - - - - - - - - - - - - - - - - - - - - - - - - - - - - - - - - - - - - - - - - - - - - - - - - - ~ | 7 h b b b e   U U U U U U ",
"U U U U U U F O b b v b q W ' - - - - - - - - - - - - - - - - - - - - - - - - - - - - - - - - - - - - - - - - - - - - - - - - - - - - - - - - - - - - - - - - - - - - - - ~ | 7 h b b b e   U U U U U U ",
"U U U U U U F O b b z z 0 W X.- - - - - - - - - - - - - - - - - - - - - - - - - - - - - - - - - - - - - - - - - - - - - - - - - - - - - - - - - - - - - - - - - - - - - - ~ | 6 h b b b e   U U U U U U ",
"U U U U U U F O b b b c 0 E ] - - - - - - - - - - - - - - - - - - - - - - - - - - - - - - - - - - - - - - - - - - - - - - - - - - - - - - - - - - - - - - - - - - - - - - ~ ..7 h x b b r   U U U U U U ",
"U U U U U U F O z b v b 0 W X.- - - - - - - - - - - - - - - - - - - - - - - - - - - - - - - - - - - - - - - - - - - - - - - - - - - - - - - - - - - - - - - - - - - - - - ~ ] 7 h v b b e   U U U U U U ",
"U U U U U U F O b z z c 0 W @.- - - - - - - - - - - - - - - - - - - - - - - - - - - - - - - - - - - - - - - - - - - - - - - - - - - - - - - - - - - - - - - - - - - - - - ~ X.7 j b b b e   U U U U U U ",
"U U U U U U F O M b x b w W @.- - - - - - - - - - - - - - - - - - - - - - - - - - - - - - - - - - - - - - - - - - - - - - - - - - - - - - - - - - - - - - - - - - - - - - / | 7 h v b b e   U U U U U U ",
"U U U U U U F O b b z M q W @.- - - - - - - - - - - - - - - - - - - - - - - - - - - - - - - - - - - - - - - - - - - - - - - - - - - - - - - - - - - - - - - - - - - - - - /  .7 j x b b r   U U U U U U ",
"U U U U U U F O b z z b e W @.- - - - - - - - - - - - - - - - - - - - - - - - - - - - - - - - - - - - - - - - - - - - - - - - - - - - - - - - - - - - - - - - - - - - - - / | 4 j b b b e   U U U U U U ",
"U U U U U U D O b v z b e W #.- - - - - - - - - - - - - - - - - - - - - - - - - - - - - - - - - - - - - - - - - - - - - - - - - - - - - - - - - - - - - - - - - - - - - - / | 7 j c b b e   U U U U U U ",
"U U U U U U F o l l l b e W $.- - - - - - - - - - - - - - - - - - - - - - - - - - - - - - - - - - - - - - - - - - - - - - - - - - - - - - - - - - - - - - - - - - - - - - / ] 4 x x b z e   U U U U U U ",
"U U U U U U F . k k l b p n $.j - - - - - - - - - - - - - - - - - - - - - - - - - - - - - - - - - - - - - - - - - - - - - - - - - - - - - - - - - - - - - - - - - - - - - ( ( , z v z b q   U U U U U U ",
"U U U U U U F   l b b b j 0 } _ - - - - - - - - - - - - - - - - - - - - - - - - - - - - - - - - - - - - - - - - - - - - - - - - - - - - - - - - - - - - - - - - - - - - z ' k e b b b b ,   U U U U U U ",
"U U U U U U L   i b b b z 9 b #.' b - - - - - - - - - - - - - - - - - - - - - - - - - - - - - - - - - - - - - - - - - - - - - - - - - - - - - - - - - - - - - - - - - B ( ! ; f b b b b & C U U U U U U ",
"U U U U U U U   > b m b b l w b X.$.#.@.X.] ( _ ( ) ] _ _ ' ] ' ] _ _ ) ) ] ] ` ] [ } ] ] +.o.O.] ....o.] ] ..] ] ] ] ] _ _ _ ' _ ' ' { X.{ ' } ......) ' ' ..' +.] @...R : r k z b b j . F U U U U U U ",
"U U U U U U U F . z b b b b b e 0 i , , , , > , > , , , , , , , , , , , > , , , , , , > , , , , , , , , , , , 4 , , , , > , , , , , : , , , , , , , , , , , 4 , , , f q > u k j z b b 7   I U U U U U U ",
"U U U U U U U U A Y N N b b N b h t e q w w q w 8 w 8 w 7 w w w 9 e 9 e e e q q e w w e w e e e e q w w w w w w e e q q q q w e w e 9 9 w 9 9 9 e e e 0 e e w e e e y f k k x j j v g . S U U U U U U U ",
"U U U U U U U U L < r m m b M b b z v v z z b b z b z b b b v b b b b b b z b b b b b n b b b b b M b M b b M b b z b b b b z b b z b b n b b b z z z b b z b b b z b b z v v v l g @ 1 U U U U U U U U ",
"U U U U U U U U U J C T M b M z x k k j z z c v z c v b b b b b b b z b b b b b b b b b b n b b b b b b b n b b b b b b b b b b z z b b b b b b v b b b b b b b b b b b b b b z f @   L U U U U U U U U ",
"U U U U U U U U U U P < G s z b x k k l z v b v b z b b b b b b b b b z b b M b b b b n b n b n b M b b b b n b b b b b b b b c b b b b b b b v b b b b b b c b z b b b b M j 6 . 2 L U U U U U U U U U ",
"U U U U U U U U U U U L V   X - , e e e e e r e e y r t t t t u u t t r t r y y y r t r r r r u y r r r t r t r e t t r r r t r u e e u e e t u r t e r r t r e e q e e 0 *     S U U U U U U U U U U U ",
"U U U U U U U U U U U U U K F %                                                                                                                                         $ A F U U U U U U U U U U U U U ",
"U U U U U U U U U U U U U U U U U U U U U U U U U U U U U U U U U U U U U U U U U U U U U U U U U U U U U U U U U U U U U U U U U U U U U U U U U U U U U U U U U U U U U U U U U U U U U U U U U U U U ",
"U U U U U U U U U U U U U U U U U U U U U U U U U U U U U U U U U U U U U U U U U U U U U U U U U U U U U U U U U U U U U U U U U U U U U U U U U U U U U U U U U U U U U U U U U U U U U U U U U U U U ",
"U U U U U U U U U U U U U U U U U U U U U U U U U U U U U U U U U U U U U U U U U U U U U U U U U U U U U U U U U U U U U U U U U U U U U U U U U U U U U U U U U U U U U U U U U U U U U U U U U U U U ",
"U U U U U U U U U U U U U U U U U U U U U U U U U U U U U U U U U U U U U U U U U U U U U U U U U U U U U U U U U U U U U U U U U U U U U U U U U U U U U U U U U U U U U U U U U U U U U U U U U U U U ",
"U U U U U U U U U U U U U U U U U U U U U U U U U U U U U U U U U U U U U U U U U U U U U U U U U U U U U U U U U U U U U U U U U U U U U U U U U U U U U U U U U U U U U U U U U U U U U U U U U U U U ",
"U U U U U U U U U U U U U U U U U U U U U U U U U U U U U U U U U U U U U U U U U U U U U U U U U U U U U U U U U U U U U U U U U U U U U U U U U U U U U U U U U U U U U U U U U U U U U U U U U U U U ",
"U U U U U U U U U U U U U U U U U U U U U U U U U U U U U U U U U U U U U U U U U U U U U U U U U U U U U U U U U U U U U U U U U U U U U U U U U U U U U U U U U U U U U U U U U U U U U U U U U U U U "
};
