/* XPM */
static char *result[] = {
/* columns rows colors chars-per-pixel */
"100 97 108 2 ",
"   c #000101",
".  c #0E0E0E",
"X  c #0F100F",
"o  c #10100F",
"O  c #0F1110",
"+  c #131413",
"@  c #1A1A1A",
"#  c #032403",
"$  c #252525",
"%  c #2D2D2D",
"&  c #303030",
"*  c #393936",
"=  c #3B3C3B",
"-  c #035203",
";  c #055A03",
":  c #016C01",
">  c #037503",
",  c #295B29",
"<  c #42413E",
"1  c #413F40",
"2  c #454545",
"3  c #464846",
"4  c #484946",
"5  c #474748",
"6  c #494748",
"7  c #474948",
"8  c #4B4B4B",
"9  c #4E504E",
"0  c #50504E",
"q  c #4F4F50",
"w  c #4F5150",
"e  c #545453",
"r  c #585757",
"t  c #575957",
"y  c #595957",
"u  c #575759",
"i  c #5B5B5B",
"p  c #61615F",
"a  c #5F5F61",
"s  c #656565",
"d  c #686667",
"f  c #666866",
"g  c #686967",
"h  c #676768",
"j  c #696769",
"k  c #676968",
"l  c #6A6B6A",
"z  c #6F6F71",
"x  c #737373",
"c  c #787876",
"v  c #7C7C7C",
"b  c #008000",
"n  c #028C02",
"m  c #019501",
"M  c #029B03",
"N  c #02A202",
"B  c #03AD03",
"V  c #03B003",
"C  c #00BC00",
"Z  c #02C502",
"A  c #02CC02",
"S  c #01D501",
"D  c #00DC00",
"F  c #01E301",
"G  c #01EB02",
"H  c #01F501",
"J  c green",
"K  c #589F58",
"L  c #48A348",
"P  c #81817F",
"I  c #848584",
"U  c #878986",
"Y  c #898A86",
"T  c #878988",
"R  c #8B8B8B",
"E  c #8F908E",
"W  c #949494",
"Q  c #989896",
"!  c #9A9B9A",
"~  c #A0A09F",
"^  c #A3A3A3",
"/  c #ACACAC",
"(  c #AFB0AD",
")  c #B0B1AE",
"_  c #B3B3B3",
"`  c #B6B8B7",
"'  c #B9B9B7",
"]  c #B7B9B8",
"[  c #BBBBBB",
"{  c #C1C1BF",
"}  c #BDBEC0",
"|  c #BFC1C0",
" . c #C3C3C3",
".. c #C6C8C6",
"X. c #C9C9C7",
"o. c #CACBCA",
"O. c #CFCFD1",
"+. c #D0D0D1",
"@. c #DFE0DD",
"#. c #E0E0DE",
"$. c #E3E5E0",
"%. c #EAEAE9",
"&. c #F1F2EF",
"*. c #F5F5F4",
"=. c #FBFBF6",
"-. c #F6F6F8",
";. c #F7F9F8",
":. c #FEFEFD",
/* pixels */
"J J J J J J J J J J J J J J J J J J J J J J J J J J J J J J J J J J J J J J J J J J J J J J J J J J J J J J J J J J J J J J J J J J J J J J J J J J J J J J J J J J J J J J J J J J J J J J J J J J J J ",
"J J J J J J J J J J J J J J J J J J J J J J J J J J J J J J J J J J J J J J J J J J J J J J J J J J J J J J J J J J J J J J J J J J J J J J J J J J J J J J J J J J J J J J J J J J J J J J J J J J J J ",
"J J J J J J J J J J J J J J J J J J J J J J J J J J J J J J J J J J J J J J J J J J J J J J J J J J J J J J J J J J J J J J J J J J J J J J J J J J J J J J J J J J J J J J J J J J J J J J J J J J J J ",
"J J J J J J J J J J J J J J J J J J J J J J J J J J J J J J J J J J J J J J J J J J J J J J J J J J J J J J J J J J J J J J J J J J J J J J J J J J J J J J J J J J J J J J J J J J J J J J J J J J J J ",
"J J J J J J J J J J J J J S C C C C C C C C C C C C C C C C C C C C C C C C C C C C C C C C C C C C C C C C C C C C C C C C C C C C C C C C C C C C C C Z C C C C C C Z H J J J J J J J J J J J J J J J ",
"J J J J J J J J J J F m       . o + + + + + + + + + + + + @ + + @ + + + + + + + + + + + + + + + + + + + + + + + + + + + + + + + + + + + + + + + + + + + + @ + + o . .     - D J J J J J J J J J J J J J ",
"J J J J J J J J J Z   + 6 i s l l l l l z l l l l l z l z l z l z l l l l l z l l l l l l l l l l l l l l l l l j l l l l l l l l l l l l l l l l l l l l l l j s s s s u * # n G J J J J J J J J J J J ",
"J J J J J J J J V ; 2 l j s s s s s g s g g l g l l j g g g g g g g j l j g l g j h l s l l h j j f h f j l s l h j l h l h j j j l j g j l l f l l j s j g j s s s s j l z i @   D J J J J J J J J J J ",
"J J J J J J J M M K z l l g s p s s p s s s g g l l g l l l l f g g g g j j l g j g l l g s g s g l l l g l g g l s g g l l s g l l g j j f f f s l j s s s s s s g g l l z l g $ # H J J J J J J J J J ",
"J J J J J J Z   0 z l l l g g i e 0 8 e e e 0 e y e y i i u i i i i i i i i u u i e y r r u r r e e r e r e t y e t r y e y i u r u e u u u t t e e e e e e e e q i g z z z z l l @ m J J J J J J J J J ",
"J J J J J J   & l l x l l s 2 & 1 6 5 2 2 < 2 4 7 8 7 7 7 8 8 8 8 8 7 8 8 6 8 8 8 8 7 8 7 8 7 8 7 7 7 8 7 7 4 8 8 8 8 8 8 8 8 8 8 8 8 8 8 8 8 8 7 8 8 5 4 2 5 2 7 1 2 u z z z x z i   A J J J J J J J J ",
"J J J J J A   i l l l z p = j _ / } ` ^ / / ^ / ` / / _ [ [ o.X.o.o.o.X.o.o.o.o.o.o.X.X.o.X.X.X.o.o.X.X.X.o.o.o.o.o.o.o.o.o.o.o.o.o.o.X.o.o.o.o.o.X.o.X.X.X.X.X.o. .! 8 0 z z l l z $ : J J J J J J J J ",
"J J J J J M @ l l z l g 2 I +._ q & & & & & & & & & & & & & & & & & & & & & & & & & & & & & & & & & & & & & & & & & & & & & & & & & & & & & & & & & & & & & & & s Q +.} 0 r z l l g 8   H J J J J J J J ",
"J J J J J   = l l l x 8 s o.Q & & & & & & & & & & & & & & & & & & & & & & & & & & & & & & & & & & & & & & & & & & & & & & & & & & & & & & & & & & & & & & & & & & & x o./ 1 l l g g y   C J J J J J J J ",
"J J J J J   8 s l l h 2 / ` & & & & & & & & & & & & & & & & & & & & & & & & & & & & & & & & & & & & & & & & & & & & & & & & & & & & & & & & & & & & & & & & & & & & & x O.p u s g p p   C J J J J J J J ",
"J J J J J   0 s g l s 2 ~ ! & & & & & & & & & & & & & & & & & & & & & & & & & & & & & & & & & & & & & & & & & & & & & & & & & & & & & & & & & & & & & & & & & & & & & & o.I 6 j s p g . C J J J J J J J ",
"J J J J J   0 s j j i 7 [ ! & & & & & & & & & & & & & & & & & & & & & & & & & & & & & & & & & & & & & & & & & & & & & & & & & & & & & & & & & & & & & & & & & & & & & & [ R 2 s s p a . C J J J J J J J ",
"J J J J J   8 s s s i 7 ' Q & & & & & & & & & & & & & & & & & & & & & & & & & & & & & & & & & & & & & & & & & & & & & & & & & & & & & & & & & & & & & & & & & & & & & & ) R = s p p s . C J J J J J J J ",
"J J J J J   q s s h i 2 / R & & & & & & & & & & & & & & & & & & & & & & & & & & & & & & & & & & & & & & & & & & & & & & & & & & & & & & & & & & & & & & & & & & & & & & ^ R 2 s s s s . C J J J J J J J ",
"J J J J J   q g s s i 2 ! P & & & & & & & & & & & & & & & & & & & & & & & & & & & & & & & & & & & & & & & & & & & & & & & & & & & & & & & & & & & & & & & & & & & & & & ~ R 2 s s g l o C J J J J J J J ",
"J J J J J   q g s s r 2 W i & & & & & & & & & & & & & & & & & & & & & & & & & & & & & & & & & & & & & & & & & & & & & & & & & & & & & & & & & & & & & & & & & & & & & & ~ R 2 h s s j o C J J J J J J J ",
"J J J J J   q j s s e 2 I a & & & & & & & & & & & & & & & & & & & & & & & & & & & & & & & & & & & & & & & & & & & & & & & & & & & & & & & & & & & & & & & & & & & & & & Q R 2 h g g l o C J J J J J J J ",
"J J J J J   e j s s e 2 R j & & & & & & & & & & & & & & & & & & & & & & % & & & & & & & & & & & & & & & & & & & & & & & & & & & & & & & & & & & & & & & & & & & & & & & Q R 2 l j h l o C J J J J J J J ",
"J J J J J   e g l s e 2 Q s & & & & & & & & & & & & & & & & & & & & & & & & & & & & & & & & & & & & & & & & & & & & & & & & & & & & & & & & & & & & & & & & & & & & & & ! R 2 l h l l + C J J J J J J J ",
"J J J J J   e l g g y 2 Q j & & & & & & & & & & & & & & & & & & & & & & & & & & & & & & & & & & & & & & & & & & & & & & & & & & & & & & & & & & & & & & & & & & & & & & ^ R 5 h h l l O C J J J J J J J ",
"J J J J J   e g h g y 2 ! j & & & & & & & & & & & & & & & & & & & & & & & & & & & & & & & & & & & & & & & & & & & & & & & & & & & & & & & & & & & & & & & & & & & & & & ^ R 2 h k l l . C J J J J J J J ",
"J J J J J   e l s g i 2 ~ l & & & & & & & & & & & & & & & & & & & & & & & & & & & & & & & & & & & & & & & & & & & & & & & & & & & & & & & & & & & & & & & & & & & & & & ^ R 2 h s l l X C J J J J J J J ",
"J J J J J   e l g g i 2 ! u & & & & & & & & & & & & & & & & & & & & & & & & & & & & & & & & & & & & & & & & & & & & & & & & & & & & & & & & & & & & & & & & & & & & & & / R 2 l h l l X C J J J J J J J ",
"J J J J J   e l l l i 2 ~ c & & & & & & & & & & & & & & & & & & & & & & & & & & & & & & & & & & & & & & & & & & & & & & & & & & & % & & & & & & & & & & & & & & & & & & / R 2 l s l l + C J J J J J J J ",
"J J J J J   e l l l i 2 _ g & & & & & & & & & & & & & & & & & & & & & & & & & & & & & & & & & & & & & & & & & & & & & & & & & & & & & & & & & & & & & & & & & & & & & & / R 3 f f l l O C J J J J J J J ",
"J J J J J   e l l g i 6 ` c & & & & & & & & & & & & & & & & & & & & & & & & & & & & & & & & & & & & & & & & & & & & & & & & & & & & & & & & & & & & & & & & & & & & & & _ R 2 f k h l + C J J J J J J J ",
"J J J J J   e g l l i 6 _ x & & & & & & & & & & & & & & & & & & & & & & & & & & & & & & & & & & & & & & & & & & & & & & & & & & & & & & & & & & & & & & & & & & & & & & / R 2 g s h z X C J J J J J J J ",
"J J J J J   e g l l i 7 ) x & & & & & & & & & & & & & & & & & & & & & & & & & & & & & & & & & & & & & & & & & & & & & & & & & & & & & & & & & & & & & & & & & & & & & & / R 2 j l s l X C J J J J J J J ",
"J J J J J   e l l l i 5 / h & & & & & & & & & & & & & & & & & & & & & & & & & & & & & & & e 4 & & & & & & & & & & & & & & & & & & & & & & & & & & & & & & & & & & & & & _ R 2 g s j l + C J J J J J J J ",
"J J J J J   q g l l i 5 _ x & & & & & & & & & & & & & & & & & & & & & & & & & & & & & % = ' [ = & & & & & & & & & & & & & & & & & & & & & & & & & & & & & & & & & & & & _ R 2 s j k j . C J J J J J J J ",
"J J J J J   e l l l a 5 ) x & & & & & & & & & & & & & & & & & & & & & & & & & & & & & = ) =.:. .* & & & & & & & & & & & & & & & & & & & & & & & & & & & & & & & & & & & ) R 6 l h j l X C J J J J J J J ",
"J J J J J   e l l l i 8 ^ x & & & & & & & & & & & & & & & & & & & & & & & & & & & & * ( =.:.:.:./ * & & & & & & & & & & & & & & & & & & & & & & & & & & & & & & & & & & ^ R 2 g j k l . C J J J J J J J ",
"J J J J J   e l l l a 8 / T & & & & & & & & & & & & & & & & & & & & & & & & & & & = ( =.=.=.=.#.i e & & & & & & & & & & & & & & & & & & & & & & & & & & & & & & & & & & _ R 2 j s h l X C J J J J J J J ",
"J J J J J   e l l l i 8 ) I & & & & & & & & & & & & & & & & & & & & & & & & & & = _ :.=.=.=.@.e q & & & & & & & & & & & & & & & & & & & & & & & & & & & & & & & & & & & ( R 5 l s l j . C J J J J J J J ",
"J J J J J   e l l l i 6 / P & & & & & & & & & & & & & & & & & & & & & & & & % 2 _ :.:.:.=.$.e 7 & & & & & & & & & & & & & & & & & & & & & & & & & & & & & & & & & & & & / R 2 l h h z X C J J J J J J J ",
"J J J J J   e l l l i 6 ^ I & & & & & & & & & & & & & & & & & & & & & & & & 1 ] :.:.:.:.%.i 3 & & & & & & & & & & & & & & & & & & & & & & & % & & & & & & & & & & & & & ` Y 6 j s k l X C J J J J J J J ",
"J J J J J   e g l l p 6 / v & & & & & & & & & & & & & & & & & & & & & & & 1 ' :.:.:.:.%.l 2 & & & & & & & & & & & & & & & & & & & & & & & & & & & & & & & & & & & & & & ` T 6 j j l l . C J J J J J J J ",
"J J J J J   e l l l i 2 / I & & & & & & & & & & & & & & & & & & & & & & = ) :.:.:.:.%.p z * * = * * = * = * = = = = = = = 2 2 1 2 u & & & & & & & & & & & & & & & & & & / R 2 h h h l X C J J J J J J J ",
"J J J J J   e l l l a 7 / I & & & & & & & & & & & & & & & & & & & & & * ) ;.:.:.:.:.$. . . . . . . . . . . . . . . . . . ... . .W e & & & & & & & & & & & & & & & & & & _ R 2 l h l l X C J J J J J J J ",
"J J J J J   e l l l i 5 / I & & & & & & & & & & & & & & & & & & & & & _ ;.;.;.:.:.:.:.:.:.:.:.:.:.:.:.:.:.:.:.:.:.:.:.:.:.:.:.:.[ e & & & & & & & & & & & & & & & & & & _ R 7 h s l l X C J J J J J J J ",
"J J J J J   e l l l a 5 / x & & & & & & & & & & & & & & & & & & & s p *.=.=.:.:.:.:.:.:.:.:.:.:.:.:.:.:.:.:.:.:.:.:.:.:.:.:.:.:.[ q & & & & & & & & & & & & & & & & & & ) R 2 h h l l . C J J J J J J J ",
"J J J J J   e k l j i 6 / P & & & & & & & & & & & & & & & & & & & & j U ;.=.=.:.:.:.:.:.:.:.:.:.:.:.:.:.=.:.:.:.:.:.:.:.:.:.:.:.[ 0 & & & & & & & & & & & & & & & & & & ) R 5 l h k l . C J J J J J J J ",
"J J J J J   e l j l a 6 / E & & & & & & % & & & & & & & & & & & & & & s I *.=.:.:.:.o.Q Q Q Q W W E R R T T T R R U R R W E W Q x e & & & & & & & & & & & & & & & & & & ) R 5 k h k l X C J J J J J J J ",
"J J J J J   e j l l i 7 ) P & & & & & & & & & & & & & & & & & & & & & & l I -.=.:.:.-.I v x x x l x x x x x x x x x x x j l i i 2 & & & & & & & & & & & & & & & & & & & ` R 2 l h h j . C J J J J J J J ",
"J J J J J   e l l l i 2 / P & & & & & & & & & & & & & & & & & & & & & & & x I =.:.:.:.-.v * & & & & & & & & & & & & & & & & & & & & & & & & & & & & & & & & & & & & & & / R 7 k h h z . C J J J J J J J ",
"J J J J J   e j l j i 5 _ l & & & & & & & & & & & & & & & & & & & & & & & & x I -.:.:.:.-.v * & & & & & & & & & & & & & & & & & & & & & & & & & & & & & & & & & & & & & _ R 7 l f k z . C J J J J J J J ",
"J J J J J   e l l l i 2 / I & & & & & & & & & & & & & & & & & & & & & & & & & x I -.:.:.:.-.c * & & & & & & & & & & & & & & & & & & & & & & & & & & & & & & & & & & & & / R 5 l k f l X C J J J J J J J ",
"J J J J J   e j l l i 8 _ x & & & & & & & & & & & & & & & & & & & & & & & & & & x v *.:.:.:.-.c 7 & & & & & & & & & & & & & & & & & & & & & & & & & & & & & & & & & & & / R 2 k s l l O C J J J J J J J ",
"J J J J J   e l l l i 6 ) c & & & & & & & & & & & & & & & & & & & & & & & & & & % z c %.=.=.:.-.c = & & & & & & & & & & & & & & & & & & & & & & & & & & & & & & & & & & ) R 5 k l k l X C J J J J J J J ",
"J J J J J   e g l l i 8 } c & & & & & & & & & & & & & & & & & & & & & & & & & & & & z x &.=.=.-.I 1 & & & & & & & & & & & & & & & & & & & & & & & & & & & & & & & & & & ) R 5 s h h l X C J J J J J J J ",
"J J J J J   e l l l i 5 } P & & & & & & & & & & & & & & & & & & & & & & & & & & & & & l c &.-.I l & & & & & & & & & & & & & & & & & & & & & & & & & & & & & & & & & & & _ R 7 l h h z X C J J J J J J J ",
"J J J J J   e l l l i 4 ' P & & & & & & & & & & & & & & & & & & & & & & & & & & & & & & x P R x & & & & & & & & & & & & & & & & & & & & & & & & & & & & & & & & & & & & ` R 6 l k k l X C J J J J J J J ",
"J J J J J   e l l j i 7 ) x & & & & & & & & & & & & & & & & & & & & & & & & & & & & & & & & q & & & & & & & & & & & & & & & & & & & & & & & & & & & & & & & & & & & & & / R 2 h k l l X C J J J J J J J ",
"J J J J J   e l l l i 7 ) P & & & & & & & & & & & & & & & & & & & & & & & & & & & & & & & & & & & & & & & & & & & & & & & & & & & & & & & & & & & & & & & & & & & & & & ..R 5 l j k l o C J J J J J J J ",
"J J J J J   e g j l i 5 ' P & & & & & & & & & & & & & & & & & & & & & & & & & & & & & & & & & & & & & & & & & & & & & & & & & & & & & & & & & & & & & & & & & & & & & & } R 2 l h j l o C J J J J J J J ",
"J J J J J   e l l l y 6 _ R & & & & & & & & & & & & & & & & & & & & & & & & & & & & & & & & & & & & & & & & & & & & & & & & & & & & & & & & & & & & & & & & & & & & & & ' R 2 j s l l . C J J J J J J J ",
"J J J J J   e l l l i 3 ^ U & & & & & & & & & & & & & & & & & & & & & & & & & & & & & & & & & & & & & & & & & & & & & & & & & & & & & & & & & & & & & & & & & & & & & & [ R 2 l h l l + C J J J J J J J ",
"J J J J J   e l l l i 4 / x & & & & & & & & & & & & & & & & & & & & & & & & & & & & & & & & & & & & & & & & & & & & & & & & & & & & & & & & & & & & & & & & & & & & & & } R 2 l s l l + C J J J J J J J ",
"J J J J J   e l l l i 2 ) s & & & & & & & & & & & & & & & & & & & & & & & & & & & & & & & & & & & & & & & & & & & & & & & & & & & & & & & & & & & & & & & & & & & & & & ( R 2 g l l l . C J J J J J J J ",
"J J J J J   e l l l i 2 / x & & & & & & & & & & & & & & & & & & & & & & & & & & & & & & & & & & & & & & & & & & & & & & & & & & & & & & & & & & & & & & & & & & & & & & ( R 5 l f l l + C J J J J J J J ",
"J J J J J   e l j l i 2 / c & & & & & & & & & & & & & & & & & & & & & & & & & & & & & & & & & & & & & & & & & & & & & & & & & & & & & & & & & & & & & & & & & & & & & & [ R 2 l j k l . C J J J J J J J ",
"J J J J J   e g l g i 2 / T & & & & & & & & & & & & & & & & & & & & & & & & & & & & & & & & & & & & & & & & & & & & & & & & & & & & & & & & & & & & & & & & & & & & & & / R 2 l k j l . C J J J J J J J ",
"J J J J J   e s g s i 2 ` c & & & & & & & & & & & & & & & & & & & & & & & & & & & & & & & & & & & & & & & & & & & & & & & & & & & & & & & & & & & & & & & & & & & & & & / R 2 h k l l + C J J J J J J J ",
"J J J J J   e s j l i 2 ! x & & & & & & & & & & & & & & & & & & & & & & & & & & & & & & & & & & & & & & & & & & & & & & & & & & & & & & & & & & & & & & & & & & & & & & ~ T 1 j s k l + C J J J J J J J ",
"J J J J J   e l g s e 5 ^ l & & & & & & & & & & & & & & & & & & & & & & & & & & & & & & & & & & & & & & & & & & & & & & & & & & & & & & & & & & & & & & & & & & & & & & ( T 2 h s f l O C J J J J J J J ",
"J J J J J   q s s l i 5 [ P & & & & & & & & & & & & & & & & & & & & & & & & & & & & & & & & & & & & & & & & & & & & & & & & & & & & & & & & & & & & & & & & & & & & & & ^ Y 1 d g l l . C J J J J J J J ",
"J J J J J   e l h h u 2 _ R & & & & & & & & & & & & & & & & & & & & & & & & & & & & & & & & & & & & & & & & & & & & & & & & & & & & & & & & & & & & & & & & & & & & & & ^ Y 2 d s k l + C J J J J J J J ",
"J J J J J   e s l s y 2 / E & & & & & & & & & & & & & & & & & & & & & & & & & & & & & & & & & & & % & & & & & & & & & & & & & & & & & & & & & & & & & & & & & & & & & & / T 2 s s s l X C J J J J J J J ",
"J J J J J   8 l s g y 2 / W & & & & & & & & & & & & & & & & & & & & & & & & & & & & & & & & & & & & & & & & & & & & & & & & & & & & & & & & % & & & & & & & & & & & & & ) T 2 s s h k X C J J J J J J J ",
"J J J J J   e s g g i 2 ' Q & & & & & & & & & & & & & & & & & & & & & & & & & & & & & & & & & & & & & & & & & & & & & & & & & & & & & & & & & & & & & & & & & & & & % & / T 1 s s s h X C J J J J J J J ",
"J J J J J   0 g j l i 7 ' Q & & & & & & & & & & & & & & & & & & & & & & & & & & & & & & & & & & & & & & & & & & & & & & & & & & & & & & & & & & & & & & & & & & & & & & _ I 1 s s s s . C J J J J J J J ",
"J J J J J   8 j l l p 7  .Q & & & & & & & & & & & & & & & & & & & & & & & & & & & & & & & & & & & & & & & & & & & & & & & & & & & & & & & & & & & & & & & & & & & & & & ` R 2 s a s s . C J J J J J J J ",
"J J J J J   0 g l l p 8 o.! & & & & & & & & & & & & & & & & & & & & & & & & & & & & & & % & & & & & & & & & & & & & & & & & & & & & & & & & & & & & & & & & & & & & & & o.U 1 s s s s . C J J J J J J J ",
"J J J J J   8 s l l s 2 o.Q & & & & & & & & & & & % & & & & & & & & & & & & & & & & & & & & & & & & & & & & & & & & & & & & & & & & & & & & & & & & & & & & & & & & & & +.I 2 s s s j X C J J J J J J J ",
"J J J J J   q g l l l 2 [ ! & & & & & & & & & & & & & & & & & & & & & & & & & & & & & & & & & & & & & & & & & & & & & & & & & & & & & & & & & & & & & & & & & & & & & 6 +.s q k k k l . C J J J J J J J ",
"J J J J J   2 z l z z 8 I +.l % & & & & & & & & & & & & & & & & & & & & & & & & & & & & & & & & & & & & & & & & & & & & & & & & & & & & & & & & & & & & & & & & & & & _ _ 1 s l l l s   C J J J J J J J ",
"J J J J J n , x l l z p < / [ l & & & & & & & & & & & & & & & & & & & & & & & & & & & & & & & & & & & & & & & & & & & & & & & & & & & & & & & & & & & & & & & & & a _  .i 2 l l g f e   C J J J J J J J ",
"J J J J J A n l z z z z e 2 ! _ ^ c q u u z x ^ _ _ ' ' } '  ./ ..| X. ...o.o.o.|  .[ ] [ ` [ ` [ ) ' { _ [ [ { { [ } } [ [ } X. .} X.} } _ } ^ ^ ! ^ ] / / ^ ..O.O.' s = s l l l l 2   J J J J J J J J ",
"J J J J J J > L x l z l l e = e i * * = * = = , 1 = = = = = = 1 = = = = = = = = = = = = = = = = = 1 = = * = = < = = = = = = 1 , = 1 1 = = 1 1 , = = = = * * = = = a 5 5 s l l l l l . n J J J J J J J J ",
"J J J J J J A V p z l l j j a 8 2 2 < < 2 2 4 8 8 < 4 8 6 8 8 8 8 8 8 8 7 8 8 8 5 8 6 2 6 5 6 6 6 8 8 6 6 6 6 < 1 6 6 6 4 8 8 8 6 8 6 8 9 7 7 8 3 4 3 2 2 3 2 7 8 q a l l l l l z 2 # G J J J J J J J J ",
"J J J J J J J M $ l l l s s s s s s s s g g l z l l z l l l l l l l l l l l l l l l l l l l l l j l l j l l z z z z l z l z l z z j l j l l l l l l l l l s l l l l l l l l l l e   S J J J J J J J J J ",
"J J J J J J J F ; @ p g s s s s s s s g g l l l z l l l l l l l z l l l l l l l l l l l l l l l l l j l l l z l l l l l l l z l z l l l l l z l l l l j h k l l l l l l l l z 9   B J J J J J J J J J J ",
"J J J J J J J J G     4 s l j s g s j l l z z z z z z x l l l z l l l l l l l l l l l l l l l l l l l l l l l l l l l z l z l l l l z z z l l z l l l l l k j l l j l l l i % # Z J J J J J J J J J J J ",
"J J J J J J J J J H m     $ 1 2 7 7 8 e 9 e w e 0 0 e 9 q w 8 9 8 e 8 w w 8 8 w w 8 e 8 w 8 9 8 0 0 q 0 0 q 8 e 8 e 8 8 0 q 8 0 0 0 0 8 e e 8 e q e 8 e 8 8 8 8 7 7 2 * +   b F J J J J J J J J J J J J ",
"J J J J J J J J J J J H C >                                                                                                                                             N S J J J J J J J J J J J J J J ",
"J J J J J J J J J J J J J J J J J J J J J J J J J J J J J J J J J J J J J J J J J J J J J J J J J J J J J J J J J J J J J J J J J J J J J J J J J J J J J J J J J J J J J J J J J J J J J J J J J J J J ",
"J J J J J J J J J J J J J J J J J J J J J J J J J J J J J J J J J J J J J J J J J J J J J J J J J J J J J J J J J J J J J J J J J J J J J J J J J J J J J J J J J J J J J J J J J J J J J J J J J J J J ",
"J J J J J J J J J J J J J J J J J J J J J J J J J J J J J J J J J J J J J J J J J J J J J J J J J J J J J J J J J J J J J J J J J J J J J J J J J J J J J J J J J J J J J J J J J J J J J J J J J J J J ",
"J J J J J J J J J J J J J J J J J J J J J J J J J J J J J J J J J J J J J J J J J J J J J J J J J J J J J J J J J J J J J J J J J J J J J J J J J J J J J J J J J J J J J J J J J J J J J J J J J J J J ",
"J J J J J J J J J J J J J J J J J J J J J J J J J J J J J J J J J J J J J J J J J J J J J J J J J J J J J J J J J J J J J J J J J J J J J J J J J J J J J J J J J J J J J J J J J J J J J J J J J J J J ",
"J J J J J J J J J J J J J J J J J J J J J J J J J J J J J J J J J J J J J J J J J J J J J J J J J J J J J J J J J J J J J J J J J J J J J J J J J J J J J J J J J J J J J J J J J J J J J J J J J J J J ",
"J J J J J J J J J J J J J J J J J J J J J J J J J J J J J J J J J J J J J J J J J J J J J J J J J J J J J J J J J J J J J J J J J J J J J J J J J J J J J J J J J J J J J J J J J J J J J J J J J J J J "
};
