/* XPM */
static char *result[] = {
/* columns rows colors chars-per-pixel */
"100 97 98 2 ",
"   c #010101",
".  c #0B0B0B",
"X  c #10100F",
"o  c #151514",
"O  c #1B1B1B",
"+  c #022402",
"@  c #013F01",
"#  c #232323",
"$  c #2C2C2A",
"%  c #323233",
"&  c #3D3D3C",
"*  c #015101",
"=  c #036002",
"-  c #017601",
";  c #047C04",
":  c #41413F",
">  c #444544",
",  c #484647",
"<  c #464847",
"1  c #484947",
"2  c #464749",
"3  c #494748",
"4  c #4B4C4B",
"5  c #504F4D",
"6  c #4E504F",
"7  c #50504E",
"8  c #4E4F50",
"9  c #4F5150",
"0  c #535454",
"q  c #575957",
"w  c #585957",
"e  c #575758",
"r  c #595758",
"t  c #575958",
"y  c #5B5B5B",
"u  c #5E5E60",
"i  c #666665",
"p  c #686767",
"a  c #676866",
"s  c #686966",
"d  c #676769",
"f  c #696768",
"g  c #676968",
"h  c #6B6B6B",
"j  c #6E706F",
"k  c #73726F",
"l  c #6E6E71",
"z  c #6F7170",
"x  c #717171",
"c  c #797A77",
"v  c #777978",
"b  c #7C7D7C",
"n  c #028901",
"m  c #039302",
"M  c #029902",
"N  c #02A302",
"B  c #02AA02",
"V  c #03B403",
"C  c #01BC00",
"Z  c #2EAC2E",
"A  c #01C901",
"S  c #01DD01",
"D  c #01E301",
"F  c #01EB01",
"G  c #01F601",
"H  c #00FF00",
"J  c #548653",
"K  c #5DA25D",
"L  c #838383",
"P  c #888785",
"I  c #8D8D8D",
"U  c #8E908F",
"Y  c #939392",
"T  c #979998",
"R  c #9C9B9B",
"E  c #A0A09E",
"W  c #A4A4A4",
"Q  c #ACACAC",
"!  c #AFB0AA",
"~  c #B0B0AF",
"^  c #AFB1B0",
"/  c #B7B7B7",
"(  c #B9B9B7",
")  c #BDBDBD",
"_  c #C1C1BF",
"`  c #C0BFC1",
"'  c #C2C3C2",
"]  c #C8C7C7",
"[  c #C7C8C7",
"{  c #C9C9C6",
"}  c #CBCCCB",
"|  c #D2D2D2",
" . c #DCDCDC",
".. c #E3E3E3",
"X. c #E8E8E6",
"o. c #E9E9E9",
"O. c #F5F5F4",
"+. c #FEFEFD",
/* pixels */
"H H H H H H H H H H H H H H H H H H H H H H H H H H H H H H H H H H H H H H H H H H H H H H H H H H H H H H H H H H H H H H H H H H H H H H H H H H H H H H H H H H H H H H H H H H H H H H H H H H H H ",
"H H H H H H H H H H H H H H H H H H H H H H H H H H H H H H H H H H H H H H H H H H H H H H H H H H H H H H H H H H H H H H H H H H H H H H H H H H H H H H H H H H H H H H H H H H H H H H H H H H H H ",
"H H H H H H H H H H H H H H H H H H H H H H H H H G H H H H H H H H H H H H H H H H H H H H H H H H H H H H H H H H H H H H H H H H H H H H H H H H H H H H H H H H H G H H H H H H H H H H H H H H H H ",
"H H H H H H H H H H H H H H G C C C C C C C C C C C C C C C C C C C C C C C C C C C C C V A C C C V C C C C C C C C C C C C C C C C C C C C C C C C C C C C C C C C C C C S H H H H H H H H H H H H H H ",
"H H H H H H H H H H H H D n     . . o O o o o o o o o o o o o o o o o o o o o O o o o o o o o o o o o o o o o o o o o o o o o o o o o o o o o o o o X o o o o o o o X .       N H H H H H H H H H H H H ",
"H H H H H H H H H H H n   $ q u s h h h h h h g l h g h h h h h h h h g h h h g h h j h h h h h g h g h h g h g h h g h g g h h h h h h h g g h h h h s s h g g f s f i i r > o + D H H H H H H H H H H ",
"H H H H H H H H H H n . w j h h g h s g f f s i d d i i s s s a f p f f g g f f f s g g h g i d g g f f f g f f f g g f s f f g s g g g g s a a f g f i s i i i i i i i i f g h 4 V V H H H H H H H H H ",
"H H H H H H H H H n o u s h h j l g f s s s f f d i d i f f p p s f g s g g g s f f h f f g f a g g f s g f f f f g s f s s f s g g s s g g a a f i i i a a s i i i f s g h j h x K B S H H H H H H H H ",
"H H H H H H H H m   y h h h h h h i w t r t r w q w y y t t t t w y w t q q t q t w q q q q r q r q r r r t t t q r e t r r t w q e e q q q 0 q q 0 q 0 0 r 0 q 0 0 r u h h j h x x J ; D H H H H H H H ",
"H H H H H H H D   3 h h s s h w : & , 4 4 4 4 4 4 4 4 4 4 4 4 4 4 4 4 4 4 4 4 4 4 4 4 4 4 4 4 4 4 4 4 4 4 4 4 4 4 4 4 4 4 4 4 4 4 4 4 < < 4 6 4 4 4 4 4 4 4 3 4 4 4 , & , i x j k h x Z N H H H H H H H ",
"H H H H H H H V . s h s f s 4 : I ( } } } } } } } { } } } } } } } } } } } } { } } } } ] } { ] } } ] ] ] } ] { { { } } } } } } } } } } } } } { } } { } } } { } } } { } / x , i x h x x K   D H H H H H H ",
"H H H H H H H + & h s s h 7 : ! } ` / / ( ( ( ( ( ( / / / / / / / / / / / / / / / / / / / / / / / / / / ( ( / / / / / / / / / / / / / / / / / / / / / / / ( / / ( / ) { } P > s x z x l o C H H H H H H ",
"H H H H H H G   r h h h p & Y { ( / / / / / / / / / / / / / / / / / / / / / / / / / / / / / / / / / / / / / / / / / / / / / / / / / / / / / / / / / / / / / / / / / / / [ } u 5 x j h h & = H H H H H H ",
"H H H H H H A   u h h h y 5 { ( / / / / / / / / / / / / / / / / / / / / / / / / / / / / / / / / / / / / / / / / / / / / / / / / / / / / / / / / / / / / / / / / / / / / / ] Q > g h h h 4   H H H H H H ",
"H H H H H H C   f h h l 0 c { ( / / / / / / / / / / / / / / / / / / / / / / / / / / / / / / / / / / / / / / / / / / / / / / / / / / / / / / / / / / / / / / / / / / / / / ' ' > i h h g 6   H H H H H H ",
"H H H H H H C   f h j l 9 P ] ( / / / / / / / / / / / / / / / / / / / / / / / / / / / / / / / / / / / / / / / / / / / / / / / / / / / / / / / / / / / / / / / / / / / / / _ ' > y g h g 4   H H H H H H ",
"H H H H H H C   f h h k 4 L { / / / / / / / / / / / / / / / / / / / / / / / / / / / / / / / / / / / / / / / / / / / / / / / / / / / / / / / / / / / / / / / / / / / / / ( ' ` > y h h p 4   H H H H H H ",
"H H H H H H C   f h h h 7 P } / / / / / / / / / / / / / / / / / / / / / / / / / / / / / / / / / / / / / / / / / / / / / / / / / / / / / / / / / / / / / / / / / / / / / / _ ` > u h h h 0   H H H H H H ",
"H H H H H H C   f h h j 7 L } ( / / / / / / / / / / / / / / / / / / / / / / / / / / / / / / / / / / / / / / / / / / / / / / / / / / / / / / / / / / / / / / / / / / / / / ` ` : t h h h 0   H H H H H H ",
"H H H H H H C   f h h j 0 L } ( / / / / / / / / / / / / / / / / / / / / / / / / / / / / / / / / / / / / / / / / / / / / / / / / / / / / / ( / / / / / / / / / / / / / / ( ) ` > y s h h 0   H H H H H H ",
"H H H H H H C   i h h j 8 P } / / / / / / / / / / / / / / / / / / / / / / / / / / / / / / / / / / / / / / / / / / / / / / / / / / / / / / / / / / / / / / / / / / / / / / ) ` : y h h h 0   H H H H H H ",
"H H H H H H C   f h h j 0 P } / / / / / / / / / / / / / / / / / / / / / / / / / / / / / / / / / / / / / / / / / / / / / / / / / / / / / / / / / / / / / / / / / / / / / ( ' ' > y h h j 0   H H H H H H ",
"H H H H H H C   d h l l 9 P | / / / / / / / / / / / / / / / / / / / / / / / / / / / / / / / / / / / / / / / / / / / / / / / / / / / / / / / / / / / / / / / / / / / / / ( _ _ : y g s h 0   H H H H H H ",
"H H H H H H A   d l h l 0 L } / / / / / / / / / / / / / / / / / / / / / / / / / / / / / / / / / / / / / / / / / / / / / / / / / / / / / / / / / / / / / / / / / / / / / ( _ ' > y h h h q   H H H H H H ",
"H H H H H H V . f h h k 9 P } / / / / / / / / / / / / / / / / / / / / / / / / / / / / / / / / / / / / / / / / / / / / / / / / / / / / / / / / / / / / / / / / / / / / / / ` ) , u h h k 7   H H H H H H ",
"H H H H H H C   f l h h 9 L } / / / / / / / / / / / / / / / / / / / / / / / / / / / / / / / / / / / / / / / / ( / / / / / / / / / / / / / / / / / / / / / / / / / / / / / ' ` > u h h h q   H H H H H H ",
"H H H H H H C   g z h k 0 L } / / / / / / / / / / / / / / / / / / / / / / / / / / / / / / / / / / / / / / / / / / / / / / / / / / / / / / / / / / / / / / / / / / / / / / ` ` > u h j h r   H H H H H H ",
"H H H H H H A   h h h l 0 P } / / / / / / / / / / / / / / / / / / / / / / / / / / / / / / / / / / / / / / / / / / / / / / / / / / / / / / / / / / / / / / / / / / / / / / ' ) > u h h h q   H H H H H H ",
"H H H H H H V   d h h h 0 L } ( / / / / / / / / / / / / / / / / / / / / / / / / / / / / / / / / / / / / / / / / / / / / / / / / / / / / / / / / / / / / / / / / / / / / / _ ` > u h h h r   H H H H H H ",
"H H H H H H A   d z h l 0 P } / / / / / / / / / / / / / / / / / / / / / / ( / / / / / / / / / / / / / / / / / / / / / / / / / / / / / / / / / / / / / / / / / / / / / / / ` ` > u h h h 0   H H H H H H ",
"H H H H H H V   g h h h 0 L } / / / / / / / / / / / / / / / / / / / / / / / / / / / / / / / / / / / / / / / / / / / / / / / / / / / / / / / / / / / / / / / / / / / / / / _ ` > u h h h e   H H H H H H ",
"H H H H H H C   h l h x 0 L } / ( / / / / / / / / / / / / / / / / / / / / / / / / / / / / / / / / / / / / / / / / / / / / / / / / / / / / / / / / / / / / / / / / / / / / ' _ > y h h f q   H H H H H H ",
"H H H H H H C   g h h h 0 L } / / / / / / / / / / / / / / / / / / / / / / / / / / / / / / / / / / / / / / / / / / / / / / / / / / / / / / / / / / / / / / / / / / / / / / ' ' > u h h h w   H H H H H H ",
"H H H H H H C   g l x l 0 L | ( / / / / / / / / / / / / / / / / / / / / / / / / / / / / / / / / / / / / / / / / / / / / / / / / / / / / / / / / / / / / / / / / / / / / / ' _ > u h h h 0   H H H H H H ",
"H H H H H H C . g j h l 9 L } ( / / / / / / / / / / / / / / / / / / / / / / / / / / / / / / / / / / / / / / / / / / / / / / / / / / / / / / / / / / / / / / / / / / / / / _ _ < u h h h 0   H H H H H H ",
"H H H H H H C   h h l l 0 L } / / / / / / / / / / / / / / / / / / / / / / / / / / / / / / / / / / / / / / / / / / / / / / / / / / / / / / / / / / / / / / / / / / / / / / _ ' > u h h k 0   H H H H H H ",
"H H H H H H C   g h h l 9 L } / / / / / / / / / / / / / / / / / / / / / / / / / / / / / / / / / / / / / / / / / / / / / / / / / / / / / / / / / / / / / / / / / / / / / / ' ' > u h h h q   H H H H H H ",
"H H H H H H C   h h h l 9 L } ( / / / / / / / / / / / / / / / / / / / / / / / / / / / / / / / / / / / / / / / / / / / / / / / / / / / / / / / / / / / / / / / / / / / / / ' ` > u h h h 0   H H H H H H ",
"H H H H H H C   g h h k 0 L } / / / / / / / / / / / / / / / / / / / / / / / / / / / / / / / / / E Y U Y W / / / / / / / / / / / / / / / / / / / / / / / / / / / / / / / / ` ` > u h h h 0   H H H H H H ",
"H H H H H H C   g h h h 0 L | / / / / / / / / / / / / / / / / / / / / / / / / / / / / / / / b y W ` ] ' W d P / / / / / / / / / / / / / / / / / / / / / / / / / / / / / / _ _ > u h h g q   H H H H H H ",
"H H H H H H C   g h h h 0 L } / / / / / / / / / / / / / / / / / / / / / / / / / / / / / W t } +.+.+.+.+.+.+.} i ~ / / / / / / / / / / / / / / / / / / / / / / / / / / / / _ _ > y g j h q   H H H H H H ",
"H H H H H H C   h h h k 0 L } / / / / / / / / / / / / / / / / / / / / / / / / / / / / ~ r o.+.+.+. .} ..+.+.+. .l / / / / / / / / / / / / / / / / / / / / / / / / / / / / _ ' > u h h h 0   H H H H H H ",
"H H H H H H C . g h p l 7 L } / / / / / / / / / / / ( / / / / / / / / / / / / / / / / b ] +.+. .y L I L L O.+.+.Y W / / / / / / / / / / / / / / / / / / / / / / / / / / / ` ` > u h j g q   H H H H H H ",
"H H H H H H C   g z h j 9 L } ( / / / / / / / / / / / / / / / / / / / / / / / / / / / 9 O.+.O.q ~ ( / ( E W +.+.] I / / / / / / / / / / / / / / / / / / / / / / / / / / / ` ` > u h j j 0   H H H H H H ",
"H H H H H H C   d z h z 9 L } / / / / / / / / / / / / / / / / / / / / / / / / / / / / 9 Y Y b Y / ( / / ( a +.+.| I / / / / / / / / / / / / / / / / / / / / / / / / / / / ' _ 2 y h j h 0   H H H H H H ",
"H H H H H H C   d h l l 0 P } ( / / / / / / / / / / / / / / / / / / / / / / / / / / / / Q Q ~ / Q T Y I I 0 +.+. .c / / / / / / / / / / / / / / / / / / / / / / / / / / / _ ' > u h h h 0   H H H H H H ",
"H H H H H H C   p z h h 9 L } ( / / / / / / / / / / / / / / / / / / / / / / / / / / / / ( Q b v Q ' } } } } +.+. .b / / / / / / / / / / / / / / / / / / / / / / / / / / / ` ' < u g j h q   H H H H H H ",
"H H H H H H C   p l h l 0 L } / / / / / / / / / / / / / / / / / / / / / / / / / / / / / P P ..+.+.+.+.+.+.O.+.+. .v / / / / / / / / / / / / / / / / / / / / / / / / / / / ' _ > u j h h 0   H H H H H H ",
"H H H H H H C   h l h l 0 L } ( / / / / / / / / / / / / / / / / / / / / / / / / / / / R R +.+.+. ./ U c l b +.+. .L / / / / / / / / / / / / / / / / / / / / / / / / / / / _ ' : y l h l q   H H H H H H ",
"H H H H H H C   g h h h 9 L } ( / / / / / / / / / / / / / / / / / / / / / / / / / / / u +.+.+.Y v Y E W Q q +.+. .L / / / / / / / / / / / / / / / / / / / / / / / / / / / _ _ > y h h h 0   H H H H H H ",
"H H H H H H V   h l h j 0 L } / / / / / / / / / / / / / / / / / / / / / / / / / / / Q R +.+.] L Q W Q Q Q y +.+. .P / / / / / / / / / / / / / / / / / / / / / / / / / / / _ ` < y h h h 0   H H H H H H ",
"H H H H H H C   h l h l 7 L } / / / / / / / / / / / / / / / / / / / / / / / / / / / R ( +.+./ R Q Q Q Q / i +.+. .P / / / / / / / / / / / / / / / / / / / / / / / / / / / _ _ < u l h h e   H H H H H H ",
"H H H H H H C . f l h j 0 L } / / / / / / / / / / / / / / / / / / / / / / / / / / / W Q +.+.} c Q Q ~ ^ c / +.+...b / / / / / / / / / / / / / / / / / / / / / / / / / / / _ ' > y h h h q   H H H H H H ",
"H H H H H H C   f h j l 7 P } / / / / / / / / / / / / / / / / / / / / / / / / / / / / g +.+.+.E i L v i ] +.+.+.o.v / / / / / / / / / / / / / / / / / / / / / / / / / / / ' ) , u j h h 0   H H H H H H ",
"H H H H H H C   f j l l 9 P } / / / / / / / / / / / / / / / / / / / / / / / / / / / / c ' +.O.+.O. .X.+.+.+.+.+.O.y / / / / / / / / / / / / / / / / / / / / / / / / / / / _ ' < u h k h q   H H H H H H ",
"H H H H H H C   h h l l 9 P } / / / / / / / / / / / / / / / / / / / / / / / / / / / / / a ) +.+.+.+.+.+.o.L ..+.+.L ^ / / / / / / / / / / / / / / / / / / / / / / / / / / _ ' < y h h h r   H H H H H H ",
"H H H H H H C   h h x l 7 L } ( / / / / / / / / / / / / / / / / / / / / / / / / / / / / / L i / } } ] I h L U R W k W / / / / / / / / / / / / / / / / / / / / / / / / / / _ _ < y h h s w   H H H H H H ",
"H H H H H H C   h h h h 7 L } / / / / / / / / / / / / / / / / ( / / / / / / / / / / / / / / / R I I Y Q / ( ~ W Q Q / / / / / / / / / / / / / / / / / / / / / / / / / / / ` _ < y j h k w   H H H H H H ",
"H H H H H H C   f l h j 0 L | / / / / / / / / / / / / / / / / / / / / / / / / / / / / / / / / / ( / / / / / / / / / / / / / / / / / / / / / / / / / / / / / / / / / / / / _ ' < y j j h w   H H H H H H ",
"H H H H H H C   h l l j 9 L } / / / / / / / / / / / / / / / / / / / / / / / / / / / / / / / / / / / / / / / / / / / / / / / / / / / / / / / / / / / / / / / / / / / / / / ' _ > y h h h 7   H H H H H H ",
"H H H H H H C   f j l h 9 L } / / / / / / / / / / / / / / / / / / / / / / / / / / / / / / / / / / / / / / / / / / / / / / / / / / / / / / / / / / / / / / / / / / / / / / ' ' < u h h s q   H H H H H H ",
"H H H H H H C   f h j l 0 L } / / / / / / / / / / / / / / / / / / / / / / / / / / / / / / / / / / / / / / / / / / / / / / / / / / / / / / / / / / / / / / / / / / / / / / _ ' > u h h h q   H H H H H H ",
"H H H H H H V   h l l l 8 L } / / / / / / / / / / / / / / / / / / / / / / / / / / / / / / / / / / / / / / / / / / / / / / / / / / / / / / / / / / / / / / / / / / / / / / _ ' > y h h g 0   H H H H H H ",
"H H H H H H C   h j l l 0 P } / / / / / / / / / / / / / / / / / / / / / / / / / / / / / / / / / / / / / / / / / / / / / / / / / / / / / / / / / / / / / / / / / / / / / / ` ` > y h h g q   H H H H H H ",
"H H H H H H C   f j j j 7 P } ( / / / / / / / / / / / / / / / / / / / / / / / / / / / / / / / / / / / / / / / / / / / / / / / / / / / / / / / / / / / / / / / / ( / / / / ) ' > t h h h r   H H H H H H ",
"H H H H H H C   f h h j 8 L } / / / / / / / / / / / / / / / / / / / / / / / / / / / / / / / / / / / / / / / / / / / / / / / / / / / / / / / / / / / / / / / / / / / / / ( ) ' > y h h h e   H H H H H H ",
"H H H H H H C . f j j j 9 L } / / / / / / / / / / / / / / / / / / / / / / / / / / / / / / / / / / / / / / / / / / / / / / / / / / / / / / / / / / / / / / / / / / / / / / ` ` > y h h h q   H H H H H H ",
"H H H H H H V   f j h l 7 L } / / / / / / / / / / / / / / / / / / / / / / / / / / / / / / / / / / / / / / / / / / / / / / / / / / / / / / / / / / / / / / / / / / / / / / ' ` : y h g h 0   H H H H H H ",
"H H H H H H C   f j h l 9 L } / / / / / / / / / / / / / / / / / / / / / / / / / / / / / / / / / / / / / / / / / / / / / / / / / / / / / / / / / / / / / / / / / / / / / / ' ` > y h h h 0   H H H H H H ",
"H H H H H H C   f l h h 9 L } / / / / / / / / / / / / / / / / / / / / / / / / / / / / / / / / / / / / / / / / / / / / / / / / / / / / / / / / / / / / / / / / / / / / / / ` ` > y f f h e   H H H H H H ",
"H H H H H H C   h h h h 9 L } / / / / / / / / / / / / / / / / / / / / / / / / / / / / / / / / / / / / / / / / / / / / / / / / / / / / / / / / / / / / / / / / / / / / / / ` ` > t f h h q   H H H H H H ",
"H H H H H H C . h l h l 8 L } / / / / / / / / / / / / / / / / / / / / / / / / / / / / / / / / / / / / / / / / / / / / / / / / / / / / / / / / / / / / / / / / / / / / / / ' ` > y f g f 0   H H H H H H ",
"H H H H H H C   h l h j 9 L } / / / / / / / / / / / / / / / / / / / / / / / / / / / / / / / / / / / / / / / / / / / / / / / / / / / / / / / / / / / / / / / / / / / / / / ` ) : r f f g r   H H H H H H ",
"H H H H H H C   h h h j 9 b } / / / / / / / / / / / / / / / / / / / / / / / / / / / / / / / / / / / / / / / / / / / / / / / / / / / / / / / / / / / / / / / / / / / / / / ` ` > r h g h e   H H H H H H ",
"H H H H H H C   f h h l 9 L } / / / / / / / / / / / / / / / / / / / / / / / / / / / / / / / / / / / / / / / / / / / / / / / / / / / / / / / / / / / / / / / / / / / / / / ` ` 2 y h d g 0   H H H H H H ",
"H H H H H H C   f h h j 8 L ] / / / / / / / / / / / / / / / / / / / / / / / / / / / / / / / / / / / / / / / / / / / / / / / / / / / / / / / / / / / / / / / / / / / / / / ' ' > y h p d 0   H H H H H H ",
"H H H H H H C   f h h j 7 b ] / / / / / / / / / / / / / / / / / / / / / / / / / / / / / / / / / / / / / / / / / / / / / / / / / / / / / / / / / / / / / / / / / / / / / ( ` ] > y h g i 4   H H H H H H ",
"H H H H H H C   f h h j 7 b ] / / / / / / / / / / / / / / / / / / / / / / / / / / / / / / / / / / / / / / / / / / / / / / / / / / / / / / / / / / / / / / / / / / / / / ( ` ' > u h h f 8   H H H H H H ",
"H H H H H H C   i h h l r q ' / / / / / ( / / / / / / / / / / / / / / / / / / / / / / / / / / / / / / / / / / / / / / / / / / / / / / / / / / / / / / / / / / / / / / / / ' / & i h g h 4   H H H H H H ",
"H H H H H H F   t h h h i & ~ ) / / / / / / / / / / / / / / / / / / / / / / / / / / / / / / / / / / / / / / / / / / / / / / / / / / / / / / / / / / / / / / / / / / / / ) | L > h f g g ,   H H H H H H ",
"H H H H H H H   5 j h h g 1 5 ) ` / / / / / / / / / / / / / / / / / / / / / / / / / / / / / / / / / / / / / / ( / / / / / / / / / / / / / / / / / / / / / / / / / / / ) | Q > y h h h h $ * H H H H H H ",
"H H H H H H H - O l h h g i & q ~ ] } ] } { ] } } [ ] [ ] [ [ [ ] ] [ } ] [ ] ] ] [ [ ` ] ' ' ] ] ` ] [ ] } ] { ] [ ] } ] ] [ ] ' [ ] ] ' ' [ ] [ ` [ ` [ ' ' ' ] } } | R , 6 h h g g i   C H H H H H H ",
"H H H H H H H A   y j h g g i 1 & y I I I I I I I I I I I I I I I I I U I I I I I I I I U I U U I I I I I I I I I I I I U I I U I I I I I I I I I I I I I I I I I I P t , 0 h h g h h <   F H H H H H H ",
"H H H H H H H H * # h h h h h h i 0 8 3 3 4 4 3 1 4 < 4 1 1 1 1 , 4 , 4 , 4 4 , 4 4 < < 3 3 3 3 4 < , 4 4 , 4 3 4 < 4 4 < 4 < 4 < 4 , 4 , 3 , 3 < > , , , , , , , 3 4 q f h h h h h f M C H H H H H H H ",
"H H H H H H H H F   : h h l h l l h h h h h h h g j h h h h h j h h h h h h l h g g h h h h h h g h l h h h h h h j h g h h h j g h h s h f h h s g h g h g f f d d f h s j h h h h $ m H H H H H H H H ",
"H H H H H H H H H S   & h h x h l h h h f h h g g h p h h h h g g h h h g g h g h h h g h g h g g g h g h h h h h h h h h h h h h h h h f h f g g h g g g g f f i i i i f f h h h % = F H H H H H H H H ",
"H H H H H H H H H H D   O q h l h h h h f h g f h h h h g h h h f h h f h h h g f h h h h h g h h g h f h s h s h g h h h h h g s s h h f h h g h h h g g g i i i i i i f g i 4 . n G H H H H H H H H H ",
"H H H H H H H H H H G F n   . % 3 4 8 4 4 8 5 9 4 6 6 6 6 6 6 6 9 9 9 9 9 5 6 4 8 4 4 9 4 8 5 9 4 0 4 5 7 4 6 6 6 6 4 6 4 5 5 8 7 6 6 6 9 9 9 9 4 4 5 5 4 4 4 4 4 3 3 > & #     B H H H H H H H H H H H ",
"H H H H H H H H H H H H H D C ;                                                                                                                                           @ V G H H H H H H H H H H H H ",
"H H H H H H H H H H H H H H H H H H H H H H H H H H H H H H H H H H H H H H H H H H H H H H H H H H H H H H H H H H H H H H H H H H H H H H H H H H H H H H H H H H H H H H H H H H H H H H H H H H H H ",
"H H H H H H H H H H H H H H H H H H H H H H H H H H H H H H H H H H H H H H H H H H H H H H H H H H H H H H H H H H H H H H H H H H H H H H H H H H H H H H H H H H H H H H H H H H H H H H H H H H H H ",
"H H H H H H H H H H H H H H H H H H H H H H H H H H H H H H H H H H H H H H H H H H H H H H H H H H H H H H H H H H H H H H H H H H H H H H H H H H H H H H H H H H H H H H H H H H H H H H H H H H H H ",
"H H H H H H H H H H H H H H H H H H H H H H H H H H H H H H H H H H H H H H H H H H H H H H H H H H H H H H H H H H H H H H H H H H H H H H H H H H H H H H H H H H H H H H H H H H H H H H H H H H H H ",
"H H H H H H H H H H H H H H H H H H H H H H H H H H H H H H H H H H H H H H H H H H H H H H H H H H H H H H H H H H H H H H H H H H H H H H H H H H H H H H H H H H H H H H H H H H H H H H H H H H H H ",
"H H H H H H H H H H H H H H H H H H H H H H H H H H H H H H H H H H H H H H H H H H H H H H H H H H H H H H H H H H H H H H H H H H H H H H H H H H H H H H H H H H H H H H H H H H H H H H H H H H H H ",
"H H H H H H H H H H H H H H H H H H H H H H H H H H H H H H H H H H H H H H H H H H H H H H H H H H H H H H H H H H H H H H H H H H H H H H H H H H H H H H H H H H H H H H H H H H H H H H H H H H H H ",
"H H H H H H H H H H H H H H H H H H H H H H H H H H H H H H H H H H H H H H H H H H H H H H H H H H H H H H H H H H H H H H H H H H H H H H H H H H H H H H H H H H H H H H H H H H H H H H H H H H H H "
};
