/* XPM */
static char *result[] = {
/* columns rows colors chars-per-pixel */
"100 97 105 2 ",
"   c #010101",
".  c #0B0B0B",
"X  c #10100F",
"o  c #151514",
"O  c #1B1B1B",
"+  c #022402",
"@  c #013F01",
"#  c #232323",
"$  c #2C2C2A",
"%  c #303030",
"&  c #3C3C3C",
"*  c #015101",
"=  c #036002",
"-  c #017601",
";  c #047C04",
":  c #41413F",
">  c #444544",
",  c #484647",
"<  c #464847",
"1  c #484947",
"2  c #464749",
"3  c #494748",
"4  c #4B4C4B",
"5  c #504F4D",
"6  c #4E504F",
"7  c #50504E",
"8  c #4E4F50",
"9  c #4F5150",
"0  c #535454",
"q  c #575957",
"w  c #585957",
"e  c #575758",
"r  c #595758",
"t  c #575958",
"y  c #5B5B5B",
"u  c #60605E",
"i  c #5E5E60",
"p  c #656565",
"a  c #686767",
"s  c #676866",
"d  c #686966",
"f  c #676769",
"g  c #696768",
"h  c #676968",
"j  c #6B6B6B",
"k  c #6E706F",
"l  c #73726F",
"z  c #6E6E71",
"x  c #6F7170",
"c  c #727272",
"v  c #777875",
"b  c #797977",
"n  c #7D7D7D",
"m  c #028901",
"M  c #039302",
"N  c #02A302",
"B  c #02AA02",
"V  c #03B403",
"C  c #01BC00",
"Z  c #2EAC2E",
"A  c #01C901",
"S  c #01DD01",
"D  c #01E301",
"F  c #01EB01",
"G  c #01F601",
"H  c #00FF00",
"J  c #548653",
"K  c #5DA25D",
"L  c #80807E",
"P  c #838383",
"I  c #888785",
"U  c #888788",
"Y  c #8C8C8B",
"T  c #8E908F",
"R  c #91928F",
"E  c #908F92",
"W  c #949494",
"Q  c #999997",
"!  c #97979A",
"~  c #999798",
"^  c #979998",
"/  c #9A9A9A",
"(  c #A0A09E",
")  c #A4A4A3",
"_  c #A9A9A7",
"`  c #ACACAB",
"'  c #AFB0AD",
"]  c #B0B0AE",
"[  c #B4B4B4",
"{  c #B9B9B7",
"}  c #B7B9B8",
"|  c #BBBBBB",
" . c #C0C0BE",
".. c #C4C5C4",
"X. c #C6C8C7",
"o. c #C9C9C7",
"O. c #C7C9C8",
"+. c #CBCBCB",
"@. c LightGray",
"#. c #DCDCDC",
"$. c #E3E3E3",
"%. c #E8E8E6",
"&. c #E9E9E9",
"*. c #F5F5F4",
"=. c #FEFEFD",
/* pixels */
"H H H H H H H H H H H H H H H H H H H H H H H H H H H H H H H H H H H H H H H H H H H H H H H H H H H H H H H H H H H H H H H H H H H H H H H H H H H H H H H H H H H H H H H H H H H H H H H H H H H H ",
"H H H H H H H H H H H H H H H H H H H H H H H H H H H H H H H H H H H H H H H H H H H H H H H H H H H H H H H H H H H H H H H H H H H H H H H H H H H H H H H H H H H H H H H H H H H H H H H H H H H H ",
"H H H H H H H H H H H H H H H H H H H H H H H H H H H H H H H H H H H H H H H H H H H H H H H H H H H H H H H H H H H H H H H H H H H H H H H H H H H H H H H H H H H H H H H H H H H H H H H H H H H H ",
"H H H H H H H H H H H H H H H H H H H H H H H H H H H H H H H H H H H H H H H H H H H H H H H H H H H H H H H H H H H H H H H H H H H H H H H H H H H H H H H H H H H H H H H H H H H H H H H H H H H H ",
"H H H H H H H H H H H H H H H H H H H H H H H H H H H H H H H H H H H H H H H H H H H H H H H H H H H H H H H H H H H H H H H H H H H H H H H H H H H H H H H H H H H H H H H H H H H H H H H H H H H H ",
"H H H H H H H H H H H H H H H G C C C C C C C C C C C C C C C C C C C C C C C C C C C C C C C C C C C C C C C C C C C C V C C C C C C C C C C C C C C C C C C C C C C C C C S H H H H H H H H H H H H H ",
"H H H H H H H H H H H H H D m     . X o o O o X o o o o o o o o o o o o o o o o o O o o o o o o o o o o o o o o o o o o o o o o o o o o o o o o o o o X o o o o o o o X .       N H H H H H H H H H H H ",
"H H H H H H H H H H H H m   $ 0 u g j j j j j j g z j g j j j j j j j j j j j j j j k j j j j j j j j j j j g j j j j j j j d j j j j j j j j j j j j j j d j d j g p g g a 0 , o + D H H H H H H H H H ",
"H H H H H H H H H H H m . q j j j j d h h j g d a f h a p a j g g g p a p g s s s j a a h j f a a a g a g h g a a a h g a a a a s s s h j s s s a d s a p a p p p p p p p a a j j 4 V V H H H H H H H H ",
"H H H H H H H H H H m o p d j k l z j a a f d g a a a h a a a g g g g g g j j s d d d h a g a f s a a j h a g g a a j d a j s s s s h s s h s s s d s s p a g g p p u p a g j j j k K B S H H H H H H H ",
"H H H H H H H H H M   y g j j j j j u y t t t t q 0 q y q t r t t y q w t t t t t w w 0 e t r t t t 0 t r t r y e 0 e e t t 0 y q q q q q q q q 0 w 0 0 q q e 0 t 0 0 e p j k k c j c J ; D H H H H H H ",
"H H H H H H H H D   < j d d d j w : : 1 4 4 4 4 4 4 4 4 4 4 4 4 4 4 4 4 4 4 4 4 4 4 4 4 4 4 4 4 4 4 4 3 4 4 3 4 4 4 4 4 4 4 4 4 4 4 4 4 4 1 4 4 4 4 4 4 4 , 4 3 4 4 4 , & , p j j k l c Z N H H H H H H ",
"H H H H H H H H V . j j d g p 4 : Y { +...X.+.|  .| ] | | ..[ ..} [ | X.{ | ..[ | | | | [ { _ [ [ [ _ ( ' ` ` [ ' { | | O...[ X.| | ..O.+.+.+.+.+.+.+.+.O.+.O.+.+.+.o.+.[ c > p c c c x K   D H H H H H ",
"H H H H H H H H + & j d j j 7 : ' [ I % % % % % % % % % % % % % % % % % % $ % % % % % % % % % % % % % % % % % % % % % % % % % % % % % % % % % % $ % % % % % % % % % % k { +.I , j c x c j o C H H H H H ",
"H H H H H H H H   0 j j j d & W ] % % % % % % % % % % % % % % % % % % % % % % % % % % % % % % % % % % % % % % % % % % % % % % % % % % % % % % % % % % % % % % % % % % % % ) +.p 4 j l j j & = H H H H H ",
"H H H H H H H C   p j j j y 7  .0 % % % % % % % % % % % % % % % % % % % % % % % % % % % % % % % % % % % % % % % % % % % % % % % % % % % % % % % % % % % % % % % % % % % % % | _ > j j j j 8   H H H H H ",
"H H H H H H H C   a j j c 0 b ` % % % % % % % % % % % % % % % % % % % % % % % % % % % % % % % % % % % % % % % % % % % % % % % % % % % % % % % % % % % % % % % % % % % % % % / ^ > u k j j 4   H H H H H ",
"H H H H H H H C   g j j z 0 I ) % % % % % % % % % % % % % % % % % % % % % % % % % % % % % % % % % % % % % % % % % % % % % % % % % % % % % % % % % % % % % % % % % % % % % % ^ ~ : y j j s 4   H H H H H ",
"H H H H H H H C   g j j j 4 P { % % % % % % % % % % % % % % % % % % % % % % % % % % % % % % % % % % % % % % % % % % % % % % % % % % % % % % % % % % % % % % % % % % % % % % E E > y d d j 4   H H H H H ",
"H H H H H H H C   d j k j 0 I | % % % % % % % % % % % % % % % % % % % % % % % % % % % % % % % % % % % % % % % % % % % % % % % % % % % % % % % % % % % % % % % % % % % % % % Y W , y j j j 0   H H H H H ",
"H H H H H H H C   g j j k 5 P ..% % % % % % % % % % % % % % % % % % % % % % % % % % % % % % % % % % % % % % % % % % % % % % % % % % % % % % % % % % % % % % % % % % % % % % W L > y j j j 0   H H H H H ",
"H H H H H H H C   g j j z 7 P O.% % % % % % % % % % % % % % % % % % % % % % % % % % % % % % % % % % % % % % % % % % % % % % % % % % % % % % % % % % % % % % % % % % % % % % v n : t j j j e   H H H H H ",
"H H H H H H H C   g j z k 7 P +.% % % % % % % % % % % % % % % % % % % % % % % % % % % % % % % % % % % % % % % % % % % % % % % % % % % % % % % % % % % % % % % % % % % % % % b ~ > t j j j 0   H H H H H ",
"H H H H H H H C   g j j z 7 P @.% % % % % % % % % % % % % % % % % % % % % % % % % % % % % % % % % % % % % % % % % % % % % % % % % % % % % % % % % % % % % % % % % % % % % % Y R : y j j j 0   H H H H H ",
"H H H H H H H C   j j j z 7 I +.% % % % % % % % % % % % % % % % % % % % % % % % % % % % % % % % % % % % % % % % % % % % % % % % % % % % % % % % % % % % % % % % % % % % % % Y Y > t j j j 0   H H H H H ",
"H H H H H H H C   j k k k 7 P +.% % % % % % % % % % % % % % % % % % % % % % % % % % % % % % % % % % % % % % % % % % % % % % % % % % % % % % % % % % % % % % % % % % % % % % Y T > y j d j 0   H H H H H ",
"H H H H H H H C   g k j k 0 P +.% % % % % % % % % % % % % % % % % % % % % % % % % % % % % % % % % % % % % % % % % % % % % % % % % % % % % % % % % % % % % % % % % % % % % % W P > y z j j 0   H H H H H ",
"H H H H H H H C   g k j j 7 P +.% % % % % % % % % % % % % % % % % % % % % % % % % % % % % % % % % % % % % % % % % % % % % % % % % % % % % % % % % % % % % % % % % % % % % % W ! , y j j j 0   H H H H H ",
"H H H H H H H C   j j j x 0 P +.% % % % % % % % % % % % % % % % % % % % % % % % % % % % % % % % % % % % % % % % % % % % % % % % % % % % % % % % % % % % % % % % % % % % % % W ~ > i j j j e   H H H H H ",
"H H H H H H H C   j z j j 0 P X.% % % % % % % % % % % % % % % % % % % % % % % % % % % % % % % % % % % % % % % % % % % % % % % % % % % % % % % % % % % % % % % % % % % % % % Y L > y j j j 0   H H H H H ",
"H H H H H H H C   g z j j 0 P +.% % % % % % % % % % % % % % % % % % % % % % % % % % % % % % % % % % % % % % % % % % % % % % % % % % % % % % % % % % % % % % % % % % % % % % n Y > y j j j e   H H H H H ",
"H H H H H H H C   j z j z 0 P +.% % % % % % % % % % % % % % % % % % % % % % % % % % % % % % % % % % % % % % % % % % % % % % % % % % % % % % % % % % % % % % % % % % % % % % Y Y , u j j j e   H H H H H ",
"H H H H H H H C   g k j j 0 P ..% % % % % % % % % % % % % % % % % % % % % % % % % % % % % % % % % % % % % % % % % % % % % % % % % % % % % % % % % % % % % % % % % % % % % % Y ~ > y j j j 0   H H H H H ",
"H H H H H H H C   j j k j 0 P X.% % % % % % % % % % % % % % % % % % % % % % % % % % % % % % % % % % % % % % % % % % % % % % % % % % % % % % % % % % % % % % % % % % % % % % ~ W , u j j j q   H H H H H ",
"H H H H H H H C   j j k j 0 P +.% % % % % % % % % % % % % % % % % % % % % % % % % % % % % % % % % % % % % % % % % % % % % % % % % % % % % % % % % % % % % % % % % % % % % % Y W > y j j j 0   H H H H H ",
"H H H H H H H C   g z j k 0 P +.% % % % % % % % % % % % % % % % % % % % % % % % % % % % % % % % % % % % % % % % % % % % % % % % % % % % % % % % % % % % % % % % % % % % % % I Q > u j j j 0   H H H H H ",
"H H H H H H H C   j j j z 0 P +.% % % % % % % % % % % % % % % % % % % % % % % % % % % % % % % % % % % % % % % % % % % % % % % % % % % % % % % % % % % % % % % % % % % % % % P ^ > y z j j 0   H H H H H ",
"H H H H H H H C   j l j z 0 P X.% % % % % % % % % % % % % % % % % % % % % % % % % % % % % % % % % % % % % % % % % % % % % % % % % % % % % % % % % % % % % % % % % % % % % % I ^ , i j j j 0   H H H H H ",
"H H H H H H H C   f j j x 9 P X.% % % % % % % % % % % % % % % % % % % % % % % % % % % % % % % % % % % % % % % % % % % % % % % % % % % % % % % % % % % % % % % % % % % % % % W ~ > y j j j t   H H H H H ",
"H H H H H H H C   j z j j 0 P +.% % % % % % % % % % % % % % % % % % % % % % % % % % % % % % % % % % % % % % % % % % % % % % % % % % % % % % % % % % % % % % % % % % % % % % W ^ , u j j j e   H H H H H ",
"H H H H H H H C   j j j l 0 P +.% % % % % % % % % % % % % % % % % % % % % % % % % % % % % % % % % f 3 > 4 f % $ % % % % % % % % % % % % % % % % % % % % % % % % % % % % % % L Y , u j j j 0   H H H H H ",
"H H H H H H H C   s j j j 0 P +.% % % % % % % % % % % % % % % % % % % % % % % % % % % % % $ t r y _ | o..._ a p % % % % % % % % % % % % % % % % % % % % % % % % % % % % % % W Q > y j j j 0   H H H H H ",
"H H H H H H H C   s j j j 4 I +.% % % % % % % % % % % % % % % % % % % % % % % % % % % % % > r +.=.=.=.=.=.=.=.+.p e % % % % % % % % % % % % % % % % % % % % % % % % % % % % W ~ > i j j j e   H H H H H ",
"H H H H H H H C   j j j l 0 P +.% % % % % % % % % % % % % % % % % % % % % % % % % % % % r t &.=.=.=.#.+.$.=.=.=.#.& % % % % % % % % % % % % % % % % % % % % % % % % % % % % Y W > i j j j 0   H H H H H ",
"H H H H H H H C   j j j z 7 P ..% % % % % % % % % % % % % % % % % % % % % % % % % % % % w o.=.=.#.u y & y P *.=.=.W p % % % % % % % % % % % % % % % % % % % % % % % % % % % P W > y j z j 0   H H H H H ",
"H H H H H H H C   j j z j 5 P ..% % % % % % % % % % % % % % % % % % % % % % % % % % % % 5 *.=.*.0 t % % % p _ =.=...& % % % % % % % % % % % % % % % % % % % % % % % % % % % P Y > u j j j 0   H H H H H ",
"H H H H H H H C   j j j x 0 P o.% % % % % % % % % % % % % % % % % % % % % % % % % % % % 5 W R n , $ % % % % a =.=.@.& $ % % % % % % % % % % % % % % % % % % % % % % % % % % Y W < y j j j 0   H H H H H ",
"H H H H H H H C   j j j z 0 P ..% % % % % % % % % % % % % % % % % % % % % % % % % % % % % z v t % p 0 3 & & 0 =.=.#.v % % % % % % % % % % % % % % % % % % % % % % % % % % % U ~ , y k j j q   H H H H H ",
"H H H H H H H C   j j j x 9 I o.% % % % % % % % % % % % % % % % % % % % % % % % % % % % % % 4 t c ` X.+.+.+.+.=.=.#.c % % % % % % % % % % % % % % % % % % % % % % % % % % % Y W 2 u j k j 0   H H H H H ",
"H H H H H H H C   g z j z 0 P +.% % % % % % % % % % % % % % % % % % % % % % % % % % % % % g I %.=.=.=.=.=.=.=.=.=.@.v % % % % % % % % % % % % % % % % % % % % % % % % % % $ Y W , u j j j 0   H H H H H ",
"H H H H H H H C   g z j j 5 P O.% % % % % % % % % % % % % % % % % % % % % % % % % % % % 0 / =.=.=.#.[ W b c n =.=.#.y % % % % % % % % % % % % % % % % % % % % % % % % % % % n R > y z j j r   H H H H H ",
"H H H H H H H C   z z j j 8 P +.% % % % % % % % % % % % % % % % % % % % % % % % % % % % i =.=.=.^ 0 r t % % 0 =.=.#.y % % % % % % % % % % % % % % % % % % % % % % % % % % % g Y > y j j j 0   H H H H H ",
"H H H H H H H C   g k k c 0 P +.% % % % % % % % % % % % % % % % % % % % % % % % % % % k / =.=.X.0 $ % % % % y =.=.#.& % % % % % % % % % % % % % % % % % % % % % % % % % % % n W < y j j j 0   H H H H H ",
"H H H H H H H C   j z j j 0 P +.% % % % % % % % % % % % % % % % % % % % % % % % % % % y | =.=.[ j % % % % % p =.=.#.> % % % % % % % % % % % % % % % % % % % % % % % % % % % Y W < y j k j 0   H H H H H ",
"H H H H H H H C   j k j j 0 P +.% % % % % % % % % % % % % % % % % % % % % % % % % % % g ` =.=.X.0 % % % % 0 [ =.=.$.p % % % % % % % % % % % % % % % % % % % % % % % % % % % Y Q < y k j j 0   H H H H H ",
"H H H H H H H C   g z j j 0 P +.% % % % % % % % % % % % % % % % % % % % % % % % % % % , f =.=.=.) 0 % 0 a o.=.=.=.&.j % % % % % % % % % % % % % % % % % % % % % % % % % % % R P < y k j j q   H H H H H ",
"H H H H H H H C   j j k z 0 P +.% % % % % % % % % % % % % % % % % % % % % % % % % % % % 0 ..=.=.=.*.#.%.=.=.=.=.=.=.y % % % % % % % % % % % % % % % % % % % % % % % % % % % I Y > u j k j 0   H H H H H ",
"H H H H H H H C   g z j z 0 P +.% % % % % % % % % % % % % % % % % % % % % % % % % % % % $ 0 | =.=.=.=.=.=.&.L $.=.=.L w % % % % % % % % % % % % % % % % % % % % % % % % % % W ! > u j j j q   H H H H H ",
"H H H H H H H C   j z z j 0 P O.% % % % % % % % % % % % % % % % % % % % % % % % % % % % % % u a [ +.+.X.Y y u R ^ ) l j % % % % % % % % % % % % % % % % % % % % % % % % % % Y W > u j j j q   H H H H H ",
"H H H H H H H C   z j j k 5 P +.% % % % % % % % % % % % % % % % % % % % % % % % % % % % % % % > w & & 4 w % % j c c y % % % % % % % % % % % % % % % % % % % % % % % % % % $ Y W > y k j j q   H H H H H ",
"H H H H H H H C   g k k z 0 P +.% % % % % % % % % % % % % % % % % % % % % % % % % % % % % % % % $ % % % % % % % % % % % % % % % % % % % % % % % % % % % % % % % % % % % % % ^ ^ > y j j j 0   H H H H H ",
"H H H H H H H C   g z j j 0 P +.% % % % % % % % % % % % % % % % % % % % % % % % % % % % % % % % % % % % % % % % % % % % % % % % % % % % % % % % % % % % % % % % % % % % % % ^ ^ 1 y j l k 0   H H H H H ",
"H H H H H H H C   j z z k 7 P O.% % % % % % % % % % % % % % % % % % % % % % % % % % % % % % % % % % % % % % % % % % % % % % % % % % % % % % % % % % % % % % % % % % % % % % ! ^ > y j j j q   H H H H H ",
"H H H H H H H C   g k k z 7 P +.% % % % % % % % % % % % % % % % % % % % % % % % % % % % % % % % % % % % % % % % % % % % % % % % % % % % % % % % % % % % % % % % % % % % % % W ^ > y j j d q   H H H H H ",
"H H H H H H H C   z k z k 5 P +.% % % % % % % % % % % % % % % % % % % % % % % % % % % % % % % % % % % % % % % % % % % % % % % % % % % % % % % % % % % % % % % % % % % % % % T ^ > y j z j w   H H H H H ",
"H H H H H H H C   g z z z 7 P O.% % % % % % % % % % % % % % % % % % % % % % % % % % % % % % % % % % % % % % % % % % % % % % % % % % % % % % % % % % % % % % % % % % % % % % P ~ > y j j j 0   H H H H H ",
"H H H H H H H C   j j z k 7 P +.% % % % % % % % % % % % % % % % % % % % % % % % % % % % % % % % % % % % % % % % % % % % % % % % % % % % % % % % % % % % % % % % % % % % % % b W > y j g j e   H H H H H ",
"H H H H H H H C   g k k k 5 P +.% % % % % % % % % % % % % % % % % % % % % % % % % % % % % % % % % % % % % % % % % % % % % % % % % % % % % % % % % % % % % % % % % % % % % % n W > y j j j 0   H H H H H ",
"H H H H H H H C   j k j z 8 P O.% % % % % % % % % % % % % % % % % % % % % % % % % % % % % % % % % % % % % % % % % % % % % % % % % % % % % % % % % % % % % % % % % % % % % % P T > y j j j e   H H H H H ",
"H H H H H H H C   d k z z 8 L +.% % % % % % % % % % % % % % % % % % % % % % % % % % % % % % % % % % % % % % % % % % % % % % % % % % % % % % % % % % % % % % % % % % % % % % E Y > t j g j e   H H H H H ",
"H H H H H H H C   j z z j 7 P +.% % % % % % % % % % % % % % % % % % % % % % % % % % % % % % % % % % % % % % % % % % % % % % % % % % % % % % % % % % % % % % % % % % % % % % W ! > r j j j e   H H H H H ",
"H H H H H H H C   g j j z 8 P +.% % % % % % % % % % % % % % % % % % % % % % % % % % % % % % % % % % % % % % % % % % % % % % % % % % % % % % % % % % % % % % % % % % % % % % b W > r f j j 0   H H H H H ",
"H H H H H H H C . j z j j 7 P +.% % % % % % % % % % % % % % % % % % % % % % % % % % % % % % % % % % % % % % % % % % % % % % % % % % % % % % % % % % % % % % % % % % % % % % U L > r g j j 0   H H H H H ",
"H H H H H H H C   g k j z 7 P ..% % % % % % % % % % % % % % % % % % % % % % % % % % % % % % % % % % % % % % % % % % % % % % % % % % % % % % % % % % % % % % % % % % % % % % E U > t a j f 0   H H H H H ",
"H H H H H H H C   g k j z 7 L O.% % % % % % % % % % % % % % % % % % % % % % % % % % % % % % % % % % % % % % % % % % % % % % % % % % % % % % % % % % % % % % % % % % % % % % U b > r g g g e   H H H H H ",
"H H H H H H H C   g j j z 8 L ..% % % % % % % % % % % % % % % % % % % % % % % % % % % % % % % % % % % % % % % % % % % % % % % % % % % % % % % % % % % % % % % % % % % % % % n Y > r j g j e   H H H H H ",
"H H H H H H H C   j j j z 0 n ..% % % % % % % % % % % % % % % % % % % % % % % % % % % % % % % % % % % % % % % % % % % % % % % % % % % % % % % % % % % % % % % % % % % % % % U E , t j a j 0   H H H H H ",
"H H H H H H H C   j j j z 4 L ] % % % % % % % % % % % % % % % % % % % % % % % % % % % % % % % % % % % % % % % % % % % % % % % % % % % % % % % % % % % % % % % % % % % % % % ^ ! , y f j a 8   H H H H H ",
"H H H H H H H C   g j j k 5 L [ % % % % % % % % % % % % % % % % % % % % % % % % % % % % % % % % % % % % % % % % % % % % % % % % % % % % % % % % % % % % % % % % % % % % % % / / , y j g a 7   H H H H H ",
"H H H H H H H C   j j j k 0 b _ % % % % % % % % % % % % % % % % % % % % % % % % % % % % % % % % % % % % % % % % % % % % % % % % % % % % % % % % % % % % % % % % % % % % % % / / > y j j a 4   H H H H H ",
"H H H H H H H C   a j j j q t / % % % % % % % % % % % % % % % % % % % % % % % % % % % % % % % % % % % % % % % % % % % % % % % % % % % % % % % % % % % % % % % % % % % % % % ^ ) & p j g j 4   H H H H H ",
"H H H H H H H F   y j j j a & / j % % % % % % % % % % % % % % % % % % % % % % % % % % % % % % % % % % % % % % % % % % % % % % % % % % % % % % % % % % % % % % % % % % % % c @.P > j j g j >   H H H H H ",
"H H H H H H H H   4 j j j j , 4 ` 3 % % % % % % % % % % % % % % % % % % % % % % % % % % % % % % % % % % % % % % % % % % % % % % % % % % % % $ % % % % % % % $ % % % % % P +._ > y j j j j $ * H H H H H ",
"H H H H H H H H - # c j j h p & e ~ { { _ o.{ ` ..| [ | [ ` ` ) [ [ [ ] [ _ } ` ` ` ) ) W ` ! W ! ] Y _ ) [ [ ` _ ` [ ` | [ [ ` ` ` ) ` _ ) W _ _ ^ Y ^ Y W W Y ^ _ O.+.@./ < q j j g j p   C H H H H H ",
"H H H H H H H H A   u k j j d p , & y , & & & & & & & & & & & & & & & & & & & & & & & & & & & & & & & & & & & & & & & & & & & & & & & & & & & & & & & & & & & & & & & t w , 0 j j j j j 2   F H H H H H ",
"H H H H H H H H H * # j j j j j j p e 4 3 4 3 4 4 < 4 < 4 < 1 1 < < 1 < 4 3 2 4 < 2 4 2 < 2 , 4 4 2 4 3 3 4 4 2 4 4 4 8 4 4 < 4 1 4 < < , , > , < 2 , , , , , > 2 < , 4 0 a j j j j j s M C H H H H H H ",
"H H H H H H H H H D   & j j j j j z z z j j j j j j j j j j k j j j j j j j j j j j j j j j j j j j j z j j j j j j j j j j k j k j j j j j j f h h s h j f j a f a a s d j j j j j k $ M H H H H H H H ",
"H H H H H H H H H H S   & z j z k j j j j d j j s j j h j d j j j j d j j a j j j j j j j g j g j g j f j j j j j j j j j j j j j j h j j s a j j j j j s f s f f a p a s d g j k d % * F H H H H H H H ",
"H H H H H H H H H H H D   O e z c j j j j j j j j d j j j j j j j j j j j j j j j j j j j j j j j j j j d j j j d j j j j j j j s h d j j j j j j j j j j a j a a p p a g g g p 4 . m H H H H H H H H H ",
"H H H H H H H H H H H H D m   . % 2 4 4 4 4 4 4 0 4 6 4 6 9 6 4 9 4 9 6 4 8 9 4 4 9 4 4 9 4 4 4 8 4 9 4 6 4 6 4 6 4 4 6 7 4 4 4 6 6 0 4 6 7 9 4 8 4 4 4 4 4 4 4 4 4 3 , > & #     B H H H H H H H H H H ",
"H H H H H H H H H H H H H H D C ;                                                                                                                                           @ C G H H H H H H H H H H H ",
"H H H H H H H H H H H H H H H H H H H H H H H H H H H H H H H H H H H H H H H H H H H H H H H H H H H H H H H H H H H H H H H H H H H H H H H H H H H H H H H H H H H H H H H H H H H H H H H H H H H H ",
"H H H H H H H H H H H H H H H H H H H H H H H H H H H H H H H H H H H H H H H H H H H H H H H H H H H H H H H H H H H H H H H H H H H H H H H H H H H H H H H H H H H H H H H H H H H H H H H H H H H H ",
"H H H H H H H H H H H H H H H H H H H H H H H H H H H H H H H H H H H H H H H H H H H H H H H H H H H H H H H H H H H H H H H H H H H H H H H H H H H H H H H H H H H H H H H H H H H H H H H H H H H H ",
"H H H H H H H H H H H H H H H H H H H H H H H H H H H H H H H H H H H H H H H H H H H H H H H H H H H H H H H H H H H H H H H H H H H H H H H H H H H H H H H H H H H H H H H H H H H H H H H H H H H H ",
"H H H H H H H H H H H H H H H H H H H H H H H H H H H H H H H H H H H H H H H H H H H H H H H H H H H H H H H H H H H H H H H H H H H H H H H H H H H H H H H H H H H H H H H H H H H H H H H H H H H H ",
"H H H H H H H H H H H H H H H H H H H H H H H H H H H H H H H H H H H H H H H H H H H H H H H H H H H H H H H H H H H H H H H H H H H H H H H H H H H H H H H H H H H H H H H H H H H H H H H H H H H H "
};
