/* XPM */
static char *result[] = {
/* columns rows colors chars-per-pixel */
"100 97 121 2 ",
"   c #000100",
".  c #0B0C0C",
"X  c #11110F",
"o  c #141414",
"O  c #1B1B1B",
"+  c #042504",
"@  c gray14",
"#  c #262826",
"$  c #353533",
"%  c #393A36",
"&  c #3D3D3B",
"*  c #403F3F",
"=  c #034005",
"-  c #035203",
";  c #035A03",
":  c #026603",
">  c #047203",
",  c #057C05",
"<  c #354135",
"1  c #396939",
"2  c #41413E",
"3  c #3F4140",
"4  c #444444",
"5  c #474847",
"6  c #494A47",
"7  c #474A4A",
"8  c #4B4B4B",
"9  c #504F4D",
"0  c #51514E",
"q  c #4F4F51",
"w  c #504F50",
"e  c #4F5050",
"r  c #535353",
"t  c #585757",
"y  c #575956",
"u  c #595957",
"i  c #575959",
"p  c #5B5B5B",
"a  c #437E43",
"s  c #5E605E",
"d  c #60615E",
"f  c #656665",
"g  c #686767",
"h  c #676866",
"j  c #696966",
"k  c #676768",
"l  c #696768",
"z  c #676968",
"x  c #6B6B6B",
"c  c #706F6D",
"v  c #6E706D",
"b  c #71726F",
"n  c #6F7170",
"m  c #727272",
"M  c #777877",
"N  c #797977",
"B  c #777778",
"V  c #7C7C7C",
"C  c #038403",
"Z  c #028A02",
"A  c #039B03",
"S  c #159A15",
"D  c #208C1E",
"F  c #02A302",
"G  c #01AC01",
"H  c #02B303",
"J  c #00BB00",
"K  c #2EB82E",
"L  c #02C302",
"P  c #01CE02",
"I  c #02D402",
"U  c #02DD01",
"Y  c #01E301",
"T  c #01EB01",
"R  c #00F700",
"E  c green",
"W  c #549E54",
"Q  c #4BA44B",
"!  c #4ABC4A",
"~  c #5FA35F",
"^  c #4DC74D",
"/  c #4EC84E",
"(  c #50C84E",
")  c #4FC850",
"_  c #50C850",
"`  c #80807F",
"'  c #7F7F80",
"]  c #848383",
"[  c #888785",
"{  c #888887",
"}  c #8C8C8C",
"|  c #959595",
" . c #9A9A9A",
".. c #A3A4A3",
"X. c #ABABA6",
"o. c #ACACAB",
"O. c #AFB1AD",
"+. c #B1B1AF",
"@. c #B1AFB0",
"#. c #AFB1B0",
"$. c #B7B7B7",
"%. c #B7B9B7",
"&. c #BCBCBC",
"*. c #C0C0BF",
"=. c #BFC0C0",
"-. c #C4C4C4",
";. c #C8C7C5",
":. c #C7C9C6",
">. c #C9C9C7",
",. c #C7C9C8",
"<. c #CBCBCB",
"1. c #D1D1CE",
"2. c #D3D3D2",
"3. c gray85",
"4. c #DFE1E0",
"5. c #E5E5E4",
"6. c #ECECEC",
"7. c #EFF0F0",
"8. c #F3F4F3",
"9. c #F9FAF6",
"0. c #FDFDFD",
/* pixels */
"E E E E E E E E E E E E E E E E E E E E E E E E E E E E E E E E E E E E E E E E E E E E E E E E E E E E E E E E E E E E E E E E E E E E E E E E E E E E E E E E E E E E E E E E E E E E E E E E E E E E ",
"E E E E E E E E E E E E E E E E E E E E E E E E E E E E E E E E E E E E E E E E E E E E E E E E E E E E E E E E E E E E E E E E E E E E E E E E E E E E E E E E E E E E E E E E E E E E E E E E E E E E ",
"E E E E E E E E E E E E E E E E E E E E E E E E E E E E E E E E E E E E E E E E E E E E E E E E E E E E E E E E E E E E E E E E E E E E E E E E E E E E E E E E E E E E E E E E E E E E E E E E E E E E ",
"E E E E E E E E E E E E E E E E E E E E E E E E E E E E E E E E E E E E E E E E E E E E E E E E E E E E E E E E E E E E E E E E E E E E E E E E E E E E E E E E E E E E E E E E E E E E E E E E E E E E ",
"E E E E E E E E E E E E E E E E E E E E E E E E E E E E E E E E E E E E E E E E E E E E E E E E E E E E E E E E E E E E E E E E E E E E E E E E E E E E E E E E E E E E E E E E E E E E E E E E E E E E ",
"E E E E E E E E E E E E E J J J J J J J J J J J J J J J J J J J J J J J J J J J J J J J J J J J J J J J J J J J J J J J J J J J J J J J J J J J J J J J J J J J J J J I E E E E E E E E E E E E E E E E ",
"E E E E E E E E E E J       . X o o O o o o o o o o o o o o o o o o o o . o o X . o X o o o o o o o o o o o o o o o o o o o o o O o o o o o o o O o o o o O o o o o       C Y E E E E E E E E E E E E E ",
"E E E E E E E E U C   # 8 s l n m m x m b x x x x x x x x x x x x x x x x x x x x x x x l x x x x x x x x x n x x n x x c x c x x x x x n n x x x n x m m m n m m x g p 8 o   G E E E E E E E E E E E E ",
"E E E E E E E Y   . 8 k f j j j x x x x x x x x k k g k k k k k l h x k l x k x h j k k k z z k k k k x g k h k l x k x k k z h k l l k x x x l x x x l x m m x x l j g f f 2   Z E E E E E E E E E E E ",
"E E E E E E E - O f k f f d j j h x x v x x x x j x x x j k x x z l g k l g g k k k x g k x h x h x k z l x z x x l k x j x x x l k l k k x x x l x x l x x l l g f d f g x x r   Z E E E E E E E E E E ",
"E E E E E E H o f l z k d j d s u u p p p s p p p p p p u u u t p t t i t t p t p u t t u u t t t p p i i p p i i p p p p p t t i i t t t t p t p p t p p p i i u p j j f j x m 0 , Y E E E E E E E E E ",
"E E E E E T Z W x x x k f 0 $ $ * 4 6 8 q 8 8 e 8 8 8 8 8 6 8 6 8 8 7 6 8 8 8 8 6 7 6 6 8 8 8 8 6 6 8 6 8 6 8 6 8 8 8 8 8 8 8 6 q 8 8 8 6 7 6 8 8 q 8 q q 8 5 5 * $ * p g x x x m K A E E E E E E E E E ",
"E E E E E L D x x x x k 6 % [ $.*.>.-.>.<.<.1.<.<.<.<.1.1.<.<.<.>.<.>.<.>.<.>.<.,.<.:.,.,.,.,.;.;.,.,.;.;.;.;.>.;.;.;.,.,.,.,.,.;.-.,.;.;.,.,.,.,.<.-.<.<.-.-.-.*.o.x % p c x n m ~ C T E E E E E E E E ",
"E E E E E   r c v x x r < o.*.$.$.$.$.$.$.$.$.$.%.$.$.$.$.$.$.$.$.$.$.$.$.$.$.$.$.$.$.$.$.$.$.$.$.$.$.$.$.$.$.$.$.$.$.$.$.$.$.$.$.$.$.$.$.$.$.$.$.$.$.$.$.$.$.$.$.&.<.[ 2 k v x b m S J E E E E E E E E ",
"E E E E Y   f c b c x 2  .>.$.$.$.$.$.$.$.$.$.$.$.$.$.$.$.$.$.$.$.$.$.$.$.$.$.$.$.$.$.$.$.$.$.$.$.$.$.$.$.$.$.$.$.$.$.$.$.$.$.$.$.$.$.$.$.$.$.$.$.$.$.$.$.$.$.$.$.$.&.1.x 0 b c c m 4 > E E E E E E E E ",
"E E E E J   k x x c p r 1.&.$.$.$.$.$.$.$.$.$.$.$.$.$.$.$.$.$.$.$.$.$.$.$.$.$.$.$.$.$.$.$.$.$.$.$.$.$.$.$.$.$.$.$.$.$.$.$.$.$.$.$.$.$.$.$.$.$.$.$.$.$.$.$.$.$.$.$.$.$.>.+.4 x x x x q   E E E E E E E E ",
"E E E E J ; g x n n q V 2.$.$.$.$.$.$.$.$.$.$.$.$.$.$.$.$.$.$.$.$.$.$.$.$.$.$.$.$.$.$.$.$.$.$.$.$.$.$.$.$.$.$.$.$.$.$.$.$.$.$.$.$.$.$.$.$.$.$.$.$.$.$.$.$.$.$.$.$.$.$.-.-.4 k x x x r   E E E E E E E E ",
"E E E E J : l x x n q } 2.$.$.$.$.$.$.$.$.$.$.$.$.$.$.$.$.$.$.$.$.$.$.$.$.$.$.$.$.$.$.$.$.$.$.$.$.$.$.$.$.$.$.$.$.$.$.$.$.$.$.$.$.$.$.$.$.$.$.$.$.$.$.$.$.$.$.$.$.$.$.*.:.5 f x x x 8   E E E E E E E E ",
"E E E E J C x x x n q } 2.$.$.$.$.$.$.$.$.$.$.$.$.$.$.$.$.$.$.$.$.$.$.$.$.$.$.$.$.$.$.$.$.$.$.$.$.$.$.$.$.$.$.$.$.$.$.$.$.$.$.$.$.$.$.$.$.$.$.$.$.$.$.$.$.$.$.$.$.$.%.*.-.4 d j x k 8   E E E E E E E E ",
"E E E E J F l x l l q } 2.$.$.$.$.$.$.$.$.$.$.$.$.$.$.$.$.$.$.$.$.$.$.$.$.$.$.$.$.$.$.$.$.$.$.$.$.$.$.$.$.$.$.$.$.$.$.$.$.$.$.$.$.$.$.$.$.$.$.$.$.$.$.$.$.$.$.$.$.$.%.*.;.4 d x h k 8   E E E E E E E E ",
"E E E E J G l x l x 8 } 2.$.$.$.$.$.$.$.$.$.$.$.$.$.$.$.$.$.$.$.$.$.$.$.$.$.$.$.$.$.$.$.$.$.$.$.$.$.$.$.$.$.$.$.$.$.$.$.$.$.$.$.$.$.$.$.$.$.$.$.$.$.$.$.$.$.$.$.$.$.$.*.-.2 u j k f 9   E E E E E E E E ",
"E E E E J F x x l l 8 { 1.$.$.$.$.$.$.$.$.$.$.$.$.$.$.$.$.$.$.$.$.$.$.$.$.$.$.$.$.$.$.$.$.$.$.$.$.$.$.$.$.$.$.$.$.$.$.$.$.$.$.$.$.$.$.$.$.$.$.$.$.$.$.$.$.$.$.$.$.$.$.*.-.2 u h k k 8   E E E E E E E E ",
"E E E E J G l x k l 5 { <.$.$.$.$.$.$.$.$.$.$.$.$.$.$.$.$.$.$.$.$.$.$.$.$.$.$.$.$.$.$.$.$.$.$.$.$.$.$.$.$.$.$.$.$.$.$.$.$.$.$.$.$.$.$.$.$.$.$.$.$.$.$.$.$.$.$.$.$.$.$.*.*.2 u k k k r   E E E E E E E E ",
"E E E E J J x g k l 5 { 1.$.$.$.$.$.$.$.$.$.$.$.$.$.$.$.$.$.$.$.$.$.$.$.$.$.$.$.$.$.$.$.$.$.$.$.$.$.$.$.$.$.$.$.$.$.$.$.$.$.$.$.$.$.$.$.$.&.$.$.$.$.$.$.$.$.$.$.$.$.$.&.-.2 u f k k 9   E E E E E E E E ",
"E E E E J J l x f j 6 [ <.$.$.$.$.$.$.$.$.$.$.$.$.$.$.$.$.$.$.$.&.$.$.$.$.$.$.$.$.$.$.$.$.&.$.$.$.$.$.$.$.$.$.$.$.$.$.$.$.$.$.$.$.$.$.$.$.$.$.$.$.$.$.$.$.$.$.$.$.$.$.&.-.< p l k j 9   E E E E E E E E ",
"E E E E J J x j g j 6 [ <.$.$.$.$.$.$.$.$.$.$.$.$.$.$.$.$.$.$.$.$.$.$.$.$.$.$.$.$.$.$.$.$.$.$.$.$.$.$.$.$.$.$.$.$.$.$.$.$.$.$.$.$.$.$.$.$.$.$.$.$.$.$.$.$.$.$.$.$.$.$.&.-.3 p l k j 9   E E E E E E E E ",
"E E E E J J x g k g 6 [ <.$.$.$.$.$.$.$.$.$.$.$.$.$.$.$.$.$.$.$.$.$.$.$.$.$.$.$.$.$.$.$.$.$.$.$.$.$.$.$.$.$.$.$.$.$.$.$.$.$.$.$.$.$.$.$.$.$.$.$.$.$.$.$.$.$.$.$.$.$.$.&.=.4 t l k k w   E E E E E E E E ",
"E E E E J J x g g x 6 [ ,.$.$.$.$.$.$.$.$.$.$.$.$.$.$.$.$.$.$.$.$.$.$.$.$.$.$.$.$.$.$.$.$.$.$.$.$.$.$.$.$.$.$.$.$.$.$.$.$.$.$.$.$.$.$.$.$.$.$.$.$.$.$.$.$.$.$.$.$.$.$.$.-.3 p k k x r   E E E E E E E E ",
"E E E E J J x x j x 7 { ,.$.$.$.$.$.$.$.$.$.$.$.$.$.$.$.$.$.$.$.$.$.$.$.$.$.$.$.$.$.$.$.$.$.$.$.$.$.$.$.$.$.$.$.$.$.$.$.$.&.$.$.$.$.$.$.$.$.$.$.$.$.$.$.$.$.$.$.$.$.$.&.=.3 p l k x 9   E E E E E E E E ",
"E E E E J J x l k x 7 { <.$.$.$.$.$.$.$.$.$.$.$.$.$.$.$.$.$.$.$.$.$.$.$.$.$.$.$.$.$.$.$.$.$.$.$.$.$.$.$.$.$.$.$.$.$.$.$.$.$.$.$.$.$.$.$.$.$.$.$.$.$.$.$.$.$.$.$.$.$.$.&.-.4 p x x g 0   E E E E E E E E ",
"E E E E J J x x x x 6 { ,.$.$.$.$.$.$.$.$.$.$.$.$.$.$.$.$.$.$.$.$.$.$.$.$.$.$.$.$.$.$.$.$.$.$.$.$.$.$.$.$.$.$.$.$.$.$.$.$.$.$.$.$.$.$.$.$.$.$.$.$.$.$.$.$.$.$.$.$.$.$.&.-.3 s k k x r   E E E E E E E E ",
"E E E E J J x x z x 6 { <.$.$.$.$.$.$.$.$.$.$.$.$.$.$.$.$.$.$.$.$.$.$.$.$.$.$.$.$.$.$.$.$.$.$.$.$.$.$.$.$.$.$.$.$.$.$.$.$.$.$.$.$.$.$.$.$.$.$.$.$.$.$.$.$.$.$.$.$.$.$.&.-.3 p x k x r   E E E E E E E E ",
"E E E E J J x x x x 8 { <.$.$.$.$.$.$.$.$.$.$.$.$.$.$.$.$.$.$.$.$.$.$.$.$.$.$.$.$.$.$.$.$.$.$.$.$.$.$.$.$.$.$.$.$.$.$.$.$.$.$.$.$.$.$.$.$.$.$.$.$.$.$.$.$.$.$.$.$.$.$.&.=.4 p l z x r   E E E E E E E E ",
"E E E E J H x x k k 8 { <.$.$.$.$.$.$.&.$.$.$.$.$.$.$.$.$.$.$.$.$.$.$.$.$.$.$.$.$.$.$.$.$.$.$.$.$.$.$.$.@.@.@.$.$.$.$.$.$.$.$.$.$.$.$.$.$.$.$.$.$.$.$.$.$.$.$.$.$.$.$.=.-.4 s l l x r   E E E E E E E E ",
"E E E E J J x x x x 8 } <.$.$.$.$.$.$.$.$.$.$.$.$.$.$.$.$.$.$.$.$.$.$.$.$.$.$.$.$.$.$.$.$.$.$.$.$.$.$.} '  . .p $.$.$.$.$.$.$.$.$.$.$.$.$.$.$.$.$.$.$.$.$.$.$.&.$.$.$.=.-.4 p x k x r   E E E E E E E E ",
"E E E E J J x x x x 8 } <.$.$.$.$.$.$.$.$.$.$.$.$.$.$.$.$.$.$.$.$.$.$.$.$.$.$.$.$.$.$.$.$.$.$.$.$.$.$.} ,.0.0.B $.$.$.$.$.$.$.$.$.$.$.$.$.$.$.$.$.$.$.$.$.$.$.$.$.$.$.&.-.4 p x x x r   E E E E E E E E ",
"E E E E J J n x x x 8 { <.$.$.$.$.$.$.$.$.$.$.$.$.$.$.$.$.$.$.$.$.$.$.$.$.$.$.$.$.$.$.$.$.$.$.$.$.$.$.} ,.0.0.n $.$.$.$.$.$.$.$.$.$.$.$.$.$.$.$.$.$.$.$.$.$.$.$.$.$.$.&.-.4 p x x x r   E E E E E E E E ",
"E E E E J J x x l x 8 } <.$.$.$.$.$.$.$.$.$.$.$.$.$.$.$.$.$.$.$.$.$.$.$.$.$.$.$.$.$.$.$.$.$.$.$.$.$.$.} ,.9.0.m $.$.$.$.$.$.$.$.$.$.$.$.$.$.$.$.$.$.$.$.$.$.$.$.$.$.$.$.=.4 p x l l r   E E E E E E E E ",
"E E E E J J x x x x 8 { <.$.$.$.$.$.$.$.$.$.$.$.$.$.$.$.$.$.$.$.$.$.$.$.$.$.$.$.$.$.$.$.$.$.$.$.$.$.$.} <.0.9.m $.$.$.$.$.$.$.$.$.$.$.$.$.$.$.$.$.$.$.$.$.$.$.$.$.$.$.&.-.4 s x x x r   E E E E E E E E ",
"E E E E H H x x x x 8 } <.$.$.$.$.$.$.$.$.$.$.$.$.$.$.$.$.$.$.$.$.$.$.$.$.$.$.$.$.$.$.$.$.$.$.$.$.$.$.} 1.0.0.B $.$.$.$.$.$.$.$.$.$.$.$.$.$.$.$.$.$.$.$.$.$.$.$.$.$.$.&.-.4 s l x x r   E E E E E E E E ",
"E E E E J J n x x n 8 { <.$.$.$.$.$.$.$.$.$.$.$.$.$.$.$.$.$.$.$.$.$.$.$.$.$.$.$.$.$.$.$.$.$. .| | o.$.} <.0.0.N $.$.$.$.$.$.$.$.$.$.$.$.$.$.$.$.$.$.$.$.$.$.$.$.$.$.$.&.-.4 s l x x w   E E E E E E E E ",
"E E E E J J x x x x w { <.$.$.$.$.$.$.$.$.$.$.$.$.$.$.$.$.$.$.$.$.$.$.$.$.$.$.$.$.$.$.o.m v o.-.-...x x <.0.0.V $.$.$.$.$.$.$.$.$.$.$.$.$.$.$.$.$.$.$.$.$.$.$.$.$.$.$.&.-.4 p x x x t   E E E E E E E E ",
"E E E E J J x x x x 8 { 1.$.$.$.$.$.$.$.$.$.$.$.$.$.$.$.$.$.$.$.&.$.$.$.$.$.$.$.$.$...p 3.9.0.0.0.0.0...<.0.0.V $.$.$.$.$.$.$.$.$.$.$.$.$.$.$.$.$.$.$.$.$.$.$.$.$.$.$.&.-.4 s l x c w   E E E E E E E E ",
"E E E E J J x n x x q { <.$.$.$.$.$.$.$.$.$.$.$.$.$.$.$.$.$.$.$.$.$.$.$.$.$.$.$.$.o.y 6.9.9.9.5.3.6.0.0.8.0.0.V $.$.$.$.$.$.$.$.$.$.&.$.$.$.$.$.$.$.$.$.$.$.$.$.$.$.$.&.-.4 p x x x r   E E E E E E E E ",
"E E E E J J x x x x 9 { <.$.$.$.$.$.$.$.$.$.$.$.$.$.$.$.$.$.$.$.$.$.$.$.$.$.$.$.$.V ,.9.9.5.B d m d ` 6.0.0.0.V $.$.$.$.$.$.$.$.$.$.$.$.$.$.$.$.$.$.$.$.$.$.$.$.$.$.$.&.-.4 s x x x r   E E E E E E E E ",
"E E E E J J x x x x 8 } <.$.$.$.$.$.$.$.$.$.$.$.$.$.$.$.$.$.$.$.$.$.$.$.$.$.$.$.$.k 9.0.8.x  .X.X.X. .f 8.0.0.' $.$.$.$.$.$.$.$.$.$.$.$.$.$.$.$.$.$.$.$.$.$.$.$.$.$.$.&.-.4 s x c x r   E E E E E E E E ",
"E E E E J J x x x v 8 { 1.$.$.$.$.$.$.$.$.$.$.$.$.$.$.$.$.$.$.$.$.$.$.$.$.$.$.$.| $.0.0.-.V o.o.X.o.o.M 2.0.0.' @.$.$.$.$.$.$.$.$.$.$.$.$.$.$.$.$.$.$.$.$.$.$.$.$.$.$.&.-.4 s x x n w   E E E E E E E E ",
"E E E E J J x c x m 8 } <.$.$.$.$.$.$.$.$.$.$.$.&.$.$.$.$.$.$.$.$.$.$.$.$.$.$.$.{ 3.0.0.[ X.o.o.o.o.o.] ,.0.0.V $.$.$.$.$.$.$.$.$.$.$.$.$.$.$.$.$.$.$.$.$.$.$.$.$.$.$.&.-.4 s l x x r   E E E E E E E E ",
"E E E E J J x x x x 8 { <.$.$.$.$.$.$.$.$.$.$.$.$.$.$.$.$.$.$.$.$.$.$.$.$.$.$.$.x 8.0.0.p $.o.o.o.X.o.] ,.0.0.] $.$.$.$.$.$.$.$.$.$.$.$.$.$.$.$.$.$.$.$.$.$.$.$.$.$.$.*.*.4 s x x x r   E E E E E E E E ",
"E E E E J J c x x c 8 } <.$.$.$.$.$.$.$.$.$.$.$.$.$.$.$.$.$.$.$.$.$.$.$.$.$.$.$.f 0.0.9.p $.@.o.o.o.o.] -.0.0.' $.$.$.$.$.$.$.$.$.$.$.$.$.$.$.$.$.$.$.$.$.$.$.$.$.$.$.&.-.5 p x x x e   E E E E E E E E ",
"E E E E J J c x x x 8 { 1.$.$.$.$.$.$.$.$.$.$.$.$.$.$.$.$.$.$.$.$.$.$.$.$.$.$.$.f 9.0.9.p $.o.$.o.X.o.] ,.9.0.' #.$.$.$.$.$.$.$.$.$.$.$.$.$.$.$.$.$.$.$.$.$.$.$.$.$.$.&.-.4 s x n x r   E E E E E E E E ",
"E E E E J J x c x m e { <.$.$.$.$.$.$.$.$.$.$.$.$.$.$.$.$.$.$.$.$.$.$.$.$.$.$.$.x 6.0.0.p $.@.$.o.o.o.[ ,.9.9.' @.$.$.$.$.$.$.$.$.$.$.$.$.$.$.$.$.$.$.$.$.$.$.$.$.$.%.&.-.4 d x n x r   E E E E E E E E ",
"E E E E J J x x x x q } 1.$.$.$.$.$.$.$.$.$.$.&.$.$.$.$.$.$.$.$.$.$.$.$.$.$.$.$.' 3.0.0.V $.$.o.$.o.o.[ -.9.9.' $.$.$.$.$.$.$.$.$.$.$.$.$.$.$.$.$.$.$.$.$.$.$.$.$.$.$.&.-.4 p x x x t   E E E E E E E E ",
"E E E E J J x x x x 8 { 1.$.$.$.$.$.$.$.$.$.$.$.$.$.$.$.$.$.$.$.$.$.$.$.$.$.$.$.| $.0.0.-.| $.@.$.o.O.M 1.9.9.' #.$.$.$.$.$.$.$.$.$.$.$.$.$.$.$.$.$.$.$.$.$.$.$.$.$.$.&.-.5 p x x x r   E E E E E E E E ",
"E E E E J J x x x x 8 } <.$.$.$.$.$.$.$.$.$.$.$.$.$.$.$.$.$.$.$.$.$.$.$.$.$.$.$.$.k 0.0.0.x o.$.$.$...h 8.0.9.' o.$.$.$.$.$.$.$.$.$.$.$.$.$.$.$.$.$.$.$.$.$.$.$.$.$.$.&.&.5 p x x x r   E E E E E E E E ",
"E E E E J J x c x n 8 { <.$.$.$.$.$.$.$.$.$.$.$.$.$.$.$.$.$.$.$.$.$.$.$.$.$.$.$.$.] <.0.0.6.{ l m p ' 6.0.0.0.] o.$.$.$.$.$.$.$.$.$.$.$.$.$.$.$.&.$.$.$.$.$.$.$.$.$.$.*.-.5 f x x x r   E E E E E E E E ",
"E E E E J J c x x x r } <.$.$.$.$.$.$.$.$.$.$.$.$.$.$.$.$.$.$.$.$.$.$.$.$.$.$.$.$.@.s 6.0.0.0.8.5.7.0.0.7.0.0.] o.$.$.$.$.$.$.$.$.$.$.$.$.$.$.$.$.$.$.$.$.$.$.$.$.$.$.&.;.4 p x x x t   E E E E E E E E ",
"E E E E J J c n x v 8 } <.$.$.$.$.$.$.$.$.$.$.$.$.$.$.$.$.$.$.$.$.$.$.$.$.$.$.$.$.$.o.k 4.0.0.0.0.0.0.$.#.0.0.} o.$.$.$.$.$.$.$.$.$.$.$.$.$.$.$.$.$.$.$.$.$.$.$.$.$.$.%.-.4 s x n x r   E E E E E E E E ",
"E E E E J J x x x x 8 { <.$.$.$.$.$.$.$.$.$.$.$.$.$.$.$.$.$.$.$.$.$.$.$.$.$.$.$.$.$.$.#.m { =.<.,.$.f } f | | s @.$.$.$.$.$.$.$.$.$.$.$.$.$.$.$.$.$.$.$.$.$.$.$.$.$.$.&.=.4 s x x x r   E E E E E E E E ",
"E E E E J J x x x n 8 } <.$.$.$.$.$.$.$.$.$.$.$.$.$.$.$.$.$.$.$.$.$.$.$.$.$.$.$.$.$.$.$.$.#.| } } | $.$.$.o...$.$.$.$.$.$.$.$.$.$.$.$.$.$.$.$.$.$.$.$.$.$.$.$.$.$.$.$.&.-.5 s x x x r   E E E E E E E E ",
"E E E E J J x x x x q { <.$.$.$.$.$.$.$.$.$.$.$.$.$.$.$.$.$.$.$.$.$.$.$.$.$.$.$.$.$.$.$.$.$.$.$.$.$.$.$.$.$.$.$.$.$.$.$.$.$.$.$.$.$.$.$.$.$.$.$.$.$.$.$.$.$.$.$.$.$.$.&.=.4 s x x c r   E E E E E E E E ",
"E E E E J J n x x n 8 } 1.$.$.$.$.$.$.$.$.$.$.$.$.$.$.$.$.$.$.$.$.$.$.$.$.$.$.$.$.$.$.$.$.$.$.$.$.$.$.$.$.$.$.$.$.$.$.$.$.$.$.$.$.$.$.$.$.$.$.$.$.$.$.$.$.$.$.$.$.$.$.&.=.4 s x x x r   E E E E E E E E ",
"E E E E J J n x x n 8 { <.$.$.$.$.$.$.$.$.$.$.$.$.$.$.$.$.$.$.$.$.$.$.$.$.$.$.$.$.$.$.$.$.$.$.$.$.$.$.$.$.$.$.$.$.$.$.$.$.$.$.$.$.$.$.$.$.$.$.$.$.$.$.$.$.$.$.$.$.$.$.&.*.4 p c x x r   E E E E E E E E ",
"E E E E J J x x x x 8 } <.$.$.$.$.$.$.$.$.$.$.$.$.$.$.$.$.$.$.$.$.$.$.$.$.$.$.$.$.$.$.$.$.$.$.$.$.$.$.$.$.$.$.$.$.$.$.$.$.$.$.$.$.$.$.$.$.$.$.$.$.$.$.$.$.$.$.$.$.$.$.&.;.4 s l x x r   E E E E E E E E ",
"E E E E J J x x x x 8 } <.$.$.$.$.$.$.$.$.$.$.$.$.$.$.$.$.$.$.$.$.$.$.$.$.$.$.$.$.$.$.$.$.&.$.$.$.$.$.$.$.$.$.$.$.$.$.$.$.$.$.$.$.$.$.$.$.$.$.$.$.$.$.$.$.$.$.$.$.$.$.&.=.4 p l x x r   E E E E E E E E ",
"E E E E J J x x x x 8 { ,.$.$.$.$.$.$.$.$.$.$.$.$.$.$.$.$.$.$.$.$.$.$.$.$.$.$.$.$.$.$.$.$.$.$.$.$.$.$.$.$.$.$.$.$.$.$.$.$.$.$.$.$.$.$.$.$.$.&.$.$.$.$.$.$.$.$.$.$.$.$.&.=.4 s l l l r   E E E E E E E E ",
"E E E E J J c x x x q { <.$.$.$.$.$.$.$.$.$.$.$.&.$.$.$.$.$.$.$.$.$.$.$.$.$.$.$.$.$.$.$.$.$.$.$.$.$.$.$.$.$.$.$.$.$.$.$.$.$.$.$.$.$.$.$.$.$.$.$.$.$.$.$.$.$.$.$.$.$.$.&.-.4 s l x x w   E E E E E E E E ",
"E E E E J J x l x l 8 { <.$.$.$.$.$.$.$.$.$.$.$.$.$.$.$.$.$.$.$.$.$.$.$.$.$.$.$.$.$.$.$.$.$.$.$.$.$.$.$.$.$.$.$.$.$.$.$.$.$.$.$.$.$.$.$.$.$.$.$.$.$.$.$.$.$.$.$.$.$.$.&.*.4 p x x x r   E E E E E E E E ",
"E E E E J J c l x x q { <.$.$.$.$.$.$.$.$.$.$.$.$.$.$.$.$.$.$.$.$.$.$.$.$.$.$.$.$.$.$.$.$.$.$.$.$.$.$.$.$.$.$.$.$.$.$.$.$.$.$.$.$.$.$.$.$.$.$.$.$.$.$.$.$.$.$.$.$.$.$.&.=.4 p l j x r   E E E E E E E E ",
"E E E E J J x x x l 8 [ <.$.$.$.$.$.$.$.$.$.$.$.$.$.$.$.$.$.$.$.$.$.$.$.$.$.$.$.$.$.$.$.$.$.$.$.$.$.$.$.$.$.$.$.$.$.$.$.$.$.$.$.$.$.$.$.$.$.$.$.$.$.$.$.$.$.$.$.$.$.$.&.=.4 p l g x r   E E E E E E E E ",
"E E E E J J x x l x 8 { <.$.$.$.$.$.$.$.$.$.$.$.$.$.$.$.$.$.$.$.$.$.$.$.$.$.$.$.$.$.$.$.$.$.$.$.$.$.$.$.$.$.$.$.$.$.$.$.$.$.$.$.$.$.$.$.$.$.$.$.$.$.$.$.$.$.$.$.$.$.$.&.-.4 t l j j 0   E E E E E E E E ",
"E E E E J J x l l l q { <.$.$.$.$.$.$.$.$.$.$.$.$.$.$.$.$.$.$.$.$.$.$.$.$.$.$.$.$.$.$.$.$.$.$.$.$.$.$.$.$.$.$.$.$.$.$.$.$.$.$.$.$.$.$.$.$.$.$.$.$.$.$.$.$.$.$.$.$.$.$.$.=.4 p l g x r   E E E E E E E E ",
"E E E E J J x l x j 8 } 1.$.$.$.$.$.$.$.$.$.$.$.$.$.$.$.$.$.$.$.$.$.$.$.$.$.$.$.$.$.$.$.$.$.$.$.$.$.$.$.$.$.$.$.$.$.$.$.$.$.$.$.$.$.$.$.$.$.$.$.$.$.$.$.$.$.$.$.$.$.$.&.=.4 p x j x r   E E E E E E E E ",
"E E E E J J x x g x 8 } 2.$.$.$.$.$.$.$.$.$.$.&.$.$.$.$.$.$.$.$.$.$.&.$.$.$.$.$.$.$.$.$.$.$.$.$.$.$.$.$.$.$.$.$.$.$.$.$.$.$.$.$.$.$.$.$.$.$.$.$.$.$.$.$.$.$.$.$.$.$.$.&.=.4 p l j x r   E E E E E E E E ",
"E E E E J J x l g x 8 } 1.$.$.$.$.$.$.$.$.$.$.$.$.$.$.$.$.$.$.$.$.$.$.$.$.$.$.$.$.$.$.$.$.$.$.$.$.$.$.$.$.$.$.$.$.$.$.&.$.$.$.$.$.$.$.$.$.$.$.$.$.$.$.$.$.$.$.$.$.$.$.&.*.4 p l g x q   E E E E E E E E ",
"E E E E J J c x x c 8 } 1.$.$.$.$.$.$.$.$.$.$.$.$.$.$.$.$.$.$.$.$.$.$.$.$.$.$.$.$.$.$.$.$.$.$.$.$.$.$.$.$.$.$.$.$.$.$.$.$.$.$.$.$.$.$.$.$.$.$.$.$.$.$.$.$.$.$.$.$.$.$.=.-.6 p x x x r   E E E E E E E E ",
"E E E E J J x l j x w } 2.$.$.$.$.$.$.$.$.$.$.$.$.$.$.$.$.$.$.$.$.$.$.$.$.$.$.$.$.$.$.$.$.$.$.$.$.$.$.$.$.$.$.$.$.$.$.$.$.$.$.$.$.$.$.$.$.$.$.$.$.$.$.$.$.$.$.$.$.$.$.&.-.7 p n x l r   E E E E E E E E ",
"E E E E J J c l x m q } <.$.$.$.$.$.$.$.$.$.$.$.$.$.$.$.$.$.$.$.$.$.$.$.$.$.$.$.$.$.$.$.$.$.$.$.$.$.$.$.$.$.$.$.$.$.$.$.$.$.$.$.$.$.$.$.$.$.$.$.$.$.$.$.$.$.$.$.$.$.$.=.,.7 s x x x 0   E E E E E E E E ",
"E E E E J J x c x x 8 } <.$.$.$.$.$.$.$.$.$.$.$.$.$.$.$.$.$.$.$.$.$.$.$.$.$.$.$.$.$.$.$.$.$.$.$.$.$.$.$.$.$.$.$.$.$.$.$.$.$.$.$.$.$.$.$.$.$.$.$.$.$.$.$.$.$.$.$.$.$.$.&.;.7 s n x x t   E E E E E E E E ",
"E E E E J J n c c c r { ,.$.$.$.$.$.$.$.$.$.$.$.$.$.$.$.$.$.$.$.$.$.$.$.$.$.$.$.$.$.$.$.$.$.$.$.$.$.$.$.$.$.$.$.$.$.$.$.$.$.$.$.$.$.$.$.$.$.$.$.$.$.$.$.&.$.$.$.$.$.$.&.;.5 f x x x r   E E E E E E E E ",
"E E E E J J n n x x t k >.$.$.$.$.$.$.$.$.$.$.$.$.$.$.$.$.$.$.$.$.$.$.$.$.$.$.$.$.$.$.$.$.$.$.$.$.$.$.$.$.$.$.$.$.$.$.$.$.$.$.$.$.$.$.$.$.$.$.$.$.$.$.$.$.$.$.$.$.$.$.*.&.2 j x b x r   E E E E E E E E ",
"E E E E U ; f x x x f & $.&.$.$.$.$.$.$.$.$.$.$.$.$.$.$.$.$.$.$.$.$.$.$.$.$.$.$.$.$.$.$.$.$.$.$.$.$.$.$.$.$.$.$.$.$.$.$.$.$.$.$.$.$.$.$.$.$.$.$.$.$.$.$.$.$.$.$.$.$.$.*.` 2 x c c b 6   E E E E E E E E ",
"E E E E E - W c v x x 6 t &.%.$.$.$.$.$.$.$.$.$.$.$.$.$.$.$.$.$.$.$.$.$.$.$.$.$.$.$.$.$.$.$.$.$.$.$.$.$.$.$.$.$.$.$.$.$.$.$.$.$.$.$.$.$.$.$.$.$.$.$.$.$.$.$.$.$.$.$.&.X.& p x x x m $ A E E E E E E E E ",
"E E E E E C 1 b n x j f & u +.-.=.&.=.<.<.<.<.<.,.<.,.,.,.-.-.;.,.-.;.,.-.-.;.-.;.;.<.-.-.-.-.<.,.,.,.,.,.,.<.<.:.,.,.:.,.,.,.,.,.-.-.<.;.;.,.,.,.;.;.;.-.*.&.&.&.&.| & 9 g x c c x F I E E E E E E E E ",
"E E E E E L . k x x k k s 2 % f } } } } } | } } } } } } } } } } } } } } } } } } } } } } } } } } } } } | } } } } } } } } } } } } } } } } } } } } } } | } } } } } ' 9 % 9 f f g l c Q C R E E E E E E E E ",
"E E E E E E + $ x j f k f f u 9 5 5 8 8 8 q q q w 8 q 7 8 8 8 q 7 8 7 8 8 7 6 7 8 7 6 7 8 7 8 8 7 7 7 7 7 7 q 8 6 7 8 8 8 8 7 6 8 5 8 8 6 6 8 8 7 8 8 8 9 6 8 8 6 9 s f j f j g g . A E E E E E E E E E ",
"E E E E E E U   2 h d f d f f x x x c m c c x x x c x x x x l x n x x x x n x x x x x n n x x x x x x x z x x n v x m x x x x x x x l l x x x x x x c n b b x x g g k f f f f j #   E E E E E E E E E E ",
"E E E E E E E Z   % f f f k j x x x x x x x x x x x x x x x x x x l x x x x x x l x x x x x x l x x x n x x n x x x x x x x x x x x x l x l x x x x x c x x b x l l f j f f p @   Y E E E E E E E E E E ",
"E E E E E E E E Z   O w x x x m n x x m m x x x n x x x x x x x x n x x x x x x x x x x x x x x x x x x x v x x x x x x x x x x x x x x x x x x x x x x x v b b n x x l f 6     Y E E E E E E E E E E E ",
"E E E E E E E E E I     . % ! _ ) ) ( _ ^ _ ^ _ ) ) ^ ) ^ _ _ ^ ^ ^ ) ^ ) ) ^ ^ ^ ^ ( ^ ( _ ( ^ ^ ) ^ ^ ^ ^ ) ^ ) ) ) ) ^ ^ ^ ^ ) ) / / ^ ^ ^ ^ ) / / / ) ^ ( _ _ / a @     F E E E E E E E E E E E E E ",
"E E E E E E E E E E E P J G C =                                                                                                                                     + J J R E E E E E E E E E E E E E E ",
"E E E E E E E E E E E E E E E E E E E E E E E E E E E E E E E E E E E E E E E E E E E E E E E E E E E E E E E E E E E E E E E E E E E E E E E E E E E E E E E E E E E E E E E E E E E E E E E E E E E E ",
"E E E E E E E E E E E E E E E E E E E E E E E E E E E E E E E E E E E E E E E E E E E E E E E E E E E E E E E E E E E E E E E E E E E E E E E E E E E E E E E E E E E E E E E E E E E E E E E E E E E E ",
"E E E E E E E E E E E E E E E E E E E E E E E E E E E E E E E E E E E E E E E E E E E E E E E E E E E E E E E E E E E E E E E E E E E E E E E E E E E E E E E E E E E E E E E E E E E E E E E E E E E E ",
"E E E E E E E E E E E E E E E E E E E E E E E E E E E E E E E E E E E E E E E E E E E E E E E E E E E E E E E E E E E E E E E E E E E E E E E E E E E E E E E E E E E E E E E E E E E E E E E E E E E E ",
"E E E E E E E E E E E E E E E E E E E E E E E E E E E E E E E E E E E E E E E E E E E E E E E E E E E E E E E E E E E E E E E E E E E E E E E E E E E E E E E E E E E E E E E E E E E E E E E E E E E E ",
"E E E E E E E E E E E E E E E E E E E E E E E E E E E E E E E E E E E E E E E E E E E E E E E E E E E E E E E E E E E E E E E E E E E E E E E E E E E E E E E E E E E E E E E E E E E E E E E E E E E E "
};
