/* XPM */
static char *result[] = {
/* columns rows colors chars-per-pixel */
"100 97 118 2 ",
"   c #010101",
".  c #0E0E0E",
"X  c #0E100F",
"o  c #10100E",
"O  c #0E0E10",
"+  c #121212",
"@  c #1D1D1D",
"#  c #042404",
"$  c #1E201F",
"%  c #222222",
"&  c gray18",
"*  c #31312F",
"=  c #303030",
"-  c #393937",
";  c #3C3D3C",
":  c #025102",
">  c #036C04",
",  c #047504",
"<  c #3E403E",
"1  c #41413E",
"2  c #3F3F40",
"3  c #413F40",
"4  c #3F4140",
"5  c #434343",
"6  c #474946",
"7  c #484846",
"8  c #474749",
"9  c #494748",
"0  c #474949",
"q  c #4B4B4B",
"w  c #4F514F",
"e  c #51514E",
"r  c #4F5150",
"t  c #525352",
"y  c #575957",
"u  c #5A5957",
"i  c #565658",
"p  c #585758",
"a  c #575958",
"s  c #5A5A5A",
"d  c #605F5E",
"f  c #61605E",
"g  c #5F5F61",
"h  c #615F60",
"j  c #5F6160",
"k  c #656564",
"l  c #666866",
"z  c #686966",
"x  c #676668",
"c  c #696768",
"v  c #676869",
"b  c #6B6B6B",
"n  c #706F6E",
"m  c #6F706F",
"M  c #70706F",
"N  c #6E6E70",
"B  c #6F7171",
"V  c #717171",
"C  c #7D7D7D",
"Z  c #018002",
"A  c #018B01",
"S  c #049505",
"D  c #039C04",
"F  c #198F19",
"G  c #04A302",
"H  c #01AA01",
"J  c #03B603",
"K  c #00BC00",
"L  c #399339",
"P  c #02C502",
"I  c #02DB01",
"U  c #01E201",
"Y  c #01EC01",
"T  c green",
"R  c #2BC72B",
"E  c #32C832",
"W  c #38CF38",
"Q  c #49A34A",
"!  c #81817F",
"~  c #7F8180",
"^  c #848484",
"/  c #898987",
"(  c #8B8B8B",
")  c #90908E",
"_  c #8F9190",
"`  c #939393",
"'  c #979896",
"]  c #999997",
"[  c #989798",
"{  c #979998",
"}  c #9B9B9B",
"|  c #A1A19F",
" . c #A4A4A4",
".. c #A9A9A7",
"X. c #A7ABAA",
"o. c #ABACAB",
"O. c #B0B0AE",
"+. c #B3B4B3",
"@. c #B7B7B8",
"#. c #B7B8B8",
"$. c #BCBCBC",
"%. c #C0BFC2",
"&. c #C3C4C3",
"*. c #CACAC7",
"=. c #C6C6C8",
"-. c #C9C7CA",
";. c #C7C9C8",
":. c #CBCBCB",
">. c #D1D1CF",
",. c #D4D3D3",
"<. c #DADADA",
"1. c #E0DFDF",
"2. c #E3E4E3",
"3. c #ECECEC",
"4. c #F3F3F3",
"5. c #F8F9F7",
"6. c #F7F9F8",
"7. c #FCFCFC",
/* pixels */
"T T T T T T T T T T T T T T T T T T T T T T T T T T T T T T T T T T T T T T T T T T T T T T T T T T T T T T T T T T T T T T T T T T T T T T T T T T T T T T T T T T T T T T T T T T T T T T T T T T T T ",
"T T T T T T T T T T T T T T T T T T T T T T T T T T T T T T T T T T T T T T T T T T T T T T T T T T T T T T T T T T T T T T T T T T T T T T T T T T T T T T T T T T T T T T T T T T T T T T T T T T T T ",
"T T T T T T T T T T T T T T T T T T T T T T T T T T T T T T T T T T T T T T T T T T T T T T T T T T T T T T T T T T T T T T T T T T T T T T T T T T T T T T T T T T T T T T T T T T T T T T T T T T T T ",
"T T T T T T T T T T T T T T T T T T T T T T T T T T T T T T T T T T T T T T T T T T T T T T T T T T T T T T T T T T T T T T T T T T T T T T T T T T T T T T T T T T T T T T T T T T T T T T T T T T T T ",
"T T T T T T T T T T T T T T T T T T T T T T T T T T T T T T T T T T T T T T T T T T T T T T T T T T T T T T T T T T T T T T T T T T T T T T T T T T T T T T T T T T T T T T T T T T T T T T T T T T T T ",
"T T T T T T T T T T T T T T T U K K K K K K K K K K K K K K K K K K K K K K K K K K K K K K K K K K K K K K K K K K K K K K K K K K K K K K K K K K K K K K K J K K K K K K U T T T T T T T T T T T T T ",
"T T T T T T T T T T T T T P >     . . . . . . . . o . . . . + + o o + + o + o + + . + . + . . . + . . . . O O O . o o . o + + O + + + + o + + + X . . . . . . . . O O .       : I T T T T T T T T T T T ",
"T T T T T T T T T T T I , D Q f b b b k k k k v b x b b b b b b b b b b b b b b b b b b b b b b b b b b c b b b c b b b b b b b b b b b b b b b b b x k x k k k k k k x x d y ; J K Y T T T T T T T T T ",
"T T T T T T T T T T G   5 b V V b b b k k k k k k k k k k v b k z z k b b v b b k k v k x k b b b k x v k c x k c b b b l b z b z b b z b b z k k k k k k s k s k k k k k v b M b E S U T T T T T T T T ",
"T T T T T T T T T J   q V b N b b b b b l z k k k l k v v k k b z z l b v v k v v b b b x x x k k v k v v k b b b x v b b b v b z z b z l l k c k f d k k k k k k h k k c c b N b V W # I T T T T T T T ",
"T T T T T T T T U   1 b b b b b b k s p p y i p a i a s p p p p s s p p s s a s a s i p p s p s p p p p p p a s a s p p s s p s u s u u y i y p t t r t e t t t t i i s c N N N b B V R , T T T T T T T ",
"T T T T T T T T > @ k x b b N b q ; 5 e t w q q q q q q q q 9 q q q q q q q q q q q q q q r q q q q q q q q q q 9 q q w w q q w q q q q q 9 7 7 q 7 6 6 8 6 9 9 0 q 9 ; ; t b N V V b k A K T T T T T T ",
"T T T T T T T I   q k k v b k 5 h o.:.:.>.>.>.:.:.:.:.:.&.@.&.$.:.:.:.:.*.:.:.:.*.:.:.:.:.:.:.*.:.:.:.$.%.:.:.:.:.*.:.*.:.;.:.*.%.$.*.&.&.=.O.o.}  .` ( { ^ ^ } $.&.:.-...i 8 b b V b B -   T T T T T T ",
"T T T T T T T K   f k k l k 5 V *.@.^ ; * * * = = = = = = = & = = = = = * * = = = = = = = = = = = = = = = = = = = = = = = = = = = = * * * = = = = = = = = = = = = = h } :.:.g q V b b b p   T T T T T T ",
"T T T T T T T A % b k k k 9 r %...= = = = = = = = = = = = = = = = = = = = = = = = = = = = = = = = = = = = = = = = = = = = = = = = = = = = = = = = = = = = = = = = = = = = %.$.3 s b b k k   P T T T T T ",
"T T T T T T T   ; c k h k - C ( = = = = = = = = = = = = = = = = = = = = = = = = = = = = = = = = = = = = = = = = = = = = = = = = = = = = = = = = = = = = = = = = = = = = = V ,.p q b c c b O K T T T T T ",
"T T T T T T T   5 c k k s = ` C = = = = = = = = = = = = = = = = = = = = = = = = = = = = = = = = = = = = = = = = = = = = = = = = = = = = = = = = = = = = = = = = = = = = = = &.c 5 c k k k @ K T T T T T ",
"T T T T T T T   8 b c k p - / p = = = = = = = = = = = = = = = = = = = = = = = = = = = = = = = = = = = = = = = = = = = = = = = = = = = = = = = = = = = = = = = = = = = = = = #.C ; k c c b + K T T T T T ",
"T T T T T T T   0 b b k p - C = = = = = = = = = = = = = = = = = = = = = = = = = = = = = = = = = = = = = = = = = = = = = = = = = = = = = = = = = = = = = = = = = = = = = = = ] ! ; k k c b + J T T T T T ",
"T T T T T T T   q b b x s - V 2 = = = = = = = = = = = = = = = = = = = = = = = = = = = = = = = = = = = = = = = = = = = = = = = = = = = = = = = = = = = = = = = = = = = = = = M k - k c b b @ K T T T T T ",
"T T T T T T T   q b b b g - _ 0 = = = = = = = = = = = = = = = = = = = = = = = = = = = = = = = = = = = = = = = = = = = = = = = = = = = = = = = = = = = = = = = = = = = = = = C M ; k c b b @ K T T T T T ",
"T T T T T T T   q b b b h ; ( t = = = = = = = = = = = = = = = = = = = = = = = = = = = = = = = = = = = = = = = = = = = = = = = = = = = = = = = = = = = = = = = = = = = = = = ! f ; x c b b @ K T T T T T ",
"T T T T T T T   9 b b b k ; { V = = = = = = = = = = = = = = = = = = = = = = = = = = = = = = = = = = = = = = = = = = = = = = = = = = = = = = = = = = = = = = = = = = = = = = ' V ; k l b n $ K T T T T T ",
"T T T T T T T   q b b b k 3 } / = = = = = = = = = = = = = = = = = = = = = = = = = = = = = = = = = = = = = = = = = = = = = = = = = = = = = = = = = = = = = = = = = = = = = = ) V ; k b b V $ K T T T T T ",
"T T T T T T T   q b b b k 4 } / = = = = = = = = = = = = = = = = = = = = = = = = = = = = = = = = = = = = = = = = = = = = = = = = = = = = = = = = = = = = = = = = = = = = = = ) C 1 z b b M $ K T T T T T ",
"T T T T T T T   q b b b l 4 } ~ = = = = = = = = = = = = = = = = = = = = = = = = = = = = = = = = = = = = = = = = = = = = = = = = = = = = = & = = = = = = = = = = = = = = = = ' ! < b b b M $ K T T T T T ",
"T T T T T T T   9 b b n k 4 } / = = = = = = = = = = = = = = = = = = = = = = = = = = = = = = = = = = = = = = = = = = = = = = = = = = = = = = = = = = = = = = = = = = = = = = ( ] 1 b b b M $ K T T T T T ",
"T T T T T T T   q b b b k 4 } [ = = = = = = = = = = = = = = = = = = = = = = = = = = = = = = = = = = = = = = = = = = = = = = = = = = = = = = = = = = = = = = = = = = = = = * / ] 5 b b m V $ K T T T T T ",
"T T T T T T T   q b b b k 5 } / = = = = = = = = = = = = = = = = = = = = = = = = = = = = = = = = = = = = = = = = = = = = = = = = = = = = = = = = = = = = = = = = = = = = = = ^ ' 5 b b b V @ K T T T T T ",
"T T T T T T T   q b b b k 5 } / = = = = = = = = = = = = = = = = = = = = = = = = = = = = = = = = = = = = = = = = = = = = = = = = = = = = = = = = = = = = = = = = = = = = = = ( ' 4 m b b V @ K T T T T T ",
"T T T T T T T   q b z b j 5 } C = = = = = = = = = = = = = = = = = = = = = = = = = = = = = = = = = = = = = = = = = = = = = = = = = = = = = = = = = = = = = = = = = = = = = *  .' 5 b m b V @ K T T T T T ",
"T T T T T T T   q b b b k ; } / = = = = = = = = = = = = = = = = = = = = = = = = = = = = = = = = = = = = = = = = = = = = = = = = = = = = = = = = = = = = = = = = = = = = = * o.} 5 b b b V @ K T T T T T ",
"T T T T T T T   q b b b k 4 } ( = = = = = = = = = = = = = = = = = = = = = = = = = = = = = = = = = = = = = = = = = = = = = = = & = = = = = = = = = = = = = = = = = = = = = = ..} 5 N b b V @ K T T T T T ",
"T T T T T T T   q b b b k 5 } ^ = = = = = = = = = = = = = = = = = = = = = = = = = = = = = = = = = = = = = = = = = = = = = = = = = = = = = = = = = = = = = = = = = = = = = =  .[ 6 b b b V @ K T T T T T ",
"T T T T T T T   q b b v j 2 } { = = = = = = = = = = = = = = = = = = = = = = = = = = = = = = = = = = = = = = = = = = = = = = = = = = = = = = = = = = = = = = = = = = = = = = $.} 5 b V b N @ K T T T T T ",
"T T T T T T T   q b b b k 5 } { = = = = = = = = = = = = = = = = = = = = = = = = = = = = = = = = = = = = = = = = = = = = = = = = = = = = = = = = = = = = = = = = = = = = = = ..} 5 b b b V @ K T T T T T ",
"T T T T T T T   r b b b k ; } / = = = = = = = = = = = = = = = = = = = = = = = = = = = = = = = = = = = = = = = = = = = = = = = = = = = = = = = = = = = = = = = = = = = = = =  .[ 5 b b V V @ K T T T T T ",
"T T T T T T T   q m m b k ; } / = = = = = = = = = = = = = = = = = = = = = = = = = = = = = = = = = = = = = = = = = = = = = = = = = = = = = = = = = = = = = = = = = = = = = = ..[ 6 b b b n @ K T T T T T ",
"T T T T T T T   r b b b k ; } ^ = = = = = = = = = = = = = = = = = = = = = = = = = = = = = = = = = = = = = = = = = = = = = = = = = = = = = = = = = = = = = = = = = = = = = = ..[ 5 b b b b % K T T T T T ",
"T T T T T T T   q b b b k 2 } b = = = = = = = = = = = = = = = = = = = = = = = = = = = = = = = = = = = = = = = = = = = = = = = = = = = = = = = = = = = = = = = = = = = = = =  ._ 5 b b b V $ K T T T T T ",
"T T T T T T T   q b b b k ; } / = = = = = = = = = = = = = = = = = = = = = = = & = * * = = = = = = = = = = = = = = = = = = * * = = = = = = = = = = = = = = = = = = = = = = = | } 3 b N b V % K T T T T T ",
"T T T T T T T   q b b b h 3 } C = = = = = = = = = = = = = = = = = = = = = = t k V C k = = = = = t b C V t = = = = = z b k k b = = = = = = = = = = = = = = = = = = = = = = = @.} 8 b b N V @ K T T T T T ",
"T T T T T T T   q b b v k 5 } ~ = = = = = = = = = = = = = = = = = = = = = = k  .5.5.} b = = = = t 2.7.7.p * = = = * s 7.7.1.k = = = = = = = = = = = = = = = = = = = = = = = o.| 3 b b b V $ K T T T T T ",
"T T T T T T T   9 b b b s 5 ' ( = = = = = = = = = = = = = = = = = = = = = & & y 4.5.=.; = = = & v 7.7.7.} k = = = i ( 7.7.@.9 = = = = = = = = = = = = = = = = = = = = = = = X.} 3 b b N b % K T T T T T ",
"T T T T T T T   q b b v f 2 } ! = = = = = = = = = = = = = = = = = = = = = = = k <.5.3.c = = = k o.7.7.7.,.s = = = 5 &.7.7.V s = = = = = = = = = = = = = = = = = = = = = = = ..} 3 N N b V % K T T T T T ",
"T T T T T T T   q b b b f 2 } / = = = = = = = = = = = = = = = = = = = = = = = 9 +.7.7.n = = = s <.7.7.7.7.s = = = i 2.7.3.s = = = = = = = = = = = = = = = = = = = = = = = = ` } 3 b b b V @ K T T T T T ",
"T T T T T T T   q b b z f 1 } ) = = = = = = = = = = = = = = = = = = = = = = = y V 7.7.+.p = = s 7.7.o.7.7.( t = = p 7.7.*.- = = = = = = = = = = = = = = = = = = = = = = = = | ( 5 b b b N @ K T T T T T ",
"T T T T T T T   q b k b d 5 } ( = = = = = = = = = = = = = = = = = = = = = = = = s 3.7.,.p = i } 7.7.e 3.7.=.2 = k ( 7.6.` b = = = = = = = = = = = = = = = = = = = = = = = =  .` 3 b b b V @ K T T T T T ",
"T T T T T T T   q b b x s 5 } ( = = = = = = = = = = = = = = = = = = = = = = = = 5 &.7.6.a = 8 :.7.<.i &.7.4.h = 5 %.7.4.y * * & = = = = = = = = = = = = = = = = = = = = = =  .^ 5 b b b V $ K T T T T T ",
"T T T T T T T   q b b v k 5 } ^ = = = = = = = = = = = = = = = = = = = = = = = = k ) 7.7.^ x s 5.7.@.k ^ 7.7.V p k 1.7.,.i * = = = = = = = = = = = = = = = = = = = = = = = = | ^ 5 b b b n @ K T T T T T ",
"T T T T T T T   q b b b g 2 } / = = = = = = = = = = = = = = = = = = = = = = = = = t 6.6.$.k / 7.7.b & k 4.7.@.q s 5.6...a = = = = = = = = = = = = = = = = = = = = = = = = = [ ^ 5 b b b V @ K T T T T T ",
"T T T T T T T   9 b c b j 5 } ` = = = = = = = = = = = = = = = = = = = = = = = = = h <.7.<.3 &.7.2.b * 2 %.7.<.t } 5.6.k = = = = = = = = = = = = = = = = = = = = = = = = = = | ( 5 b b b V @ K T T T T T ",
"T T T T T T T   q b x b k 2 } / = = = = = = = = = = = = = = = = = = = = = = = = = q @.7.4.2 2.7.@.9 = t C 6.6.q =.5.2.l = = = = = = = = = = = = = = = = = = = = = = = = = = ..} 1 b b b V @ K T T T T T ",
"T T T T T T T   q z z b k 2 } ^ = = = = = = = = = = = = = = = = = = = = = = = = = p V 7.7.~ 6.6.V s = = s 3.6._ 2.6.#.6 = = = = = = = = = = = = = = = = = = = = = = = = = = o.} 1 b b n b @ K T T T T T ",
"T T T T T T T   q b b z g 2 } C = = = = = = = = = = = = = = = = = = = = = = = = = = k 4.7.5.7.2.s = = = ; &.6.3.6.6.^ i = = = = = = = = = = = = = = = = = = = = = = = = = = ..} 1 z b b n @ K T T T T T ",
"T T T T T T T   q b b b g 5 } C = = = = = = = = = = = = = = = = = = = = = = = = = = - :.7.7.7.%.; = = = c / 6.7.6.4.s = = = = = = = = = = = = = = = = = = = = = = = = = = = o.| 1 c b b V $ K T T T T T ",
"T T T T T T T   q b b b d ; } / = = = = = = = = = = = = = = = = = = = = = = = = = = c | 7.7.6.^ d = = = = i 4.5.7.-.5 = = = = = = = = = = = = = = = = = = = = = = = = = = = ..) 1 b b b V $ K T T T T T ",
"T T T T T T T   9 b z b k ; } ` = = = = = = = = = = = = = = = = = = = = = = = = = = = h 7.7.4.t & = = = = s -.6.5.) k = = = = = = = = = = = = = = = = = = = = = = = = = = =  ._ 5 v b b m $ K T T T T T ",
"T T T T T T T   q b b b g 2 } / = = = = = = = = = = = = = = = = = = = = = = = = = = = h [ | / 5 = = = = = 9 c | o.p = = = = = = = = = = = = = = = = = = = = = = = = = = = =  ._ 5 b b b M @ K T T T T T ",
"T T T T T T T   q b b b k 5 } ^ = = = = = = = = = = = = = = = = = = = = = = = = = = = = V b N = = = = = = = k k h t = = = = = = = = = = = = = = = = = = = = = = = = = = = =  .[ 5 b b b m @ K T T T T T ",
"T T T T T T T   q b b b g 2 } / = = = = = = = = = = = = = = = = = = = = = = = = = = = = = = = = = = = = = = = = = = = = = = = = = = = = = = = = = = = = = = = = = = = = = = o./ 1 b b b V @ K T T T T T ",
"T T T T T T T   q b b b k ; } V = = = = = = = = = = = = = = = = = = = = = = = = = = = = = = = = = = = = = = = = = = = = = = = = = = = = = = = = = = = = = = = = = = = = = =  .( 5 b b b b @ K T T T T T ",
"T T T T T T T   q b b c k 3 } _ = = = = = = = = = = = = = = = = = = = = = = = = = = = = = = = = = = = = = = = = = = = = = = = = = = = = = = = = = = = = = = = = = = = = = =  .[ 1 b b b V @ K T T T T T ",
"T T T T T T T   q b b b j 2 } ^ = = = = = = = = = = = = = = = = = = = = = = = = = = = = = = = = = = = = = = = = = = = = = = = = = = = = = = = = = = = = = = = = = = = = = = ` [ 5 b b b V @ K T T T T T ",
"T T T T T T T   q n b b k ; } ` = = = = = = = = = = = = = = = = = = = = = = = = = = = = = = = = = = = = = = = = = = = = = = = = = = = = = = = = = = = = = = = = = = = = = = } } 3 N b b M @ K T T T T T ",
"T T T T T T T   e b b b k ; } ^ = = = = = = = = = = = = = = = = = = = = = = = = = = = = = = = = = = = = = = = = = = = = = = = = = = = = = = = = = = = = = = = = = = = = = = } } 5 b b N n $ K T T T T T ",
"T T T T T T T   q b z b k ; { V = = = = = = = = = = = = = = = = = = = = = = = = = = = = = = = = = = = = = = = = = = = = = = = = = = = = = = = = = = = = = = = = = = = = = = X.[ 3 b b b V @ K T T T T T ",
"T T T T T T T   q b b z g ; } / = = = = = = = = = = = = = = = = = = = = = = = = = = = = = = = = = = = = = = = = = = = = = = = = = = = = = = = = = = = = = = = = = = = = = = } _ 5 b N b b @ K T T T T T ",
"T T T T T T T   q M b b g 2 } / = = = = = = = = = = = = = = = = = = = = = = = = = = = = = = = = = = = = = = = = = = = = = = = = = = = = = = = = = = = = = = = = = = = = = = ` | 5 b b b V @ K T T T T T ",
"T T T T T T T   q b b b g 2 [ / = = = = = = = = = = = = = = = = = = = = = = = = = = = = = = = = = = = = = = = = = = = = = = = = = = = = = = = = = = = = = = = = = = = = = =  .| 5 b b b n @ K T T T T T ",
"T T T T T T T   q b z b s < [ ^ = = = = = = = = = = = = = = = = = = = = = = = = = = = = = = = = = = = = = = = = = = = = = = = = = = = = = = = = = = = = = = = = = = = = = = / } 5 b b b V @ K T T T T T ",
"T T T T T T T   q b b b f ; [ 6 = = = = = = = = = = = = = = = = = = = = = = = = = = = = = = = = = = = = = = = = = = = = = = = = = = = = = = = = = = = = = = = = = = = = = =  .` 1 b b b V $ K T T T T T ",
"T T T T T T T   r b b b d ; } k = = = = = = = = = = = = = = = = = = = = = = = = = = = = = = = = = = = = = = = = = = = = = = = = = = = = = = = = = = = = = = = = = = = = = = | } 1 b b b V $ K T T T T T ",
"T T T T T T T   q b b c s ; } C = = = = = = = = = = = = = = = = = = = = = = = = = = = = = = = = = = = = = = = = = = = = = = = = = = = = = = = = = = = = = = = = = = = = = = ` ] 1 b b b V @ K T T T T T ",
"T T T T T T T   9 b x k s 3 } ^ = = = = = = = = = = = = = = = = = = = = = = = = = = = = = = = = = = = = = = = = = = = = = = = = = = = = = = = = = = = = = = = = = = = = = = _ ` < b b b V $ K T T T T T ",
"T T T T T T T   9 b x c s 2 } ` = = = = = = = = = = = = = = = = = = = = = = = = = = = = = = = = = = = = = = = = = = = = & = = = = = = = = = = = = = = = = = = = = = = = = = ' ! < z z b n $ K T T T T T ",
"T T T T T T T   q b c k s ; } N = = = = = = = = = = = = = = = = = = = = = = = = = = = = = = = = = = = = = = = = = = = = = = = = = = = = = = = = = = = = = = = = = = = = = = ` k 1 f z z V @ K T T T T T ",
"T T T T T T T   9 k l c s - [ _ = = = = = = = = = = = = = = = = = = = = = = = = = = = = = = = = = = = = = = = = = = = = = = = = = = = = = = = = = = = = = = = = = = = = = = ! b ; z z z n @ K T T T T T ",
"T T T T T T T   6 x k k s - } [ = = = = = = = = = = = = = = = = = = = = = = = = = = = = = = = = = = = = = = = = = = = = = = = = = = = = = = = = = = = = = = = = = = = = * = V t ; f f b b @ K T T T T T ",
"T T T T T T T   6 k x k k -  .} = = = = = = = = = = = = = = = = = = = = = = = = = = = = = = = = = = = = = = = = = = = = = = = = = = = = = = = = = = = = = = = = = = = = * * | 6 1 z z k b @ K T T T T T ",
"T T T T T T T   ; k x v k ; +.@.= = = = = = = = = = = = = = = = = = = = = = = = = = = = = = = = = = = = = = = = = = = = = = = = = = = = = = = = = = = = = = = = = = = = = = :.t 5 k z z b + K T T T T T ",
"T T T T T T T # = b k c b 9 C ,.x = = = = = = = = = = = = = = = = = = = = = = = = = = = = = = = = = = = = = = = = = = = = = = = = = = = = = = = = = = = = = = = = = = = * +.&.3 u z f k f . J T T T T T ",
"T T T T T T T H O b b b b k 5  .:./ = = = = = = = * = = = = = = = = = = = = = & = = = = & = = = = = = = = = = = = = * & = = = = = = & & = = = = = = = = = = = = = = = 7 @.:.n 6 z z z z u   K T T T T T ",
"T T T T T T T K   p b b B V p 5 ^ *.,.:.@.) V c k f e b h C +.} ..o.o.$.@.%.;.@.@.o.+.@.$.X.O.o.O.o.o...o.O.@.$.+.o.@.*.=.$.$.o.$.$.+.+.#.+.+.+.+.o. .+. .=.-.%.:.:.:.,.&.b 5 k z b k k 5   Y T T T T T ",
"T T T T T T T T   ; V b n b V k 8 q y ; - ; ; ; - - - - - - - - ; 2 - ; 2 - 2 - ; ; - 2 ; 2 - 2 2 2 2 ; ; ; ; ; ; ; ; ; ; ; ; ; ; ; ; ; - - 2 ; - - 2 2 - 2 2 - 3 3 ; t 9 q c b m b k c o , T T T T T T ",
"T T T T T T T T K   k V V b B b b p q 6 1 3 1 2 5 4 5 5 5 5 6 8 5 5 8 8 8 6 8 8 6 6 6 5 5 5 6 8 5 5 5 5 6 6 6 5 6 6 8 8 7 9 7 7 9 0 0 6 6 6 8 8 8 5 5 5 5 8 6 8 8 9 q t d b b n b b b 6   U T T T T T T ",
"T T T T T T T T T A @ b b B N b b b k k k k k k l l v k x b b b b b b b b b b b b b b b N b b b b b N b b b b z b b b b b b b b b b b b b b x b v v v b c c c c b b b n b b n b m V s   A T T T T T T T ",
"T T T T T T T T T T # @ k V b c v x k k k k d k k l v k v b c c b b b b b N b b c b c b c c b b c c c b l b b b v b b b b b b b b b b b b b k v k x k k k k c x k k c b b b b n V a   A T T T T T T T T ",
"T T T T T T T T T T U Z   6 k b z k k k k k c c x k c b b b b b b b b b b c b b b c b b b c b b z b b k b b b b b b b b b b b z b b b b b c b k c x k c k k k k k k c c c N V k L   A T T T T T T T T T ",
"T T T T T T T T T T T T J     % ; 9 9 9 q q 9 q r r r r e r t r t t r t r t r t t r r r q e t q q t r t t q t t e t e t t w t t e t r t e e r t r q q r q q q q q q 9 9 0 ; F > , I T T T T T T T T T T ",
"T T T T T T T T T T T T T T K Z                                                                                                                                           # K I T T T T T T T T T T T T ",
"T T T T T T T T T T T T T T T T T T T T T T T T T T T T T T T T T T T T T T T T T T T T T T T T T T T T T T T T T T T T T T T T T T T T T T T T T T T T T T T T T T T T T T T T T T T T T T T T T T T T ",
"T T T T T T T T T T T T T T T T T T T T T T T T T T T T T T T T T T T T T T T T T T T T T T T T T T T T T T T T T T T T T T T T T T T T T T T T T T T T T T T T T T T T T T T T T T T T T T T T T T T T ",
"T T T T T T T T T T T T T T T T T T T T T T T T T T T T T T T T T T T T T T T T T T T T T T T T T T T T T T T T T T T T T T T T T T T T T T T T T T T T T T T T T T T T T T T T T T T T T T T T T T T T ",
"T T T T T T T T T T T T T T T T T T T T T T T T T T T T T T T T T T T T T T T T T T T T T T T T T T T T T T T T T T T T T T T T T T T T T T T T T T T T T T T T T T T T T T T T T T T T T T T T T T T T ",
"T T T T T T T T T T T T T T T T T T T T T T T T T T T T T T T T T T T T T T T T T T T T T T T T T T T T T T T T T T T T T T T T T T T T T T T T T T T T T T T T T T T T T T T T T T T T T T T T T T T T ",
"T T T T T T T T T T T T T T T T T T T T T T T T T T T T T T T T T T T T T T T T T T T T T T T T T T T T T T T T T T T T T T T T T T T T T T T T T T T T T T T T T T T T T T T T T T T T T T T T T T T T "
};
