/* XPM */
static char *result[] = {
/* columns rows colors chars-per-pixel */
"143 100 122 2 ",
"   c #010101",
".  c #0B0B0C",
"X  c #131413",
"o  c gray11",
"O  c #032402",
"+  c #023402",
"@  c #212122",
"#  c #2E2E2E",
"$  c #2E302F",
"%  c #30302E",
"&  c #2D2E30",
"*  c #312F30",
"=  c #2F3130",
"-  c #303030",
";  c #383737",
":  c #393738",
">  c #3C3C3C",
",  c #403F3D",
"<  c #034002",
"1  c #034902",
"2  c #025102",
"3  c #025902",
"4  c #026402",
"5  c #037203",
"6  c #037C03",
"7  c #3F413F",
"8  c #41413F",
"9  c #3F3F41",
"0  c #3F4140",
"q  c #434343",
"w  c #484647",
"e  c #464847",
"r  c #494947",
"t  c #474749",
"y  c #4B4B4A",
"u  c #4E524C",
"i  c #51514F",
"p  c #514F50",
"a  c #4F5150",
"s  c #525352",
"d  c #575857",
"f  c #585856",
"g  c #575958",
"h  c #5C5C5C",
"j  c #605F5F",
"k  c #666665",
"l  c #686667",
"z  c #676967",
"x  c #696967",
"c  c #696768",
"v  c #6B6B6A",
"b  c #6F706E",
"n  c #70706D",
"m  c #6F6F72",
"M  c #6F7170",
"N  c #737373",
"B  c #7B7B7B",
"V  c #028502",
"C  c #028C02",
"Z  c #029502",
"A  c #029C02",
"S  c #02A302",
"D  c #02AA02",
"F  c #01B201",
"G  c #01BC01",
"H  c #29AB2A",
"J  c #3AA139",
"K  c #02C302",
"L  c #02CC01",
"P  c #01D501",
"I  c #01DB01",
"U  c #01E701",
"Y  c #01EB01",
"T  c #01F501",
"R  c #00FF00",
"E  c #548E52",
"W  c #5AA05A",
"Q  c #868686",
"!  c #888787",
"~  c #878887",
"^  c #878789",
"/  c #898788",
"(  c #878988",
")  c #8A8A89",
"_  c #8F918E",
"`  c #91918F",
"'  c #918F90",
"]  c #8F9190",
"[  c #919191",
"{  c #9C9C9B",
"}  c #A0A09E",
"|  c #A3A3A2",
" . c #AAAAAA",
".. c #B6B6B6",
"X. c #B8B6B7",
"o. c #B7B8B6",
"O. c #B8B9B7",
"+. c #B7B7B9",
"@. c #B9B7B8",
"#. c #B7B9B8",
"$. c #BABBBA",
"%. c #C3C3C3",
"&. c #CBCBCB",
"*. c #D0CECF",
"=. c #D0D0CE",
"-. c #D1D1D1",
";. c #DDDDDC",
":. c #E2E1DD",
">. c #E5E5E4",
",. c #E6E8E7",
"<. c #E9EAE7",
"1. c #EBEBEB",
"2. c #F0EEEF",
"3. c #F0F0EE",
"4. c #EFEFF1",
"5. c #F5F5F4",
"6. c #F8F6F7",
"7. c #F7F8F5",
"8. c #F9F9F7",
"9. c #F7F7F9",
"0. c #F9F7F8",
"q. c #FCFCFC",
/* pixels */
"R R R R R R R R R R R R R R R R R R R R R R R R R R R R R R R R R R R R R R R R R R R R R R R R R R R R R R R R R R R R R R R R R R R R R R R R R R R R R R R R R R R R R R R R R R R R R R R R R R R R R R R R R R R R R R R R R R R R R R R R R R R R R R R R R R R R R R R R R R R R R R R ",
"R R R R R R R R R R R R R R R R R R R R R R R R R R R R R R R R R R R R R R R R R R R R R R R R R R R R R R R R R R R R R R R R R R R R R R R R R R R R R R R R R R R R R R R R R R R R R R R R R R R R R R R R R R R R R R R R R R R R R R R R R R R R R R R R R R R R R R R R R R R R R R R ",
"R R R R R R R R R R R R R R R R R R R R R R R R R R R R R R R R R R R R R R R R R R R R R R R R R R R R R R R R R R R R R R R R R R R R R R R R R R R R R R R R R R R R R R R R R R R R R R R R R R R R R R R R R R R R R R R R R R R R R R R R R R R R R R R R R R R R R R R R R R R R R R R ",
"R R R R R R R R R R R R R R R R R R R R R R R R R R R R R R R R R R R R R R R R R R R R R R R R R R R R R R R R R R R R R R R R R R R R R R R R R R R R R R R R R R R R R R R R R R R R R R R R R R R R R R R R R R R R R R R R R R R R R R R R R R R R R R R R R R R R R R R R R R R R R R R ",
"R R R R R R R R R R R R R R R R K F 5                                                                                                                                                                                                                           O V F G R R R R R R R R R R R ",
"R R R R R R R R R R R R R T Z     X - > > q 9 q q 8 q q q q q q q 0 9 q 0 0 q 9 q q 0 q q q 0 0 q q 8 q q q q q q 0 q 0 q 0 q 0 q q q 8 q q q q 0 q 0 0 q 0 q 0 0 0 0 0 0 q q q q q q q q q q q q 0 0 0 q 0 q q q q q q q 0 q q q q q q q q q q q q q q q q q > > - o     A U R R R R R R R R ",
"R R R R R R R R R R R R P   . t k v v v v v v v v v v b v v v v v v v z v v v v v v v v v v M m v v b b v x v v v v v v v b v v v v v v v v v v v v v v v v v v v v v v b v v v m m v v v v v v v b v b v v v v v b v N v v v N v v v v v v M m v v m v N v v v m n n l p X   P R R R R R R R ",
"R R R R R R R R R R R K   - c m v v v v v v v v v v v v v z c v v z v v v v v v c v v v v v v v v v v v v v v x v v z v v z v v v v v v v v v v v v v v v c v v v v z v v v v v v v v v v m v m v v v v v v v v v v v v v v v v v v m v v v v v n v v v v v v v v n n n m m q   D R R R R R R ",
"R R R R R R R R R R I   > v v v v v n v b v v v v v v v v v v z z v v z z v v z x x v v v v v v b b v v v v v z v v v v v v z v x v x v v v v v v z v z v c z v v k v v k v v v v b v v v v v v v b v v v v v v v v v v b v v v n v n v m v v v v v v n v n v v n n v N N v m t   P R R R R R ",
"R R R R R R R R R T   # v v v v m v v v v v v v v v v v v v v v v v v v v v v v v v v v v v v v v v b v v v v v v v v v v v v v v v v v v v v v v v v v v v v v c v v v v v v v v v v v v v m v v v v v v v v v v v v v v v b v v v v v v v v v n v v n v v n m v b v v v v v M >   T R R R R ",
"R R R R R R R R R D   k c v v x v v k d y q t q q q q q q q q q q 8 q q q 0 q q q 0 q q q q q q q q q q q q q q q q q q q q q q q q q q q q q 9 q q q 0 q 0 q q q q q q q q q q q q q q q 8 q q q q q q q q q q q q q q q q q q q q q q q q q q q q q q q q w y f x b v v v v v v X S R R R R ",
"R R R R R R R R R   q v v v v v v f 9 y Q [ [ [ [ [ [ [ [ ] ` ' ] ] _ ] ' ' [ [ [ _ [ [ [ ] [ [ [ [ ` _ ' [ ] ` [ ` [ [ [ ` [ [ ` ` ' ` [ ) [ ] ] [ [ [ ' ] ' ' ] ] [ [ ) [ [ ] _ ` [ [ [ [ [ ] _ ] ] ] [ ] ] [ ` ` ` ` ` ` ` ` [ ' [ ` [ [ [ [ [ [ [ [ [ ` ' / h q s x v v v v m y   R R R R ",
"R R R R R R R R K   h v v v v v i > / $.$.$.$.$.$.@.#.@.#.@.#.@.@.@.#.@.#.@.#.O.#.o.@.$.@.o.@.@.O.@...@.#.@.@.O.@.@.@.@.@.@.$.#.o.@.#...+.+.#.@.#.@.#.@.#.@.#.+.o.@.@.$.#.@.#.@.@.@.o.@.@.#.@.+.#.+.#.@.#.@.#.@.O.@.@.@.O.@.@.#.@.@.@.@.@.#.@.#.+.@.#.@.$.@.$.%.%.` 7 y v v v v v c   G R R R ",
"R R R R R R R R G . v v v v v h > [ $.} d - - - = - - - * = - = - - = - - - - - - - - $ = * - - - = * = - = - - = = - - - = - - % - - - * = * = * = * = & - * = - - = - - - - - = - - - = * = * * = * = * = * = - - - - - = - - - - - - = * = * = = * = - - * % ! @.{ ; f v v v v n X F R R R ",
"R R R R R R R R A o v v v v v t v $.) - - - - - = - - - - - - - - - - - - - - - - - % - * = * = - - = * - - - - - - - - - - - - - - - - = * = * = * = * = * = * - - - - - - - - - - - - * = * = = * = * = * = * - - - - - - - - - - - - * = * = * = = * = * = * % v %.n q v v v v v # 6 R R R ",
"R R R R R R R R C # v v v v k > | @.- - - - - - - - - - - - - - - - - - - - - - - - - - = * = * - - * = - - - - - - - - - - - - - - - - * = * = * = * = * = * = - - - - - - = - - - - - = * = * * = * = * = * = - - - - - - - - - - - - = * = * = * * = * = * = % % |  .> k v v v v - 3 R R R ",
"R R R R R R R R S # v x v v h > ..) - - * = * = * = * = * = * = * = * = * = * = * = * = * = * = * = * = * = * = * = * = * = * = - - - - - - - - * = * = * = * = * = * = * = * = * = * = * = * = = * = * = * = * = * = * = * = * - - - - - - = - - - - - - - - - - - ) $.q h x x x v ; 4 R R R ",
"R R R R R R R R 6 # v x v v h > X.) - - = * = * = * = * = * = * = * = * = * = * = * = * = * = * = * = * = * = * = * = * = * = * - - - - - - - - = * = * = * = * = * = * = * = * = * = * = * = * * = * = * = * = * = * = * = * = - - - - - - - - - - - - - - - - - - ) $.q h x x z v - 1 R R R ",
"R R R R R R R R 5 # v v v v h > @.) - - * = - - * = * = * = * = * = * = * = * = * = * = * = * = * = * = * = * = * = * = * = * = - - - - - - - - * = * = * = * = * = * = * = * = * = * = * = * = = * = * = * = * = * = * = * = * - - - - - - - - - - - - - - - - - - ) $.r h x x z v ; + R R R ",
"R R R R R R R R V # v v v v h > @.) - - - - - - = * = * = * = * = * = * = * = * = * = * = * = * = * = * = * = * = * = * = * = * - - - - - - - - = * = * = * = * = * = * = * = * = * = * = * = * * = * = * = * = * = * = * = * = - - - - - - - - - - - - - - - - = = ) $.q h v x v z > 4 R R R ",
"R R R R R R R R C $ v v v v h 7 #.) - - - - - - * = * = * = * = * = * = * = * = * = * = * = * = * = * = * = * = * = * = * = * = * = * = - - - - * = * = * = * = * = * = * = * = * = * = * = * = = * = * = * = * = * = * = * = * - - - - - - - - = * = * - - - - - - ) $.q h v z x v >   R R R ",
"R R R R R R R R S - b v v v h q @.) - - - - - - = * = * = * = * = * = * = * = * = * = * = * = * = * = * = * = * = * = * = * = * = * = * - - - - = * = * = * = * = * = * = * = * = * = * = * = * * = * = * = * = * = * = * = * = - - - - - - - - * = * = - - - - - - ) $.q h v v x v : 3 R R R ",
"R R R R R R R R G - b v v v h 0 #.) = - - - - - * = * = * = * = * = * = * = * = * = * = * = * = * = * = * = * = * = * = * = * = * = * = - - - - * = * = * = * = * = * = * = * = * = * = * = * = = * = * = * = * = * = * = * = * - - - - - - - - = * = * - - - - - - ) $.w h z c x v : 1 R R R ",
"R R R R R R R R S - v v v v h 8 +.) - - - - - - = * = * = * = * = * = * = * = * = * = * = * = * = * = * = * = * = * = * = * = * = * - - - - - - = * = * = * = * = * = * = * = * = * = * = * = * * = * = * = * = * = * = * = * = - - - - - - - - * = * = - - - - - = ) $.t h v x z v : 3 R R R ",
"R R R R R R R R F * m v v v h , o.) * = * = * = * = * = * = * = * = * = * = * = * = * = * = * = * = * = * = * = - - - - - - * = * = * = * = * = * = * = * = * = * = * = * = * = * = * = * = * = = * = * = * = * = * = * = * = * = * = * = * = * = * = * = * = * - - ) $.q k v v v v ; + R R R ",
"R R R R R R R R F - v v v v h , #.) = * = * = * = * = * = * = * = * = * = * = * = * = * = * = * = * = * = * = * - - - - = - = * = * = * = * = * = * = * = * = * = * = * = * = * = * = * = * = * * = * = * = * = * = * = * = * = * = * = * = * = * = * = * = * = - - ( $.q h v v v v >   R R R ",
"R R R R R R R R D $ v v v v h 8 ..) * = * = * = * = * = * = * = * = * = * = * = * = * = * = * = * = * = * = * = - - - - * = * = * = * = * = * = * = * = * = * = * = * = * = * = * = * = * = * = = * = * = * = * = * = * = * = * = * = * = * = * = * = * = * = * - - ! %.r h v v v v > 3 R R R ",
"R R R R R R R R S * n v v v h > +.) = * = * = * = * = * = * = * = * = * = * = * = * = * = * = * = * = * = * = * - - - - = * = * = * = * = * = * = * = * = * = * = * = * = * = * = * = * = * = * * = * = * = * = * = * = * = * = * = * = * = * = * = * = * = * = % % ! $.t h v v v v >   R R R ",
"R R R R R R R R S & v v v v h , ..^ = = * = * = * = * = * = * = * = * = * = * = * = * = * = * = * = * = * = * = - - - - - - - - * = * = * = * = * = * = * = * = * = * = * = * = * = * = * = * = = * = * = * = * = * = * = * = * = * = * = * = * = * = * = * = * - - ) $.w h v v v v > 3 R R R ",
"R R R R R R R R S % n v v v h > ..( - & = * = * = * = * = * = * = * = * = * = * = * = * = * = * = * = * = * = * - - - - - - - - = * = * = * = * = * = * = * = * = * = * = * = * = * = * = * = * * = * = * = * = * = * = * = * = * = * = * = * = * = * = * = * = - - ! $.r h v v v v > 1 R R R ",
"R R R R R R R R C $ v v v v h 0 +.) - - * = * = * = * = * = * = * = * = * = * = * = * = * = * = * = * = * = * = - - - - - - - - * = * = * = * = * = * = * = * = * = * = * = * = * = * = * = * = = * = * = * = * = * = * = * = * = * = * = * = * = * = * = * = * - - ) $.q h v v x v >   R R R ",
"R R R R R R R R S - m v v v h 9 ..) - - = * = * = * = * = * = * = * = * = * = * = * = * = * = * = * = * = * = * - - - - - - - - = * = * = * = * = * = * = * = * = * = * = * = * = * = * = * = * * = * = * = * = * = * = * = * = * = * = * = * = * = * = * = * = - - ! $.t h v v v v >   R R R ",
"R R R R R R R R 6 & m v v v h > ..) % - - - - = - - - - * = * = * = * = * = * = * = * = * = * = - - - - - - - - - - - - - - - - * = * = * = * = - - - - - - - - - - - - - - - - - - - - - - - - = * = * = * = * = * = * = * = * = * = * = * = * = * = * = * = * - - / $.q h v v c v > 3 R R R ",
"R R R R R R R R S % v v v v h q ..) - - - - - - - - - - = * = * = * = * = * = * = * = * = * = * - - - - - - - - - - - - - - - - = * = * = * = * - - - - - - - - - - - - - - - - - - - - - - - - * = * = * = * = * = * = * = * = * = * = * = * = * = * = * = * = - - ! @.t h v v v v > O R R R ",
"R R R R R R R R Z % v v v v h 9 ..) - - - - - - - - - - - - - - * = * = * = * = * = * = * = * = - - - - - - - - - - - - - - - - * = * = * = * = - - - - - - - - - - - - - - - - - - - - - - - - = * = * = * = * = * = * = * = * = * = * = * = * = * = * = * = * - - ) $.t h v v v v > O R R R ",
"R R R R R R R R Z % v v v v h > ..) - - - - - - - - - - - - = - = * = * = * = * = * = * = * = * - - - - - - - - * - - - - - - - = * = * = * = * - - - - - - & * - - - - - - - - - - - - - - - - * = * = * = * = * = * = * = * = * = * = * = * = * = * = * = * = - - ^ %.r h v v v v >   R R R ",
"R R R R R R R R Z - v v v x h > ..) $ - - - - - - - - - - - - - * = * = * = * = * = * = * = * = - - - - - - - - = * = * = * % - * - - - - - - - - - - - - a N v j t - - - - * - - - - - - - - - = * = * = * = * = * = * = * = * = * = * = * = * = * = * = * = * - - ) $.q h v c v v > 3 R R R ",
"R R R R R R R R V - v v c v h , ..! % - - - - - - - - - - - - - = * = * = * = * = * = * = * = * - - - - - - - - * = * = * = % e h h s > - - - - - - - - * v q.7.%.& - - - - - - - - - - - - - - * = * = * = * = * = * = * = * = * = * = * = * = * = * = * = * = - - ) $.t h v v v v > 3 R R R ",
"R R R R R R R R 5 - v v v v h , ..! * - - - - - - - - - - - - - * = * = * = * = * = * = * = * = - - - - - - - - = * = * = * q N q.q.1.q - - - - - - - - - x 9.9.%.- - - - - d h h - - - - - - - = * = * = * = * = * = * = * = * = * = * = * = * = * = * = * = * - - ) $.w h v v v v > + R R R ",
"R R R R R R R R C - v v l v h 9 ..) - - - - - - - - - - - - - - = * = * = * = * = * = * = * = * - - - - - - - - * = * = * = ; %.q.q.q.[ q - - - - - - - - l q.9.&.- - - * q } | } y - - - - - - * = * = * = * = * = * = * = * = * = * = * = * = * = * = * = * = - - ) $.w h v z v v > + R R R ",
"R R R R R R R R 6 % m v k x h 9 ../ * - - - - - - - - - - - - - * = * = * = * = * = * = * = * = - - - - - - - - - - - - - - d q.q.q.q.-.y - - - * = * = * k 0.9.&.- * = * s 2.q.5.d & - - - - - = * = * = * = * = * = * = * = * = * = * = * = * = * = * = * = * - - ! $.t h v v v m > O R R R ",
"R R R R R R R R Z - v v v c h > X.) - - - - - - - - - - - - - - = * = * = * = * = * = * = * = * - - - - - - - - - - - - - y  .q.q.1.q.q.h - - - = * = * = c 9.0.&.- = * = d 3.q.1.h - - - - - - * = * = * = * = * = * = * = * = * = * = * = * = * = * = * = * = - - ) $.t h v v z v : O R R R ",
"R R R R R R R R Z # v v v v h q ..) - - - - - - - - - - - - - - * = * = * = * = * = * = * = * = - - - - - - - - - - - % - w ,.q.5.B q.q...q - - * = * = & k 7.9.&.- - & * d 5.q.1.h * % - - - - = * = * = * = * = * = * = * = * = * = * = * = * = * = * = * = * - - ( %.q h v v v v >   R R R ",
"R R R R R R R R Z - v v v v h > X.) - - - - - - - - - - - - - - = * = * = * = * = * = * = * = * - - - - - - - - - - - - - N q.q.%.r 4.q.>.y - - = * = * - k 0.q.&.; - Q ! ^ 7.q.5.! ) ! y - - - * = * = * = * = * = * = * = * = * = * = * = * = * = * = * = * = - - ! $.t h v v v v > O R R R ",
"R R R R R R R R V * v v k c h > ..) % - = * = * - - - * - - - - * = * = * = * = * = * = * = * = - - - - - - - - - - - - q $.q.q.B g $.q.q.B q & * = * = * k 6.9.&.; # ,.q.q.q.q.q.q.q.q.d - - - = * = * = * = * = * = * = * = * = * = * = * = * = * = * = * = * - - ) $.q h v v v v > 2 R R R ",
"R R R R R R R R Z & v v v v h > O.) - - * = * = = - * = - - - - = * = * = * = * = * = * = * = * - - - - - - - - - - - - s 5.q.1.t = v 0.9.%.: * = * = * - k 7.q.&.- # -.,.,.q.q.q.>.1.,.y - - - * = * = * = * = * = * = * = * = * = * = * = * = * = * = * = * = - - ~ $.t h z v v v > + R R R ",
"R R R R R R R R C % v v z v h 8 ..) = * = * = * = * = * - - - - * = * = * = * = * = * = * = * = - - - - - - - - - - - q ! q.q.@.y & q ;.q.5.t - * = * = - c 6.q.&.- - f > > 1.q.7.t * q w - - - = * = * = * = * = * = * = * = * = * = * = * = * = * = * = * = * - - ) $.t h z v v v : O R R R ",
"R R R R R R R R C # v v v v h 8 ..) * = * = * = * = * = - - - - = * = * = * = * = * = * = * = * - - - - - - - - - - - > -.q.q.k - - > } q.7.{ p = * = * = z q.q.&.- - & * d 1.q.7.d & - - - - - * = * = * = * = * = * = * = * = * = * = * = * = * = * = * = * = - - ! $.t h v v v v :   R R R ",
"R R R R R R R R A % v v v v h , @.) - - - - - - - - - - - - = - * = * = * = * = * = * = * = * = * = * = * = * = * * * d 9.q.>.q - - - d 7.0.-.q # # - - - c q.0.&.; $ - - d 1.q.7.g * * - - - - = * = * = * = * = * = * = * = * = * = * = * = * = * = * = * = * - - ! $.e h v v v v > O R R R ",
"R R R R R R R R V # v v v v h , @.) - - - - - - - - - - - - - - = * = * = * = * = * = * = * = * = * = * = * = * * * 9  .q.q. .q - - * - &.0.q.k ; - - - - k q.q.&.; - - * d <.q.7.g & * - - - - * = * = * = * = * = * = * = * = * = * = * = * = * = * = * = * = - - ! %.r h v v z v >   R R R ",
"R R R R R R R R V $ v v v v h > +.) - - - - - - - - - - - - - - * = * = * = * = * = * = * = * = * = * = * = * = * * q :.q.q.h & - - - q ^ 9.7...q - - - * k q.9.*.- - - * g 1.q.5.g - - - - - - = * = * = * = * = * = * = * = * = * = * = * = * = * = * = * = * - - ) $.e h v v x v :   R R R ",
"R R R R R R R R C # v v v v h > ..) - - - - - - - - - % - - - - = * = * = * = * = * = * = * = * = * = * = * = * * 9 v q.q.:.k v v c k k j 4.9.>.y - - - & k q.q.-.- - - = q 1.q.5.h - - - - - - * = * = * = * = * = * = * = * = * = * = * = * = * = * = * = * = = = ) $.r h v v v v > + R R R ",
"R R R R R R R R Z # v v v v j > @.) - - - - - - - - - - - = - - * = * = * = * = * = * = * = * = * = * = * = * = * 9 @.q.q.q.q.q.9.q.q.7.7.9.7.0.! q - - - k q.q.-.; & - - > 1.q.5.s - - - - - - = * = * = * = * = * = * = * = * = * = * = * = * = * = * = * = * - = ~ %.y h v v v v : 3 R R R ",
"R R R R R R R R A - n v v v j > @.) - - - - - - - - - - - - - - = * = * = * = * = * = * = * = * = * = * = * = * * y 1.0.q.8.q.q.7.q.6.q.6.0.q.q.&.; - - - k q.q.-.- - - - s ,.q.5.p - - - - - - * = * = * = * = * = * = * = * = * = * = * = * = * = * = * = * = - - ) $.r h x v v v > 3 R R R ",
"R R R R R R R R Z - v v v v h 8 O.) - - - - - - - - - - - - - - * = * = * = * = * = * = * = * = * = * = * = * = w / 0.0.&.h h h h h h h h h <.q.7.g - - - z q.q.-.- - - - d :.7.1.y - - - - - - = * = * = * = * = * = * = * = * = * = * = * = * = * = * = * = * - - ~ $.e h v x v M :   R R R ",
"R R R R R R R R Z - v v v x j > @.) - - - - - - - - - - - - - - = * = * = * = * = * = * = * = * = * = * = * = * w *.0.0.W q - - - - % - % t $.q.q. .q - - v q.q.-.- * * % s :.5.<.t - - - - - - * = * = * = * = * = * = * = * = * = * = * = * = * = * = * = * = - - ~ %.e h b v v v :   R R R ",
"R R R R R R R R Z # v v v v h 8 #.) - - - - - - - - - - - - - - * = * = * = * = * = * = * = * = * = * = - - - % s 7.q.,.t - - - - - - - - - v q.q.,.q & - k q.q.-.- - - - g ;.5.5.y q t y * = * = * = * = * = * = * = * = * = * = * = * = * = * = * = * = * = * - - ) $.t h v v v v :   R R R ",
"R R R R R R R R Z # v v v v h > o.) - - - - - - - - - - - - - - = * = * = * = * = * = * = * = * = * = * - - - t  .q.q...q - - - - % - - - - e >.q.q.B ; - k q.q.=.- - - - - &.7.7.%.v Q t = * = * = * = * = * = * = * = * = * = * = * = * = * = * = * = * = * = - - ! $.t j v v v v : + R R R ",
"R R R R R R R R D # N v v x h 7 $.) - - - - - - - - - - - - - - * = * = * = * = * = * = * = * = * = * = - - & > ;.q.q.k q - - - - - - - - - y ..q.q.%.> $ k q.q.-.; - - - q ! q.7.7.7.0.h - = * = * = * = * = * = * = * = * = * = * = * = * = * = * = * = * = * - - ) %.t h v v v v >   R R R ",
"R R R R R R R R Z $ m v v v h 7 @.) - - - - - - - - - - - - - - = * = * = * = * = * = * = * = * = * = * - - w h >.,.&.> - - - - - - - - - - # k 1.1.>.s - j 4.1.%.- - - - - q { <.q.0.7.d - * = * = * = * = * = * = * = * = * = * = * = * = * = * = * = * = * = - - ) $.y h v v v v >   R R R ",
"R R R R R R R R A $ v v v v h > @.) - - - - - - - - - - - - - - * = * = * = * = * = * = * = * = * = * = * = q > > e i > - - - - - - - - - - - > - ; - q - > - ; > > - - - - # q i d d p 0 * = * = * = * = * = * = * = * = * = * = * = * = * = * = * = * = * = * - - ) $.t h v v v v >   R R R ",
"R R R R R R R R Z $ v v v v j > $.) - - - - - - - - - - - - - - = * = * = * = * = * = * = * = * = * = * = * = * % $ - - - - - - - - - - - - - - - - - - - - - # - - - - - - - = $ - * * * = * = * = * = * = * = * = * = * = * = * = * = * = * = * = * = * = * = - - ^ $.y h v v v v > 1 R R R ",
"R R R R R R R R Z # v v v x h 7 #.) - - - - - - - - - - - - - - * = * = * = * = * = * = * = * = * = * = * = * = - - - - - - - - - - - - - - - - - - - - - - % - - - - - - - = * = * = * = * = * = * = * = * = * = * = * = * = * = * = * = * = * = * = * = * = * - - ) $.t h v v v v :   R R R ",
"R R R R R R R R S * m v v v h > @.) - - - - - - - - - - - - - - = * = * = * = * = * = * = * = * = * = * = * = * - - - - - - - - - - - - - - - - - - - - - - - - - - - - - - * = * = * = * = * = * = * = * = * = * = * = * = * = * = * = * = * = * = * = * = * = - = ) $.t h v z v v > O R R R ",
"R R R R R R R R A = v v v x h 8 X.) * = * = * = - - - - - - - - * = * = * = * = * = * = * = * = - - - - - - - - - - - - - - - - - - - - * = * = * = * = * = * = - - - - - - * = * = * = * = * = * = * = * = * = * = * = * = * = * = * = * = * = * = * = * = * = - - ) $.t h v v v v > 3 R R R ",
"R R R R R R R R Z = M v v v h > +.) = * = * = * - - - - - - - - = * = * = * = * = * = * = * = * - - - - - - - - - - - - - - - - - - - - = * = * = * = * = * = * - - - - - - = * = * = * = * = * = * = * = * = * = * = * = * = * = * = * = * = * = * = * = * = * - = ^ $.t h v v v m > + R R R ",
"R R R R R R R R Z = v v x v h , ..) * = * = * = - - - - - - - - * = * = * = * = * = * = * = * = - - - * - - - - - - - - - - - - - - - - * = * = * = * = * = * = - - - - - - - - * = * = * = * = * = * = * = * = * = * = * = * = * = * = * = * = * = * = * = * = - - ) $.t h v v v v > O R R R ",
"R R R R R R R R S # v z v x h , ..) = * = * = * - - - - - - - - = * = * = * = * = * = * = * = * - - - - - - - - - - - - - - - - - - - - = * = * = * = * = * = * - - - - - - - - = * = * = * = * = * = * = * = * = * = * = * = * = * = * = * = * = * = * = * = * - - ) $.q h v v v v >   R R R ",
"R R R R R R R R S = v v v l h 8 @.) - - * = * = - - - - - - - - * = * = * = * = * = * = * = * = - - - - - - - - - - - - - - - - - - - - - - * = * = * = * = * = - - - - - - - - * = * = * = * = * = * = * = * = * = * = * = * = * = * = * = * = * = * = * = * = - - / $.t h v v v v :   R R R ",
"R R R R R R R R Z = v v v x h > ..) - - = * = * - - - - - - = - = * = * = * = * = * = * = * = * - - - - - - - - - - - - - - - - - - - - - - - - = * = * = * = * - - - - - - - - = * = * = * = * = * = * = * = * = * = * = * = * = * = * = * = * = * = * = * = * - - ^ @.t h v v v m > 5 R R R ",
"R R R R R R R R Z = v v v x h 9 @.) - - * = * = - - - - - - - - * = * = * = * = * = * = * = * = - - - - - - - - - - - - - - - - = - - - - - - - * = * = * = * = - - - = - - - - * = * = * = * = * = * = * = * = * = * = * = * = * = * = * = * = * = * = * = * = - - / $.t h v v v v > 4 R R R ",
"R R R R R R R R Z $ v v l x h > @.) - - = * = - - - - - - - - - = * = * = * = * = * = * = * = * - - - - - - - - - - - - - - - - - - - - - - - - = * = * = * = * - - - - - - % - = * = * = * = * = * = * = * = * = * = * = * = * = * = * = * = * = * = * = * = * - & ^ @.q h c v v v 9 6 R R R ",
"R R R R R R R R Z - v x c x h > o.) - - - - - - - - - - - - - - * = * = * = * = * = * = * = * = - - % - - - - - - - - - - - - - * = * = * = * = * = * = * = * = - - - - - - - - - - - - - - - - * = * = * = * = * = * = * = * = * = * = * = * = * = * = * = * = % * ! #.q h v v v v 8   R R R ",
"R R R R R R R R C # v v z c h > O.) - - - - - - - - - - - - - - = * = * = * = * = * = * = * = * - - - - - - - - - - - - - - - - = * = * = * = * = * = * = * = * - - - - - - - - - - - - - - - - = * = * = * = * = * = * = * = * = * = * = * = * = * = * = * = * % % ! ..q h v v v N > 1 R R R ",
"R R R R R R R R 6 # v x z c h > O.) - - - - - - - - - - - - - - * = * = * = * = * = * = * = * = - - - - * = * = - - - - - - - - * = * = * = * = * = * = * = * = - - - - - - - - - - - - - - - - * = * = * = * = * = * = * = * = * = * = * = * = * = * = * = * = % % Q X.q h c v v N > + R R R ",
"R R R R R R R R C # v v c k h 9 O.) - - - - - - - - - - - - - - = * = * = * = * = * = * = * = * - - - - = * = * - - - - - - - - = * = * = * = * = * = * = * = * - - - - - - - - - - - - - - - - = * = * = * = * = * = * = * = * = * = * = * = * = * = * = * = * % # Q ..q h v v v N > 5 R R R ",
"R R R R R R R R C # k k l l h > $.) - - - - - - = - - - - - - - * = * = * = * = * = * = * = * = * = * = * = * = - - - - - - - - * = * = * = * = * = * = * = * = - - - - - - - - - - - - - - - - * = * = * = * = * = * = * = * = * = * = * = * = * = * = * = * = - - Q ..q d c v v b 9 6 R R R ",
"R R R R R R R R 6 # v k l k h q $.) - - - - - - - - - - - - - - = * = * = * = * = * = * = * = * = * = * = * = * - - - - - - - - = * = * = * = * = * = * = * = * - - = - - - - - - - - - - - - - = * = * = * = * = * = * = * = * = * = * = * = * = * = * = * = * - & Q ..> d c z v m 9 V R R R ",
"R R R R R R R R 5 # v k c l h q $.' - - - - - - - - - - - - - - * = * = * = * = * = * = * = * = * = * = * = * = - - - - - - - - * = * = * = * = * = * = * = * = - - - - - - - - - - - - - - - - * = * = * = * = * = * = * = * = * = * = * = * = * = * = * = * = % * Q X.q d c z v v > V R R R ",
"R R R R R R R R A # v x l v h q $.) - - - - - - - - - - - - - - = * = * = * = * = * = * = * = * = * = * = * = * - - - - - - - - = * = * = * = * = * = * = * = * - - - - - - - - - - - - - - - - = * = * = * = * = * = * = * = * = * = * = * = * = * = * = * = * % % Q X.9 s c c v v > 4 R R R ",
"R R R R R R R R S # v x v c h , $.' - - - - - - - - - - - - - - * = * = = * = * = * = * = * = * - - - - - - - - - - - - - - - - * = * = * = * = - - - - - - - - - - - - - - - - - - - - - - - - - - - - - - - - - - - - - - - - * = * = - - - - - - - - - - - - - - ! ..7 d x k v v : < R R R ",
"R R R R R R R R Z # v z v v h > @.[ - - - - - - - - - - - - - - = * = * * = * = * = * = * = * = - - - - - - - - - - - - - - - - = * = * = * = * - - - - - - - - - - - - - - - - - - - - - - - - - - - - - - - % - - - - - - - - = * = * - - - - - - = - - - - - - - ) ..> g k l k v : O R R R ",
"R R R R R R R R D # v x v v k > | $.* = - - - = - - - - - - - - * = * = = * - - = * = * = * = * - - - - - - - - - - - - - - - - * = * = * = * = - - - - - - - - - - - - - - - - - - - - - - - - - - - - - - - - - - - - - = - - * = * = - - - - - - - - - - - - * - .. .> h c k k v ;   R R R ",
"R R R R R R R R G @ v v v x v t v $.{ * - - - - - - - - - - - - = * = * - - - % * = * = * = * = - - - - - - - - - - - - - - - - = * = * = * = * - - - - - - - - - - - - - - - - - - - - - - - - - - - - - - - - - - - - - - - - = * = * - - - - - - - - - - - - - [ %.N q k c k k v #   R R R ",
"R R R R R R R R G X N v x x v j > ) $.} j $ - - - - - - - - - - * = - - - - ; % % $ - % = - - - % - - - - - - * - - - - - - - - - - - - * - - - - - - - - - - - * * * * - - - - - - - - - - % $ - - - - - - - ; - - - - & - - - * = = - - - = - - - - - - - - y } %.{ 9 h x l k k k o 6 R R R ",
"R R R R R R R R P O k v v v x x u > ! ..$.%.$.$.$.@.@.$.$.$.$.@.@.@.$.$.$.$.$.$.$.%.$.$.@.$.$.$.$.$.$.$.$.$.$.$.%.$.$.$.%.$.$.$.$.$.$.@.@.$.$.$.$.$.@.$.$.$.$.@.$.$.$.$.$.$.$.$.$.$.$.$.$.$.$.$.$.$.$.$.$.$.$.$.$.$.$.$.$.#.$.@.$.@.#.#.@.$.$.#.$.$.$.$.$.$.%.%.%.[ q s v v x c k h   G R R R ",
"R R R R R R R R R   y n x v x x x s > y B ! ) ) ) ) ) ) ( ) ~ ! ) ) ( ) ) ^ ^ ! ) ! ! ! ) ) ) ) ) ) ) ) ) ) ) ) ) ! ! ) ) ) ) ) ) ) ) ) ) ) ) ) ) / ^ ^ ) ) ^ ( ) ) ) ) ) ) ) ) ) ~ ) ( ) ) ) ) ) ) ) ) ) ) ) ) ( ) ) ~ ^ ^ Q ! ~ Q ~ Q ( Q ! ( ) ) ) ) ) ' ) ! d 9 f v v v v c z q   P R R R ",
"R R R R R R R R R K F v v v x v x x k s r q q q q q q q q q q q q q q q t t q q q q q e q q q q q q q t q q q q q w q q q q q q q q q q q q q q q q q q q q q q q q q q q q q q q q q q e e q q e q r r e q q e q q q q q q q q q q 0 q q q 0 q q q e q r t a y s k v v v l c v k X 4 R R R R ",
"R R R R R R R R R R 3 J n c v v v v v v v v z v v v v v c c v v v v v v v v v v v v v v v x v v v v v v v v v v v v v v v v v v v v v v v v v v v c v v v v v v v v v v v v v v v v v v v v v v v v v v v b b v v v m v v v v v v z c z v c v v v v v v v v v m v v v v v x v v >   P R R R R ",
"R R R R R R R R R R P   y v l l v v v v v v k x k v z z z v v v v v v v v c v v v v v v v v x v v v v v v v v v v v v z v v v v v v v v v v v v c v v z c v z v c v c c v x x c v z v v v z v v v v v v v v v b v v v v v v v x v v v v v v v v v v v v z v v v v x v v v v n E   C R R R R R ",
"R R R R R R R R R R R C   > x v v v v v v v x x k x z v v v v v v v v c c v v v v v v x c v v k k v v v v v v v v M v v c v k v v v v v z v l v z v z v v c v v v v v v v v k v v v c v v x v v v v v v b v v v v v v c v v v v v c v c v z v v v v v z v v v x v v n v v v u 6 S R R R R R R ",
"R R R R R R R R R R R R C   @ f m M v v z x x k v c c v c v v v v c v z c v v v x v v x v x v v v v v x v v v l v v v v x v v v v v v v v c v k v v c v c v v v l l v c v v v v k v x x v z v v v v v v z v z v v z v v v c c v v v v c v v v v c c c c k v x k l v v n W H 5 I R R R R R R R ",
"R R R R R R R R R R R R R P 3   X ; q y y y y p a y s s s a p s s s s s s p s s s s s s i s s s s s s i i s s s s s s s s s p s s s s s s s s s s s s s p s s y i s y s s s s s i s s p i u s a i y s s s i s s p s s s s i s p s s p a s p y y s y p p y y y y r q ; X . G Y R R R R R R R R ",
"R R R R R R R R R R R R R R R L F O                                                                                                                                                                                                                                 2 F U R R R R R R R R R R ",
"R R R R R R R R R R R R R R R R R R R R R R R R R R R R R R R R R R R R R R R R R R R R R R R R R R R R R R R R R R R R R R R R R R R R R R R R R R R R R R R R R R R R R R R R R R R R R R R R R R R R R R R R R R R R R R R R R R R R R R R R R R R R R R R R R R R R R R R R R R R R R R R ",
"R R R R R R R R R R R R R R R R R R R R R R R R R R R R R R R R R R R R R R R R R R R R R R R R R R R R R R R R R R R R R R R R R R R R R R R R R R R R R R R R R R R R R R R R R R R R R R R R R R R R R R R R R R R R R R R R R R R R R R R R R R R R R R R R R R R R R R R R R R R R R R R ",
"R R R R R R R R R R R R R R R R R R R R R R R R R R R R R R R R R R R R R R R R R R R R R R R R R R R R R R R R R R R R R R R R R R R R R R R R R R R R R R R R R R R R R R R R R R R R R R R R R R R R R R R R R R R R R R R R R R R R R R R R R R R R R R R R R R R R R R R R R R R R R R R ",
"R R R R R R R R R R R R R R R R R R R R R R R R R R R R R R R R R R R R R R R R R R R R R R R R R R R R R R R R R R R R R R R R R R R R R R R R R R R R R R R R R R R R R R R R R R R R R R R R R R R R R R R R R R R R R R R R R R R R R R R R R R R R R R R R R R R R R R R R R R R R R R R ",
"R R R R R R R R R R R R R R R R R R R R R R R R R R R R R R R R R R R R R R R R R R R R R R R R R R R R R R R R R R R R R R R R R R R R R R R R R R R R R R R R R R R R R R R R R R R R R R R R R R R R R R R R R R R R R R R R R R R R R R R R R R R R R R R R R R R R R R R R R R R R R R R ",
"R R R R R R R R R R R R R R R R R R R R R R R R R R R R R R R R R R R R R R R R R R R R R R R R R R R R R R R R R R R R R R R R R R R R R R R R R R R R R R R R R R R R R R R R R R R R R R R R R R R R R R R R R R R R R R R R R R R R R R R R R R R R R R R R R R R R R R R R R R R R R R R "
};
