/* XPM */
static char *result[] = {
/* columns rows colors chars-per-pixel */
"143 100 120 2 ",
"   c #010101",
".  c #0B0B0C",
"X  c #10100F",
"o  c #131413",
"O  c gray11",
"+  c #032402",
"@  c #023402",
"#  c #212122",
"$  c #2E2E2E",
"%  c #2E302F",
"&  c #30302E",
"*  c #2D2E30",
"=  c #312F30",
"-  c #2F3130",
";  c #323232",
":  c #383737",
">  c #393738",
",  c #3C3C3C",
"<  c #403F3D",
"1  c #034002",
"2  c #034902",
"3  c #025102",
"4  c #025902",
"5  c #026402",
"6  c #037203",
"7  c #037C03",
"8  c #3F413E",
"9  c #41413F",
"0  c #3F3F41",
"q  c #3F4140",
"w  c #434343",
"e  c #484647",
"r  c #494947",
"t  c #474749",
"y  c #4B4B4A",
"u  c #4E524C",
"i  c #51514F",
"p  c #514F50",
"a  c #4F5150",
"s  c #525252",
"d  c #575857",
"f  c #585857",
"g  c #5C5C5C",
"h  c #605F5F",
"j  c #666665",
"k  c #686667",
"l  c #676967",
"z  c #696967",
"x  c #696768",
"c  c #6B6B6A",
"v  c #6F706E",
"b  c #70706D",
"n  c #6F6F72",
"m  c #6F7170",
"M  c #737373",
"N  c #7B7B7A",
"B  c #028502",
"V  c #028C02",
"C  c #029502",
"Z  c #029C02",
"A  c #02A302",
"S  c #02AA02",
"D  c #01B201",
"F  c #01BC01",
"G  c #29AB2A",
"H  c #3AA139",
"J  c #02C302",
"K  c #02CC01",
"L  c #01D501",
"P  c #01DB01",
"I  c #01E701",
"U  c #01EB01",
"Y  c #01F501",
"T  c #00FF00",
"R  c #548E52",
"E  c #5AA05A",
"W  c #858585",
"Q  c #888787",
"!  c #878887",
"~  c #898987",
"^  c #878789",
"/  c #898788",
"(  c #8A8A8A",
")  c #8F918E",
"_  c #91918F",
"`  c #918F90",
"'  c #8F9190",
"]  c #919191",
"[  c #9B9B9B",
"{  c #A4A4A4",
"}  c #AAAAAA",
"|  c #B7B7B7",
" . c #B8B6B7",
".. c #B7B8B6",
"X. c #B8B8B7",
"o. c #B7B7B8",
"O. c #B9B7B8",
"+. c #B7B9B8",
"@. c #BABABA",
"#. c #C3C3C3",
"$. c #CBCBCB",
"%. c #D0CECF",
"&. c #D1D1D1",
"*. c #DDDDDC",
"=. c #E2E1DD",
"-. c #E5E5E4",
";. c #E6E8E7",
":. c #E9EAE7",
">. c #EBEBEB",
",. c #F0EEEF",
"<. c #F0F0EE",
"1. c #EFEFF1",
"2. c #F5F5F4",
"3. c #F8F6F7",
"4. c #F7F8F5",
"5. c #F9F9F7",
"6. c #F7F7F9",
"7. c #F9F7F8",
"8. c #F7F9F8",
"9. c #FCFCFC",
/* pixels */
"T T T T T T T T T T T T T T T T T T T T T T T T T T T T T T T T T T T T T T T T T T T T T T T T T T T T T T T T T T T T T T T T T T T T T T T T T T T T T T T T T T T T T T T T T T T T T T T T T T T T T T T T T T T T T T T T T T T T T T T T T T T T T T T T T T T T T T T T T T T T T T T ",
"T T T T T T T T T T T T T T T T T T T T T T T T T T T T T T T T T T T T T T T T T T T T T T T T T T T T T T T T T T T T T T T T T T T T T T T T T T T T T T T T T T T T T T T T T T T T T T T T T T T T T T T T T T T T T T T T T T T T T T T T T T T T T T T T T T T T T T T T T T T T T T T ",
"T T T T T T T T T T T T T T T T T T T T T T T T T T T T T T T T T T T T T T T T T T T T T T T T T T T T T T T T T T T T T T T T T T T T T T T T T T T T T T T T T T T T T T T T T T T T T T T T T T T T T T T T T T T T T T T T T T T T T T T T T T T T T T T T T T T T T T T T T T T T T T T ",
"T T T T T T T T T T T T T T T T T T T T T T T T T T T T T T T T T T T T T T T T T T T T T T T T T T T T T T T T T T T T T T T T T T T T T T T T T T T T T T T T T T T T T T T T T T T T T T T T T T T T T T T T T T T T T T T T T T T T T T T T T T T T T T T T T T T T T T T T T T T T T T T ",
"T T T T T T T T T T T T T T T J S 6                                                                                                                                                                                                                           + B D F T T T T T T T T T T T T ",
"T T T T T T T T T T T T Y C     o % , w , w , w w w w w w w w w q q q q q q w q w w q 0 q w q w w 8 w 8 w w 9 w w 8 w q w w w 9 w w w w w w w w q w q w w q w q q q q q w w w w w w w w w w q w q w q q w w q w w w w w w w w w w w w w w w w w w w w w w w 0 0 ; O     Z I T T T T T T T T T ",
"T T T T T T T T T T T L   . t j v c c c c c c c v c c c c c c c c c c c c c c c n c c n c m n c v v c v x c c c c c c c c c c x c c c c c c c c c c l c c c c c c c c c c c c n n c n c n c n c v c c c c n c c c c c c c c m c c c n c n v c c c v v c c c c c v n k s o   L T T T T T T T T ",
"T T T T T T T T T T J   ; k v c c c c c c c c c c c c c l k c x k c c x c c c c k c c c c c c c c c v c c c x c c c l c c c c c c c c c c k c c c c c c c c x c c c c c c c c c c c c c c c c c v c c c c c c c v c c n c c c c c c c c c c c c c c c c v c c n c v v M c w   S T T T T T T T ",
"T T T T T T T T T P   8 c c c c c c b c l c c c c c c c c c l c c l c k l c l c x c c c n c c c c v z v c c c c c c c c c c c x c c x c c l c c l c k c l c c k k c l k c l c c c c c c c c n c c c z c c c c c c c c c c c c c b c c v c n c c c b c v c c v b c v b M c c t   L T T T T T T ",
"T T T T T T T T Y   $ c c c c c c n c c c c n c c c c c c c x c c c c c c c c c c c c c c c c c c c c c c c c c c c c c c c c c c c c c c c c c c c c c c c c c c c c c c c c c v c c c c c c c c c z v c c c c c c c c c c n c c c v c c c c c c c c c c v b n v v c c v c M ,   Y T T T T T ",
"T T T T T T T T S   j l c c x x b c d t w w t q w w w w w w 9 9 w q w w w w w w w q w w w w w w w w w w w w w w w w w w w w w w w w w w w w w 0 w w q w w w q w w w w w w w w w w w w w w w w w q w w w w w w w w w w w w w w w w w w w w w w w w e w e w w y f z b c x c c c c X A T T T T T ",
"T T T T T T T T   q c c c x c x d w y W ] ] ] ] ] ] ] ] ' ] _ ] ' ' ' ' ' ] ` ] ) ] ] ] ' ' ' ' ] ' ' ) ] ] ( ] _ ] ] ] _ ] ` ` _ ) ] ] ] ( ' ' ] ] ] ' ' ` ' ' ` ] ' ' ' ` ' ' ] ] ] ' ] ' ' ' ' ] ' ] ] ' ' ' _ ] _ _ _ _ ] ' ` ` ] ] ] ] ] ' ] ] ` ] ] ` Q g w s z x c c c M y   T T T T T ",
"T T T T T T T J   g c c c c l s , ( @.@.@.@.+.+.@.+.+.+.@.+.o.@. . . . .O.O.O.o...@...@... . .+.@... .+.+. ...+.O.@.o.o.o.@.o.o.X. . . .o. . .+.+.+. . . . . .+. . .+.+.+.+. . ...@...o. . . . .@.+.+.+. .+. .+.@.X. . .+. ...+.o.o.@.O.....+. . . .O.O.@.@.#.#._ < r x c c c n k   J T T T T ",
"T T T T T T T F . c c c c c g , ` @...| .... . . .....o.........| |  . ...| ..| ........| |  . .....o. .+. .........| | ..O.| | .... . . . .o.o. .o. ... . .o. .....+. . . . . .....O...| | o.o. ... . .+. . ....... . .+. .o.o.o.o.O.O...o..... .| ..| o.O.o.}  .[ , f c c c c c o D T T T T ",
"T T T T T T T Z # c c c c c t c @.} ..| o.o...o. .+.o.o. . .....| | | | ..| | | | | ..| | | | | .. . . . ... .o...| | | ....| | o.o. . .....o.o.+. .o.....o.o. .o.o.o.o.+. . . .| | ....| | | |  . . ... .o........... . . .o...|  .....o.o.o.o. . .| | ..O.o.O...#.M 9 c c c c c $ 7 T T T T ",
"T T T T T T T V $ c x c c k , { o.| | |  .....o. . . . . . . . .| | | | | | | | | ..| | | | | | ..|  . .o.o.o.o...| | | .. .| | o.o. .+.........o. .o. ...o.o.o. .....o.o. . . .| | ....| ..o.| +... .+. .o.o...O..... . .+. .o.........o. ... . . .........O.O.X.X.} , j x c c c ; 4 T T T T ",
"T T T T T T T A $ c l c c g : | @.O.O.O... . .o.....| | | | | | | | | | | | | | | | ..| | | | | | | | |  . .| | ..| | |  .| | | ....|  .o.| | | | | | | | | | | | | | | | | | | | | | | | ..| | | | | |  . .| | | | | | | | | | | | | | | | | | | |  . .o.o.o.o...O.@.w g x z l c ; 6 T T T T ",
"T T T T T T T 7 $ c x c c g , O.o.o.........o.o.| ..| | | | | | | | | | | | | | | | | | | | | | | | | |  .| ..| | | | |  .| | | ....| | o...| | | | | |  ...| ..| | | | ..| | | | | | |  .| | | | | | | o.| | | | | | | | | | | | | | | | | | | | |  ..... .| ..O...@.w g x z z z : 2 T T T T ",
"T T T T T T T 6 $ z x c c g , +.o.| ....o... . .| | | | | | | | | | | | | | | | | | | | | | ..o.| | ..| o.o.| | | | | | o.o.| | .. . .| | | | | | | | |  ... .o.| | | | | | | | | | | o.o.| | | | | | | o...| | | | | | | ..| | | | | | | | | | | | | | | | | | o.o.@.w g z z x l : @ T T T T ",
"T T T T T T T B % c x c c g , ..o.| | | o.o. . .| | | | | | | | | | | | | | | | | | | | | | ..o.| | | | ..o.| | | | | | ..o.| | ....o...| | | | | | | |  .o.o.o.| | | | | | | | | | |  .| | | | | | | | | ..| | | | | | o. .| | | | | | | | | | | | | | | | | | o.@.@.w g c x z c , 5 T T T T ",
"T T T T T T T V - v c x c g 9 ..o.O.| | | |  . .| | | ..| | | | | | | | ..| | | | | | | | |  .o.| | | | | | | | | | | | | | | | | | | | | | | | | | | | | | ..| | | | | | | | | | | | | | | | | | | | | | | | | o.| | | .. .o.| | |  .o.o.o.| | | | | | | | | |  ...@.t g c c l c ,   T T T T ",
"T T T T T T T A ; c c c c g w ..O.O.| | | |  . .| | | | | | | | | | | |  .| | | | | | | | | ..o.| | | | | | | | | | | | | | | |  .| | | | | | | | | | | | | | | | | | | | | | | | | | ....| | | | | | | | | | | ..| | | | | | | | | o. ...o.| | | | | | | | | | ....@.w g c l k l : 4 T T T T ",
"T T T T T T T F ; v c c c g w ......| | | | | | | | | | o.o... .o... .|  .o.| | | | | | | | |  .| | | | | | | | | | | | | | ..o. .o.| | | | | | | | | | | | | | | ..| | | | | | | | | | | | | |  . .| | | | | | | | | | | | | |  . . . .....| | | | | | | | | | +...@.t g x k l c , 2 T T T T ",
"T T T T T T T A % c c c c g 8 ......| | | | | | | | | ..o.o. . .o.| o.| | ..| | | | | | | |  . .| | | | | | | | | | | | | ..| o...o.| | ..| | | | | | | | | | |  . .| | | | | | | | | | o. .| | o.| | | | | | | | | | | | | | | .. . . .....| | | | | | | | ..| +.+.@.w g c c k c > 4 T T T T ",
"T T T T T T T D * v c c c g , ....| | | | | | | | | | | | | | |  . . .o.....| | | | | | | | | | | | | .. .o.o.o.| | | | | |  . .| | | | ..| | | | | |  .| | | |  ...| | | | | | ..| |  .| |  .| o.o.| | | | | | | | | | | | | | | | | | ..| | | | | | | | | | | | | o.w g c c x c : @ T T T T ",
"T T T T T T T S - M c c c g , O...| | | | | | | | | | | | | | |  .| o.o.| ..| | | | | | | | | ..| | | |  . .| ..| | | | | |  .| | | | | | | | | | | o. .| | | | o.o.| | | | | | | | | o.| ..o.| ....| | | | | | | | | | | | | | | | | | | | | | | | | | | | ..| | | @.e h c c c c 8   T T T T ",
"T T T T T T T S $ c c c c g < ..| | | | | | | | | | | | | | | | | | | | | | | | | | | | | | | | | | | | | | | | | | | | | | | | | | | | | | | | | | o...| | | |  .| ..| | | | | | | | | | | | | | | | | | | | |  .o.| | | | ..| | ..| |  .o.| | | | | | | .. . ...| #.r g c c c c , 4 T T T T ",
"T T T T T T T S = c c c c g , O.o.| | | | | | | | | | | | | | | | | | | | | | | | | | | | | | | | | | | | | ..| | | | | | | ..| | | | | | | | | | | | | | | | | o.| | | | o. .| | | | | | | | | | | | | | | | | ..| | | | |  .o.o. .| | | | | | | | | | | o.o. .....@.w g c c c c ,   T T T T ",
"T T T T T T T A - c c c k g , |  .....| | | | | | | | | | | | | | | | | | | | | | | | |  .o.o...| | | | | | | | ..| | |  . .| | | | | |  . .| | | | | | ..| ..| | | | | |  .| | | | | | | | | | | | | | | | | | | | | | | | | | | | | | o.| | | | | | | | | |  ...| X.e g c c c c , 4 T T T T ",
"T T T T T T T A ; c c c c g , | o.o.| | | | | | | | | | ..| | | | | | | | | | | | | | |  . .o.o.| | | | | | | | ....| |  .| | | | | | | o.o.| | | | | | | | o.o.| | | | | o...| ..| | | | | | | | | | | | | | | | | | | | | | | | | | |  .| | | | o. ...| ..| o.....@.e g c c x c , 2 T T T T ",
"T T T T T T T V $ c c c c g ,  ...| | | ....o.o.|  .| | | | | | | | | | | | | | | | | | | ..| | | | | | | | | | ....o. . . .| | ..| | | ..| | | | | | | | | | o.| | | ..| | | | |  .o.| | | | o. . .| | | | | ..| | ..| | | | | | | | | | ..| | | | | | | | | | O.O.@.t g c c c c ,   T T T T ",
"T T T T T T T A * n c c c h , | o.| | | ..o.o. . . .| | | | | | | | | | | | | ..| | | | | | | | | | | | | | | | o.o.o.o. . .| | | | | | | | | | | | | | | |  . .| | | | | | | | | | | | | ..|  .o. .| | | | | | | o. .| | | o. ...| | | | | | | | | | | | | | | X.O.@.w g c c c c ,   T T T T ",
"T T T T T T T 7 = c c c c g , ....| ..| | | | | | | | | | | | | | | ..| | | | | | |  . . .o. .o.| | | | | | | | | | | | | | | | | | | | o.o. . .....o.o.......O.| | | | o. .| | | | | | o.o. . .o...| | | | | | | | | | | | | | | ..| | | | | | | | ..| | | | | | | ..e g c c c c , 4 T T T T ",
"T T T T T T T A ; c c c c g 0 .. .| | | | | | | | | | | | | | | | | | | | | | | | |  . . . .o.o.| | | | | | | | | | ..| | | | ..| | | | ..o.o. .....o. .| ....O.| | | | .. . .| | | | | ..o.o...| ..| | | | | | | | | | | | | | | | | | | ..| | | | | | | | | |  . .o.w g x c c c , + T T T T ",
"T T T T T T T C & c c c x h , ..| | | | | | | | | | | | | | | | | | | | | | | | | | | ..| ..o...| | | | | | | | o.o. . .| | | ..| | | | | | | .. . . . .|  .o.o.| | | .. .o.| | | | | | ........| | | | o.o.|  ...| | | | | | | | | | | o.o.| | | | | | | .. . ... .@.e g c x c c , + T T T T ",
"T T T T T T T C & c c c c g , ..| | | | | | | | | | | | | | | | | | | | | | | ..| | |  .| ......| | | | | | | | ..o.o. .| | | ..| | | ..| | | | o.o. . . . .o.o.| | | ..o.o.| | | | | | | | ..o.| | | | ..o.o. .o.o. .| | | | |  .| | |  . .| | | | | | | o.o.o.O...#.t g c c c c >   T T T T ",
"T T T T T T T C ; c c c x g < | | | | | | | | | | | | | | | | | | | | | | | | | | | | | | | | | | ..| | | | | | | | | | | | ....|  . . .| | | | o...| | a M c g [  . . .| | | | | | | |  . . .o.| | | | ..| | | o...| | | | | |  .o.| | | | | | | | | ..| | | | ..| @.t g c l c v , 4 T T T T ",
"T T T T T T T B * c x x c g , | | | | | | | | | | | | | | | | | | | | | | | | | | | | | | | | | | | | | | | | | | | | | | | M j g p {  .| | | | ....| | c 9.6.#.^  .o. .| ..| | | | | |  . . .o.| | | | | | | |  . .| | ..| | | ..o.| | | | | | | | | | | | | | ....@.t g c c c c , 4 T T T T ",
"T T T T T T T 6 & c x c x g , ..| | | | | | | | | | ..| | | | | | | | | | | | | | ..| | | | | | ..|  . .| | | | ..| | | | { M 9.9.>.c +.| | | | | | | | x 6.6.#.^ .. .o. .[ { [ | ..| |  . .| | | | | | | | | | | | | | | | | | | | | | | | ..| | | | | | | | | o.O.@.t g c c c c , @ T T T T ",
"T T T T T T T V ; c c c c g , | | | | | | | | | | | | | | | | | | | | | | | | |  . .| | | | | | o.o.o. ...| | | | | | | | ^ #.9.9.9.' } | | | | | | | | x 2.9.#.( o.o.o.n { { [ N | | | | | | | | | | | | | | | | | | | | | | | | | | | | | | | | | | | | | | | o.o.@.t g c k c c , @ T T T T ",
"T T T T T T T 7 ; n c k l g 0 ..| | | | | | | | | | | | | | | .. .| | ..| o.| |  .o.|  .o.| | | | | | | | | | |  . . . ...d 5.9.9.9.&.W ....o.O.o...| | j 2.9.$.( ..| | s ,.9.2.g o.o.O.....| | | | | | o.o...| | | | | | | | | | | | | | | | | | | | | | | | |  .o.@.t g c c c c , + T T T T ",
"T T T T T T T C $ c k c c g , | | | | | | | | | | | | | | | | o.o.| | | |  .| | ..o.| | | | | | | | | | | | | |  . . ...{ | 9.9.>.9.5.d ....| .. . .| | k 6.6.$.( ......d >.9.,.f | o.O.| ..| | | | | |  . ...| | |  .| | | | | | | | | | | | | | | | | | | | |  . .@.t g c l c c , + T T T T ",
"T T T T T T T C $ c c x c g 0 ..| | | | | | | | | | | | | | o.o.| | | | | | | ..| | ..| | | | | | | ..| | | | |  .o.....n -.9.2.W 9.9.| ` | | | ..| ....j 2.6.$.( +.....d ,.9.2.g ..O.o.| ..| | | | ..|  . .| | | | o...| | | | .. .| | | | | | | | | | | | | | ....@.e g c c c c ,   T T T T ",
"T T T T T T T C ; c c c c g ,  .| | | | | | | | | | | | | |  . .| | | | | | | | | | | | | | ..| | | | | | | | | o. ...O.v 9.5.#.r >.9.-.h | | | ......o.k 6.5.$.( ( W W W 2.9.2.W ( Q v |  .| | | | | | ..| | | | | | | | | | |  . .| | | | | | | | | | | | | | X.@.@.t g l x c c , + T T T T ",
"T T T T T T T B $ c c l x g , o.| | | | | | | | | | | ..| | | ..| | | | | | | | | | | o.| | | | | | | | ..o.+. .o.....( @.9.9.N N @.9.9.N }  . .o.....o.j 6.9.$.( ( -.9.9.9.9.9.9.9.9.d | | | | | | | | | | | | | | | | | | o...o.| | | | | | | | | | | |  . .o.| | o.w g c l c c , 2 T T T T ",
"T T T T T T T C $ c c x c g , ..| | | | | | | | | | | | | | | | | | | | | | | | | | |  . .o.| | | ..| | .. ... .o.o. .j 2.9.>.j ( c 9.6.#.^  . .o. . .o.j 6.9.$.( ( &.;.:.9.9.9.-.;.;.y | | | | | | | | | | | | | | | ..| | o. .o.....| | | | | | | | | .. . ...| | @.e g c c c c , @ T T T T ",
"T T T T T T T V & c x c x g < O.....o. .| | | | | | | | | | | | o. ...|  .o.| | | | | | | ..| | o.o..... .o. .+.+.+.} W 9.9.@.N ( h *.6.2.t  . .+. . . .k 6.9.$.( { c W , :.9.5.t ( W ' | | | | | | | | | | | | | | | o.| | | | o. .| | | | | | | | | | | | o.o...| @.t d l c c c > + T T T T ",
"T T T T T T T V ; c c c x h , ....o.o. . .| | | | | | | | | | | | | | | | | | ..| | | | | | | | o. . .....o. .+. .@.( $.9.9.k ( ^ N { 9.6.[ [ o. . .+. .x 5.5.$.(  . . .g :.9.6.s |  .| | | | | | | | | | | | | | | |  .| | | | | | | | | | | ..| | | | | | ..o.....#.t g c c z c ,   T T T T ",
"T T T T T T T Z ; c c c x g , O.o.O. .o.o....... . .o.| | | | | | | |  .o.| | | | | | | | | | | | | | | | | | | +. .d 5.9.-.g ( ! ! d 2.7.&.M O.O...| | j 7.7.%.( o.O...f ;.9.3.g ............| | | | | | | | | o. .| | | | | | | | | | | | | | | | | | | | ..| | | @.r g c c c c , + T T T T ",
"T T T T T T T B & c c c c g , ..O...+. .o.........| o...| | | | | | | | | | | | | | | | | | | | | | | | | | | |  .{ } 9.9.} N ( W W j $.6.6.j O.| ..| | j 6.5.%.( o.O...c :.9.3.d ..| ..o.o.....| | | | | | | | o. . .| | | | | | | | | | | | | | ..| | | | | | | ..@.t g c c c c >   T T T T ",
"T T T T T T T B $ c x c c g 8 ..O. . . .o.o. . .| | | | | | | | | | | ....| | | | | o.o.| | | | | ..| |  . .| |  .M -.9.9.g ( ( / E N W 6.6. .` | | | | k 9.9.&.( o... .n >.9.6.f | | | o.o. . .| | | | | | | | ....| | | | | | | | | ..| | | | | o.| | | | |  .....@.r g c c c c ,   T T T T ",
"T T T T T T T V $ c c c c g , O..... . .o. ...o.| | | | | | | | | | | | | | | | ....o. .| | | | | | | |  .| | | ..c 9.9.*.k c c n k j j 1.2.-.h | | | | j 9.9.%.^  . ...W :.9.2.f | | |  .o. . .| | | | | | | | | | | | | | ..| | | | | o. .| | |  .| | | | | o.....#.t g c c c c , @ T T T T ",
"T T T T T T T C $ c c c c h , .. .| | | ..| | | | | | | | .. . .| | | | | | | | | | |  .| | | | o.o. .| o.....| ) @.9.9.9.9.9.9.3.3.7.3.7.3.3.W }  . . .k 9.9.&.( O.O...^ :.9.2.s o.....| |  . ...| | | ....| | | | | | | | | |  .o.| | | | | ....| | | | | | | | | @.y g c c c c , 4 T T T T ",
"T T T T T T T Z ; c c c c g , O. .| | | ..| | | | | | | | o.o...| | | o. .o.| | | | | | | | | | o. . .| o.o.| | y >.5.5.8.9.9.5.7.3.7.7.7.3.9.$.(  . . .k 9.9.&.^ ......M -.9.2.p o.....| |  ...| | | | o.o.| | | | | | | | | | | | | ..o. .| | | | | | | | ..| ....@.t g c k c c > 4 T T T T ",
"T T T T T T T C & c c c x h 0 O. . .| | | | | | | | | | | | | | | | |  .| | | | | | | | | | | | o...| | ..| | { ( 6.8.$.g g g g g g g f g >.9.6.d +.....c 9.9.&.( O.....d -.5.>.p O.O...| | |  .| | | | o.o.| | | | | | | | | | | | | | | | | | |  .| | | | | | ....#.t g l c c c >   T T T T ",
"T T T T T T T C & v c c c g , ..+. .| | | | | | | | | | | | | | | | | ..| | | | | | | | | | | | | ..| | | | | M $.8.8.N } ..| | O.O. .O.` @.9.9.} { +. .l 9.9.&.^ ..O...s =.4.:.t o.O...| | | | | | | |  . .| | | | | | | | | | | | | | | | | | | o.| | | o. .| ....@.t g c c c n >   T T T T ",
"T T T T T T T C * c c c c g < ..+. .o.o.| | | | | | | | | | | | | ..| | | | | | | | | |  . .o...| | | |  . .o.s 6.9.;.y ..| | |  . . . .@.c 9.9.-.M +. .l 9.9.&.( .. ...g *.4.2.t } } { ..o.| | | | | | | | | | o.o.o.| | | | | | | | | | | | | | | |  .o.| | | ..| @.t g c c c c >   T T T T ",
"T T T T T T T C = c c c c g , @... .....| | | | | | | | | | | | | | o. .| | | | | | | | | | o...| | | | +. .' } 9.9.+.( ..o.| |  ...+. .@.M -.9.9.N  .o.l 9.9.%.( .. .+.! $.4.4.$.c W t | o. .| | | | | | | | |  . .....| | | | | | | ..| | | | | | | ..| | | | ..o.@.t g c c c c , @ T T T T ",
"T T T T T T T S - c c c c g , O. ... .o.| | ..o.| | | | | | | | | | | | | | | | | | | | | | | | | | | | +. .m *.9.9.l o.o.o. . .o.o.+.....] ..9.9.#.'  .j 9.9.&.( ..o. .{ Q 3.5.<.4.6.g | | | | | | | |  . .| | | | | | | | | | | | o...| | | | | | | | | | | | ....#.t g c c c c ,   T T T T ",
"T T T T T T T C ; n c c c g < @. .....o.| | | | | | | | | | | | | | | | | | | | | | | | | | | | | | | |  .} d -.-.$.c o. ...o...o.o. . .+. .h ;.>.=.a  .g 1.>.#.^ o.o.....M [ >.5.4.2.s | | | | | | | |  ...| | | | | | | | | | | | o. . .| | | | | | | ..| | | ....@.t g c c c c ,   T T T T ",
"T T T T T T T Z % c c c c g , X.+. .........| | | | .. . .o.| | | | | | | | | | | | | | | | | | | | | | | { ^ ( W N {  . . .................{ ^ ( ( ( ..( ( ( ( { .. .o. . .( a f d p ` | |  .....| | |  .o.....| | | | | ..o. .| | | | | | | | | | | | | o.| | o.o.@.y g c l c c >   T T T T ",
"T T T T T T T C % v c c c g , ..+. .o.o.| ..| o.| | | | ..o.| | | | | | | | | | | | | | | | | | | | | |  . ...o..... . . . .........| ..o.o.o.o.+.+.+.o.@.@......... . .+.+.+.o.@.......| |  .o.| | | | o.o.| | | | | | | ..o. .| | | | | | | | | | | | |  .| |  .o.@.y g c c x c , 2 T T T T ",
"T T T T T T T C $ c c c c g 8 .. .o.+.o.|  . . .| | | | | | | | | |  .| | | o.| | o.o.| | | | | | | | |  .+. .o....... .o.o.o...o.o.|  .+. . ... .+.o.o. . . . .o.o.+.o. . ... . . ... .| | | | | | | | | | | | | | | | | | | | | | | | | | | | | | o...| | | |  . .@.t g c c c c ,   T T T T ",
"T T T T T T T A ; c c c x g , ..+. ... .| ..o...| | | | | | | | | ..o.| | | ..|  . .....| | | | | | | |  . . .o.........+. .o.o.o.o. . . . . .+. . . ...+.+. . .o. ... . .+.o.o. . . . .| | | | | | | | | | | | | | | | | | | | | | | | | | | | | | | | | | | |  .@.@.t g c c x c , + T T T T ",
"T T T T T T T Z % v l c x g , .. . .| | | | | | | | | | | | | | | | | | | | | | | | ..o.| | | | | | | | | | | | | | | | o.o.| | ..| | | | | | | | | .. . .o.o.o.| | | | | | | | | | | | | | | o.| | | | ..| | | | | | | | ..| | | | o...| | | | | | | | | | | | o.o.@.w h c c c n > 4 T T T T ",
"T T T T T T T C % v c c x g < O. ...| | | | | | | | | | | | | | | | | ..| | | | | | | o.| | | | | ..| | | | | | | | | | .. .| | ..| | | | | | | | | | |  . ...o.| | | | | | | | | | | | | | .. .| | | |  .o.| | | | | | o. .| | | | | | | | | | | | | | | | | |  .o.@.t g c c c c , @ T T T T ",
"T T T T T T T C $ c v l x g < .. . .| | | | | | | | | | | | | | | | | | | | | | | | o.o.| | | | | | | | | | ..| | | | | | | | | | | | | | | | | | | | | | | ..| | | | ..| | | | ..| | | | | | | | | | | | | | | | | | | | | | | | | | | | | | | | | | | | | ..|  . .@.t g c c c c , + T T T T ",
"T T T T T T T A - c z c z g , ..o. .| | | | | | | | | | | | | | | | | | | | | | | |  . .| | ..| | | | | | | o.o.| | | | | | | ..| | | | | | | | | | | | | | | | | | | | | | | | | | | | | | | | | | | | | | | | | | | o.| | | | | | | | | | | | | | | | | | | |  . .@.w g l c c n ,   T T T T ",
"T T T T T T T A - c c c z g 9 ..+. .o.o.| | | | .. .o.o.| | | | | | | | | | | | | | | | o.o...| | | | | | | |  ...| | | | | | o.| | | | | | | | | | | | | | | | | | | | | | | | | | |  . . .| | | |  ...| .. .o.| | |  .| | | | | | | |  . .| | | | | | | | | | | | O.t g c c c c ,   T T T T ",
"T T T T T T T C - c c c x g 8 ..+. .o. .| | | |  . ...o.| | | | | | | | | | | | | | | |  . .| | | | | | | | | | | | | | | |  . .| | | | | ..| | | | | | | | | | | | | | | | | | | | | | o. .| o.| | o.| | | | | | | | ....| | | | | | | o.o.| ..| | | | | | | | | | @.t g c c c c , 6 T T T T ",
"T T T T T T T C ; c c c x g , ......o.o.| | | | | | | | | | | | | | | | | | | | | | ..| .. .| | o.o.| | o...| | | | | | | | | | | | | | | | | | | | | | | ..| | | | | | | | | | | | | | o.| |  .| | | | | | | | | | | |  .o.| | | | | | o.| | | | | | | | | | | O.| @.t g c c c c , 5 T T T T ",
"T T T T T T T C $ c l k x g , X.......o.| | | | | ..| | | ..| | | | | | | | | | | | | | | | | | .. . .|  . .| | | | | | | | | | | | | | | | | | | | | | | | | | | | | | | | ..o.| | | | ....| ..| | | | | | | | | | | | | | | | | | | | o...| | | | | | | | | | o.O.@.w g c c c c 0 7 T T T T ",
"T T T T T T T C ; c k k l g ,  . . ......... . ....... .o.o.| | | | o.o... .o...| | | | | | | | | | ..| | | | | | | | | | | | |  ... . .| | | | | | | | | | | |  . .o...| | o.o.....o. .| | | | | | | | | | | | ..| | |  .o.| | .... . .| | | | | | o.....| | |  .} X.t g x c v v ,   T T T T ",
"T T T T T T T V $ c c k l g ,  .+. ...o.....o. .o.o... ...o.| | | |  . .....| | | | | | | | | | | | | | | | | | | | | | | | | | o.o. ...| | | | | | | | | | | |  .| o...| | o. .| o.o...| | | | | | | | | | | |  .o.| | ..| | |  .o.o. .| | | | | | o.o...| | |  . .X.w g c c c n , 2 T T T T ",
"T T T T T T T 7 $ c l l k g , O. . .+.o.| | o.o... . . .| | | | | | |  .| | | | | | | | | | | | | | | | | | | | | | ....| | ..| o.o.| | | | | | | | | | ..o.| ..| | | | | | |  .| |  .o.| | | | | | .. .| | | | | | | | | | | | o.o... .| | | | .. . .o.| | | | .. .X.w f c c c n , 1 T T T T ",
"T T T T T T T V $ c c k k g 0 o.+. . .o.| ....o...o.o. .| | | | | | |  .| | | | | | | | | | | | | | | | | | | | | | | o.| | | | | ..| | | | | | | | | |  . . . .| | | | | | | ..| |  . .| | | | | | | o.| | | o.| | | | | | | | | ..| | | | | |  . .o. .| | | | .. .X.w f c c c n , 6 T T T T ",
"T T T T T T T V $ x k k k g 0 o. .| | | | | | | |  . . .| | | | | ..| | | | | | ..| | | | ..o. .| | | |  .o...| .... .o.| | | ..| | | | | | | | | | | | o...| | | | | | | | | | | | | | | | | | | | | | | | .. .| | | | | | | | | | | | | | | | | | ..| | | | | O.|  ., d l c c b 0 7 T T T T ",
"T T T T T T T 7 $ l k k j g 0 @. .| | | | | | | | |  . .| | | | | | | o. .o...| | | | | | o.o. .| | | |  .o.| | .... .o.| | | | | | | | | | | | | ..| | o.o.| | | | | | | | | | | | | | | | | | | | o. .| | | | ..| | | | | | | | | | | | | | | | | | | | | | | O... ., d x x c v < B T T T T ",
"T T T T T T T 6 $ l k x k g q @.@. .| | | | | | | | | | | | | | | | |  .| | | | | | | | | | | | | | | ..| | | | o.o. . .|  .| | | | | | | | | | | | | | | | | | | | | | | | ..| | | | | | | | | | | | ..| | | |  .| | | |  .o.| | | | | | | | | | | | | | | | | ..} o.0 d x x c c 0 B T T T T ",
"T T T T T T T Z $ c c l x g w @.+. .| | | | | | | | | | | | | | | | | | | | | | | | | | | | | | | | | | | | | | o. . . . . .| | | | | | | | | | | | | | | | | | | | | | | | | | | | | | | | | | | | | | | | | | o.| | | | ..| | | | | | | | | | | | | | | | | | .. .O., d j x c c , 5 T T T T ",
"T T T T T T T A $ c k c c g 9 @.X...........| | | | | | | | | | | | |  .+. . .......| | | | | |  . . . .o.o.| | | | | | | | | | | | | | | | | | | | | | | |  .o.o...o...| | | | o. .o.o.....| |  .....o. . .......o.o. .o.o.o. .| | | | +. .o.o.....| | | | | |  .o. .8 d j j l c , @ T T T T ",
"T T T T T T T C $ c x c k g , O.O.O...O.| | | | | | | | | | | ..| | | o. . .o.o.o. .....| | | |  . . .o.o.o.| | | |  . .|  .| | ..| | | | | | | ....| | | |  . . ...o.o.| | ..|  . .o.o.....| |  ....... . ...O...o.o. .o. ... .| | | |  . .o.o.....| | | | | |  . .o.> d j k l c > + T T T T ",
"T T T T T T T D $ c c c k j , { @.O.....| | | | | | | | | | ....| ..| |  . .......o.o...| | | | .. .O.........| | .. .o.| | | | | | | | | | | | ....O.O.|  . . .o..... .| | | |  . .........| | o.o. .o. . .+...| | .. ....... .| | | |  . . .....| | |  .| | | @. .{ , h l k j c :   T T T T ",
"T T T T T T T F O c c c x c t c #.} ....| | | | ..| | | | | | O.| o.| |  . ...O. .o.....| | | | ................| ..o.o.| | ..| | | | | | | | | ....O.o.| |  . .o..... .| | | |  . .....| | | | o.o...o.o. .....| | ........+.+.| | | | ..+. .......| |  .| | | } #.M w j l j j c $   T T T T ",
"T T T T T T T F X v v z x z h , ) X.....X.@.X.X. .| O...........| | @. . .+.@.@.O.X...O.| .. . .X.X.O.X.O.@.@.@.| | @.o.o.o...|  .......|  . . .......o. .+. . . . . . .|  . . .+...+.@.+.+.+......... .+.....@.|  . . . . . .+.| | +.+. . ...+.o....... . .} +.#.[ 0 g l k k k k o 7 T T T T ",
"T T T T T T T L + l c c x z x i : W ..@.#.@.@.@.@.o.@.@.@.@.@.@. . .@.@.@.@.@.@.@.@.@.@.@.@.@.@.@.@.@.@.@.@.@.@.@.o.@.@.@.@.@.#.@.@.@.@.o.@.@.@.@.@.o.@.@.@.@.@.@.@.@.@.o.@.@.@.@.@.@.@.@.@.@.@.@.@.@.@.@.@.@.@.@. .@.+.@.@.+.@.@. .@.+.@.@.+.@.@.@.@.#.@.#.#.#.] w s c c l k x g   F T T T T ",
"T T T T T T T T   i v x c c z x s , y M ! ~ ( ~ ^ ^ ^ Q ^ Q Q ( ^ ^ ^ ( ( ^ ! ( ( ( ( ( ^ ( ( ^ ( ( ( ( ( ( ( ( ( ( ( ( ( ( ( ( ^ ^ ( ( ^ ^ ( ( ^ ( ^ ^ ^ ( ( ( ( ^ ( ( ^ ( ( ( ( ( ( ( ( ( ( ) ( ( ( ( ( ( ( ( ( ^ ^ ^ W ^ ^ W W W W ^ W ^ ^ ^ ( ( ( ( ' ( W s w d c c c l x x t   L T T T T ",
"T T T T T T T T J F c c x z c c z j s y w w w w e w w w w w w w w t w w t w w w w w w w w w w w e w w w w w w w w w w w w t w w w w w w w t w w w w w w w w w w w w w w w w w w w w w w w w w w t w t w t w w w w t w w w w w q w w q q w w w w w w t t t y y d j x c c c c x k o 5 T T T T T ",
"T T T T T T T T T 4 H c x x x c c c c c c c x x c c c c x c c c c c c c c c c c c z c c z c c c c c c c c c c c c c c c c c c c c c c c c c c c k c c c c c c x c c c c c c c c c c c c c c c c c c v c v c v v c c c c c c c x c x l c k c c x c c c c c c c c c c c c x c c 9   L T T T T T ",
"T T T T T T T T T L   y c k x c c c c c c c z x l l k k c c c c c c c c c c c l z c c c c z c c l c c x c c c c c c c c c x c c c c c c c c c x c l x c c x k c c c x c c x c c l c c c l c z c z c c c z c c c c c c c c c c c c c c c c c c c x c k c c c c c x x x c c c R   V T T T T T T ",
"T T T T T T T T T T V   , x c c c c c c l x l l c l l c c c c c c x c k c x c x c c l x c z x x c x c c c c c c c c c k c l c c c c c c l c k k c c c c x c x c c c c c c l x c c x x c c c c c c c c z c c c v c k x c c c c c k c k c c l c c c c x c c x c c x b v b b i B A T T T T T T T ",
"T T T T T T T T T T T B   # f b v c c c x l l x k c c c x c c c k c c x c c c c c c c x c c c c c c x c c c c c c c c c c c x c c c c c k c c c l l k c c c c c k x x c c x c c z l z x z c c c c c c v c l c c c c c c k c c x c c c c k c c x c x k c x l z x c c v E G 6 P T T T T T T T T ",
"T T T T T T T T T T T T L 5   X : t t y y y a p a s p s p s s s s s s s s s s s s s i s s s s s s s i i s s s s s s s s s s s s i s s s s s s s s s s s p s y s s y y s s s s i i s s i u s s p y s a s u s s s s s a s p s p s a s a p u p y s p p y p u t y y w > o   F U T T T T T T T T T ",
"T T T T T T T T T T T T T T K D +                                                                                                                                                                                                                                 3 D I T T T T T T T T T T T ",
"T T T T T T T T T T T T T T T T T T T T T T T T T T T T T T T T T T T T T T T T T T T T T T T T T T T T T T T T T T T T T T T T T T T T T T T T T T T T T T T T T T T T T T T T T T T T T T T T T T T T T T T T T T T T T T T T T T T T T T T T T T T T T T T T T T T T T T T T T T T T T T T ",
"T T T T T T T T T T T T T T T T T T T T T T T T T T T T T T T T T T T T T T T T T T T T T T T T T T T T T T T T T T T T T T T T T T T T T T T T T T T T T T T T T T T T T T T T T T T T T T T T T T T T T T T T T T T T T T T T T T T T T T T T T T T T T T T T T T T T T T T T T T T T T T T ",
"T T T T T T T T T T T T T T T T T T T T T T T T T T T T T T T T T T T T T T T T T T T T T T T T T T T T T T T T T T T T T T T T T T T T T T T T T T T T T T T T T T T T T T T T T T T T T T T T T T T T T T T T T T T T T T T T T T T T T T T T T T T T T T T T T T T T T T T T T T T T T T T ",
"T T T T T T T T T T T T T T T T T T T T T T T T T T T T T T T T T T T T T T T T T T T T T T T T T T T T T T T T T T T T T T T T T T T T T T T T T T T T T T T T T T T T T T T T T T T T T T T T T T T T T T T T T T T T T T T T T T T T T T T T T T T T T T T T T T T T T T T T T T T T T T T ",
"T T T T T T T T T T T T T T T T T T T T T T T T T T T T T T T T T T T T T T T T T T T T T T T T T T T T T T T T T T T T T T T T T T T T T T T T T T T T T T T T T T T T T T T T T T T T T T T T T T T T T T T T T T T T T T T T T T T T T T T T T T T T T T T T T T T T T T T T T T T T T T T ",
"T T T T T T T T T T T T T T T T T T T T T T T T T T T T T T T T T T T T T T T T T T T T T T T T T T T T T T T T T T T T T T T T T T T T T T T T T T T T T T T T T T T T T T T T T T T T T T T T T T T T T T T T T T T T T T T T T T T T T T T T T T T T T T T T T T T T T T T T T T T T T T T "
};
