/* XPM */
static char *result[] = {
/* columns rows colors chars-per-pixel */
"102 97 170 2 ",
"   c #0C0C0C",
".  c gray5",
"X  c #0E0E0E",
"o  c gray6",
"O  c #101010",
"+  c #111111",
"@  c gray7",
"#  c #131313",
"$  c gray8",
"%  c #151515",
"&  c #161616",
"*  c gray9",
"=  c #181818",
"-  c #191919",
";  c gray10",
":  c #1B1B1B",
">  c gray11",
",  c #1D1D1D",
"<  c #1E1E1E",
"1  c gray12",
"2  c #202020",
"3  c gray13",
"4  c #222222",
"5  c #232323",
"6  c gray14",
"7  c #252525",
"8  c gray15",
"9  c #272727",
"0  c #282828",
"q  c gray16",
"w  c #2A2A2A",
"e  c gray17",
"r  c #2C2C2C",
"t  c #2D2D2D",
"y  c gray18",
"u  c #2F2F2F",
"i  c gray19",
"p  c #313131",
"a  c #323232",
"s  c gray20",
"d  c #343434",
"f  c #353535",
"g  c gray21",
"h  c #373737",
"j  c gray22",
"k  c #393939",
"l  c #3A3A3A",
"z  c gray23",
"x  c #3C3C3C",
"c  c gray24",
"v  c #3E3E3E",
"b  c #3F3F3F",
"n  c gray25",
"m  c #414141",
"M  c gray26",
"N  c #434343",
"B  c #444444",
"V  c gray27",
"C  c #464646",
"Z  c gray28",
"A  c #484848",
"S  c #494949",
"D  c gray29",
"F  c #4B4B4B",
"G  c #4C4C4C",
"H  c gray30",
"J  c #4E4E4E",
"K  c gray31",
"L  c #505050",
"P  c #515151",
"I  c gray32",
"U  c #535353",
"Y  c gray33",
"T  c #555555",
"R  c #565656",
"E  c gray34",
"W  c #585858",
"Q  c gray35",
"!  c #5A5A5A",
"~  c #5B5B5B",
"^  c gray36",
"/  c #5D5D5D",
"(  c gray37",
")  c #5F5F5F",
"_  c #606060",
"`  c gray38",
"'  c #626262",
"]  c gray39",
"[  c #646464",
"{  c #656565",
"}  c gray40",
"|  c #676767",
" . c #686868",
".. c DimGray",
"X. c #6A6A6A",
"o. c gray42",
"O. c #6C6C6C",
"+. c #6D6D6D",
"@. c gray43",
"#. c #6F6F6F",
"$. c gray44",
"%. c #717171",
"&. c #727272",
"*. c gray45",
"=. c #747474",
"-. c gray46",
";. c #767676",
":. c gray47",
">. c #797979",
",. c #7B7B7B",
"<. c #7C7C7C",
"1. c #7E7E7E",
"2. c gray52",
"3. c #888888",
"4. c #8B8B8B",
"5. c #8E8E8E",
"6. c gray57",
"7. c gray59",
"8. c #989898",
"9. c gray60",
"0. c #9B9B9B",
"q. c #9D9D9D",
"w. c #9F9F9F",
"e. c gray63",
"r. c #A4A4A4",
"t. c #A5A5A5",
"y. c #A7A7A7",
"u. c #A9A9A9",
"i. c #ACACAC",
"p. c gray68",
"a. c #AEAEAE",
"s. c gray70",
"d. c gray71",
"f. c gray72",
"g. c gray73",
"h. c #BCBCBC",
"j. c #C5C5C5",
"k. c gray78",
"l. c #C8C8C8",
"z. c #CACACA",
"x. c #CBCBCB",
"c. c gray81",
"v. c #DADADA",
"b. c gray86",
"n. c gray87",
"m. c #E2E2E2",
"M. c gray90",
"N. c #E6E6E6",
"B. c #E7E7E7",
"V. c #E9E9E9",
"C. c gray92",
"Z. c #ECECEC",
"A. c gray93",
"S. c #EFEFEF",
"D. c gray94",
"F. c #F1F1F1",
"G. c gray95",
"H. c #F3F3F3",
"J. c #F4F4F4",
"K. c gray96",
"L. c #F6F6F6",
"P. c gray97",
"I. c #F8F8F8",
"U. c #F9F9F9",
"Y. c gray98",
"T. c #FBFBFB",
"R. c gray99",
"E. c #FDFDFD",
"W. c #FEFEFE",
"Q. c white",
/* pixels */
"- - - - 1 = = 2 3 ; * ; < , , < 1 1 , ; < < < < < < < < < < < < < < < < 1 1 1 < < < , , > > > > > > > > > > > > > > > > : : : : : : : : < < < < < < < < < < < < < < < < < > : - - : > < - - - - - - - - = & ",
"; ; ; ; 5 ; * ; > ; ; , - & % & = ; = & * * * * * * * * * * * * * * * * * * * * * * * * = = = = = = = = = = = = = = = = = = = = = = = = * * * * * * * * * * * * * * * * - - - - = = = = : : : : : : : : : > ",
"> > > > ; = & % = > < < < > ; ; > , , > : : : : : : : : : : : : : : : : > > > > > , , , , , , , , , , , , , , , , , , , > > > > > > > > : : : : : : : : : : : : : : : : : : : ; : : : > ; ; ; ; ; ; ; ; : : ",
"; ; ; ; ; > , : : > : - : : : : : : : : : : : : : : : : : : : : : : : : : : : : : : : : = = = = = = = = = = = = = = = = = = = = = = = = : : : : : : : : : : : : : : : : * * * = - : < 1 - - - - - - - - : * ",
"- - - - - = ; > - $ % - = , 5 7 7 5 5 6 7 7 7 7 7 7 7 7 7 7 7 7 7 7 7 7 5 5 5 5 5 5 5 5 7 7 7 7 7 7 7 7 7 7 7 7 7 7 7 7 9 9 9 9 9 9 9 9 7 7 7 7 7 7 7 7 7 7 7 7 7 7 7 7 8 9 0 9 5 > & + ; ; ; ; ; ; ; ; < ; ",
"; ; ; ; > % * 2 1 - 2 i I ~ } O.+.o.o.O.o.o.o.o.o.o.o.o.o.o.o.o.o.o.o.o.+.+.+.+.O.O.O.O.X.X.X.X.X.X.X.X.X.X.X.X.X.X.X.X.X.X.X.X.X.X.X.X.o.o.o.o.o.o.o.o.o.o.o.o.o.o.o.o. .X.o.{ R n e , ; ; ; ; ; ; ; ; * : ",
"4 = $ ; ; . 4 > : q L X.+.O.X.......X.o.X.X.X.X.X.X.X.X.X.X.X.X.X.X.X.X.X.X.X.X.X.X.X.X.X.X.X.X.X.X.X.X.X.X.X.X.X.X.X.X.X.X.X.X.X.X.X.X.X.X.X.X.X.X.X.X.X.X.X.X.X.X.X.X... .#.o.{ #.[ b > & * ; 5 # : , % 4 ",
"% - 2 ; < , ; @ f U  .@.} } | X.O.O.o.X.X.X.X.X.X.X.X.X.X.X.X.X.X.X.X.X.X.X.X.X.X.X.X.X.X.X.X.X.X.X.X.X.X.X.X.X.X.X.X.X.X.X.X.X.X.X.X.X.X.X.X.X.X.X.X.X.o.o.o.o.o.o.o.o.#.O.| @.+.X.#.#.S y * + 4 * = = > $ ",
": ; 6 # % 1 * 3 ) $.#. .*.#.O.o.+.+.X.| O.O.O.O.O.O.O.O.O.O.O.O.O.O.O.O.O.O.O.O.O.O.O.O.O.O.O.O.O.O.O.O.O.O.O.O.O.O.O.O.O.O.O.O.O.O.O.O.O.O.O.O.O.O.O.O.O.O.O.O.O.O.O.O.X.+.` o.@.) { ..X.A 4 X 3 : = : > = ",
"p & < & & * 2 V ;.o. .| [ ^ I H H K J G J J J J J J J J J J J J J J J J J J J J J J J J J J J J J J J J J J J J J J J J J J J J J J J J J J J J J J J J J J J J J J J J H W L ~ [ o.>.| @./ n = , = * , : d ",
"F % - 3 7 % d ( $.] o.{ n k p y p d f d i i i i i i i i i i i i i i i i i i i i i i i i i i i i i i i i i i i i i i i i i i i i i i i i i i i i i i i i p p p p p p p p y y t a s J %.] +.O.^ 5 * * % * 3 P ",
"} 3 % , 4 @ F X...O.O.S s i t y p a i y u u u u u u u u u u u u u u u u u u u u u u u u u u u u u u u u u u u u u u u u u u u u u u u u u u u u u u u u i i i i i i i i j t d g q g Q +.O.X.| r & > > & r _ ",
"+.q & * = # ) +. .-._ p p i i i i u t e i i i i i i i i i i i i i i i i i i i i i i i i i i i i i i i i i i i i i i i i i i i i i i i i i i i i i i i i p p p p p p p p r 8 a p i u k $.+.] #.z : < 2 - M  .",
") 8 > < , ;  .X.[ &.R d a a p i i i p a i i i i i i i i i i i i i i i i i i i i i i i i i i i i i i i i i i i i i i i i i i i i i i i i i i i i i i i i p p p p p p p p d d f 7 h f 0 @.%.] ,.J 2 * - * / #.",
"o.e - : > = @.} @.X.E u i i i i i i i i i i i i i i i i i i i i i i i i i i i i i i i i i i i i i i i i i i i i i i i i i i i i i i i i i i i i i i i i i i i i i i i i i u a y i f t O.o...+.) : : * : _ ..",
"o.e - : > = @.} @.X.E u i i i i i i i i i i i i i i i i i i i i i i i i i i i i i i i i i i i i i i i i i i i i i i i i i i i i i i i i i i i i i i i i i i i i i i i i i u a y i f t O.o...+.) : : * : _ ..",
"o.e - : > = @.} @.X.E u i i i i i i i i i i i i i i i i i i i i i i i i i i i i i i i i i i i i i i i i i i i i i i i i i i i i i i i i i i i i i i i i i i i i i i i i i u a y i f t O.o...+.) : : * : _ ..",
"o.e - : > = @.} @.X.E u i i i i i i i i i i i i i i i i i i i i i i i i i i i i i i i i i i i i i i i i i i i i i i i i i i i i i i i i i i i i i i i i i i i i i i i i i u a y i f t O.o...+.) : : * : _ ..",
"o.e - : > = @.} @.X.E u i i i i i i i i i i i i i i i i i i i i i i i i i i i i i i i i i i i i i i i i i i i i i i i i i i i i i i i i i i i i i i i i i i i i i i i i i u a y i f t O.o...+.) : : * : _ ..",
"o.e - : > = @.} @.X.E u i i i i i i i i i i i i i i i i i i i i i i i i i i i i i i i i i i i i i i i i i i i i i i i i i i i i i i i i i i i i i i i i i i i i i i i i i u a y i f t O.o...+.) : : * : _ ..",
"o.e - : > = @.} @.X.E u i i i i i i i i i i i i i i i i i i i i i i i i i i i i i i i i i i i i i i i i i i i i i i i i i i i i i i i i i i i i i i i i i i i i i i i i i u a y i f t O.o...+.) : : * : _ ..",
"o.e - : > = @.} @.X.E u i i i i i i i i i i i i i i i i i i i i i i i i i i i i i i i i i i i i i i i i i i i i i i i i i i i i i i i i i i i i i i i i i i i i i i i i i u a y i f t O.o...+.) : : * : _ ..",
"+.r < ; > = @.} @.X.E u i i i i i i i i i i i i i i i i i i i i i i i i i i i i i i i i i i i i i i i i i i i i i i i i i i i i i i i i i i i i i i i i i i i i i i i i i p y i i u t O.o...+.) : : * : _  .",
"+.r < ; > = @.} @.X.E u i i i i i i i i i i i i i i i i i i i i i i i i i i i i i i i i i i i i i i i i i i i i i i i i i i i i i i i i i i i i i i i i i i i i i i i i i p y i i u t O.o...+.) : : * : _  .",
"+.r < ; > = @.} @.X.E u i i i i i i i i i i i i i i i i i i i i i i i i i i i i i i i i i i i i i i i i i i i i i i i i i i i i i i i i i i i i i i i i i i i i i i i i i p y i i u t O.o...+.) : : * : _  .",
"+.r < ; > = @.} @.X.E u i i i i i i i i i i i i i i i i i i i i i i i i i i i i i i i i i i i i i i i i i i i i i i i i i i i i i i i i i i i i i i i i i i i i i i i i i p y i i u t O.o...+.) : : * : _  .",
"+.r < ; > = @.} @.X.E u i i i i i i i i i i i i i i i i i i i i i i i i i i i i i i i i i i i i i i i i i i i i i i i i i i i i i i i i i i i i i i i i i i i i i i i i i p y i i u t O.o...+.) : : * : _  .",
"+.r < ; > = @.} @.X.E u i i i i i i i i i i i i i i i i i i i i i i i i i i i i i i i i i i i i i i i i i i i i i i i i i i i i i i i i i i i i i i i i i i i i i i i i i p y i i u t O.o...+.) : : * : _  .",
"+.r < ; > = @.} @.X.E u i i i i i i i i i i i i i i i i i i i i i i i i i i i i i i i i i i i i i i i i i i i i i i i i i i i i i i i i i i i i i i i i i i i i i i i i i p y i i u t O.o...+.) : : * : _  .",
"+.r < ; > = @.} @.X.E u i i i i i i i i i i i i i i i i i i i i i i i i i i i i i i i i i i i i i i i i i i i i i i i i i i i i i i i i i i i i i i i i i i i i i i i i i p y i i u t O.o...+.) : : * : _  .",
"+.r < ; > = @.} @.X.E u i i i i i i i i i i i i i i i i i i i i i i i i i i i i i i i i i i i i i i i i i i i i i i i i i i i i i i i i i i i i i i i i i i i i i i i i i p y i i u t O.o...+.) : : * : _  .",
"+.r < ; > = @.} @.X.E u i i i i i i i i i i i i i i i i i i i i i i i i i i i i i i i i i i i i i i i i i i i i i i i i i i i i i i i i i i i i i i i i i i i i i i i i i p y i i u t O.o...+.) : : * : _  .",
"+.r < ; > = @.} @.X.E u i i i i i i i i i i i i i i i i i i i i i i i i i i i i i i i i i i i i i i i i i i i i i i i i i i i i i i i i i i i i i i i i i i i i i i i i i p y i i u t O.o...+.) : : * : _  .",
"+.r < ; > = @.} @.X.E u i i i i i i i i i i i i i i i i i i i i i i i i i i i i i i i i i i i i i i i i i i i i i i i i i i i i i i i i i i i i i i i i i i i i i i i i i p y i i u t O.o...+.) : : * : _  .",
"+.r < ; > = @.} @.X.E u i i i i i i i i i i i i i i i i i i i i i i i i i i i i i i i i i i i i i i i i i i i i i i i i i i i i i i i i i i i i i i i i i i i i i i i i i p y i i u t O.o...+.) : : * : _  .",
"+.r < ; > = @.} @.X.E u i i i i i i i i i i i i i i i i i i i i i i i i i i i i i i i i i i i i i i i i i i i i i i i i i i i i i i i i i i i i i i i i i i i i i i i i i p y i i u t O.o...+.) : : * : _  .",
"+.r < ; > = @.} @.X.E u i i i i i i i i i i i i i i i i i i i i i i i i i i i i i i i i i i i i i i i i i i i i i i i i i i i i i i i i i i i i i i i i i i i i i i i i i p y i i u t O.o...+.) : : * : _  .",
"+.r < ; > = @.} @.X.E u i i i i i i i i i i i i i i i i i i i i i i i i i i i i i i i i i i i i i i i i i i i i i i i i i i i i i i i i i i i i i i i i i i i i i i i i i p y i i u t O.o...+.) : : * : _  .",
"+.r < ; > = @.} @.X.E u i i i i i i i i i i i i i i i i i i i i i i i i d w d a e a d i q j d 7 i i q f h e 0 a h i r u i i i i i i i i i i i i i i i i i i i i i i i i i p y i i u t O.o...+.) : : * : _  .",
"+.r < ; > = @.} @.X.E u i i i i i i i i i i i i i i i i i i i i i i i i d w s a r s a u f y s i s j t 0 s a p u u a f h i i i i i i i i i i i i i i i i i i i i i i i i i p y i i u t O.o...+.) : : * : _  .",
"+.r < ; > = @.} @.X.E u i i i i i i i i i i i i i i i i i i i i i i i i d w a p y s i y g 1 u h e s d j r a d y t i t 8 i i i i i i i i i i i i i i i i i i i i i i i i i p y i i u t O.o...+.) : : * : _  .",
"+.r < ; > = @.} @.X.E u i i i i i i i i i i i i i i i i i i i i i i i i d e i i p d t y l 7 0 a e i 9 i t u i p i u i a i i i i i i i i i i i i i i i i i i i i i i i i i p y i i u t O.o...+.) : : * : _  .",
"+.r < ; > = @.} @.X.E u i i i i i i i i i i i i i i i i i i i i i i i i s t i u a s e p 9 n s i d x w s f w q d j p y a i i i i i i i i i i i i i i i i i i i i i i i i i p y i i u t O.o...+.) : : * : _  .",
"+.r < ; > = @.} @.X.E u i i i i i i i i i i i i i i i i i i i i i i i i a y i u s a e h 0.w.b r { t.f.x.7...k 0 t p r 8 i i i i i i i i i i i i i i i i i i i i i i i i i p y i i u t O.o...+.) : : * : _  .",
"+.r < ; > = @.} @.X.E u i i i i i i i i i i i i i i i i i i i i i i i i p i p y s p e x Q.S.<.q.C.Q.T.K.Q.b.5.b 3 u z g i i i i i i i i i i i i i i i i i i i i i i i i i p y i i u t O.o...+.) : : * : _  .",
"+.r < ; > = @.} @.X.E u i i i i i i i i i i i i i i i i i i i i i i i i i p a y s i e n Y.Q.g.D.B.8.3.u.N.Q.F.4.h w a e i i i i i i i i i i i i i i i i i i i i i i i i i p y i i u t O.o...+.) : : * : _  .",
"+.r < ; > = @.} @.X.E u i i i i i i i i i i i i i i i i i i i i i i i i y p u u a i p k R.L.Q.w.Z h q f T f.Q.M.R , c u i i i i i i i i i i i i i i i i i i i i i i i i i p y i i u t O.o...+.) : : * : _  .",
"+.r < ; > = @.} @.X.E u i i i i i i i i i i i i i i i i i i i i i i i i y p u u a i p k R.Y.m.#.p i u i r :.A.E.5.h f t i i i i i i i i i i i i i i i i i i i i i i i i i p y i i u t O.o...+.) : : * : _  .",
"+.r < ; > = @.} @.X.E u i i i i i i i i i i i i i i i i i i i i i i i i y p u u a i p k E.Q.a.z 8 y g r 3 x c.Q.l.B 7 r i i i i i i i i i i i i i i i i i i i i i i i i i p y i i u t O.o...+.) : : * : _  .",
"+.r < ; > = @.} @.X.E u i i i i i i i i i i i i i i i i i i i i i i i i y p u u a i p k Q.W.2.5 i i k t k 5 i.Q.M.l 4 f i i i i i i i i i i i i i i i i i i i i i i i i i p y i i u t O.o...+.) : : * : _  .",
"+.r < ; > = @.} @.X.E u i i i i i i i i i i i i i i i i i i i i i i i i y p u u a i p k Q.P.*.2 l y a i b 1 7.U.D.i r c i i i i i i i i i i i i i i i i i i i i i i i i i p y i i u t O.o...+.) : : * : _  .",
"+.r < ; > = @.} @.X.E u i i i i i i i i i i i i i i i i i i i i i i i i y p u u a i p k W.H.1.7 g w w a u q t.U.D.y p d i i i i i i i i i i i i i i i i i i i i i i i i i p y i i u t O.o...+.) : : * : _  .",
"+.r < ; > = @.} @.X.E u i i i i i i i i i i i i i i i i i i i i i i i i y p u u a i p k R.R.r.a r i r p 8 m c.U.n.u t r i i i i i i i i i i i i i i i i i i i i i i i i i p y i i u t O.o...+.) : : * : _  .",
"+.r < ; > = @.} @.X.E u i i i i i i i i i i i i i i i i i i i i i i i i y p u u a i p k R.Q.l.m q z a i 9 R F.K.z.p t p i i i i i i i i i i i i i i i i i i i i i i i i i p y i i u t O.o...+.) : : * : _  .",
"+.r < ; > = @.} @.X.E u i i i i i i i i i i i i i i i i i i i i i i i i i i y i s u i z Q.Y.G.9.t d j 0 g r.Q.I.~ 8 f i i i i i i i i i i i i i i i i i i i i i i i i i i p y i i u t O.o...+.) : : * : _  .",
"+.r < ; > = @.} @.X.E u i i i i i i i i i i i i i i i i i i i i i i i i i i y i s u i z I.Y.Y.T.e.z 8 S s.T.Q.d.x t g 0 i i i i i i i i i i i i i i i i i i i i i i i i i p y i i u t O.o...+.) : : * : _  .",
"+.r < ; > = @.} @.X.E u i i i i i i i i i i i i i i i i i i i i i i i i i i y i s u i z Q.Z.6.j.Q.H.J.Q.Q.Q.k.Q 3 t s d i i i i i i i i i i i i i i i i i i i i i i i i i p y i i u t O.o...+.) : : * : _  .",
"+.r < ; > = @.} @.X.E u i i i i i i i i i i i i i i i i i i i i i i i i i i y i s u i z Q.K.Q B y.V.W.S.v.5.Z ; d v u u i i i i i i i i i i i i i i i i i i i i i i i i i p y i i u t O.o...+.) : : * : _  .",
"+.r < ; > = @.} @.X.E u i i i i i i i i i i i i i i i i i i i i i i i i i i y i s u i z J.Q.=.2 y V D C H 9 y r g 8 0 x i i i i i i i i i i i i i i i i i i i i i i i i i p y i i u t O.o...+.) : : * : _  .",
"+.r < ; > = @.} @.X.E u i i i i i i i i i i i i i i i i i i i i i i i i i i y i s u i z R.F.=.y i i 8 y w < p y s a g e i i i i i i i i i i i i i i i i i i i i i i i i i p y i i u t O.o...+.) : : * : _  .",
"+.r < ; > = @.} @.X.E u i i i i i i i i i i i i i i i i i i i i i i i i i i y i s u i z Y.F.+.i x g w a u k z u w w j p i i i i i i i i i i i i i i i i i i i i i i i i i p y i i u t O.o...+.) : : * : _  .",
"+.r < ; > = @.} @.X.E u i i i i i i i i i i i i i i i i i i i i i i i i i i y i s u i z Q.Q.| 6 d e q k a f 7 p x r y u i i i i i i i i i i i i i i i i i i i i i i i i i p y i i u t O.o...+.) : : * : _  .",
"+.r < ; > = @.} @.X.E u i i i i i i i i i i i i i i i i i i i i i i i i u u i i i i p p p.h.R 3 f a h r i i i i i i i i i i i i i i i i i i i i i i i i i i i i i i i i i p y i i u t O.o...+.) : : * : _  .",
"+.r < ; > = @.} @.X.E u i i i i i i i i i i i i i i i i i i i i i i i i u u i i i i p p 7 m y d j 4 w e i i i i i i i i i i i i i i i i i i i i i i i i i i i i i i i i i p y i i u t O.o...+.) : : * : _  .",
"+.r < ; > = @.} @.X.E u i i i i i i i i i i i i i i i i i i i i i i i i u u i i i i p p c r 4 p i e k k i i i i i i i i i i i i i i i i i i i i i i i i i i i i i i i i i p y i i u t O.o...+.) : : * : _  .",
"+.r < ; > = @.} @.X.E u i i i i i i i i i i i i i i i i i i i i i i i i u u i i i i p p r 0 f k i i t 4 i i i i i i i i i i i i i i i i i i i i i i i i i i i i i i i i i p y i i u t O.o...+.) : : * : _  .",
"+.r < ; > = @.} @.X.E u i i i i i i i i i i i i i i i i i i i i i i i i u u i i i i p p s s s 9 e j f h i i i i i i i i i i i i i i i i i i i i i i i i i i i i i i i i i p y i i u t O.o...+.) : : * : _  .",
"+.r < ; > = @.} @.X.E u i i i i i i i i i i i i i i i i i i i i i i i i u u i i i i p p a p e 0 d s 6 q i i i i i i i i i i i i i i i i i i i i i i i i i i i i i i i i i p y i i u t O.o...+.) : : * : _  .",
"+.r < ; > = @.} @.X.E u i i i i i i i i i i i i i i i i i i i i i i i i u u i i i i p p e f j j i 9 u x i i i i i i i i i i i i i i i i i i i i i i i i i i i i i i i i i p y i i u t O.o...+.) : : * : _  .",
"+.r < ; > = @.} @.X.E u i i i i i i i i i i i i i i i i i i i i i i i i u u i i i i p p i y w i y a j 5 i i i i i i i i i i i i i i i i i i i i i i i i i i i i i i i i i p y i i u t O.o...+.) : : * : _  .",
"+.r < ; > = @.} @.X.E u i i i i i i i i i i i i i i i i i i i i i i i i i i i i i i i i i i i i i i i i i i i i i i i i i i i i i i i i i i i i i i i i i i i i i i i i i p y i i u t O.o...+.) : : * : _  .",
"+.r < ; > = @.} @.X.E u i i i i i i i i i i i i i i i i i i i i i i i i i i i i i i i i i i i i i i i i i i i i i i i i i i i i i i i i i i i i i i i i i i i i i i i i i p y i i u t O.o...+.) : : * : _  .",
"+.r < ; > = @.} @.X.E u i i i i i i i i i i i i i i i i i i i i i i i i i i i i i i i i i i i i i i i i i i i i i i i i i i i i i i i i i i i i i i i i i i i i i i i i i p y i i u t O.o...+.) : : * : _  .",
"+.r < ; > = @.} @.X.E u i i i i i i i i i i i i i i i i i i i i i i i i i i i i i i i i i i i i i i i i i i i i i i i i i i i i i i i i i i i i i i i i i i i i i i i i i p y i i u t O.o...+.) : : * : _  .",
"+.r < ; > = @.} @.X.E u i i i i i i i i i i i i i i i i i i i i i i i i i i i i i i i i i i i i i i i i i i i i i i i i i i i i i i i i i i i i i i i i i i i i i i i i i p y i i u t O.o...+.) : : * : _  .",
"+.r < ; > = @.} @.X.E u i i i i i i i i i i i i i i i i i i i i i i i i i i i i i i i i i i i i i i i i i i i i i i i i i i i i i i i i i i i i i i i i i i i i i i i i i p y i i u t O.o...+.) : : * : _  .",
"+.r < ; > = @.} @.X.E u i i i i i i i i i i i i i i i i i i i i i i i i i i i i i i i i i i i i i i i i i i i i i i i i i i i i i i i i i i i i i i i i i i i i i i i i i p y i i u t O.o...+.) : : * : _  .",
"+.r < ; > = @.} @.X.E u i i i i i i i i i i i i i i i i i i i i i i i i i i i i i i i i i i i i i i i i i i i i i i i i i i i i i i i i i i i i i i i i i i i i i i i i i p y i i u t O.o...+.) : : * : _  .",
"%.9 : < : * +.....@.U p i i i i i i i i i i i i i i i i i i i i i i i i i i i i i i i i i i i i i i i i i i i i i i i i i i i i i i i i i i i i i i i i i i i i i i i i t h y y d s e @.$.[ o.` = : : & ( O.",
"@.0 ; ; : = +.X.X.@.Y p i i i i i i i i i i i i i i i i i i i i i i i i i i i i i i i i i i i i i i i i i i i i i i i i i i i i i i i i i i i i i i i i i i i i i i i i u p d u t d i X.$.{ O.` = : > - ( +.",
"O.w > = : ; O.o.O.@.R i i i i i i i i i i i i i i i i i i i i i i i i i i i i i i i i i i i i i i i i i i i i i i i i i i i i i i i i i i i i i i i i i i i i i i i i i a w j u q f a  .+.| +._ = : > : ( o.",
"o.t < ; > > X.o.O.O.R t i i i i i i i i i i i i i i i i i i i i i i i i i i i i i i i i i i i i i i i i i i i i i i i i i i i i i i i i i i i i i i i i i i i i i i i i s q h r u s e +.X. .+.( = ; = - ) } ",
"X.t , > > < | X.O...E r i i i i i i i i i i i i i i i i i i i i i i i i i i i i i i i i i i i i i i i i i i i i i i i i i i i i i i i i i i i i i i i i i i i i i i i i s t a q l u 8 =...o.@./ ; : & = ` [ ",
" .w - > : < ] ..o...~ y i i i i i i i i i i i i i i i i i i i i i i i i i i i i i i i i i i i i i i i i i i i i i i i i i i i i i i i i i i i i i i i i i i i i i i i i a u u w c w y =.o.+.O.W : < & - ^ | ",
" .w & : = > ) | O.X.` s i i i i i i i i i i i i i i i i i i i i i i i i i i i i i i i i i i i i i i i i i i i i i i i i i i i i i i i i i i i i i i i i i i i i i i i i p t p u d 9 B X.o.O.{ K * < * : G X.",
"..e & : * : / } +.O.{ h i i i i i i i i i i i i i i i i i i i i i i i i i i i i i i i i i i i i i i i i i i i i i i i i i i i i i i i i i i i i i i i i i i i i i i i i p w d f w 8 W _ ..X.( Z @ > & > c o.",
"H : 4 O < * c | ..+.#.! b y y s y i a w p p p p p p p p p p p p p p p p p p p p p p p p p p p p p p p p p p p p p p p p p p p p p p p p p p p p p p p p p p p p p p p p y u e 9 s G ' +.` ;._ 6 - & > 1 2 { ",
"p o 4 - = $ i ^ +.| {  .W V z j p d k f a a a a a a a a a a a a a a a a a a a a a a a a a a a a a a a a a a a a a a a a a a a a a a a a a a a a a a a a a a a a a a a a f l c n F / ..O.O.O.F - ; - > : - J ",
"2 X 2 * : % * l { #...@.&.| { | } X.@.o.o.o.o.o.o.o.o.o.o.o.o.o.o.o.o.o.o.o.o.o.o.o.o.o.o.o.o.o.o.o.o.o.o.o.o.o.o.o.o.o.o.o.o.o.o.o.o.o.o.o.o.o.o.o.o.o.o.o.o.o.o.o.o.o.[ | | { ..#.#.X.@.R u . > > : = % s ",
"> * 1 * > ; @ : N | %.#.o...X.+.O.o.X. .................................................................................................................................&.%.+.X.o.@.O.| Q l >   1 ; - ; # & ",
"; - > 2 * : 1 - < b _ | | X... .X.o.+.$.o.o.o.o.o.o.o.o.o.o.o.o.o.o.o.o.o.o.o.o.o.o.o.o.o.o.o.o.o.o.o.o.o.o.o.o.o.o.o.o.o.o.o.o.o.o.o.o.o.o.o.o.o.o.o.o.o.o.o.o.o.o.o.o.[ { }  .o.O.} _ g 3 * $ 3 & - , 2 o ",
"< * $ , : & , 1 * 3 l Z  .%.&.@.+.| ` ] X.X.X.X.X.X.X.X.X.X.X.X.X.X.X.X.X.X.X.X.X.X.X.X.X.X.X.X.X.X.X.X.X.X.X.X.X.X.X.X.X.X.X.X.X.X.X.X.X.X.X.X.X.X.X.X.X.X.X.X.X.X.X.X.#.%.&.$.| E B g > $ : : 3 $ - , 8 % ",
"1 : $ % > ; % = 1 > : 7 w n G Y ` ] ` | ) ) ) ) ) ) ) ) ) ) ) ) ) ) ) ) ) ) ) ) ) ) ) ) ) ) ) ) ) ) ) ) ) ) ) ) ) ) ) ) ) ) ) ) ) ) ) ) ) ) ) ) ) ) ) ) ) ) ) ) ) ) ) ) Q W T H v e - o * # < : < % > - - + ",
"$ < < = o 8 > O < : o > @ 4 3 ; , ; & < - - - - - - - - - - - - - - - - - - - - - - - - - - - - - - - - - - - - - - - - - - - - - - - - - - - - - - - - - - - - - - - - < , : - = = ; , > * 1 = : = < $ : $ ",
"; ; ; ; ; ; ; ; ; ; ; ; , ; * = : , > ; ; - = ; 1 3 1 ; 6 % # ; # 8 < = * = - ; ; ; ; - ; ; ; ; ; ; ; ; ; ; ; ; ; ; ; ; ; ; ; ; ; ; ; ; ; ; ; ; ; ; ; ; ; ; ; ; ; ; ; ; ; ; ; ; ; ; ; ; ; ; ; ; ; ; ; ; ; ; ",
"; ; ; ; ; ; ; ; ; ; ; ; ; ; - - - - = * : ; - - & $ * , - $ ; 5 & : # , ; ; ; : : : : : ; ; ; ; ; ; ; ; ; ; ; ; ; ; ; ; ; ; ; ; ; ; ; ; ; ; ; ; ; ; ; ; ; ; ; ; ; ; ; ; ; ; ; ; ; ; ; ; ; ; ; ; ; ; ; ; ; ; ",
"; ; ; ; ; ; ; ; ; ; ; ; - ; : : ; : > < ; - , 4 2 - - < > : & = & 3 # ; > > : : ; ; ; ; ; ; ; ; ; ; ; ; ; ; ; ; ; ; ; ; ; ; ; ; ; ; ; ; ; ; ; ; ; ; ; ; ; ; ; ; ; ; ; ; ; ; ; ; ; ; ; ; ; ; ; ; ; ; ; ; ; ; "
};
