/* XPM */
static char *result[] = {
/* columns rows colors chars-per-pixel */
"143 100 120 2 ",
"   c #010101",
".  c #0D0D0D",
"X  c #100D0F",
"o  c #121212",
"O  c #191917",
"+  c #1B1B1B",
"@  c #022403",
"#  c #023402",
"$  c #232323",
"%  c #2B2B2A",
"&  c #333333",
"*  c #3D3D3D",
"=  c #403E3F",
"-  c #024002",
";  c #034A03",
":  c #015101",
">  c #026402",
",  c #026C02",
"<  c #017601",
"1  c #2F572F",
"2  c #41413F",
"3  c #413F41",
"4  c #3F4140",
"5  c #424342",
"6  c #484647",
"7  c #494947",
"8  c #474948",
"9  c #4C4C4C",
"0  c #504E4F",
"q  c #4F504B",
"w  c #50514F",
"e  c #4F4F50",
"r  c #514F50",
"t  c #4F5150",
"y  c #525252",
"u  c #565857",
"i  c #595957",
"p  c #575658",
"a  c #595758",
"s  c #5B5B5B",
"d  c #605E5F",
"f  c #60615D",
"g  c #666665",
"h  c #686666",
"j  c #676864",
"k  c #696966",
"l  c #676769",
"z  c #696768",
"x  c #676968",
"c  c #6B6B6B",
"v  c #6F706D",
"b  c #71716F",
"n  c #6E6E70",
"m  c #727272",
"M  c #797977",
"N  c #7B7B7B",
"B  c #028502",
"V  c #018A01",
"C  c #029502",
"Z  c #029C02",
"A  c #02A301",
"S  c #01B401",
"D  c #00BB00",
"F  c #299D28",
"G  c #01CC01",
"H  c #01DA00",
"J  c #01E301",
"K  c #01EF01",
"L  c #00F700",
"P  c green",
"I  c #589F56",
"U  c #7F817E",
"Y  c #80807F",
"T  c #858585",
"R  c #868887",
"E  c #898987",
"W  c #878788",
"Q  c #8A8A8A",
"!  c #908E8F",
"~  c #8F918E",
"^  c #90918E",
"/  c #918F90",
"(  c #8F9190",
")  c #929291",
"_  c #999897",
"`  c #9B9B9B",
"'  c #9F9FA1",
"]  c #A5A5A5",
"[  c #A6A8A6",
"{  c #A8A8A6",
"}  c #A7A9A8",
"|  c #ABABAB",
" . c #AEB0AD",
".. c #B7B7B7",
"X. c #B8B6B7",
"o. c #B7B8B7",
"O. c #B8B8B6",
"+. c #B9B7B8",
"@. c #BABABA",
"#. c #C1C1BF",
"$. c #C1BFC0",
"%. c #C3C3C3",
"&. c #C8C7C7",
"*. c #C6C8C7",
"=. c #C6C6C8",
"-. c #CBCBCB",
";. c #D1D1CE",
":. c #D4D3D3",
">. c #D9D9D7",
",. c #DCDCDC",
"<. c #E0DEDF",
"1. c #E5E4E4",
"2. c #EBEBEA",
"3. c #F0F0EE",
"4. c #F6F6F5",
"5. c #F8F7F6",
"6. c #F9F9F6",
"7. c #FAF7F8",
"8. c #F7F9F8",
"9. c #FDFDFD",
/* pixels */
"P P P P P P P P P P P P P P P P P P P P P P P P P P P P P P P P P P P P P P P P P P P P P P P P P P P P P P P P P P P P P P P P P P P P P P P P P P P P P P P P P P P P P P P P P P P P P P P P P P P P P P P P P P P P P P P P P P P P P P P P P P P P P P P P P P P P P P P P P P P P P P P ",
"P P P P P P P P P P P P P P P P P P P P P P P P P P P P P P P P P P P P P P P P P P P P P P P P P P P P P P P P P P P P P P P P P P P P P P P P P P P P P P P P P P P P P P P P P P P P P P P P P P P P P P P P P P P P P P P P P P P P P P P P P P P P P P P P P P P P P P P P P P P P P P P ",
"P P P P P P P P P P P P P P P P P P P P P P P P P P P P P P P P P P P P P P P P P P P P P P P P P P P P P P P P P P P P P P P P P P P P P P P P P P P P P P P P P P P P P P P P P P P P P P P P P P P P P P P P P P P P P P P P P P P P P P P P P P P P P P P P P P P P P P P P P P P P P P P ",
"P P P P P P P P P P P P P P P P P P P P P P P P P P P P P P P P P P P P P P P P P P P P P P P P P P P P P P P P P P P P P P P P P P P P P P P P P P P P P P P P P P P P P P P P P P P P P P P P P P P P P P P P P P P P P P P P P P P P P P P P P P P P P P P P P P P P P P P P P P P P P P P ",
"P P P P P P P P P P P P J D S :                   @           @                             @                                                         @                                                                 @     @                           # B D G P P P P P P P P P P P P P P ",
"P P P P P P P P P P J <   . $ & * * * = * 3 * 4 3 3 3 3 5 5 3 1 5 4 4 5 5 4 4 5 4 5 4 4 5 5 * 4 5 5 4 4 5 5 4 5 4 5 5 5 5 5 5 4 4 5 4 4 4 8 5 4 5 5 5 4 5 5 4 4 5 4 4 4 5 4 5 5 5 5 4 5 5 5 2 4 5 5 5 4 5 5 5 5 5 5 5 5 5 = 5 5 5 5 5 5 5 5 5 5 * 5 5 5 5 4 & o     D P P P P P P P P P P P P ",
"P P P P P P P P P Z   $ u c m b c c c c c c v c c c c n z n n z c c c c c c c c c c c x c c c c c c c c z c c c x c x c c c c c n c c c c c c c c c c z c c c c c j z c c c z x c c c c c c c c c c c c c c c c c c c c c c c c c c c c c n c c c c c n c n c c s *   : J P P P P P P P P P P ",
"P P P P P P P P V   9 c v v c m c n c c c c c c c c n z z n z z c z c c c c z c c c c c c z c c c c c l c c c c c c c c c c k c l c l c c x c l c x c x z l c c c l c c c x c c c c c c c c x c c c c c c c z c x x c c c c c g c c c z c c c c c c c c c l z z l g s +   J P P P P P P P P P ",
"P P P P P P P V   p c c c c b c n c c c x c j c c z c c c l c c k c x c c z c l c c z c c x c c c c x c z c z c c c c z c c c k c c c c c z c c z l k c k c c c c c x x c c c x l c c c c x x c c c c z k c c c k c c c c c c c c c c c c c c c c c c k c g j z g c l g $   J P P P P P P P P ",
"P P P P P P H   7 c c c c c c m m n c n c c c c c c c c c c c c c c k c c c c c c c z c c c c c x c k c c c c c l c c c c c c c z c c c x c k c c c c c c k c z c c c c x c c c c c c c c c c c c x c c c c c c c c c c c c c c c c c c c c c n c c c c c g g l g l g k g . V P P P P P P P P ",
"P P P P P P , $ b c k c c c c g u 7 8 5 6 5 5 6 5 5 3 3 4 5 * * * 2 5 3 2 5 4 4 4 4 4 5 4 5 5 * = 2 5 5 5 5 5 5 5 5 5 4 4 5 5 5 4 4 5 5 5 3 5 5 5 5 * 5 4 5 * 3 5 5 3 5 5 5 5 5 5 5 5 4 4 3 5 3 2 5 * 5 5 5 5 5 4 3 5 4 5 5 5 6 5 5 5 5 6 5 5 5 5 6 5 5 6 y g g g z z g g y   H P P P P P P P ",
"P P P P P J   u c c c z c l e * s W ) ) ) ) ) ) ) ) ) ) ) ^ ^ ) ) ) ( ) ! ) ( ) ! ) / ) ) ( ) ) ^ ) ) Q ) ) Q ) ! / ) Q ! ) ( ) / / ) Q ~ ) ) Q ( ( ^ ~ ( ) ) Q ) Q ) ) ) ( ~ ~ ^ Q ) ) ( ( / ) Q ) ) Q Q ) Q / Q ) ) / ) ) ) Q ^ ) ) ) ) ) ~ Q ~ Q W Q M 5 * u g g g g j c $ V P P P P P P P ",
"P P P P P S . c b c c c j 2 7 ] %.@.@.+.+.+.+.o.+.+.+.........X...X.+.@.+.+.+.+.o.o...+.o.o.o.@.O.O.+.+.+.o...+.......+.+.+...+.o.+.+.o.................................+...+.o.O.O.+.+.o.o.o.o.+.+.+.+.o.o.....O.X.............O.o.............X.X.X.| X.| m * y g g g c c r   P P P P P P P ",
"P P P P P > % m b c c c 9 6 | ......+.+.....o.o.o...................o.+.o.o.o.........o.....o.o...o.....o.o.............o.o.o.X.....o.o.................................o...o.X.O...+.o.....o.+.o.o.............X.o...o.........O.O.............X.......| ..X.m * g g g c c d   G P P P P P P ",
"P P P P P   5 c c c c z * ` O.......o.o.........................o.......o...............................................o.o.......o.X.o.............................................o...........o.............O.o.....X.................o.......X. ......... .X.7 w g c c c c   D P P P P P P ",
"P P P P P   6 c c m b s 7 @.......o.O.o.................................................................................o.X.......X...........................................o...............................o...........................................X.X.X.T 3 c c c c c . D P P P P P P ",
"P P P P P   8 c c n n t l $. .+...........o.X.....................o...........................o.+...o.X.........X.............................................................................+.............+.......+.........................o.X.o.........X.X.' * z c c c n . D P P P P P P ",
"P P P P P   8 c n c n q l %. .o.............o...............o.X...............................+.......o.X.......o.........o.X.........o.....X.o.........o...............o...............................o.....................................................X.' * z c c b b . D P P P P P P ",
"P P P P P   7 c c c v 9 l #.| o...................X.o...o.X.....................+...o...................o...........o.................X.X...o...........+.............+...........+.........o...............................................X...X.............X.[ * c c c c b . D P P P P P P ",
"P P P P P   9 c c c c 9 l %.| ..........o.X...............o.............+...........................................X.o.................o.........................................................+.................o.......................o...o............. .[ 3 c n c b c . D P P P P P P ",
"P P P P P   7 c c c c w g #.| o...................o.........................................................X...................o.X.................+.......................+.....o.............................................X.o.X.o.......................X.] * z c c c v . D P P P P P P ",
"P P P P P   7 c c c c w g %. .o.X.................X.................+.........+.............................o...........o.X.......o.......................................................................................o.+.......o...o.X.....................} * c c v n c . D P P P P P P ",
"P P P P P   9 c c c c y l %.| o.o.....o.......................X.........................o...................o.........X.................o.X.....o.............+.+.........o.........................o.............+.......X.o.................................X.[ 4 c n c c c . D P P P P P P ",
"P P P P P   9 b c c c 9 x %.| o.....o.X.X.o.....X.o...........o...........o...............+...............o.X.........o.......o...........................................................+.....................o...........................................o. .} * x c v c c . D P P P P P P ",
"P P P P P   9 c c v c 9 g #.| o.................o...................+.....o.............o.........+.........................o.X.X...........o.....X.o...............................o.........................o.................................................{ 2 j c v c c . D P P P P P P ",
"P P P P P   7 c c c n t g #. .o.....+...........................................................o...............................o...........X.o.........o.............................+.......o...................................................o.............] * c c c c c . D P P P P P P ",
"P P P P P   9 c v c c e g #.| o.......................o...............................+.........................X.o.......o.................o.X.........................................+.........+.............o...............................................{ * c v c c c X D P P P P P P ",
"P P P P P   9 c c n c 9 g #.| o...........o...........X.....o.X...............................................+...........X.....X.....................................o.................................+.......................................................{ * z k c v v . D P P P P P P ",
"P P P P P   9 c c v v e l $. .................+.....+...o.................................+.............o...........o.........o.o.........X.............................................................................o..................................... .] * h c c c c . D P P P P P P ",
"P P P P P   9 c c c c t g $.| ..........................X.o.........................o...............................X.o.......X.......o...o.......+...o.....................+.......+.....o.......+.............................................................] * z c c c c . D P P P P P P ",
"P P P P P   9 c c n c 9 g $.| ................o...........o.......................................o.+.................................X.......................+...........o.........................o......................................................... .] * z c c c c . D P P P P P P ",
"P P P P P   9 n c c n e g %. .+.......o...................X.......+.o.............+.............................o.X...................o.........................+...............................................................................................] * z c c v c . D P P P P P P ",
"P P P P P   9 c c c n y g #.| o.+.o.o.............+.o.o.........................+.o.......................................o.X.............o.........o.X.......X.o.X.....o...X.........................o.+...........+.................+.................+.......] * z c c c c . D P P P P P P ",
"P P P P P   7 c c b c t g %.| o.........................................................o...................................o.....................+.....................X...o.......................................o...............o.o.o.+.............o.o.+. .] * g c c c c . D P P P P P P ",
"P P P P P   9 b n v c q l %.| o.........................o.o...............................................X.................o.o...X.................o...................o...................................................................................+...] * l c c c c X D P P P P P P ",
"P P P P P   9 c c c c y g %.| o.........................+.......+.........................................................o.X.o...o.....o.X................................................................................................................... .] * l c c c c X D P P P P P P ",
"P P P P P   7 c c n c e g $.| ......................o...........o.................................X.........o.O... .o.O.....o.+.........o.......................................) c c m y ..........................................+.o.o.......................} * z c c c c . D P P P P P P ",
"P P P P P   9 b v c c e g %.| ......................+...................................................) c g ) ] ' T s W X.+.+.........+.X...............................o.....W ,.9.9.s ..................+.............................................+... .] * g c c c c . D P P P P P P ",
"P P P P P   9 n c c c y g %.| +.....o.+...................................+.o...........o.+.........} c [ 1.9.9.9.9.9.9.:.m [ +.......o...) ) _ | ..............o.X.X.o...X.o.o.W >.9.9.s ..............................................................+.+.+...] * c c c c c o D P P P P P P ",
"P P P P P   7 c n c c e g %.| +.................................................................X.} r ,.7.6.9.9.9.9.9.9.9.9.` Q ....o.X.Q W ] } 9 ................o...........+.Q 1.9.9.s ................o.....o.o.+.....................................+.+. .[ 4 g c c c c . D P P P P P P ",
"P P P P P   9 c c c n 9 l $.| o...............................+.................................+.7 1.6.4.2.| j y y T :.9.9.9.T } ......W &.6.6.g ..............................W ,.9.9.s +.....+.................o.....o.o................................... .[ * g c l c c o D P P P P P P ",
"P P P P P   9 c c c c e g %.| ..............................................................+...W +.5.4.1.s _ ..o...X.n ..9.9.<.9 ......W &.9.6.f ..............................W ,.9.9.s o.............................+...................................+...[ * l z l c c . D P P P P P P ",
"P P P P P   9 c c c c t g %.| +.............+.....+.........................................o...s 4.4.4.c ] ....o.......c 1.6.6.m } ....W =.7.8.f ` _ | ....[ ` | ....} / Q ) ..Q 1.9.9.s ............o.......+.......+.................................o.o.+...[ * g c c c c . D P P P P P P ",
"P P P P P   9 c c c c y g %.| o.......o.....o.o...o.......o...........o.+.............+......./ ..4.7.%.M ............O.) [ 6.6.X.N f T T ,.6.6.! T T 9 ..~ M _ ` p m ` &.-.) } Q ,.9.9.s ......................................................+.......o.+.+. .} * g c c c c o D P P P P P P ",
"P P P P P   7 c c c c y g $.| ........o.....+.......................................o.+.......W ,.9.9.T [ ........O.......c 4.4.-.w #.6.6.8.6.9.8.6.4.m ..Q @.8.4.g -.9.9.9.O._ W <.9.9.d ..o.X.........................o.................................+.....[ * l c c c n . D P P P P P P ",
"P P P P P   9 c c c c 9 g %.| ........+.....o...............................................+.t 6.9.9.e O.................N y y u M ] 1.2.7.9.9.1.>.,.l  .! @.7.4.:.6.6.9.7..._ Q ,.9.9.s ................................+.................................+. .} * x c c c v . S P P P P P P ",
"P P P P P   9 c c c c y l %.| o...............................o...o.......................o.+.y 9.9.4.9 ................o.......o.| Q W c -.9.9.x W c c ..! @.7.4.4.1.! s d p } W ,.9.9.d o.........+.......................................................o...[ * x c c c c X D P P P P P P ",
"P P P P P   9 n c n c e g %.| +...................................+.........o.............o.+.s 9.9.1.y ........................O.O.+.+.Q -.9.9.n ..o...o.! +.6.6.1.9 ) O.......W ,.9.9.d o...o...........o.....................................................] * l c c c c . D P P P P P P ",
"P P P P P   9 c c n c r l %.| ................................................................d 9.9.1.i +.o.+.o.........................Q -.9.9.m +.......! @.8.7.' ) ..........W >.9.9.s X.X.X.........................................................o.......] 3 l c c c c . D P P P P P P ",
"P P P P P   9 n c n n 9 g %. .................................+...............................s 9.9.1.y o.o.............................! -.9.9.m o.......! @.8.4.T | ..........W :.9.9.s ..X.o.................................................................] * z c n c c . D P P P P P P ",
"P P P P P   7 c c n c 9 g $.| ........+.......................................+.o.............y 9.9.4.y ......................X.........! -.9.9.m ........) %.9.9.T | ..........W :.6.6.a O.....................................................+...............} * c c n c c . D P P P P P P ",
"P P P P P   9 c c c n y g $.| ..................+.o.............................o.+...........e 9.9.4.7 ..............O...............o.Q -.9.9.n ........) %.9.9.W | ..........W :.8.7.u .................................................................... .} * z c c z n . D P P P P P P ",
"P P P P P   9 c c c m 9 g %.| ..+.........+.............................................+...o.n 2.9.7.g ..o.o.X.......o...m c m m Q O...Q -.9.9.n ........) %.9.9.) | o.........W :.8.7.p ......................................................................[ * g c c c c . D P P P P P P ",
"P P P P P   9 c c c c y g %.| ..............................o...........................o...o.Q -.9.6.` ) +...o...........g 9.9.,.Q ....Q -.9.9.c ........( &.9.9.) ..+.........W ;.8.7.u ..................+...................................................[ * l c b c n . D P P P P P P ",
"P P P P P   9 c c n c w g %.| O.........................+...............................o.o...' _ 7.7.>.g o.............) [ 9.9.@.^ O...Q =.6.9.c O.......) %.9.9.) ............W ;.6.8.u ......................................................................| * c c c c b . D P P P P P P ",
"P P P P P   9 c c c c 9 g %.| ........................................+.........................9 1.6.6.Q ) X...........g 1.9.9.b | ....Q &.6.9.c o.......) &.9.9.! o...........W :.9.7.u ............+.........................................................| * g b c c c . D P P P P P P ",
"P P P P P   7 c c n c y g %.| ....................+.............................................) ` 6.6.4.N T | O...[ n -.9.9.>.n ......Q $.7.6.T [ ..| ..) %.9.9.! ............Q :.9.8.p ......................................................................[ * g k c c b . D P P P P P P ",
"P P P P P   9 c c c c 9 g #.| ..........................................................+.......O.c #.6.6.6.&.` N T  .1.9.9.4.c } ......) | 8.8.1.U M m ' ( &.9.9.!  ...........Q :.9.8.p ......................................................................[ * g c c c c . D P P P P P P ",
"P P P P P   9 b m c b y j %.| o...................o.................................................k X.6.9.9.9.9.9.9.9.9.3.N [ ........o.p 4.6.7.7.7.' _ ) @.9.9.! ............Q :.8.8.p +.+.........o.........................................................| * z b b c b . D P P P P P P ",
"P P P P P   9 c c c c 9 g #.| o...............o...........+.........................+.................M c *.4.9.9.9.9.1.| g [ ..........o.! T 1.6.9.4._ _ Q ..2.2.W o...........Q =.1.2.p o.....................................................................| * g c c c c . D P P P P P P ",
"P P P P P   9 c c c v t g %.| o.....................................+...................................| W m s c g s W ` +.................] n u p 9 c ..] T T Y ! o...........] Q U d W ......................................................................| * g c c c c . D P P P P P P ",
"P P P P P   9 n c v c 9 g #.| o...+.....................................................................O.O.............o.+.........................o...............o...........o.o.o.o.........................................................................{ * g c n n c . D P P P P P P ",
"P P P P P   9 c c c b e g #.} o.o.....................+.................................................................o.o.....................................................................................................................................{ * k c c c c o D P P P P P P ",
"P P P P P   9 c v c v q g #.| o...............+...............o.........................................................o.X.....................................................................................................................................| * z c c b c . D P P P P P P ",
"P P P P P   9 v c c c e d %.| ..........................................................................X.........o.........X...o.....X...........o.................o.................................................o...................+.o.................+.} * l c c c c o D P P P P P P ",
"P P P P P   9 n c c v e l =.| ....................................o...+.................+...............o.........X.....o...o.........o.........o.X.................X.o.X.....................+...............+...........+.................o...............o.o.| * g c n c c . D P P P P P P ",
"P P P P P   9 c c c n q g #.| ..........+...............o.X.......................o.............X.o.....................X.o.............X.o.................X.o.....o.X.o.......+.o.................o.................................+.........................} * c c c c c . D P P P P P P ",
"P P P P P   9 c n c c 9 g %.| ........o.........X...o.X...o...................................o.......o.X.o.........................................X.o...................+.........................................................o.o.........................| * l c c c n . D P P P P P P ",
"P P P P P   9 c c c c t l %.| ........+.........o.............o.........o...+.......+...................X.o.............................o.X.....X.........o.X.o...............................................o.................................................} * g c c c c o D P P P P P P ",
"P P P P P   9 c c c c q g %.| ................................X.................................+.........................o...............o.....o.......................o.......................................+.......................+.......................} * g x c c c . D P P P P P P ",
"P P P P P   8 l x c c 9 g %.| o.............X...o...............................................................X.o.X.o...X.....X.........X.o.......................o.X.X.o...................o.....................o...................o.......................} * g c c x c o D P P P P P P ",
"P P P P P   9 c c c c 9 g &.| o...o.....+...o.o.X.................+.........................+...o...............o...............o...........................o.X...............o.........+...............+...................+...................................[ * g c c c c . D P P P P P P ",
"P P P P P   7 c c x x 9 g %.| +.....................X.......X.o...............+.+...............................................................................X.o.....X.o...X.....X.o.X...................o.........................o.........................} = g z c z v . D P P P P P P ",
"P P P P P   8 c c l c 9 g %.| o.....+...............o.........o.........................o.............................................o.......+.....o.X.........o...................o...o.......o...+.................................+.........................} * z c c c c . D P P P P P P ",
"P P P P P   8 c k j c 9 g %.| o...............o...............X.o...............................................o.......X.....o.+.................o.......o.....................X.o.......................+.............o.......................................} * g z z g c X D P P P P P P ",
"P P P P P   8 z c l c e j =.| o...............................o.......................................+...o.....X.......o...o.X.................o.X.......X.....................................................................................................} * g c c c c o D P P P P P P ",
"P P P P P   8 c c c z 9 l =.| ......o...........o...X...X.........................................o.......................................................................o.............X.o.........o...+.......+.......................+.o.o...................| * g c c z c o D P P P P P P ",
"P P P P P   8 c z g z 9 l =.| +...............+.X.o.o...o...............o.......................+.........+.....o.........................o.....+...........o.......X.o...X.o...................................................................................{ * g z c z c . D P P P P P P ",
"P P P P P   8 c c g c e l &. .+...........................................+.......o.+...................................................................X...X.o.............................................................+...o.+...................+.........| * g c c c c o D P P P P P P ",
"P P P P P   8 z x c c r l %.| ....+...............................o.............................................X.......................................o...............o.X.......o.X...o.X.o.......................o......................................... .| * g k c z z o D P P P P P P ",
"P P P P P   8 c c c b y z -.| ............................X.o...........+.o.o...............+.o...................................o.........................X.o.....X.o.....................................................o.o.................+.............o.{ * f c k c c o D P P P P P P ",
"P P P P P   6 c c c n y g =.| ..........................o.............+.....o...........................o.......................................................................o.X...................................O.......o.................o...........o.o.] = k v c c z X D P P P P P P ",
"P P P P P   6 c c c n s 8 $...X.....X.X.....................o.o.............o.+.................X.o.o.o.X...X.......X.o.......o...........................X.o...............o.X.....o.o.....X...............O...............o.o............................. .+.^ = c v c c c X D P P P P P P ",
"P P P P P ; 3 b c n n c 3 ! @.....X.X.X.......X.............o.o.........o.o.o.+...................o.X.o.o...o.............O.o.O.+.......o.+...............o...................o.....o.+.....o...o.X.........o.o.............o.o.................................y 9 c c c c v . D P P P P P P ",
"P P P P P S 1 b c c c c y 5 ] O.X.X.X.X.+.+.O.O.....o.o.o.X.@.o.....o.o.o.o.+.+.o.o.o.o...+.+...o.....o.o.+.o.+.....O.O.O.+.o.o.o.+.o.o.........o.o.....o.+.+.X.........X.o.o.@.O.O.O.+.o.o.o.o...+.o.+.o.o...o...+.o.o.+.+.+.@.....o.o.+.+.+........... .....N * f k c c c g   D P P P P P P ",
"P P P P P S o n c c c c z 5 = ) X.$.X.X.+.@.@.@.@.+.@.@.@.@.@.@.@.@.@.o.@.$.o.o.@.@.@.@.@.+.o.@.#.@.+.@.@.@.@.@.+.@.@.@.@.@.@.@.@.@.@.@.@.@.@.@.o.@.@.@.@.@.@.@.@.@.@.@.@.@.@.@.@.@.+.@.@.@.@.@.+.+.@.@.#.@.+.@.+.@.@.+.@.@.@.@.@.@.o.o.o.o.o.o.@.......+.| n & w j j c k c u   K P P P P P P ",
"P P P P P J   I c z z k k g 9 * 0 m U T W W E E W W W W Q W W W Q Q R R W T R R W Q W W W W W W W E R E W W W W W W W Q W Q Q W Q Q W Q W Q Q Q Q Q Q W Q Q W Q Q Q W W W W Q Q W Q R W Q W R W W Q Q Q Q Q W R R W W Q W W W W W W Q W Q Q Q Q W Q W T c * & p h j z c c c & - P P P P P P P ",
"P P P P P P V F c c c k c z c s r 3 1 5 8 6 7 5 6 6 8 6 6 5 6 5 6 4 4 6 6 6 4 6 6 5 5 4 6 5 6 6 5 6 5 5 5 6 5 5 8 5 5 5 6 5 8 5 6 5 5 6 5 6 5 5 5 5 6 6 5 5 5 5 6 6 6 5 6 6 4 6 5 5 5 6 5 6 8 6 5 5 6 8 5 5 7 6 8 6 8 8 5 6 6 5 6 6 6 6 6 6 8 8 8 8 8 6 9 p d l f h h g c f   D P P P P P P P ",
"P P P P P P J   y c z z z c g c g k h v v v c b c c c c c c c c c c c c c c c c c c c c c c c c c c c c c c c c c x c c c l c c c c c c c c c c c c c c c c c c l c c c k c c c c c c c c c c c v c c c c c c c c c c c c c c c c c c c c c c c n c c c c z h h g g g g g $ @ P P P P P P P P ",
"P P P P P P P C   s g g z g g g c k k c c c b c c c c c z c c c c c g c z c g c c c g c c c c c x k c x c x c c c k c k c c z c x c x n c c c c c c c c c c l c l c c x c l k c c c c c x c c c c c c c c c x c c c c c c c c c c z c c c c c c c n v v c z h g g g g g *   H P P P P P P P P ",
"P P P P P P P L : . 0 g g g g z c c c c v b c c c c k c x c g c l c x c c c c z c c c c c x k x c c c c x k k k c j z c c c c c c c c c c g l c g c c c c l l c c x j c c c c c c c c c c c c c c c x c c k c c c l l c g z c c c z l c c x c l z c c c z c k h g g d &   D P P P P P P P P P ",
"P P P P P P P P J <   & i g z k v c b c k b c c v c c c c l c z c c c g c l c c c l l c c c c c k c g c c k c x x c c c x c k c z x c c c c c c c c c g c l c c g c x c z c c c c c c c c c c c c c c k c c x c c k c c c c c l c l z c c c z c c c c c c v v c x 9 o   G P P P P P P P P P P ",
"P P P P P P P P P P A     O * 9 u u y u y y y y w w y w 9 y r y y y 9 y r y y 9 y 9 r y 9 r t y y q y y q y q y t y w y 9 y y y y e y y y y y y y y y r y y y y y r y y 9 u w y r y y y y y w y y y w y y y y y y y r y r y y y y y 0 y y r r r y 0 y y y 0 7 & .   V J P P P P P P P P P P P ",
"P P P P P P P P P P P L D A @     @                                                                                                                                                                                                                           > D J P P P P P P P P P P P P P ",
"P P P P P P P P P P P P P P P P P P P P P P P P P P P P P P P P P P P P P P P P P P P P P P P P P P P P P P P P P P P P P P P P P P P P P P P P P P P P P P P P P P P P P P P P P P P P P P P P P P P P P P P P P P P P P P P P P P P P P P P P P P P P P P P P P P P P P P P P P P P P P P P ",
"P P P P P P P P P P P P P P P P P P P P P P P P P P P P P P P P P P P P P P P P P P P P P P P P P P P P P P P P P P P P P P P P P P P P P P P P P P P P P P P P P P P P P P P P P P P P P P P P P P P P P P P P P P P P P P P P P P P P P P P P P P P P P P P P P P P P P P P P P P P P P P P ",
"P P P P P P P P P P P P P P P P P P P P P P P P P P P P P P P P P P P P P P P P P P P P P P P P P P P P P P P P P P P P P P P P P P P P P P P P P P P P P P P P P P P P P P P P P P P P P P P P P P P P P P P P P P P P P P P P P P P P P P P P P P P P P P P P P P P P P P P P P P P P P P P ",
"P P P P P P P P P P P P P P P P P P P P P P P P P P P P P P P P P P P P P P P P P P P P P P P P P P P P P P P P P P P P P P P P P P P P P P P P P P P P P P P P P P P P P P P P P P P P P P P P P P P P P P P P P P P P P P P P P P P P P P P P P P P P P P P P P P P P P P P P P P P P P P P ",
"P P P P P P P P P P P P P P P P P P P P P P P P P P P P P P P P P P P P P P P P P P P P P P P P P P P P P P P P P P P P P P P P P P P P P P P P P P P P P P P P P P P P P P P P P P P P P P P P P P P P P P P P P P P P P P P P P P P P P P P P P P P P P P P P P P P P P P P P P P P P P P P ",
"P P P P P P P P P P P P P P P P P P P P P P P P P P P P P P P P P P P P P P P P P P P P P P P P P P P P P P P P P P P P P P P P P P P P P P P P P P P P P P P P P P P P P P P P P P P P P P P P P P P P P P P P P P P P P P P P P P P P P P P P P P P P P P P P P P P P P P P P P P P P P P P "
};
