/* XPM */
static char *result[] = {
/* columns rows colors chars-per-pixel */
"203 100 134 2 ",
"   c #010101",
".  c #0B0B0B",
"X  c #131313",
"o  c #1B1C1C",
"O  c #022402",
"+  c #043404",
"@  c #252525",
"#  c #2C2C2C",
"$  c #363636",
"%  c #383836",
"&  c #3E3E3D",
"*  c #403E3F",
"=  c #054005",
"-  c #034A03",
";  c #045904",
":  c #1C461B",
">  c #195D19",
",  c #057C05",
"<  c #3E403F",
"1  c #41413F",
"2  c #413F40",
"3  c #3F4140",
"4  c #424242",
"5  c #494846",
"6  c #474749",
"7  c #4C4C4C",
"8  c #504E4F",
"9  c #465E45",
"0  c #50514E",
"q  c #4F4F51",
"w  c #4F5150",
"e  c #545353",
"r  c #585755",
"t  c #575954",
"y  c #595957",
"u  c #575759",
"i  c #5B5B5C",
"p  c #60605E",
"a  c #656565",
"s  c #676866",
"d  c #696966",
"f  c #676768",
"g  c #696768",
"h  c #676969",
"j  c #6B6B6B",
"k  c #706F6F",
"l  c #6E706E",
"z  c #70716E",
"x  c #6E6E70",
"c  c #6F7170",
"v  c #737373",
"b  c #797977",
"n  c #7C7C7B",
"m  c #807F7F",
"M  c #018001",
"N  c #028B02",
"B  c #029C02",
"V  c #178B17",
"C  c #03A503",
"Z  c #02AA02",
"A  c #00BB00",
"S  c #2EAC2E",
"D  c #02CB02",
"F  c #02D402",
"G  c #02DC02",
"H  c #00E100",
"J  c #02EE02",
"K  c #00F600",
"L  c #00FF00",
"P  c #468F46",
"I  c #44A144",
"U  c #4AB649",
"Y  c #5EA25E",
"T  c #62A462",
"R  c #4CC74B",
"E  c #4FC84E",
"W  c #50C84E",
"Q  c #4FC850",
"!  c #50C850",
"~  c #81817F",
"^  c #858585",
"/  c #868887",
"(  c #888987",
")  c #878789",
"_  c #898788",
"`  c #8A8A8A",
"'  c #8F918E",
"]  c #91918F",
"[  c #8F8E90",
"{  c #918F91",
"}  c #8F9190",
"|  c #919292",
" . c #989897",
".. c #9B9B9A",
"X. c #A0A09E",
"o. c #A5A5A5",
"O. c #A8A7A7",
"+. c #A8A8A6",
"@. c #AAAAAA",
"#. c #B4B4AF",
"$. c #B7B7B7",
"%. c #B8B6B7",
"&. c #B9B9B7",
"*. c #B6B7B9",
"=. c #B9B7B8",
"-. c #B7BAB9",
";. c #BBBBBA",
":. c #C0BFBE",
">. c #BEC0BF",
",. c #C1C1BE",
"<. c #C0BEC1",
"1. c #BFC1C0",
"2. c #C2C2C2",
"3. c #C8C6C7",
"4. c #C9C9C7",
"5. c #C9C7C8",
"6. c #CCCCCB",
"7. c #D3D3D3",
"8. c #DADAD5",
"9. c #DCDCDB",
"0. c #DFE0DD",
"q. c #E2E3DE",
"w. c #E4E4E3",
"e. c #E9E8E5",
"r. c #E7E9E9",
"t. c #ECECEC",
"y. c #F0F0EF",
"u. c #F4F4F3",
"i. c #F8F6F7",
"p. c #F6F8F6",
"a. c #F9FAF6",
"s. c #F9F7F8",
"d. c #F7FAFB",
"f. c #FDFDFD",
/* pixels */
"L L L L L L L L L L L L L L L L L L L L L L L L L L L L L L L L L L L L L L L L L L L L L L L L L L L L L L L L L L L L L L L L L L L L L L L L L L L L L L L L L L L L L L L L L L L L L L L L L L L L L L L L L L L L L L L L L L L L L L L L L L L L L L L L L L L L L L L L L L L L L L L L L L L L L L L L L L L L L L L L L L L L L L L L L L L L L L L L L L L L L L L L L L L L L L L L L L L L L L L L L L L ",
"L L L L L L L L L L L L L L L L L L L L L L L L L L L L L L L L L L L L L L L L L L L L L L L L L L L L L L L L L L L L L L L L L L L L L L L L L L L L L L L L L L L L L L L L L L L L L L L L L L L L L L L L L L L L L L L L L L L L L L L L L L L L L L L L L L L L L L L L L L L L L L L L L L L L L L L L L L L L L L L L L L L L L L L L L L L L L L L L L L L L L L L L L L L L L L L L L L L L L L L L L L L ",
"L L L L L L L L L L L L L L L L L L L L L L L L L L L L L L L L L L L L L L L L L L L L L L L L L L L L L L L L L L L L L L L L L L L L L L L L L L L L L L L L L L L L L L L L L L L L L L L L L L L L L L L L L L L L L L L L L L L L L L L L L L L L L L L L L L L L L L L L L L L L L L L L L L L L L L L L L L L L L L L L L L L L L L L L L L L L L L L L L L L L L L L L L L L L L L L L L L L L L L L L L L L ",
"L L L L L L L L L L L L L L L L L L L L L L L L L L L L L L L L L L L L L L L L L L L L L L L L L L L L L L L L L L L L L L L L L L L L L L L L L L L L L L L L L L L L L L L L L L L L L L L L L L L L L L L L L L L L L L L L L L L L L L L L L L L L L L L L L L L L L L L L L L L L L L L L L L L L L L L L L L L L L L L L L L L L L L L L L L L L L L L L L L L L L L L L L L L L L L L L L L L L L L L L L L L ",
"L L L L L L L L L L L L L L L L L L L L L L L L L L L L L L L L L L L L L L L L L L L L L L L L L L L L L L L L L L L L L L L L L L L L L L L L L L L L L L L L L L L L L L L L L L L L L L L L L L L L L L L L L L L L L L L L L L L L L L L L L L L L L L L L L L L L L L L L L L L L L L L L L L L L L L L L L L L L L L L L L L L L L L L L L L L L L L L L L L L L L L L L L L L L L L L L L L L L L L L L L L L ",
"L L L L L L L L L L L D A N O                                                   O       O                                                                     O                                                                                                                                                                                                                     - C A H L L L L L L L L L L L L L ",
"L L L L L L L L L A     X # * 1 * 4 4 4 4 4 2 2 2 4 4 4 4 3 3 4 4 4 4 4 4 4 4 4 4 4 4 4 4 4 4 6 4 4 4 4 4 4 4 3 4 2 2 4 2 4 * * 4 2 4 2 4 3 2 4 4 2 3 2 4 2 & 4 * * 4 4 4 4 1 2 4 4 4 4 4 1 4 * 3 & 4 2 1 4 4 4 4 * 2 4 4 4 2 * 4 4 1 1 4 1 4 4 4 4 4 4 4 4 4 4 4 4 4 2 4 2 * 1 4 4 3 4 4 4 3 4 4 3 4 4 4 4 4 4 3 4 4 3 4 4 3 4 4 3 4 4 4 4 4 4 4 4 4 4 4 4 4 4 4 4 4 4 4 4 4 4 4 & % @ .   N H L L L L L L L L L L L ",
"L L L L L L L H M   % i j k j j j j j j j j j j j h j h h h j j h j j j j j j j j j j j h j h j h h j h h j j h j j h h j j j j j j h j j j j j j j j j x j j j j j j j j j j j j j h h h j j j j j j h h j j h h j j h j j j j j h j g j j j j j j j j j x j j j j j j j j j j j j j j j j j h j j j j c j j j c j j l j j l j x j x l j x j j j j j j j j j j j j j j j h l j j j j k h y #   N L L L L L L L L L L ",
"L L L L L L H   X y k j k j j j j j j j h j j g j g g j d h j j j j j j h j j j j j j j j j j h h h j j d h j j j g g j j j j j j h h g h j h h x f h j j h j h j j h j j g h j j j d g j h h j h j j h j h j h j j j h j j h j j j j h j h h j j j j j j j h h j g h j j j j g j h j g h j j h j j j h j j l j j j j j j l h l j j j l j l l j x j j j h j g j j j j j l j j j j j j c j j j r . M L L L L L L L L L ",
"L L L L L J   X i h j k j j j h j j j j j j j h j h j g g d j j j h g h j h j j j j j h j j h h j j j j d g j j d j h g h h g j j g j j j h j j f j h f h j j j j j j j h j j j j j h j j g j j h j j j j h j g g h j j g j j j h h g j h j h j h h j h j h h h h j h j g j j h g j g h j j h j h j j h j j j j j j j j j j j j x l j j j j j g h j j h j j d g h j j j l j j j k j j j j j x c a . N L L L L L L L L ",
"L L L L L N   i g g j j k j j j k j j j k j j j j j j j j j j j j j j h j j j j j j j j j j h j j j g j j j j h j j j j j j h h j j h j j j h j j j j x j j j j h j j h j j j j j j j h j j j h j g j j j h h h j j j j j j j h j j h j j j j j j j j j j j j j j j h h j j j j j j j j j j h j j j j j j j x j j c l j j j j h j j j j l j j j j j j j j g j j j j j j j j j j j j j j l j j c v e + H L L L L L L L ",
"L L L L H   6 a g g j x j h i 7 5 4 6 4 4 6 6 6 4 4 4 4 4 4 1 4 4 4 4 4 4 4 4 4 4 4 4 4 4 4 4 4 4 2 4 1 4 4 1 1 4 4 4 4 4 4 4 4 1 2 4 4 4 4 4 4 3 3 3 3 6 4 4 4 4 6 4 4 4 2 4 2 4 2 4 6 4 4 4 4 4 4 4 4 4 4 2 4 4 4 1 4 4 4 4 4 4 4 6 4 4 4 4 4 4 4 4 6 4 4 4 4 4 4 4 4 4 * 4 2 1 4 4 4 4 4 4 4 4 4 4 4 4 4 4 4 3 3 3 3 4 4 4 4 4 4 4 4 4 4 4 4 4 4 4 4 4 4 4 2 4 & 4 3 3 3 4 5 6 r a v j l j v j v S ; L L L L L L L ",
"L L L L N X a a g d d j i 1 6 n | | .. .|  .| | | | | | | | | | | | { | | | ] ] ] { ] | | } ] | { ] ] | { | | ] { { { | { { | | { ] { { | } } | } | | | [ | ' | | | | { { | { | { | | | | | | | ] | | | | | | | ] | ] { ] { { | ] | { | | | } | } | | | | ] ' | } | } { | ` ] ] ] | ] | | } ] ` [ | } | | | | | |  .} } | | | ' } | | | | } | | | | [ } { [ { [ ` | } | } [ ` [ ^ a 4 8 j v l l v k Y - D L L L L L L ",
"L L L L   6 d d d d d t % z #.&.;.;.;.;.&.&.;.;.;.&.&.&.&.&.&.&.;.&.&.&.&.&.&.&.;.$.$.&.&.&.*.&.&.$.&.&.=.&.&.&.&.;.&.;.&.&.&.&.=.;.&.&.&.&.&.&.&.&.*.&.*.&.*.&.&.&.=.&.$.=.$.$.$.=.&.=.&.&.$.$.=.&.&.&.-.&.&.&.;.=.$.;.&.$.&.&.&.&.;.&.&.&.&.&.;.&.;.&.;.&.&.&.&.$.=.$.&.$.$.$.&.&.$.$.$.$.$.$.*.*.$.;.*.$.&.&.-.-.*.*.$.$.$.$.*.&.*.&.&.=.*.&.$.*.;.=.=.=.;.&.$.&.&.&.&.&.&.&.;.2.O.r 7 j l l z z v V C L L L L L L ",
"L L L G   r f d d p p % z &.&.$.$.$.&.$.$.$.$.$.$.$.$.$.$.$.=.=.$.$.$.$.$.$.$.$.$.$.$.$.$.$.$.$.$.$.$.$.$.$.$.$.$.$.$.$.=.*.&.$.$.$.$.$.$.$.$.&.*.&.$.$.$.$.$.$.$.$.$.$.$.$.$.$.$.$.=.$.$.$.$.$.=.$.$.$.*.$.$.$.$.$.$.$.=.$.$.$.$.$.$.$.$.$.$.$.$.$.$.$.$.$.$.$.$.$.&.$.$.$.$.$.$.$.$.$.&.$.$.$.$.$.$.$.$.$.$.$.-.$.$.$.$.$.$.$.$.$.$.$.$.$.$.$.$.$.$.$.$.$.$.$.$.$.$.$.*.&.$.$.$.$.&.$.e e z l l l v <   L L L L L L ",
"L L L A   a d h d d 5 5 $.#.&.$.*.$.$.$.$.$.$.$.=.$.$.$.$.$.$.=.$.$.$.$.$.$.$.$.$.$.$.$.$.$.$.$.$.$.$.=.$.$.$.$.$.$.$.$.$.$.$.$.$.$.$.$.$.$.$.$.$.*.$.$.$.$.$.$.$.$.$.$.$.$.$.$.$.$.$.$.$.$.$.$.$.$.$.$.*.&.$.$.$.$.$.$.$.$.$.$.$.$.$.$.$.$.$.$.$.$.$.$.$.$.$.$.$.$.$.$.$.$.$.$.$.$.$.$.*.$.$.$.$.$.$.$.$.$.$.$.-.*.$.$.$.$.$.$.$.$.&.$.$.$.$.$.$.$.$.$.$.$.$.$.$.$.$.&.*.$.$.$.$.$.$.;...4 a j l x j w   L L L L L L ",
"L L L A   j j j f f % ) *.#.$.$.&.$.$.$.$.$.$.$.$.$.$.$.$.$.$.$.$.&.$.$.$.$.$.$.$.$.*.&.$.$.$.$.&.$.$.$.$.=.$.$.$.$.$.&.$.$.$.=.$.$.$.$.$.$.$.$.$.$.$.$.$.$.$.$.$.$.$.$.$.*.&.$.$.$.$.$.$.$.$.$.$.$.$.$.$.$.$.$.$.$.*.$.$.$.$.$.$.$.$.$.$.$.$.$.$.$.$.$.$.$.$.$.$.$.=.$.$.$.&.$.$.$.$.$.$.$.$.$.$.$.$.$.$.$.$.$.$.$.$.$.$.$.*.$.*.$.$.$.$.$.$.$.$.$.$.$.$.$.$.$.$.$.$.$.$.$.$.$.$.$.$.$.>.7 u x j k h e   L L L L L L ",
"L L L A   j j j j f $ ..@.$.$.$.$.$.$.$.$.$.$.$.$.$.$.$.$.$.$.$.$.$.$.$.$.$.$.$.$.$.$.$.$.$.$.$.$.$.$.*.$.$.$.$.$.$.$.$.$.$.$.$.$.$.$.$.$.$.$.&.$.$.=.$.$.*.&.$.$.$.$.$.$.$.$.$.$.$.$.&.$.$.$.$.$.$.$.$.=.$.$.$.$.$.&.$.$.$.=.$.$.$.$.$.$.$.$.$.$.$.$.$.$.$.$.=.$.$.$.$.$.$.*.$.$.$.$.$.$.$.$.$.$.$.$.$.$.$.$.$.$.$.$.$.$.$.&.$.$.$.$.$.$.$.$.$.$.$.$.$.$.$.$.$.$.$.$.$.$.$.$.$.$.$.$.@.2.a q j l j j e   L L L L L L ",
"L L L A   j j x j a $ o.$.$.$.$.$.$.$.$.=.$.$.$.$.$.$.$.$.$.$.$.$.$.$.$.$.$.$.$.$.$.$.$.$.$.$.&.$.$.$.$.$.$.$.$.$.$.$.$.*.$.$.$.$.$.$.$.$.$.$.$.$.$.$.$.$.$.$.$.$.$.$.$.$.$.$.$.$.$.$.$.$.$.$.$.$.$.$.$.$.$.$.$.$.$.$.$.$.$.$.$.$.$.$.$.=.$.$.$.*.$.$.$.$.$.$.$.$.$.$.$.$.$.$.$.$.$.$.$.$.$.$.&.$.$.$.$.$.$.$.$.$.$.$.$.$.$.$.$.$.$.$.$.&.*.$.$.$.$.$.$.$.$.$.$.$.$.$.$.$.$.$.$.$.$.*.#.1.j 7 x j x h 8   L L L L L L ",
"L L L A   k j j j a % O.@.$.$.$.$.$.$.$.$.$.$.$.$.$.*.&.$.$.$.$.$.*.$.$.$.$.$.$.$.$.$.$.$.$.$.*.$.$.$.$.$.$.$.$.$.$.$.$.$.$.$.$.$.$.$.$.$.$.$.$.$.$.$.$.$.$.$.$.$.$.$.$.$.$.$.$.$.$.$.$.$.$.$.$.&.*.$.$.$.$.$.$.$.$.$.$.$.$.$.$.$.$.$.$.$.$.$.$.*.&.$.$.$.$.$.$.$.$.$.$.$.$.$.$.$.$.$.$.$.$.$.$.$.$.$.$.&.*.$.$.$.$.$.$.$.$.$.$.$.$.$.&.$.$.$.$.$.$.$.$.*.&.$.$.$.$.=.$.$.$.&.*.$.*.*.$.1.j 7 x j h h e   L L L L L L ",
"L L L A . g j k x h & O.#.*.$.$.$.$.$.$.$.$.$.$.$.$.$.$.$.$.$.$.=.$.$.$.$.$.$.$.$.$.=.$.$.$.$.$.$.$.$.$.$.$.$.$.$.$.$.$.$.$.$.$.&.$.$.$.$.$.$.$.$.$.$.$.$.$.$.$.$.$.$.$.$.$.$.$.$.$.$.$.$.$.$.=.$.$.$.$.&.$.$.$.$.$.$.$.$.$.$.$.$.=.$.$.$.$.$.$.$.$.$.$.$.$.$.$.&.$.$.$.$.$.$.$.$.$.$.$.=.$.$.$.$.$.$.$.$.$.$.$.$.$.$.$.$.$.$.$.$.$.$.$.$.$.$.$.$.$.$.$.$.$.$.=.$.$.$.$.$.$.$.$.$.$.$.#.2.j 7 c c j j r   L L L L L L ",
"L L L A   j j k j h & O.$.$.$.$.$.$.$.$.*.$.$.$.&.$.$.$.$.$.$.$.$.$.$.$.$.$.$.$.$.$.$.$.$.$.$.$.$.$.$.$.$.$.$.$.$.$.$.$.$.$.$.$.=.$.$.$.$.$.$.$.$.$.$.$.*.$.$.$.$.$.$.$.$.$.$.$.$.$.$.$.$.$.$.$.$.$.$.$.*.$.$.$.$.$.$.$.$.$.$.$.$.$.$.$.$.$.$.$.$.$.$.$.$.$.$.$.*.$.$.$.$.$.$.$.$.$.$.$.$.*.$.$.$.$.$.$.$.&.$.$.$.$.=.$.$.$.$.$.*.$.$.$.$.$.$.$.$.$.$.$.$.$.$.$.$.$.$.$.$.$.$.$.$.$.$.$.1.h 7 j j j j e   L L L L L L ",
"L L L A . h j k j h & O.@.=.$.$.$.$.$.$.*.$.$.$.$.$.$.$.$.*.$.$.$.$.$.$.$.$.$.$.$.$.$.$.$.$.$.$.$.$.$.$.$.$.$.&.$.$.$.$.$.$.$.$.$.$.$.$.$.$.$.$.$.$.$.$.&.$.$.$.$.$.$.$.$.$.$.$.*.&.$.$.$.$.$.$.$.$.$.$.$.$.$.$.$.$.$.$.$.$.&.*.$.$.$.$.$.$.$.$.$.$.$.$.$.$.$.*.$.$.$.$.$.$.$.$.$.$.$.$.$.$.$.$.$.$.$.$.$.$.$.$.$.$.$.$.$.$.=.$.&.$.$.$.$.$.$.$.&.$.*.$.$.$.$.$.$.*.$.$.$.$.$.$.$.$.*.#.1.j 7 j h j j e   L L L L L L ",
"L L L A   j j x j h & O.#.$.$.$.$.=.$.$.&.$.$.$.$.$.$.$.$.$.$.=.$.$.$.$.$.$.$.$.$.$.$.$.$.$.$.$.$.$.$.$.$.$.$.*.$.$.$.$.$.$.$.$.$.$.$.$.$.$.$.=.$.$.$.$.$.$.$.$.$.*.=.$.$.$.$.$.$.$.$.$.$.$.$.$.$.$.$.$.$.$.$.$.$.$.$.$.$.$.$.$.$.$.$.$.$.$.$.$.$.$.$.$.$.$.$.&.$.$.$.$.$.$.$.$.$.$.$.$.$.$.$.$.$.$.=.$.$.$.$.$.$.$.*.$.$.$.$.$.$.$.$.$.$.$.$.$.$.$.$.$.$.$.$.$.$.&.$.$.$.$.$.$.$.$.$.$.1.j w j j j j e   L L L L L L ",
"L L L A   j k x j j * O.$.$.$.$.$.$.$.$.&.*.$.$.$.$.$.$.$.$.$.$.$.$.$.$.$.$.$.$.$.$.$.$.$.$.$.$.$.$.$.$.$.$.$.$.$.$.$.$.$.$.$.$.$.$.$.$.$.$.$.$.$.*.&.$.$.$.$.$.$.$.$.$.$.$.$.$.$.$.$.$.$.$.$.$.$.$.$.$.=.$.$.$.$.$.$.$.$.$.$.$.$.$.$.$.$.$.$.$.$.$.*.$.$.$.$.$.$.$.$.$.$.$.$.$.$.$.$.$.$.$.$.$.$.$.$.$.$.$.$.$.$.$.$.$.$.$.$.$.$.$.$.$.$.$.$.$.$.$.$.$.$.$.$.$.$.$.$.$.$.$.$.$.$.$.$.$.2.h 7 l j j j e   L L L L L L ",
"L L L A   j x j j h 1 O.$.$.$.$.$.$.$.$.$.$.$.$.$.$.$.$.*.&.$.$.$.$.$.$.$.$.&.*.$.$.$.$.$.$.$.$.$.$.$.$.$.$.$.$.$.$.$.$.$.$.$.$.$.$.$.$.$.$.$.$.$.$.$.$.$.=.$.$.&.$.$.$.=.$.$.$.$.$.$.$.$.$.$.$.$.$.$.$.$.*.$.$.$.$.$.$.$.$.$.$.$.$.$.$.$.$.$.$.$.$.$.$.*.&.$.$.$.$.$.$.$.$.$.$.$.$.$.$.$.$.$.$.$.$.$.&.$.$.$.$.$.$.$.$.&.*.$.$.$.$.$.$.$.$.$.$.=.$.$.$.$.$.$.$.$.$.$.$.$.$.$.$.$.=.$.$.,.j 7 j j j j u   L L L L L L ",
"L L L A   j j k v h & O.#.$.$.$.$.$.$.$.$.$.$.$.$.$.$.$.$.$.$.$.$.&.$.$.$.$.$.$.$.$.$.$.$.$.$.$.$.$.*.$.$.=.$.$.$.$.$.$.$.$.$.$.$.$.=.$.$.$.$.$.$.$.$.$.$.$.$.$.$.$.$.$.$.$.$.$.$.$.$.$.$.$.$.$.$.$.$.$.$.$.$.$.$.$.$.$.$.$.$.$.$.$.$.$.$.*.$.$.$.$.$.$.$.$.$.$.$.$.$.$.$.$.&.$.$.$.$.$.$.$.*.&.$.$.$.$.$.$.$.$.$.$.$.$.$.$.$.$.$.&.$.$.$.$.$.$.$.$.$.$.$.$.$.$.$.$.$.$.$.$.$.$.$.$.$.@.,.g 8 j x x j e   L L L L L L ",
"L L L A . h k j j h & O.#.$.$.$.$.$.$.$.$.$.$.$.$.$.$.$.$.$.$.$.$.$.$.$.$.$.$.$.$.$.=.$.$.$.&.*.$.$.&.$.$.$.$.$.$.$.$.$.$.$.&.$.$.$.$.$.$.=.$.$.$.$.$.$.$.$.$.$.$.$.$.$.$.$.$.$.$.$.&.*.$.$.$.$.$.$.$.$.$.$.$.$.$.$.&.$.$.$.$.$.$.$.$.$.$.&.$.$.$.$.$.=.$.$.$.$.$.$.$.$.$.$.$.$.*.$.$.$.$.$.$.$.$.*.$.$.$.$.$.$.$.$.$.$.$.$.$.$.$.$.$.$.$.$.$.$.$.$.$.*.$.$.$.$.$.$.$.$.$.$.$.$.$.$.$.$.:.h 7 j j j j e   L L L L L L ",
"L L L A   h j k l h & @.$.$.$.$.$.=.$.$.$.$.$.$.$.$.$.*.$.$.$.$.$.$.$.$.$.$.$.$.$.$.*.&.$.$.$.$.$.$.$.$.$.$.$.$.$.*.&.$.$.$.$.$.$.$.$.&.$.$.$.$.$.$.$.$.$.$.$.$.$.$.$.$.$.$.$.$.$.$.$.$.$.$.$.$.$.$.*.$.&.$.$.$.$.$.$.$.$.$.$.$.$.$.$.$.$.$.$.$.$.$.$.$.$.$.$.$.$.$.$.&.$.$.$.$.&.$.$.$.$.$.$.$.$.$.$.$.$.$.$.$.$.$.$.$.$.$.$.$.$.$.$.$.$.$.$.$.$.$.$.$.$.$.&.$.$.$.$.$.$.$.$.$.$.$.$.$.;.h 7 j j j j e   L L L L L L ",
"L L L A   j j k j d & @.$.$.$.$.$.$.$.$.$.$.$.$.$.$.$.$.$.$.$.$.*.$.$.$.$.$.$.$.$.$.$.$.$.$.$.$.$.$.$.$.$.$.$.$.$.$.$.$.$.$.$.$.$.$.$.$.$.$.$.$.$.$.$.$.$.$.$.$.$.$.$.&.$.$.$.$.$.$.$.$.$.$.$.$.$.$.&.$.$.$.$.$.$.$.$.*.$.$.$.$.$.$.$.$.$.$.$.$.$.$.$.$.$.$.$.$.$.$.$.*.$.$.$.$.$.$.$.$.$.$.$.$.$.$.$.$.$.$.&.*.$.$.$.$.$.$.$.$.$.$.$.$.$.$.$.$.$.&.$.$.$.$.*.$.=.$.$.$.$.$.$.$.$.$.$.@.,.j q j j h j e   L L L L L L ",
"L L L A   j j j j h & o.#.$.$.&.$.*.$.$.$.$.$.$.$.$.$.$.$.$.$.$.=.$.$.$.$.$.$.$.$.$.$.$.$.$.$.$.$.$.$.$.&.$.$.$.$.$.$.$.$.$.$.$.$.$.$.$.$.$.$.$.$.$.$.$.$.&.$.$.$.$.$.*.$.$.$.$.$.$.$.$.$.*.&.$.$.$.$.$.$.$.$.$.$.$.$.$.$.$.$.$.$.$.$.$.$.$.$.&.$.$.$.$.=.$.$.$.$.$.$.$.=.$.$.$.$.$.$.$.$.$.$.$.$.$.$.$.$.$.$.$.$.$.$.$.$.$.$.$.$.$.$.$.$.$.$.$.$.$.$.$.$.$.$.$.$.$.$.$.$.$.$.$.$.$.$.$.,.j 7 z j j j r   L L L L L L ",
"L L L A . h k j j s & o.$.$.$.$.$.$.$.$.$.$.$.$.&.$.$.$.=.$.$.$.$.$.$.$.$.$.$.$.$.$.$.$.$.$.$.$.$.$.$.$.$.*.$.$.$.$.$.$.$.$.$.$.$.$.=.$.$.$.$.$.$.$.$.$.$.*.$.$.$.$.$.$.$.$.$.$.$.$.$.$.$.$.$.$.$.$.$.$.$.$.$.$.$.$.=.$.$.$.$.$.$.$.$.&.$.$.$.*.$.$.$.$.$.$.$.$.$.$.$.$.$.$.$.$.$.$.$.$.$.$.$.=.$.$.$.$.$.$.$.$.$.$.$.$.&.*.$.$.$.$.$.$.*.&.$.$.$.$.$.$.$.$.$.$.$.$.$.$.*.&.$.$.$.$.$.$.2.h 7 j j j j e   L L L L L L ",
"L L L A   j j l j h & +.$.$.$.$.$.$.$.$.$.$.*.&.$.$.$.$.$.$.$.$.$.$.$.$.$.$.$.$.$.$.&.$.$.$.$.$.$.$.$.$.$.$.$.$.$.$.$.$.$.$.$.&.$.$.$.$.&.$.$.$.$.$.$.$.$.$.$.$.$.$.*.$.$.$.$.$.$.$.$.$.$.$.$.$.$.$.$.$.$.$.=.$.$.$.$.$.$.$.$.$.$.$.$.$.$.$.$.$.$.$.$.$.$.&.$.$.$.$.$.$.$.$.$.$.$.$.$.$.$.$.$.$.$.$.$.$.$.&.$.$.*.&.$.$.$.$.=.$.$.$.$.$.$.$.$.$.$.$.$.$.$.$.$.$.$.$.$.$.$.$.$.$.$.$.$.$.,.d 8 j k j k r   L L L L L L ",
"L L L A   h j j j h & +.$.$.$.$.$.$.$.$.$.$.$.$.$.$.$.$.$.$.$.$.$.$.$.$.$.$.=.$.$.$.$.$.$.$.$.$.$.=.$.$.$.*.$.$.$.$.$.$.$.$.$.*.$.$.$.$.$.$.$.$.$.$.$.$.$.$.$.$.$.$.&.$.$.$.$.$.$.$.$.$.$.$.$.$.$.$.$.$.$.$.$.$.$.$.$.$.$.$.$.$.$.$.$.$.$.$.$.$.$.=.$.$.$.$.$.$.$.$.$.$.$.$.$.$.$.$.$.$.$.$.=.$.$.$.$.$.$.*.$.$.$.$.$.$.$.$.$.$.*.$.$.$.$.$.$.$.$.$.$.$.$.$.$.$.$.$.$.$.$.$.$.$.$.$.$.$.,.j 7 j j j j e   L L L L L L ",
"L L L A . h j j j g * O.$.$.$.$.$.$.&.*.$.$.$.$.$.$.$.$.$.$.$.$.$.$.$.$.$.$.$.$.$.$.$.$.$.$.$.$.$.$.$.$.$.$.$.$.$.$.$.$.$.$.$.$.$.$.$.$.$.$.$.$.$.$.$.$.$.$.$.$.$.$.$.$.$.$.$.$.$.=.$.$.$.$.$.$.$.$.$.$.$.$.$.$.$.$.$.$.$.$.$.$.$.$.$.$.$.$.=.=.$.$.$.*.$.$.$.$.&.$.$.$.$.$.$.$.$.$.$.$.$.$.$.$.$.$.$.$.$.$.$.$.$.$.$.$.$.$.$.$.$.$.$.$.$.$.$.$.$.$.$.$.$.$.$.$.$.$.$.$.$.$.$.$.$.$.$.$.;.j 7 l x j j r   L L L L L L ",
"L L L A   h c j k h & +.@.$.$.$.$.$.$.$.$.$.$.$.$.$.$.$.$.$.$.$.$.$.$.&.$.$.$.$.$.$.$.*.$.$.$.$.$.$.$.$.$.$.&.$.*.$.$.$.$.$.$.$.$.$.$.$.$.$.$.$.$.$.$.$.$.$.$.$.$.$.$.$.$.$.$.=.$.$.$.$.$.$.$.$.$.$.$.$.$.$.$.*.$.$.$.$.$.$.$.$.$.$.$.$.$.$.$.=.$.$.$.$.$.$.$.$.*.*.$.$.$.$.=.$.$.$.&.*.$.$.$.$.$.$.$.$.$.$.$.$.$.$.$.$.$.$.$.$.&.$.$.$.=.$.$.$.$.$.$.$.&.*.$.$.$.$.$.$.$.$.$.$.$.$.$.$.2.h 7 j j j j r   L L L L L L ",
"L L L A   g j j j a & +.#.$.$.$.$.$.$.$.$.$.$.$.$.$.$.$.$.$.&.$.$.$.$.$.$.$.$.$.$.$.$.$.$.$.$.$.$.$.$.$.$.$.&.*.&.$.$.$.$.$.$.$.$.$.$.$.$.$.$.$.$.$.$.$.$.$.$.$.$.$.$.$.=.$.$.$.$.&.&.=.$.$.$.$.$.$.$.$.$.$.&.$.$.$.$.$.$.$.$.$.$.*.$.$.$.$.o.|  .$.$.$.$.$.$.$.$.*.=.$.$.$.$.$.$.$.$.$.$.$.&.$.$.$.*.$.$.$.$.$.$.$.$.$.$.$.*.$.$.$.$.$.$.$.$.$.$.$.$.$.=.$.$.$.$.$.$.$.$.$.$.$.$.$.$.$.,.g 7 k j j j r   L L L L L L ",
"L L L A   j l j h a & +.$.$.$.$.$.$.$.$.$.$.$.$.$.$.$.$.$.$.*.$.$.$.$.$.$.$.$.$.$.$.$.$.$.$.$.$.$.$.$.$.$.$.$.$.$.$.$.$.$.$.=.$.$.$.$.$.$.$.$.$.$.$.$.$.$.o.$.$.$.$.$.$.&.$.$.| h v v 8 $.$.$.$.$.$.$.$.$.$.$.$.$.$.O. .$.$.$.$.$.$.$.$.v i  .@.o.n | $.$.$.$.$.$.$.$.$.$.$.$.$.$.$.$.$.$.$.*.$.$.$.$.$.$.$.$.$.$.$.$.$.&.$.$.$.$.$.$.$.$.$.$.$.$.$.$.$.$.$.$.$.$.$.$.$.$.$.$.$.$.$.&.@.,.j 7 j j x j e   L L L L L L ",
"L L L A . j j j j h & O.$.$.$.$.$.$.$.=.$.$.$.$.$.$.$.=.$.$.$.$.$.$.$.$.$.$.$.$.$.$.$.$.&.*.$.$.$.$.$.$.$.$.$.$.$.$.$.$.$.$.$.$.$.=.$.$.$.$.$.$.@.` r ^ X.+.| g v O.$.$.$.$.&.` ,.s.d.a $.$.$.$.$.$.$.$.$.$.$.$.%.b ) @.y O.$.$.$.$.$.7 ;.s.d.f.f.7.) $.$.&.$.$.$.$.$.$.$.$.$.$.$.$.$.$.$.$.$.$.$.$.=.$.$.$.$.$.$.$.$.$.$.$.$.$.$.$.$.$.$.$.*.$.$.$.$.$.$.$.$.$.$.$.$.$.$.$.$.$.$.$.$.$.,.j 7 j j j x r   L L L L L L ",
"L L L A   h j j j h & +.@.$.$.$.$.$.$.$.$.$.$.$.$.$.$.$.$.$.$.$.$.$.$.$.*.&.$.$.$.$.$.$.$.$.$.$.$.$.$.$.$.$.$.$.$.$.$.$.$.$.$.$.$.&.$.$.$.$.$.| n 7.a.d.f.f.f.f.e.@.j @.$.$.$.` ,.s.d.a $.$.$.$.&.*.$.$.$.$.$.$.#.^ f.d.0.7 $.$.$.$.v <.f.s.a.r.w.;.` $.@...@.@.$.$.$.$.$.$.$.$.$.$.$.$.$.$.$.$.&.*.$.$.$.$.$.$.$.$.$.$.$.$.$.$.$.$.$.$.$.&.*.$.=.$.$.$.$.$.$.$.$.$.$.$.$.$.$.$.$.$.$.$.,.j 7 j j j j r   L L L L L L ",
"L L L A   h j j j d & o.$.$.$.$.$.$.$.$.$.$.$.$.$.$.$.$.$.$.$.$.$.$.$.$.*.$.$.$.$.=.$.$.$.&.$.$.$.$.$.$.$.$.$.$.$.$.$.$.&.*.$.$.$.$.$.$.$.$.m o.f.f.f.f.y.t.d.f.a.d.q.t +.$.$.` :.a.a.h =.=.$.$.$.$.$.$.$.$.$.$.O.[ s.s.y.6 $.$.=.=.a s.d.u.) e r 7 O.$.r O.o.^ | $.$.$.$.$.$.$.$.$.$.$.$.$.$.$.$.$.$.$.$.$.$.$.$.$.$.$.=.$.$.$.$.$.$.$.$.$.$.$.$.$.$.$.$.$.$.$.$.$.$.$.$.$.$.$.$.$.$.@.:.h 7 k j j j e   L L L L L L ",
"L L L A   j k j j s & o.#.$.$.$.$.$.$.$.*.$.$.$.*.$.$.$.$.=.$.$.$.$.$.$.&.$.$.$.$.$.$.$.$.*.$.$.$.$.$.$.$.$.$.$.$.$.$.$.$.$.$.$.$.$.$.$.$.O.` f.f.d.,.g 7 0 0 ` q.a.a.8.j &.$.` 2.d.f.h $.$.$.$.$.$.$.$.$.$.=.$.$.q 2.8.| b $.$.=.| X.f.f.&.^ *.&.*.$.$.v f.f.5.` $.$.$.$.$.$.$.$.$.$.$.$.$.$.$.$.$.$.$.$.$.$.*.$.$.&.$.$.$.$.$.$.$.$.&.$.$.$.$.$.$.$.$.$.$.$.$.$.$.$.$.$.$.$.$.$.$.$.$.2.j 7 z j j j e   L L L L L L ",
"L L L A   j j x j f & o.$.$.$.$.$.$.$.$.&.$.$.$.&.$.$.$.$.$.$.$.$.$.$.$.$.$.$.$.$.$.$.$.$.$.$.$.$.$.&.*.=.$.$.$.$.$.$.$.$.$.$.$.$.$.$.$.$.v w.f.f...v $.&.$.$.o.0 q.a.a.` o.$.` 3.f.f.j $.$.$.$.&.&.$.$.$.$.$.$.$.@.^ v [ $.$.$.$.{ ;.f.f.| @.&.$.&.$.$.v f.f.6.` $.%.%.$.$.$.$.$.$.$.$.$.$.*.&.$.$.$.$.=.$.$.$.$.$.$.$.$.$.$.$.$.$.$.*.$.$.$.$.$.$.$.$.$.$.$.$.$.$.$.$.$.$.$.$.$.$.$.$.,.j 7 j j k j r   L L L L L L ",
"L L L A   j j x l f & O.@.$.$.$.$.$.$.$.$.$.$.$.$.$.$.$.$.$.$.$.$.$.$.$.$.$.$.$.$.$.$.$.$.$.$.$.$.$.$.$.$.$.$.$.$.$.$.$.$.$.$.$.$.$.$.=.$.a f.f.w.y $.$.&.&.$.$.+.^ a.a.6.^ &.` 4.f.f.j $.$.@.| | | $.$.$.$.$.$.$.$.$.$.$.$.$.$.&.` 2.f.f.^ &.@...$.$.$.j f.f.5.` $.$.*.$.$.$.$.$.&.$.$.$.$.$.$.$.$.$.$.$.$.$.$.$.$.$.$.$.$.$.$.$.$.$.$.$.$.$.$.$.$.$.$.$.$.*.&.$.$.$.$.$.$.$.$.$.$.$.$.,.j 8 j j j h e   L L L L L L ",
"L L L A . h j j j f & O.$.$.$.$.$.$.$.$.$.$.$.$.$.$.$.$.$.$.$.$.$.$.$.$.$.$.$.$.$.$.&.*.$.$.$.$.$.$.$.$.$.$.$.$.=.$.$.$.$.$.$.$.$.$.$.$.$.b f.f.7.) $.$.$.$.$.$.$.i i.f.y.y &.` 4.f.f.d ` a @.5.5.$.v v $.$.$.$.$.e n n j ` $.7 m v 7.f.f.o.) ^ m & ) n ..f.f.8.m ^ v [ $.$.$.$.$.$.$.$.$.$.$.$.$.$.$.$.$.$.$.$.$.$.$.$.$.$.$.$.$.$.$.$.$.$.$.=.$.$.$.$.$.$.=.$.$.$.$.$.$.$.$.$.$.$.$.@.2.j 7 k x j v r   L L L L L L ",
"L L L A   j j j j f < o.#.$.$.$.$.$.&.$.$.$.$.$.$.$.$.$.$.$.$.$.$.$.$.$.$.$.$.$.$.$.$.$.$.$.$.$.$.$.$.$.$.$.$.$.$.$.$.$.$.$.$.$.$.$.$.$.$.p f.f.u.j $.$.$.$.$.$.$.` a a p j &.` 6.f.f.a ,.f.f.f.f.f.f.3.y $.$.$.$.u s.f.7.) $.e f.f.f.f.f.f.f.f.9.7 i.s.f.d.f.f.f.f.8.` $.$.$.$.$.$.$.$.$.$.$.$.$.$.$.$.$.$.$.$.$.$.$.$.&.*.$.$.$.&.*.$.$.$.$.$.$.$.$.$.$.$.$.$.$.$.$.$.$.$.$.$.$.$.$.$.2.j 7 j j j j e   L L L L L L ",
"L L L A   x j x j f 2 O.#.$.$.$.$.$.$.$.$.=.$.$.$.$.$.$.*.&.$.$.*.$.$.$.$.$.$.$.$.$.$.$.$.$.$.$.$.$.$.$.$.$.$.$.$.*.$.$.$.$.$.$.$.$.$.$.&.y t.f.f.&.l +.$.$.$.$.$.$.$.$.$.$.&.` 3.f.f.9.f.f.w.9.u.f.f.f.$.v =.$.$.u f.d.6.) &.q r.r.d.f.f.u.r.t.7.1 q.w.w.d.i.y.9.0.2.^ *.&.$.$.$.$.$.$.$.$.$.$.$.$.$.&.$.$.$.$.$.$.$.$.$.$.$.$.$.$.$.$.$.$.$.$.*.&.$.$.$.$.$.$.$.$.$.$.$.$.$.$.$.$.$.@.2.j 7 c j j j e   L L L L L L ",
"L L L A   j j j j a % o.#.$.$.$.*.$.$.$.$.$.$.$.$.$.$.$.$.$.$.$.$.$.$.=.=.$.$.$.$.$.$.$.$.$.$.$.$.$.$.$.$.$.$.&.$.$.$.$.$.$.$.$.$.$.&.*.&.| ..f.f.f.7.n e ` O.$.$.$.$.$.$.$.&.} 6.f.f.f.w.j v ) v @.f.f.u.7 $.$.$.i d.d.6.) =.m ^ j 2.f.f.` ~ ` ^ ) ` ) y d.s.5.i b v O.$.$.$.$.$.$.$.$.$.$.$.=.$.$.$.$.$.$.$.$.$.$.$.$.$.$.$.$.$.$.$.$.$.$.$.$.$.$.$.$.$.$.$.$.$.$.$.$.$.$.$.$.$.$.$.$.2.j 7 v x j j e   L L L L L L ",
"L L L A   g j j j h 4 o.#.$.$.$.$.$.$.$.$.$.$.$.$.$.$.$.$.$.$.$.$.$.$.$.$.$.$.$.$.$.$.$.$.$.$.$.$.$.$.$.$.$.$.$.$.=.$.$.$.$.$.$.$.$.$.$.$.$.v @.f.f.a.a.e.,.] 8 ` $.&.$.$.$.$.` 6.f.f.w.k #.$.$.$.v 7.d.s.^ @.$.&.i d.d.6.) $.$.$.| ;.f.f.| &.&.$.$.$.$.p f.s.5.) &.&.&.$.$.$.$.$.$.$.$.$.$.$.$.$.$.$.$.$.$.$.$.$.$.$.$.$.$.$.$.$.$.$.$.$.$.$.$.$.$.$.$.$.$.$.$.$.$.$.$.$.$.$.$.$.$.$.@.2.j 7 j j j j e   L L L L L L ",
"L L L A . g k j j f < O.@.$.$.$.$.$.$.$.$.$.$.$.$.$.$.$.$.$.$.$.$.$.$.$.$.$.$.$.$.$.$.$.$.$.$.$.$.$.$.$.$.$.$.$.$.$.$.$.$.$.$.&.$.$.$.$.$.$.$.v ( 9.a.a.a.f.f.a.6.v ^ $.$.$.*.[ 4.f.f.| @.$.$.$.$. .O.f.s.X. .$.$.i a.d.7.) $.$.$.` 1.f.f.| &.*.$.$.$.&.a f.f.6.) &.&.*.$.$.&.*.$.$.$.$.$.$.$.$.$.$.$.$.$.$.$.$.$.$.$.$.$.$.*.$.$.$.$.$.$.$.$.$.*.$.$.$.$.$.$.$.$.=.$.$.$.$.$.$.$.$.$.$.2.j q j j j j e   L L L L L L ",
"L L L A   j j j j h & o.$.$.$.$.$.$.$.$.$.$.$.$.$.$.$.$.$.$.$.$.$.$.$.&.$.$.$.$.$.$.$.$.$.$.$.&.$.$.$.$.$.&.$.$.$.$.$.$.$.$.$.$.$.$.$.$.$.$.$.$.O.j z :.e.f.a.f.f.f.3.h @.$.$.` 4.f.f.n $.$.$.$.$. ...d.s.O. .$.$.p f.f.7.^ $.$.&.| ;.f.f.| $.$.$.$.$.*.a f.f.6.` &.$.$.$.$.$.$.$.$.$.$.$.$.$.$.$.$.$.$.$.$.$.$.$.$.$.$.&.$.$.$.$.$.$.$.$.$.$.=.&.$.$.$.$.$.$.$.$.$.$.$.$.$.$.&.$.$.$.$.2.j 7 j x j j e   L L L L L L ",
"L L L A . g k j j a & O.$.$.$.$.$.$.$.$.$.$.$.$.&.$.*.$.$.$.$.$.$.$.$.$.$.$.$.$.$.$.$.$.$.$.$.$.$.$.$.$.$.*.$.$.$.$.$.$.*.$.$.$.$.$.=.$.$.$.$.$.$.$.+.` 7 j &.t.f.f.f.9.h $.$.` 4.d.f.n $.$.$.$.$. . .a.d.O.| $.$.a f.f.7.) $.$.=.| ;.f.f.| $.$.$.$.$.$.a f.f.7.) $.$.$.$.$.$.$.$.$.$.$.$.$.$.$.$.$.&.$.*.$.$.=.$.$.$.$.$.$.$.$.$.$.$.$.$.$.$.$.$.$.$.$.$.&.$.$.$.$.$.$.$.$.$.*.$.$.$.@.2.j 7 x j j j e   L L L L L L ",
"L L L A   g j x j h * O.$.$.$.$.$.$.$.$.$.$.$.$.$.$.$.$.$.$.$.$.$.$.$.$.$.&.$.$.$.$.$.&.$.$.$.$.$.$.$.$.$.$.$.$.$.$.$.$.$.$.$.$.$.$.$.$.$.$.$.$.$.$.$.$.&.$.' h +.f.f.f.@.| &.` 3.a.d.v $.$.$.$.$. ...s.f.@. .$.$.a f.f.7.) &.$.$.` ;.f.d.{ $.$.$.$.$.$.a f.f.7.` &.&.$.$.$.$.$.$.$.$.$.$.*.$.$.$.$.$.$.$.$.$.$.$.$.$.$.$.$.=.$.$.$.$.$.$.$.$.$.$.$.$.$.$.$.$.$.$.$.$.$.$.$.$.$.$.$.*.@.2.j 7 j j j j e   L L L L L L ",
"L L L A . f j j j s & O.$.$.$.$.$.$.$.$.$.$.$.$.$.$.$.$.$.$.$.$.$.$.$.$.$.*.$.$.$.$.$.*.$.$.$.$.$.$.$.$.$.$.$.$.$.$.$.$.$.$.$.$.$.$.$.$.O.[ ' ' O.$.$.$.$.$.$.&._ +.f.f.e.e =.` 2.s.a.v $.$.$.$.$. . .s.f.@. .$.$.a f.f.7.` *.&.&.| &.a.f.` =.$.$.$.$.$.a f.f.6.) *.*.&.$.$.$.$.$.$.$.$.*.$.$.$.$.$.$.$.$.$.$.$.$.$.$.$.$.$.$.$.$.$.$.$.$.$.$.$.$.$.$.$.$.$.$.$.$.$.$.$.$.$.$.$.$.$.*.#.2.j q x j j h e   L L L L L L ",
"L L L A   x j j j f & O.$.$.$.$.$.$.$.$.$.$.$.$.$.$.$.$.$.$.*.&.$.$.$.$.$.$.$.$.$.$.$.$.=.$.$.$.$.$.$.$.$.$.$.$.$.$.&.*.$.$.$.$.$.&.$.$.7 ;.2.$.a $.$.$.$.$.$.$.$.r f.f.f.6 =.` 3.a.a.v $.&.$.$.=. ...f.f.@. .$.&.h f.f.7.) $.$.*.` ;.d.s.` &.$.$.$.$.$.a f.f.6.` *.$.$.$.$.$.$.$.$.$.$.&.$.$.$.$.$.$.$.$.$.$.$.$.$.$.$.$.$.$.$.*.$.$.$.$.$.$.$.$.$.$.$.$.$.$.$.*.&.$.$.$.$.$.$.$.$.=.$.<.j q j j j h r   L L L L L L ",
"L L L A . g j x j s & O.@.$.$.$.$.$.$.$.$.$.$.$.&.$.$.$.$.$.$.$.$.=.$.$.$.$.$.$.$.$.$.$.$.$.$.$.$.$.$.$.=.$.$.$.$.$.$.$.$.$.$.$.*.*.$.$.e w.f.i.8 $.$.$.$.$.$.$.$.h u.f.d.5 &.` 2.f.a.z $.$.$.$.$. . .f.f.$. .$.=.a f.f.7.` $.$.&.[ &.d.s.( $.$.$.$.$.$.p f.f.6.) $.$.$.$.$.$.$.$.$.=.$.$.$.$.$.$.$.$.$.$.$.$.$.$.$.&.*.$.$.$.$.&.$.$.$.$.$.$.$.&.*.$.$.$.$.$.$.$.$.$.$.$.$.$.$.$.$.$.#.2.j 7 j j j j e   L L L L L L ",
"L L L A   j j j j f & O.@.$.$.$.$.$.$.$.$.$.$.$.$.$.$.$.$.$.$.$.$.$.$.$.$.$.$.$.$.$.$.$.$.$.$.$.$.$.$.$.$.$.$.$.$.$.$.$.$.$.$.$.$.$.$.$.' ,.a.a.O.` $.$.$.$.$.$.%.v f.f.y.4 $.` ,.a.a.v $.$.$.$.$. .X.f.f.$.| $.$.a f.f.7.) $.$.$.| &.f.f.` @.$.$.$.$.$.i s.d.5.` $.$.*.*.$.$.$.$.$.$.$.$.&.$.$.$.$.$.$.$.$.$.$.$.$.$.$.$.$.$.$.*.$.$.$.$.$.$.$.$.$.$.=.$.$.$.$.$.$.$.$.$.$.$.$.$.$.%.#.3.j 8 j j j j e   L L L L L L ",
"L L L A   j j x j g & O.$.$.$.$.$.$.$.$.$.$.$.$.$.$.$.$.$.$.$.$.$.$.$.*.$.$.$.$.$.=.$.$.$.$.$.$.*.&.$.$.$.$.$.$.$.$.$.$.$.&.$.$.$.$.$.$.+.g a.f.p.] b @.$.$.$.| j 0.s.d.3.v =.` ,.f.f.v $.$.$.$.$. .o.f.f.$. .*.$.a f.f.7.` $.$.$.[ ;.f.f.` @.$.$.$.$.$.r i.d.7.j $.@.@.$.$.$.$.$.$.$.$.$.$.*.$.&.*.$.$.$.$.=.$.$.$.$.$.&.*.$.$.&.$.$.$.$.$.$.&.$.$.$.$.$.$.$.$.$.$.$.$.$.$.$.$.$.$.$.$.<.j 7 j j j j e   L L L L L L ",
"L L L A . g j j j f & +.$.$.$.$.$.$.$.$.$.$.$.$.$.$.*.$.$.$.$.$.$.$.$.$.$.$.$.$.$.$.$.$.$.$.*.$.$.$.$.$.$.$.$.$.$.$.$.*.$.$.$.$.$.$.$.$.&.n o.d.f.f.9.+.n v ^ #.t.f.d.y.p O.$.` ,.f.f.v $.$.$.$.$. .o.f.d.$. .$.$.a f.f.7.` &.$.$.[ 2.f.f.` $.$.$.$.$.$.7 t.d.a.#.v ` n $.$.$.$.$.$.$.$.$.$.$.$.$.$.$.$.$.$.$.$.$.$.$.$.$.$.$.$.$.$.$.$.$.$.$.$.$.$.$.$.$.$.$.$.$.$.$.$.$.$.$.$.$.$.$.$.2.h 7 j j j j e   L L L L L L ",
"L L L A   j j j j f < O.@.$.$.$.$.$.$.$.$.$.$.$.$.$.$.$.$.$.$.$.&.$.$.$.$.$.$.$.$.$.$.$.$.$.&.$.$.$.$.$.$.&.$.$.$.$.$.&.$.$.$.$.$.$.$.$.$.$.n | y.f.f.f.f.f.f.d.d.f.r.n ` $.$.` 2.f.f.b $.$.$.$.$.O.O.f.f.$. .$.&.a f.f.7.` &.$.$.| 2.f.f.} $.$.$.$.$.$.^ #.u.d.s.f.r.c $.$.$.$.$.$.$.$.$.$.$.$.$.$.$.$.$.$.$.$.$.$.$.$.$.$.$.$.$.$.$.$.$.$.$.$.$.$.$.$.$.$.$.$.$.$.$.$.$.$.$.$.$.$.$.$.2.j 7 j j j h e   L L L L L L ",
"L L L A   g j x j h < O.#.*.$.$.$.$.$.$.$.$.$.$.$.$.$.$.$.$.$.$.$.$.$.$.$.$.$.$.$.$.$.$.$.$.$.$.$.$.$.$.$.$.$.$.$.$.$.$.$.$.$.$.$.$.$.$.$.$.$.| e $.9.f.f.f.f.a.8.O.7 ..$.$.$.) $.r.y.v $.$.$.&.&...X.u.y.@...&.$.i t.t.6.` $.$.$.} $.t.u./ $.$.$.$.&.$.&.p $.t.s.s.0.u $.$.$.$.$.$.*.&.$.$.$.$.$.$.$.$.$.$.$.$.$.$.$.$.$.$.$.$.$.$.$.$.$.$.$.$.$.$.$.$.$.&.$.$.$.$.$.$.$.$.$.$.$.$.$.$.;.j 7 j j j j e   L L L L L L ",
"L L L A   g x j j f 3 O.$.*.$.$.$.$.$.$.$.$.$.$.$.&.$.$.$.$.$.$.$.$.$.$.$.$.$.$.&.*.$.$.$.$.$.$.$.$.$.$.=.$.$.$.$.$.$.$.$.$.*.$.$.$.$.$.$.$.$.$.$...) y p a y e ^ | $.$.*.$.&.O.z j n ` $.$.$.$.$.&.` ) ) ) =.=.*.[ ^ b ) O.$.$.$.+.` ` / ` $.$.$.$.$.$.&.$.` 0 u r u o.$.$.$.$.$.$.$.$.=.$.$.$.$.$.$.$.$.$.$.$.$.&.$.$.$.=.$.$.$.$.$.$.$.$.$.$.$.$.$.$.$.*.$.$.$.$.$.$.$.$.$.$.$.$.$.$.2.j q j j z h e   L L L L L L ",
"L L L A   j j j j h & O.#.$.$.$.$.$.$.$.$.$.$.$.$.$.$.$.$.$.$.$.$.$.$.$.$.$.$.&.$.$.$.$.$.$.$.$.$.$.$.$.$.$.$.$.$.$.$.$.$.=.$.$.$.$.$.$.$.$.$.$.$.$.$.*.$.$.=.$.$.&.$.$.$.$.$.$.$.$.&.=.$.$.$.$.$.$.$.$.$.$.$.$.$.$.$.$.$.$.$.$.$.$.&.&.$.$.$.$.$.$.$.$.$.$.&.$.$.$.&.$.$.$.$.$.$.$.$.$.$.$.$.$.$.$.$.$.$.$.*.&.$.$.$.$.$.$.$.$.$.$.$.$.$.*.$.$.$.$.$.$.$.$.$.$.$.$.$.$.$.$.$.$.$.$.$.@.:.h 7 k j j j r   L L L L L L ",
"L L L A   x x j j h & O.$.$.$.$.$.$.$.$.$.$.$.$.$.$.$.$.*.&.$.$.$.$.$.$.$.$.$.*.$.$.$.$.$.$.$.$.$.$.$.$.*.$.$.$.$.$.$.$.$.$.$.$.$.$.$.$.$.$.$.$.$.$.$.$.$.$.$.$.$.$.$.$.$.$.=.$.$.$.$.=.$.$.$.$.$.$.$.$.$.$.$.$.$.$.$.$.$.$.$.$.$.$.$.=.$.$.$.$.$.$.$.$.$.$.$.$.$.$.$.$.$.$.$.$.$.$.$.$.$.$.$.$.$.$.$.$.$.$.$.$.$.$.$.$.*.$.$.$.$.$.$.$.$.=.$.$.$.$.$.$.$.$.$.$.$.$.$.$.$.$.$.$.$.$.$.$.<.g 7 j j k j e   L L L L L L ",
"L L L A . j j z j s < o.#.$.$.$.$.$.$.$.$.$.$.$.$.$.$.&.$.$.$.$.$.$.$.$.$.&.$.$.*.$.$.$.$.$.$.$.$.$.$.$.$.$.&.$.$.$.$.$.$.$.$.$.$.$.$.$.$.$.$.$.$.$.$.$.$.$.$.$.$.$.*.$.$.$.$.$.$.$.$.$.$.$.$.$.$.$.$.$.$.$.$.$.$.$.$.$.$.*.$.$.$.$.$.$.&.$.$.$.$.$.$.$.$.$.$.$.$.$.$.$.$.$.$.$.$.$.$.$.$.$.=.$.$.$.&.$.$.$.$.$.$.$.$.$.$.$.$.$.$.$.$.$.$.$.$.$.$.$.$.$.$.$.$.$.$.$.$.&.$.$.$.$.$.$.=.$.2.h 7 j j j j r   L L L L L L ",
"L L L A   j j j j a < o.$.$.$.$.$.$.$.$.$.$.$.$.$.$.$.*.$.$.$.$.$.$.$.$.$.*.$.$.&.$.$.$.$.$.$.$.$.$.$.$.$.$.$.$.$.$.$.$.$.$.$.$.$.$.$.$.$.=.$.$.$.$.$.$.$.$.$.$.$.$.&.$.$.$.$.$.=.$.$.$.$.$.$.$.$.$.$.$.$.$.$.$.$.$.$.$.$.&.$.$.$.$.=.$.*.$.$.$.$.$.$.$.=.$.$.$.$.$.$.$.$.$.$.$.$.$.$.$.$.$.$.$.$.$.*.$.$.$.$.$.$.$.=.$.$.$.&.$.$.$.$.$.$.$.$.$.&.*.$.$.$.$.$.$.$.$.$.*.$.$.$.$.$.$.$.$.2.h 7 k j j j e   L L L L L L ",
"L L L A . f j j j s & o.#.$.$.$.*.&.$.$.$.$.$.$.$.$.$.$.$.$.$.$.$.$.$.$.$.$.$.$.$.$.$.$.$.$.$.&.$.$.$.$.$.$.*.$.$.$.$.$.$.$.&.$.$.$.$.$.$.$.$.$.$.&.=.$.$.$.$.$.$.$.$.$.$.$.$.$.$.$.$.$.$.$.$.$.$.$.$.$.$.$.$.*.$.$.$.$.$.$.$.$.$.$.$.$.$.$.$.$.$.$.$.$.$.$.$.$.$.$.$.$.$.*.&.$.$.=.$.$.$.$.$.$.$.$.$.$.$.$.$.$.$.$.$.$.$.$.$.$.$.$.$.$.$.$.$.=.$.$.$.$.$.$.$.$.$.$.$.$.$.$.$.$.$.$.$.$.,.h 7 k x j j e   L L L L L L ",
"L L L A   h k j j s & o.#.$.$.$.$.$.$.$.$.$.$.$.$.$.$.$.$.$.$.$.$.$.$.$.$.$.$.$.$.$.$.$.$.$.$.$.$.$.$.$.$.$.$.$.&.*.$.$.$.$.$.$.$.$.$.$.$.$.$.$.$.$.$.$.$.$.$.$.$.$.$.$.$.$.$.$.$.$.$.$.&.*.$.$.=.$.$.$.$.$.$.&.$.$.$.$.$.$.$.$.$.$.$.$.$.$.$.$.$.$.$.$.$.$.$.$.$.$.$.$.$.$.$.$.$.$.$.$.$.$.$.$.$.$.$.$.$.$.$.$.$.$.$.$.$.$.$.*.$.$.$.$.$.$.$.$.$.$.$.$.$.$.$.$.$.$.$.$.$.$.$.$.$.$.$.$.2.d 7 j j j h e   L L L L L L ",
"L L L A   j j j j h 1 +.#.$.$.$.$.$.$.$.$.&.$.$.$.$.$.$.$.$.$.$.$.$.$.*.$.$.$.$.$.$.$.$.$.$.*.$.$.$.$.$.$.$.$.$.$.$.$.$.*.$.$.$.$.$.$.$.$.$.$.$.$.$.$.$.$.$.$.$.$.$.$.$.$.$.$.$.$.*.$.$.$.$.$.$.=.$.$.$.$.$.$.$.$.$.$.$.$.$.$.$.$.$.$.$.$.$.$.$.$.$.$.$.$.&.$.$.$.$.$.$.$.$.$.$.$.$.$.*.&.$.$.$.$.$.$.$.$.$.$.$.$.$.$.$.$.$.$.$.$.$.*.&.$.$.$.$.$.$.&.$.$.$.$.=.$.$.$.$.$.$.$.$.$.$.$.@.1.h 7 k k j j r   L L L L L L ",
"L L L A   d k j j h * @.$.$.$.$.$.$.$.$.$.*.$.$.$.$.$.$.$.$.$.$.$.$.$.&.$.$.$.$.$.$.$.$.$.$.$.$.$.$.&.*.$.$.$.$.$.$.$.$.$.$.$.$.$.$.$.$.&.$.$.$.=.$.$.$.$.$.$.$.$.$.$.$.$.$.$.$.$.&.$.$.$.$.$.$.$.$.$.$.$.$.$.$.$.$.$.$.$.$.$.$.$.$.$.$.$.$.$.$.$.$.$.$.$.*.$.$.$.$.$.$.$.$.$.$.$.$.$.$.$.$.$.$.$.$.$.$.$.$.$.$.$.$.$.$.$.$.$.$.$.$.$.$.$.$.$.$.$.$.$.$.$.$.*.$.$.$.$.$.*.$.$.$.$.$.$.$.:.h 7 j j v j e   L L L L L L ",
"L L L A . d l j d g 1 +.#.$.$.$.$.$.$.$.$.$.$.$.$.$.$.$.$.&.$.$.$.$.$.$.$.=.$.$.$.$.$.$.$.$.$.$.$.$.$.$.=.$.$.$.$.$.$.$.$.$.=.$.$.$.$.$.$.$.$.$.$.$.$.$.$.$.$.$.$.$.$.$.$.$.$.$.$.$.$.$.$.$.$.$.$.*.$.$.$.$.$.$.$.$.$.$.$.*.=.$.$.&.$.$.$.$.$.$.$.$.$.$.$.$.$.$.$.$.$.$.$.$.$.=.$.$.$.$.$.$.$.$.$.$.$.$.$.$.$.$.*.&.$.$.$.$.$.$.$.$.$.$.$.$.$.$.$.$.$.$.$.$.$.$.$.$.$.$.$.$.$.$.$.$.$.$.:.j 7 z j l z e   L L L L L L ",
"L L L A   h j j j a & @.$.$.$.$.=.$.$.$.$.$.$.$.$.$.=.$.$.$.$.*.$.$.$.$.$.$.$.$.$.$.$.$.$.$.=.$.$.$.$.$.$.$.$.$.$.$.$.$.$.$.$.$.$.$.$.$.$.$.$.$.$.$.$.$.$.$.&.*.$.$.$.$.$.&.$.$.$.$.$.$.$.$.$.$.$.$.$.$.$.$.$.$.$.$.&.$.$.$.$.$.$.*.$.$.$.$.$.$.=.$.$.$.$.$.$.$.&.*.$.$.$.$.$.$.$.$.$.$.$.$.$.$.$.$.$.$.$.&.*.$.$.$.$.$.$.$.$.$.$.$.$.$.$.$.$.$.$.$.$.$.$.$.$.$.$.$.$.&.$.$.$.=.$.$.$.$.;.j 7 j j l j e   L L L L L L ",
"L L L A   f j j j d 1 +.$.$.$.$.$.$.$.$.*.$.$.$.$.$.$.$.$.$.$.$.$.$.$.$.$.$.$.$.$.$.$.$.$.$.$.$.$.$.$.$.$.$.$.$.$.$.$.$.$.$.$.$.$.$.$.$.$.$.$.$.$.$.$.*.&.$.$.$.$.$.$.$.$.*.$.$.$.$.&.*.$.$.$.=.$.$.$.$.$.$.$.$.$.$.$.*.$.$.$.$.$.$.$.$.$.$.$.$.$.$.$.$.$.$.$.$.$.$.$.*.&.$.$.$.$.$.$.$.$.$.$.$.$.$.$.$.$.$.$.$.$.$.$.$.$.$.$.$.$.$.$.$.$.$.$.$.$.$.$.$.$.$.$.$.$.$.$.$.$.$.$.$.$.$.$.$.,.j 0 j l j j r   L L L L L L ",
"L L L A . g j j h g * +.#.$.$.$.$.$.$.$.&.$.$.$.$.$.$.$.$.$.$.$.$.$.$.$.$.=.$.$.$.$.$.$.$.$.$.$.$.$.$.$.$.$.$.$.$.$.$.$.$.$.$.$.$.$.$.$.$.&.*.$.$.$.$.$.$.$.$.$.$.$.$.$.$.&.$.$.$.$.$.$.$.$.$.$.$.$.$.$.$.$.$.=.$.$.$.$.$.$.$.$.$.=.$.$.$.$.$.$.$.$.$.$.*.&.$.$.$.$.$.$.$.$.$.$.$.&.*.$.$.$.$.$.$.$.&.$.$.$.$.$.$.$.$.$.&.$.$.$.$.$.$.$.$.$.$.&.$.$.$.$.$.$.$.$.$.$.$.$.$.$.$.$.$.$.$.$.;.h 7 z l l k e   L L L L L L ",
"L L L A   h j k j g & +.$.$.$.$.$.$.$.$.$.$.$.$.$.$.$.$.$.$.$.$.$.$.$.$.$.$.$.$.$.$.*.$.$.$.$.$.$.$.$.$.$.$.$.$.*.&.=.$.$.$.$.$.$.$.$.$.$.$.$.$.$.$.$.$.$.$.$.$.$.$.$.$.$.$.$.$.$.$.$.$.$.$.$.$.$.$.$.$.$.$.$.$.$.$.$.$.$.$.$.$.*.$.$.$.$.$.$.$.$.$.$.$.$.$.$.$.$.$.$.$.$.$.$.$.$.$.$.$.$.$.$.$.$.$.$.$.$.$.$.$.*.$.$.$.$.$.*.$.$.$.$.$.$.$.$.*.$.$.$.&.$.$.$.$.$.&.$.$.$.$.$.$.$.$.$.$.,.j 8 j l k l r   L L L L L L ",
"L L L A . j j j j d 1 +.#.$.$.$.$.$.$.$.$.$.$.$.$.$.$.$.$.=.$.$.$.$.$.$.$.$.$.$.$.$.&.$.$.$.$.$.$.$.$.=.$.$.&.*.*.$.$.$.$.$.$.$.$.$.$.$.$.$.$.$.$.$.$.$.$.$.$.$.$.$.$.$.$.$.$.$.$.$.$.$.$.$.$.$.$.$.&.$.$.$.$.$.&.$.$.$.$.$.$.$.$.$.$.$.$.$.$.$.$.$.$.$.$.$.$.$.$.$.$.$.$.$.$.$.$.$.$.$.$.$.$.$.$.$.$.$.&.$.$.$.&.$.$.$.$.$.$.$.$.=.$.$.$.$.$.$.$.$.$.*.$.$.$.$.$.$.$.$.$.$.$.$.$.&.&.&.;.j 7 k d l j e   L L L L L L ",
"L L L A   g j j h h 4 @.$.$.$.$.$.$.$.*.$.$.$.$.$.$.$.$.$.$.$.$.$.$.$.$.$.$.*.&.$.$.$.$.$.$.$.$.$.$.$.$.$.$.$.$.$.$.$.$.$.$.$.$.$.=.$.$.$.$.$.$.$.$.$.$.$.$.$.$.$.$.$.=.$.$.$.$.$.$.$.$.$.$.$.$.$.$.$.$.$.*.$.$.$.$.$.$.$.$.$.$.$.$.$.$.$.$.$.$.$.$.$.$.$.$.$.$.$.$.$.$.$.$.$.$.$.$.$.$.$.$.&.$.$.$.$.$.$.$.$.$.$.$.$.$.$.$.$.$.$.$.$.$.$.$.$.$.&.$.$.$.$.$.$.$.$.$.=.$.$.$.$.$.$.$.$.$.;.j 7 j j k k e   L L L L L L ",
"L L L A . g j j j h 4 +.#.$.$.&.$.$.$.$.$.$.$.$.$.$.&.$.$.$.$.$.$.$.$.$.$.$.$.$.$.$.$.$.$.$.$.$.$.$.$.$.$.$.$.$.$.$.$.$.$.$.$.$.$.$.$.$.$.$.$.$.$.$.$.*.$.$.$.$.$.$.$.$.$.$.$.$.$.$.$.$.$.$.$.$.$.$.$.$.$.&.$.$.$.$.$.$.$.$.$.$.$.$.$.$.$.&.$.$.$.$.$.$.$.$.$.$.$.$.$.$.$.$.$.$.$.$.$.$.$.$.$.$.$.$.$.$.$.$.$.$.$.$.$.$.$.$.$.$.$.$.$.$.$.$.$.$.$.$.$.$.$.$.$.$.$.$.$.$.$.$.$.$.$.$.$.$.:.j 7 j k j j e   L L L L L L ",
"L L L A . h j j j h 3 O.$.$.$.$.$.$.$.=.$.$.$.$.$.$.$.$.$.$.&.$.$.$.$.$.$.$.$.$.$.$.$.$.$.$.$.$.$.$.$.$.$.$.$.$.$.$.$.$.$.$.$.$.$.$.$.$.$.$.$.$.$.$.$.$.$.$.$.$.$.$.$.$.$.$.*.&.$.$.$.$.$.$.$.$.$.$.$.$.$.$.$.$.$.$.$.$.$.$.$.$.$.$.&.$.$.$.$.$.$.$.$.$.*.$.$.$.$.$.$.$.*.$.$.$.$.$.$.$.$.$.$.$.$.$.$.$.=.$.$.$.$.$.$.$.$.$.=.$.$.$.$.$.$.$.$.$.$.$.$.*.$.$.$.=.$.$.$.$.$.$.$.$.$.$.$.$.;.j 8 j j j j e   L L L L L L ",
"L L L A   h j j h a 1 @.@.$.$.$.$.$.$.$.$.$.$.$.$.$.$.$.$.$.*.$.$.$.$.$.$.$.$.$.$.$.$.$.$.=.$.$.&.*.$.$.$.$.$.$.$.$.$.$.$.$.&.*.$.$.$.$.$.$.$.&.$.$.$.$.=.$.$.$.$.$.$.$.$.$.$.$.$.$.$.$.$.$.$.$.$.$.$.$.$.$.$.$.$.$.$.$.$.$.*.&.$.$.$.$.$.$.$.$.$.$.$.$.&.$.$.$.$.$.$.&.$.$.$.$.=.$.$.$.$.*.$.$.$.$.$.$.$.$.$.*.$.$.$.$.$.$.$.$.*.$.$.$.$.$.$.$.$.$.$.$.$.$.$.$.$.$.$.$.$.$.$.$.$.$.$.$.:.j 7 j j j j e   L L L L L L ",
"L L L A . g h j j h * o.#.$.$.$.$.$.$.$.=.$.$.$.$.$.$.$.$.$.$.$.&.$.$.$.$.$.$.$.$.$.$.$.$.$.$.$.$.$.$.$.$.$.$.$.$.$.$.$.$.$.$.$.*.$.$.$.$.$.$.$.$.$.$.$.$.$.$.$.$.$.$.$.$.$.$.$.$.$.$.$.$.$.$.$.$.&.$.$.$.$.$.$.$.$.*.$.$.$.$.$.$.$.$.$.$.$.$.$.$.*.$.$.$.$.$.$.$.$.$.$.$.$.$.$.$.$.$.$.$.=.$.$.$.$.$.$.$.$.$.$.$.$.$.$.$.$.$.$.&.$.$.$.$.$.$.$.$.$.$.$.$.$.$.$.$.$.$.$.$.$.$.$.$.$.$.$.;.f 7 j j j j e   L L L L L L ",
"L L L A   a j h j g & o.$.$.$.$.$.$.$.$.$.$.$.$.$.$.$.$.$.*.$.$.$.$.$.$.$.$.*.&.$.$.$.$.$.$.$.$.$.$.$.$.*.$.$.$.$.$.$.$.$.$.$.$.$.$.$.$.$.$.$.$.$.$.$.$.*.$.$.$.$.$.$.$.$.$.&.*.$.$.$.$.$.$.$.$.$.*.$.$.$.$.$.$.$.$.&.$.$.$.$.$.$.$.$.$.$.$.$.$.$.&.$.$.$.$.=.$.$.$.$.$.$.$.$.$.$.$.$.$.$.$.$.$.$.$.$.$.$.$.$.$.$.$.$.$.$.$.$.&.$.$.$.$.$.$.$.$.$.$.$.$.$.$.$.$.$.$.$.$.$.$.$.$.$.$.$.%.;.a 7 h h j h 8   L L L L L L ",
"L L L A . g h j j j & ..$.&.$.$.$.$.$.$.$.$.$.$.&.*.$.$.$.$.=.$.$.$.$.$.$.$.$.&.$.$.$.$.$.=.$.$.$.$.$.$.&.$.$.$.$.$.$.$.$.$.$.$.&.$.$.$.$.$.$.$.$.$.$.$.$.$.$.$.$.$.$.$.$.$.$.$.$.$.$.$.$.$.$.&.$.$.$.$.$.$.$.$.$.$.$.$.$.$.$.$.$.$.$.$.$.$.$.$.$.$.$.$.$.$.$.$.$.$.$.$.$.$.$.$.$.$.$.&.$.$.$.$.$.$.$.&.$.$.$.$.$.$.$.$.$.$.$.$.$.$.$.$.$.&.$.$.&.$.$.$.$.$.$.$.$.$.$.$.$.$.$.$.$.$.&.@.2.i 7 d d d g 8   J L L L L L ",
"L L L A   f j j j h * _ $.@.$.$.$.$.$.$.$.$.$.$.$.$.$.$.$.$.$.$.$.$.$.$.$.$.$.*.$.$.$.$.$.$.$.$.$.$.$.$.$.$.$.$.$.$.=.$.$.$.$.$.$.$.$.$.*.$.$.$.&.$.$.$.&.$.$.$.$.$.$.$.$.$.$.$.$.=.$.$.$.$.$.*.$.$.$.$.$.$.$.$.$.$.$.$.$.$.=.$.$.$.$.$.$.$.$.$.$.$.$.$.$.$.$.$.$.$.$.$.$.$.$.$.$.$.$.$.$.$.$.$.$.$.$.$.$.$.$.$.$.=.$.$.$.$.$.$.$.$.$.$.$.*.$.$.*.*.$.$.$.=.$.$.$.$.*.&.$.$.$.$.$.=.&.$.2.6 0 d g d h 8   L L L L L L ",
"L L L A   a j j h d 7 7 #.$.$.$.$.$.$.$.$.$.$.$.$.$.$.$.$.$.&.$.$.$.&.$.$.*.*.&.$.$.$.&.$.$.$.$.&.*.&.$.$.$.$.$.$.$.*.&.$.$.*.&.$.$.*.&.&.$.$.$.$.$.$.$.$.$.$.&.$.$.&.&.$.$.$.$.=.$.$.$.$.$.$.$.$.$.$.$.$.$.$.$.$.$.$.$.$.$.$.$.*.&.&.&.$.$.&.$.$.$.$.&.$.$.$.$.$.$.$.$.$.$.$.$.$.$.$.$.&.$.&.$.$.$.$.$.$.$.$.$.$.$.$.$.$.$.$.$.$.$.&.*.$.$.$.$.$.$.$.$.$.=.$.&.$.$.&.&.$.$.$.$.$.$.$.;...& a g g g g 7   L L L L L L ",
"L L L G   y j j h g i % j &.$.#.=.=.$.$.$.$.$.=.$.$.$.&.&.$.&.&.$.$.&.&.$.&.&.&.$.$.$.&.$.$.$.$.&.&.$.$.$.$.$.&.$.$.&.&.$.$.&.&.$.$.&.&.$.$.$.$.&.&.$.$.$.$.$.&.$.$.=.&.$.$.$.$.&.&.$.$.$.$.$.$.$.$.$.$.&.$.$.$.$.$.$.$.&.&.$.$.$.$.&.&.$.$.*.&.$.$.$.&.$.$.&.*.$.$.$.$.$.$.$.$.$.$.$.&.$.$.&.&.$.$.$.$.&.&.$.$.$.$.&.$.$.$.$.$.$.$.$.&.$.$.$.$.&.&.$.$.$.$.$.&.$.$.=.&.$.$.$.$.$.$.;.$.7 r j h d a d *   L L L L L L ",
"L L L L   7 h j j g a e $ f @.>.;.&.;.<.;.;.;.:.;.;.;.;.;.;.;.;.;.;.;.;.;.;.;.;.;.;.;.;.;.;.&.;.;.;.;.&.;.;.;.;.&.;.;.;.&.;.;.;.;.;.;.;.;.;.&.;.;.>.;.;.;.;.>.;.;.;.;.;.;.;.;.;.;.;.&.;.;.;.;.:.;.>.;.;.;.>.,.;.,.;.;.;.;.:.:.;.;.;.,.;.;.;.>.;.;.;.>.;.;.;.;.;.:.;.;.;.;.;.:.=.;.;.;.;.;.;.;.;.;.;.;.;.;.,.;.;.:.;.;.;.;.:.;.;.&.;.;.;.;.&.&.;.;.&.;.=.;.;.&.&.;.;.;.;.;.>.<.:.2.>.X.8 7 l j d h j j o   L L L L L L ",
"L L L L N o j h g g a a r & & f ^ ) ) ) ) ` ) ` ) ) ) ( ) ) ) ` ) ) ( ) ) ` ` ` ` ) ) ` ` ) ) ) ) ) ) ^ _ _ ( ( ` ) ) ) ` ` ) ` ) ` ` ) ` ` ` ` ` ` ( ( ` ) ( ( ) ( ( ) ` ) ) ) ) ) ) ^ _ _ _ ` ) ) ` ) ` ) ) ` ) ) ` ) ) ( ` _ ) ) ) ` ` ` ) ) ` ) ) ) ` ) ) ` ) ` ) _ ` ` ` ` ` ) ` ` ) ) ` ` ` ) ` ` ) ` ` ` ` ) ` ) ) ` ` ( ) ) ( ) ) ( ) ) ^ ) ) ^ ) ) _ ^ ` ` ` ` ` | | ` ^ i 4 e j j j j j h p   Z L L L L L L ",
"L L L L F   r a a a a a g a r 7 5 6 5 6 6 5 4 4 4 4 4 4 4 5 4 4 4 5 5 4 4 6 6 5 4 4 6 4 4 6 4 4 6 4 4 4 4 4 4 4 4 4 4 6 4 4 4 6 4 6 4 4 6 4 4 4 5 4 4 5 6 4 4 4 5 4 4 6 4 4 4 4 4 2 4 4 4 4 4 4 4 4 4 4 6 4 4 4 4 6 4 4 5 4 4 6 4 5 4 5 4 5 4 4 6 4 4 4 5 6 4 4 4 6 4 5 6 4 4 4 4 1 5 1 4 4 4 6 6 4 6 4 4 6 4 4 4 5 4 5 4 4 6 4 6 4 6 4 4 4 4 4 2 4 4 4 4 4 4 5 6 6 6 7 7 7 7 0 e r a h j j j d h j &   G L L L L L L ",
"L L L L L N X a a a a g d h j j k j j j j j g j j k j j j j j j j j j j j j j j j j d j j j j j j j j j j j j j k g j j j j j j j j j h j j j j j j j j j j j j j h j j h j j j k j k j j j j j j j j j j g j j j j j j j j j h j j j j h j j j j j j j j j j j j j j j j j j j j j j j j h j j j j j j j h j k j k j j j j j j j j j j j j h j j j j h g j g j j j h j j j j j j j j h g j d j j a   A L L L L L L L ",
"L L L L L H   # a a h j j k k j j j j j j j j j j j j j j j j j j j j h j j j h j j h j j j j j j j j h j j g j j d g h j d h j j j j j j j j j j j d d h j j j j j j j j g j j j j j j j h j j d g d d d d j g j j j j j j h k j j h j j j j g j j j h j j j h h j j j j j j j j j d d j j h j j j h j j j j j j j j h j g j g g j d h h g g j j g g h j j j j j j j j h j d h j j d j j j j j j > N L L L L L L L L ",
"L L L L L L H   @ a h j j j j j j j d j h j j j j j g j j j j j h j j h j j j j j j j j h j h j j h j j j g g g j d g g j j j j j j j j j j h j h j j j j j d h j j g h j j h h g j h g j g j j j j h j j d j j j j h j j j j j j j j g j j g h j j j s j d g h j j h j d j g h d d j j j g j j j h h j h j j g j j j h j j g h g g d j g g g j g j j j j j j j j j h j j j j d j j h j h h l T : N K L L L L L L L L ",
"L L L L L L L H   . 6 a z j j j h h j h j h j h j j j g h h j j j j d j h h j h h h h h j h j j h h h j h h h h h j h j h j g j j j h j j j h h j j h h h j h h j d h h h j h h g h h j j j h h j h h h d j d d d h h j j h d d j h j j h h j j j h h h j h j h h h j h d h j h j j d j h j j h h h h d j j h j d h d h h g g j d g h g h h h j g j v j k j k k j j d h g d s g g d a h k a I C Z L L L L L L L L L L ",
"L L L L L L L L K B   . # P W ! E E ! W W ! E ! ! W W ! E E ! W W W W W E E W W ! E ! Q W W W ! Q E ! ! W E ! ! ! W W W E E W ! ! Q E E ! ! Q Q ! W E E W ! E E W W E E E W E E W W E E ! ! E E ! E W E W W E E E E W ! ! W W E E W ! ! E E W ! ! ! ! E W E ! W E E W W W E W W W W W W Q Q ! E ! ! W E W W W W E E E E W E E W E E E E ! ! ! ! ! ! ! ! ! ! ! ! ! W E E R R R R R U 9 & @ + , F L L L L L L L L L L L ",
"L L L L L L L L L L K A M                                                                                                                                                                                                                                                                                                                               =     O                         N D L L L L L L L L L L L L L ",
"L L L L L L L L L L L L L L L L L L L L L L L L L L L L L L L L L L L L L L L L L L L L L L L L L L L L L L L L L L L L L L L L L L L L L L L L L L L L L L L L L L L L L L L L L L L L L L L L L L L L L L L L L L L L L L L L L L L L L L L L L L L L L L L L L L L L L L L L L L L L L L L L L L L L L L L L L L L L L L L L L L L L L L L L L L L L L L L L L L L L L L L L L L L L L L L L L L L L L L L L L L L ",
"L L L L L L L L L L L L L L L L L L L L L L L L L L L L L L L L L L L L L L L L L L L L L L L L L L L L L L L L L L L L L L L L L L L L L L L L L L L L L L L L L L L L L L L L L L L L L L L L L L L L L L L L L L L L L L L L L L L L L L L L L L L L L L L L L L L L L L L L L L L L L L L L L L L L L L L L L L L L L L L L L L L L L L L L L L L L L L L L L L L L L L L L L L L L L L L L L L L L L L L L L L L ",
"L L L L L L L L L L L L L L L L L L L L L L L L L L L L L L L L L L L L L L L L L L L L L L L L L L L L L L L L L L L L L L L L L L L L L L L L L L L L L L L L L L L L L L L L L L L L L L L L L L L L L L L L L L L L L L L L L L L L L L L L L L L L L L L L L L L L L L L L L L L L L L L L L L L L L L L L L L L L L L L L L L L L L L L L L L L L L L L L L L L L L L L L L L L L L L L L L L L L L L L L L L L ",
"L L L L L L L L L L L L L L L L L L L L L L L L L L L L L L L L L L L L L L L L L L L L L L L L L L L L L L L L L L L L L L L L L L L L L L L L L L L L L L L L L L L L L L L L L L L L L L L L L L L L L L L L L L L L L L L L L L L L L L L L L L L L L L L L L L L L L L L L L L L L L L L L L L L L L L L L L L L L L L L L L L L L L L L L L L L L L L L L L L L L L L L L L L L L L L L L L L L L L L L L L L L ",
"L L L L L L L L L L L L L L L L L L L L L L L L L L L L L L L L L L L L L L L L L L L L L L L L L L L L L L L L L L L L L L L L L L L L L L L L L L L L L L L L L L L L L L L L L L L L L L L L L L L L L L L L L L L L L L L L L L L L L L L L L L L L L L L L L L L L L L L L L L L L L L L L L L L L L L L L L L L L L L L L L L L L L L L L L L L L L L L L L L L L L L L L L L L L L L L L L L L L L L L L L L L "
};
