/* XPM */
static char *result[] = {
/* columns rows colors chars-per-pixel */
"100 97 112 2 ",
"   c #010101",
".  c #0E0E0E",
"X  c #0E100F",
"o  c #10100E",
"O  c #0E0E10",
"+  c #121212",
"@  c #1D1D1D",
"#  c #042404",
"$  c #1E201F",
"%  c #222222",
"&  c gray18",
"*  c #373636",
"=  c #393937",
"-  c #3D3D3C",
";  c #024002",
":  c #025102",
">  c #036C04",
",  c #047504",
"<  c #3E403E",
"1  c #41413E",
"2  c #3F3F40",
"3  c #413F40",
"4  c #3F4140",
"5  c #434343",
"6  c #474946",
"7  c #484846",
"8  c #474749",
"9  c #494748",
"0  c #474949",
"q  c #4B4B4B",
"w  c #4F514F",
"e  c #51514E",
"r  c #4F5150",
"t  c #525352",
"y  c #575957",
"u  c #5A5957",
"i  c #565658",
"p  c #595758",
"a  c #575958",
"s  c #5A5A5A",
"d  c #605F5E",
"f  c #61605E",
"g  c #5F5F61",
"h  c #615F60",
"j  c #5F6160",
"k  c #656564",
"l  c #686666",
"z  c #666866",
"x  c #696966",
"c  c #676668",
"v  c #696768",
"b  c #676869",
"n  c #6B6B6B",
"m  c #706F6E",
"M  c #6F706F",
"N  c #70706F",
"B  c #6E6E70",
"V  c #6F7171",
"C  c #717171",
"Z  c #7C7C7B",
"A  c #018002",
"S  c #018B01",
"D  c #049505",
"F  c #198F19",
"G  c #04A302",
"H  c #01AA01",
"J  c #03B603",
"K  c #00BC00",
"L  c #399339",
"P  c #02C502",
"I  c #02DB01",
"U  c #01E201",
"Y  c #01EC01",
"T  c green",
"R  c #2BC72B",
"E  c #32C832",
"W  c #38CF38",
"Q  c #49A34A",
"!  c #838383",
"~  c #8D8D8D",
"^  c #8F918F",
"/  c #949493",
"(  c #999799",
")  c #9C9C9C",
"_  c #9FA0A0",
"`  c #A4A4A4",
"'  c #A9A9A7",
"]  c #ABABAB",
"[  c #B0AFAF",
"{  c #B0B0AF",
"}  c #AFAFB0",
"|  c #B7B7B7",
" . c #BDBDBD",
".. c #C0BFBF",
"X. c #BFC0BF",
"o. c #C0C0BF",
"O. c #C0BFC1",
"+. c #C3C3C3",
"@. c #C7C8C7",
"#. c #C9C9C7",
"$. c #C9C7C8",
"%. c #CBCBCA",
"&. c #D1D1CF",
"*. c #D4D3D3",
"=. c #DADADA",
"-. c #E0DFDF",
";. c #E3E4E3",
":. c #ECECEC",
">. c #F3F3F3",
",. c #F8F9F7",
"<. c #F7F9F8",
"1. c #FCFCFC",
/* pixels */
"T T T T T T T T T T T T T T T T T T T T T T T T T T T T T T T T T T T T T T T T T T T T T T T T T T T T T T T T T T T T T T T T T T T T T T T T T T T T T T T T T T T T T T T T T T T T T T T T T T T T ",
"T T T T T T T T T T T T T T T T T T T T T T T T T T T T T T T T T T T T T T T T T T T T T T T T T T T T T T T T T T T T T T T T T T T T T T T T T T T T T T T T T T T T T T T T T T T T T T T T T T T T ",
"T T T T T T T T T T T T T T T T T T T T T T T T T T T T T T T T T T T T T T T T T T T T T T T T T T T T T T T T T T T T T T T T T T T T T T T T T T T T T T T T T T T T T T T T T T T T T T T T T T T T ",
"T T T T T T T T T T T T T T T T T T T T T T T T T T T T T T T T T T T T T T T T T T T T T T T T T T T T T T T T T T T T T T T T T T T T T T T T T T T T T T T T T T T T T T T T T T T T T T T T T T T T ",
"T T T T T T T T T T T T T T T T T T T T T T T T T T T T T T T T T T T T T T T T T T T T T T T T T T T T T T T T T T T T T T T T T T T T T T T T T T T T T T T T T T T T T T T T T T T T T T T T T T T T ",
"T T T T T T T T T T T T T T U K K K K K K K K K K K K K K K K P K K K K K K K K K K K K K K K K K K K K K K K K K K K K K K K K K K K K K K K K K K K K K K K J K K K K K U T T T T T T T T T T T T T T ",
"T T T T T T T T T T T T P >     . . . . . . . . O + X o o + o o + + + o o o + + o + X + . . + + . o . + O + + o . O . O o + + o + + + o + + + . . . o . . . . . O O .       : I T T T T T T T T T T T T ",
"T T T T T T T T T T I , G Q f n n v k k k k v v v v v n v n n n n n n n n n n n n n n n n v n n v n v v v n v v n v n n n n n B n n n n n n n n v v k b k k k k k c k k h y - J J Y T T T T T T T T T T ",
"T T T T T T T T T G   5 n C B n n v x z k k k k k c k k z v v k x l v v v v v v b b z z k v b k v k c k l b x b n v n b n n n z n n z v v n k k k k k d h k s k k k k k v n m v E D U T T T T T T T T T ",
"T T T T T T T T J   w C n C B n n n v z l k k k k k v k z z v b v x n v z v b b x v v v v c z b k c x b k v v x v v v n b n n x n v x z v z l k k f f k k k h k k k k v v n m V C W # U T T T T T T T T ",
"T T T T T T T U   5 v v V n n n k s s s y y y s a s i a a a a s s y a s s s y y s a s s s s a s s s i i s s y s s a y s s y s s s u s y i t y t t e t t r w t t t i s v B B B B V m R , T T T T T T T T ",
"T T T T T T T > @ l l x n n n q - 1 q e q q q q q q q q q q q q q q q q q q q w q q q q q q q q q q q q q q q q q w q w w q w q q q q q q 6 q 6 6 8 8 9 7 7 6 q q q - 3 t n m B n B k S K T T T T T T T ",
"T T T T T T I   q k k z n k 5 g [ #.&.&.&.&.%.%.%.%.%.#.+.%.#.%.%.%.%.%.%.%.%.%.%.%.%.%.%.%.%.%.%.#.#.%.%.&.%.%.#.%.%.%.#.%.%.#.#.#.#.#.%.+.+.+.+. . .o. . .+.+.%.%.$.' i 8 v B C n M =   T T T T T T T ",
"T T T T T T K   k l k k k 4 Z %.#. .| | | | | | | | | | | | | | | | | | | | | | | | | | | | | | | | | | | | | | | | | | | | | | | | | | | | | | | | | | | | | | | | +.&.%.g q B B n v s   T T T T T T T ",
"T T T T T T S % k k k k q r +.+.| | | | | | | | | | | | | | | | | | | | | | | | | | | | | | | | | | | | | | | | | | | | | | | | | | | | | | | | | | | | | | | | | | | | %.| 2 g n v c k   P T T T T T T ",
"T T T T T T   - k k h k * (  .| | | | | | | | | | | | | | | | | | | | | | | | | | | | | | | | | | | | | | | | | | | | | | | | | | | | | | | | | | | | | | | | | | | | |  .*.B q n v k v O K T T T T T T ",
"T T T T T T   8 v k c s * |  .| | | | | | | | | | | | | | | | | | | | | | | | | | | | | | | | | | | | | | | | | | | | | | | | | | | | | | | | | | | | | | | | | | | | | | %./ 1 v v k v + K T T T T T T ",
"T T T T T T   8 n v k a * | | | | | | | | | | | | | | | | | | | | | | | | | | | | | | | | | | | | | | | | | | | | | | | | | | | | | | | | | | | | | | | | | | | | | | | | #./ 2 k k v v @ K T T T T T T ",
"T T T T T T   9 n v k s =  .| | | | | | | | | | | | | | | | | | | | | | | | | | | | | | | | | | | | | | | | | | | | | | | | | | | | | | | | | | | | | | | | | | | | | | | o./ - k k v n + K T T T T T T ",
"T T T T T T   q B n v s =  .| | | | | | | | | | | | | | | | | | | | | | | | | | | | | | | | | | | | | | | | | | | | | | | | | | | | | | | | | | | | | | | | | | | | | | |  ./ = k v v n @ K T T T T T T ",
"T T T T T T   q n n v s = X.| | | | | | | | | | | | | | | | | | | | | | | | | | | | | | | | | | | | | | | | | | | | | | | | | | | | | | | | | | | | | | | | | | | | | | |  ./ - k v n n @ J T T T T T T ",
"T T T T T T   9 C n n k - X.| | | | | | | | | | | | | | | | | | | | | | | | | | | | | | | | | | | | | | | | | | | | | | | | | | | | | | | | | | | | | | | | | | | | | | |  .^ - k v v M @ K T T T T T T ",
"T T T T T T   q n n n k 2 +. .| | | | | | | | | | | | | | | | | | | | | | | | | | | | | | | | | | | | | | | | | | | | | | | | | | | | | | | | | | | | | | | | | | | | | | o./ - z n n M $ K T T T T T T ",
"T T T T T T   q n n n f 2 +.X.| | | | | | | | | | | | | | | | | | | | | | | | | | | | | | | | | | | | | | | | | | | | | | | | | | | | | | | | | | | | | | | | | | | | | |  ./ < z v v V $ K T T T T T T ",
"T T T T T T   q v n n k 4 +.X.| | | | | | | | | | | | | | | | | | | | | | | | | | | | | | | | | | | | | | | | | | | | | | | | | | | | | | | | | | | | | | | | | | | | | | o./ 1 n n n C $ K T T T T T T ",
"T T T T T T   q v n n k 5 +. .| | | | | | | | | | | | | | | | | | | | | | | | | | | | | | | | | | | | | | | | | | | | | | | | | | | | | | | | | | | | | | | | | | | | | | o.( 1 n n n N $ K T T T T T T ",
"T T T T T T   6 n n n z 4 +.+.| | | | | | | | | | | | | | | | | | | | | | | | | | | | | | | | | | | | | | | | | | | | | | | | | | | | | | | | | | | | | | | | | | | | | | o.) 1 n n n C $ K T T T T T T ",
"T T T T T T   q n n n k 5 +...| | | | | | | | | | | | | | | | | | | | | | | | | | | | | | | | | | | | | | | | | | | | | | | | | | | | | | | | | | | | | | | | | | | | | |  .) 1 n n M C $ K T T T T T T ",
"T T T T T T   q n n n k 5 +. .| | | | | | | | | | | | | | | | | | | | | | | | | | | | | | | | | | | | | | | | | | | | | | | | | | | | | | | | | | | | | | | | | | | | | |  .) 1 n n n C @ K T T T T T T ",
"T T T T T T   q n x x k 4 +.X.| | | | | | | | | | | | | | | | | | | | | | | | | | | | | | | | | | | | | | | | | | | | | | | | | | | | | | | | | | | | | | | | | | | | | | X.) 1 M n n C @ K T T T T T T ",
"T T T T T T   q n n n k 4 +. .| | | | | | | | | | | | | | | | | | | | | | | | | | | | | | | | | | | | | | | | | | | | | | | | | | | | | | | | | | | | | | | | | | | | | | o.) 1 n M n C $ K T T T T T T ",
"T T T T T T   q n n n k 5 +. .| | | | | | | | | | | | | | | | | | | | | | | | | | | | | | | | | | | | | | | | | | | | | | | | | | | | | | | | | | | | | | | | | | | | | | +.) 6 n n n C @ K T T T T T T ",
"T T T T T T   q n n n k 4 +. .| | | | | | | | | | | | | | | | | | | | | | | | | | | | | | | | | | | | | | | | | | | | | | | | | | | | | | | | | | | | | | | | | | | | | | o._ 6 B n n C $ K T T T T T T ",
"T T T T T T   q n n n k 5 +. .| | | | | | | | | | | | | | | | | | | | | | | | | | | | | | | | | | | | | | | | | | | | | | | | | | | | | | | | | | | | | | | | | | | | | | +.) 5 n B n C @ K T T T T T T ",
"T T T T T T   q M n v k - +.+.| | | | | | | | | | | | | | | | | | | | | | | | | | | | | | | | | | | | | | | | | | | | | | | | | | | | | | | | | | | | | | | | | | | | | | #.) 5 n n n C @ K T T T T T T ",
"T T T T T T   q b M v k 5 +.+.| | | | | | | | | | | | | | | | | | | | | | | | | | | | | | | | | | | | | | | | | | | | | | | | | | | | | | | | | | | | | | | | | | | | | | +.) 1 n B m C @ K T T T T T T ",
"T T T T T T   q n n M j 4 +.O.| | | | | | | | | | | | | | | | | | | | | | | | | | | | | | | | | | | | | | | | | | | | | | | | | | | | | | | | | | | | | | | | | | | | | | +.( 5 n n m C @ K T T T T T T ",
"T T T T T T   q M n n j - +. .| | | | | | | | | | | | | | | | | | | | | | | | | | | | | | | | | | | | | | | | | | | | | | | | | | | | | | | | | | | | | | | | | | | | | | +.) 5 m n n C $ K T T T T T T ",
"T T T T T T   q M n n k 5 +. .| | | | | | | | | | | | | | | | | | | | | | | | | | | | | | | | | | | | | | | | | | | | | | | | | | | | | | | | | | | | | | | | | | | | | | o.) 5 n B n m $ K T T T T T T ",
"T T T T T T   q n n n j < +. .| | | | | | | | | | | | | | | | | | | | | | | | | | | | | | | | | | | | | | | | | | | | | | | | | | | | | | | | | | | | | | | | | | | | | | +.( 5 n n n m @ K T T T T T T ",
"T T T T T T   q n n v k - +. .| | | | | | | | | | | | | | | | | | | | | | | | | | | | | | | | | | | | | | | | | | | | | | | | | | | | | | | | | | | | | | | | | | | | | | +._ 5 n n n C $ K T T T T T T ",
"T T T T T T   q n n n k 2 +. .| | | | | | | | | | | | | | | | | | | | | | / k C Z f | | | | | ` v Z C / | | | | | ~ z z k C | | | | | | | | | | | | | | | | | | | | | | | @.) 5 v n n C @ K T T T T T T ",
"T T T T T T   q n n v j 2 +. .| | | | | | | | | | | | | | | | | | | | | | _ _ ,.,.) ' | | | | Z ;.1.1.s | | | | | s 1.1.-.C | | | | | | | | | | | | | | | | | | | | | | | +.) 5 n n n C @ K T T T T T T ",
"T T T T T T   q n n v j 2 +. .| | | | | | | | | | | | | | | | | | | | | | | p >.1.#.~ | | | | k 1.1.1.) ` | | | ] ~ 1.1.| / | | | | | | | | | | | | | | | | | | | | | | | +.) 5 n B n C $ K T T T T T T ",
"T T T T T T   q n n b j - +. .| | | | | | | | | | | | | | | | | | | | | | | n =.,.:.k | | | ) ' 1.1.1.*.! | | | / O.1.1.C { | | | | | | | | | | | | | | | | | | | | | | | +.) 5 n n n C $ K T T T T T T ",
"T T T T T T   q n n n k 5 +...| | | | | | | | | | | | | | | | | | | | | | | / | ,.1.m | | | ! =.1.1.1.,.s | | | Z ;.1.:.s | | | | | | | | | | | | | | | | | | | | | | | | o.) 5 n n n C $ K T T T T T T ",
"T T T T T T   q n n v f 1 +. .| | | | | | | | | | | | | | | | | | | | | | | | C 1.1.| ( | | s 1.1.' 1.1.~ ] | | i ,.1.#.~ | | | | | |  .| | | | | | | | | | | | | | | | | +.( 1 n n n C $ K T T T T T T ",
"T T T T T T   q n v v f 1 +.O.| | | | | | | | | | | | | | | | | | | | | | | | i :.1.*.Z | ] ) 1.1.e :.1.+./ | ' ~ 1.,./ ` | | | | | | | | | | | | | | | | | | | | | | | | +.) < n B n C $ K T T T T T T ",
"T T T T T T   q v n b d 5 +. .| | | | | | | | | | | | | | | | | | | | | | | | ~ +.,.<.p | ~ &.1.=.i +.1.>.d | ^ O.1.<.i | | | | | | | | | | | | | | | | | | | | | | | | | +.( 5 n n n C @ K T T T T T T ",
"T T T T T T   q n v v k 2 +. .| | | | | | | | | | | | | | | | | | | | | | | | _ ^ 1.1.! ' s >.1.| _ ! 1.1.C } k ;.,.*.Z | | | | | | | | | | | | | | | | | | | | | | | | | o.( 1 n n n m @ K T T T T T T ",
"T T T T T T   q n n n j 5 +.+.| | | | | | | | | | | | | | | | | | | | | | | | | i <.1. .! ! 1.1.v | k >.1.| / p ,.,.' ( | | | | | | | | | | | | | | | | | | | | | | | | | o.( 1 n m n C $ K T T T T T T ",
"T T T T T T   9 n n b j 2 +.O.| | | | | | | | | | | | | | | | | | | | | | | | | C =.1.=.5 +.1.;.n | ~ O.1.=.i ) ,.<.k | | | | | | | | | | | | | | | | | | | | | | | | | | +.) 1 n n n m $ K T T T T T T ",
"T T T T T T   q n v v s 5 +. .| | | | | | | | | | | | | | | | | | | | | | | | | / | 1.>.3 ;.1.| / | ] Z ,.,.q +.,.-.v | | | | | | | | | | | | | | | | | | | | | | | | | | +._ 1 n n n C @ K T T T T T T ",
"T T T T T T   q x n n k 2 +. .| | | | | | | | | | | | | | | | | | | | | | | | | [ C 1.1.Z <.<.B | | | p :.1.~ :.,. ./ | | | | | | | | | | | | | | | | | | | | | | | | | | +.) 5 v n n N @ K T T T T T T ",
"T T T T T T   q n x v k 4 +. .| | | | | | | | | | | | | | | | | | | | | | | | | | h >.1.>.1.;.h | | | ~ +.<.:.<.,.Q } | | | | | | | | | | | | | | | | | | | | | | | | | | +.) 1 v n n C @ K T T T T T T ",
"T T T T T T   q n n v g 5 +. .| | | | | | | | | | | | | | | | | | | | | | | | | | ~ &.1.1.1.O.~ | | | ` ~ <.<.<.>.v | | | | | | | | | | | | | | | | | | | | | | | | | | | +.) 6 v n v C @ K T T T T T T ",
"T T T T T T   q n n v k < +. .| | | | | | | | | | | | | | | | | | | | | | | | | | ` _ 1.1.1.! ] | | | | p >.>.>.O.~ | | | | | | | | | | | | | | | | | | | | | | | | | | | +.( 1 n n n C $ K T T T T T T ",
"T T T T T T   q n x v j < +.+.| | | | | | | | | | | | | | | | | | | | | | | | | | | h 1.1.:.t | | | | | ! O.>.>.( ] | | | | | | | | | | | | | | | | | | | | | | | | | | | +.) 1 n n n C $ K T T T T T T ",
"T T T T T T   q n n n j 5 +. .| | | | | | | | | | | | | | | | | | | | | | | | | | | ! ( ) ~ ~ | | | | | ] v ` ] p | | | | | | | | | | | | | | | | | | | | | | | | | | | | #.) 1 v n v V @ K T T T T T T ",
"T T T T T T   q n n n k 5 +. .| | | | | | | | | | | | | | | | | | | | | | | | | | | | ` ` ` | | | | | [ O.] _ ( ] | | | | | | | | | | | | | | | | | | | | | | | | | | | | +.) 1 n n n V $ K T T T T T T ",
"T T T T T T   q B v v g 2 +. .| | | | | | | | | | | | | | | | | | | | | | | | | | | | | | | | | | | | | | | | | | | | | | | | | | | | | | | | | | | | | | | | | | | | | | +.( 6 n n V V @ K T T T T T T ",
"T T T T T T   q n n n k 2 +. .| | | | | | | | | | | | | | | | | | | | | | | | | | | | | | | | | | | | | | | | | | | | | | | | | | | | | | | | | | | | | | | | | | | | | | +.( 1 n n n V @ K T T T T T T ",
"T T T T T T   q n n n j 5 +. .| | | | | | | | | | | | | | | | | | | | | | | | | | | | | | | | | | | | | | | | | | | | | | | | | | | | | | | | | | | | | | | | | | | | | | +.) 1 n n n n @ K T T T T T T ",
"T T T T T T   q n n v k 2 +. .| | | | | | | | | | | | | | | | | | | | | | | | | | | | | | | | | | | | | | | | | | | | | | | | | | | | | | | | | | | | | | | | | | | | | | o.) 1 n n n C @ K T T T T T T ",
"T T T T T T   q m n n f < +.+.| | | | | | | | | | | | | | | | | | | | | | | | | | | | | | | | | | | | | | | | | | | | | | | | | | | | | | | | | | | | | | | | | | | | | | +.) 5 n n n N @ K T T T T T T ",
"T T T T T T   r n n n k - +. .| | | | | | | | | | | | | | | | | | | | | | | | | | | | | | | | | | | | | | | | | | | | | | | | | | | | | | | | | | | | | | | | | | | | | | X.) 5 n n n N $ K T T T T T T ",
"T T T T T T   q n n z k - +. .| | | | | | | | | | | | | | | | | | | | | | | | | | | | | | | | | | | | | | | | | | | | | | | | | | | | | | | | | | | | | | | | | | | | | | +.) 5 n n M C @ K T T T T T T ",
"T T T T T T   q n n v g - +. .| | | | | | | | | | | | | | | | | | | | | | | | | | | | | | | | | | | | | | | | | | | | | | | | | | | | | | | | | | | | | | | | | | | | | | +.) 1 n n n N @ K T T T T T T ",
"T T T T T T   q M n n j - +.O.| | | | | | | | | | | | | | | | | | | | | | | | | | | | | | | | | | | | | | | | | | | | | | | | | | | | | | | | | | | | | | | | | | | | | | +._ 1 n n n C @ K T T T T T T ",
"T T T T T T   r n n x j - +.O.| | | | | | | | | | | | | | | | | | | | | | | | | | | | | | | | | | | | | | | | | | | | | | | | | | | | | | | | | | | | | | | | | | | | | | +.) 5 n n n N @ K T T T T T T ",
"T T T T T T   q n n v s - +. .| | | | | | | | | | | | | | | | | | | | | | | | | | | | | | | | | | | | | | | | | | | | | | | | | | | | | | | | | | | | | | | | | | | | | | X.) 1 n n n C @ K T T T T T T ",
"T T T T T T   q n n n j - +.| | | | | | | | | | | | | | | | | | | | | | | | | | | | | | | | | | | | | | | | | | | | | | | | | | | | | | | | | | | | | | | | | | | | | | | +.) 5 n n n C $ K T T T T T T ",
"T T T T T T   q n v n s - +.| | | | | | | | | | | | | | | | | | | | | | | | | | | | | | | | | | | | | | | | | | | | | | | | | | | | | | | | | | | | | | | | | | | | | | | o.) 1 n n n C $ K T T T T T T ",
"T T T T T T   q n n x d - +. .| | | | | | | | | | | | | | | | | | | | | | | | | | | | | | | | | | | | | | | | | | | | | | | | | | | | | | | | | | | | | | | | | | | | | | o.) 1 n n M C @ K T T T T T T ",
"T T T T T T   6 n v x s - +.O.| | | | | | | | | | | | | | | | | | | | | | | | | | | | | | | | | | | | | | | | | | | | | | | | | | | | | | | | | | | | | | | | | | | | | | o.) 1 n n n C @ K T T T T T T ",
"T T T T T T   q v x x s 3 +.O.| | | | | | | | | | | | | | | | | | | | | | | | | | | | | | | | | | | | | | | | | | | | | | | | | | | | | | | | | | | | | | | | | | | | | | o.( = b v n C @ K T T T T T T ",
"T T T T T T   q v v k s - +.| | | | | | | | | | | | | | | | | | | | | | | | | | | | | | | | | | | | | | | | | | | | | | | | | | | | | | | | | | | | | | | | | | | | | | | o./ 1 k x n N @ K T T T T T T ",
"T T T T T T   8 z b k s = +.O.| | | | | | | | | | | | | | | | | | | | | | | | | | | | | | | | | | | | | | | | | | | | | | | | | | | | | | | | | | | | | | | | | | | | | |  ./ = k x x N @ K T T T T T T ",
"T T T T T T   8 x k k s = +.+.| | | | | | | | | | | | | | | | | | | | | | | | | | | | | | | | | | | | | | | | | | | | | | | | | | | | | | | | | | | | | | | | | | | | | | ..^ < k x k n @ K T T T T T T ",
"T T T T T T   8 v z c k - @.+.| | | | | | | | | | | | | | | | | | | | | | | | | | | | | | | | | | | | | | | | | | | | | | | | | | | | | | | | | | | | | | | | | | | | | | o.~ < x f x x @ K T T T T T T ",
"T T T T T T   - z z v c - | %.| | | | | | | | | | | | | | | | | | | | | | | | | | | | | | | | | | | | | | | | | | | | | | | | | | | | | | | | | | | | | | | | | | | | | | %.Z 7 l f x x + K T T T T T T ",
"T T T T T T ; & v v v n q Z *. .| | | | | | | | | | | | | | | | | | | | | | | | | | | | | | | | | | | | | | | | | | | | | | | | | | | | | | | | | | | | | | | | | | | | +.+.5 t f x x f . K T T T T T T ",
"T T T T T T H . v v n n k 5 _ %.O.| | | | | | | | | | | | | | | | | | | | | | | | | | | | | | | | | | | | | | | | | | | | | | | | | | | | | | | | | | | | | | | | |  .#.%.N 7 n x x x d   K T T T T T T ",
"T T T T T T K   s n B n V a 8 ! %.*.&.+. . . .| | |  .|  .+.+.+.+.+.@.+.%.%.+.@.+.@.@.@.+.#.+.+.+.+.+.+.+.+.+.+.+.+.%.%.#.$.+.#.#.+.+.#.+.#.+.+.+.+.+.+.$.%.%.%.%.&.*.+.n 8 k n x x l 1   Y T T T T T T ",
"T T T T T T T   - m n m n C k q q Z ~ ~ ~ ~ ~ ~ ~ ~ ~ ~ ~ ~ ~ ~ ~ ~ ~ ~ ~ ~ ~ ~ ~ ~ ~ ~ ~ ~ ~ ~ / ~ ~ ~ ~ ~ ~ ~ ~ ~ ~ ^ ~ ~ ~ ~ ^ ~ ~ ~ ~ ~ ~ ~ ~ ~ ~ ~ ~ ~ ~ ~ ^ ^ Z 7 q k n n n k k o , T T T T T T T ",
"T T T T T T T K   k V C C n n v s q 6 1 5 1 < 1 < < 5 1 5 5 5 8 5 8 8 8 8 8 8 8 8 5 8 8 8 8 8 6 8 8 6 8 8 6 6 6 9 8 8 8 q 6 7 7 0 6 8 6 8 8 8 5 5 8 8 5 5 8 8 8 6 q e d n n m n n n 8   U T T T T T T T ",
"T T T T T T T T D $ n B M M n v n x k f k k k k z c z v n n v n n n n B n n n n n n n n v n n n n n x v n n x n n n n n n n n n n n v n v b v b b z c c c v v v n m m m n n m m C s   S T T T T T T T T ",
"T T T T T T T T Y # @ k C n n v l k k k h k k k k z z b v n v n n n n n n n n v v v n v v v n v n v v v n n x n n n n v n n n n n n v v n z b b k b k k k c c k l v n x n m n N s   S T T T T T T T T T ",
"T T T T T T T T T U ,   8 k v l k k k k k c k v z x v n n n n v v n n n v n n b v v v v x v v x n v k v n v n n v v n n n n n n n M v v v v z b v v c k l k k k h l l v B m k L   S T T T T T T T T T T ",
"T T T T T T T T T T T K     % - 8 q q q q q w q t r w t t e t t t t t t r t r t t r t w t t e w t r t t t t r e t t t t t r t e r t t e e t t r q q q q q q q q q q 9 q 2 F > , I T T T T T T T T T T T ",
"T T T T T T T T T T T T T K A                                                                                                                                           # P I T T T T T T T T T T T T T ",
"T T T T T T T T T T T T T T T T T T T T T T T T T T T T T T T T T T T T T T T T T T T T T T T T T T T T T T T T T T T T T T T T T T T T T T T T T T T T T T T T T T T T T T T T T T T T T T T T T T T T ",
"T T T T T T T T T T T T T T T T T T T T T T T T T T T T T T T T T T T T T T T T T T T T T T T T T T T T T T T T T T T T T T T T T T T T T T T T T T T T T T T T T T T T T T T T T T T T T T T T T T T T ",
"T T T T T T T T T T T T T T T T T T T T T T T T T T T T T T T T T T T T T T T T T T T T T T T T T T T T T T T T T T T T T T T T T T T T T T T T T T T T T T T T T T T T T T T T T T T T T T T T T T T T ",
"T T T T T T T T T T T T T T T T T T T T T T T T T T T T T T T T T T T T T T T T T T T T T T T T T T T T T T T T T T T T T T T T T T T T T T T T T T T T T T T T T T T T T T T T T T T T T T T T T T T T ",
"T T T T T T T T T T T T T T T T T T T T T T T T T T T T T T T T T T T T T T T T T T T T T T T T T T T T T T T T T T T T T T T T T T T T T T T T T T T T T T T T T T T T T T T T T T T T T T T T T T T T ",
"T T T T T T T T T T T T T T T T T T T T T T T T T T T T T T T T T T T T T T T T T T T T T T T T T T T T T T T T T T T T T T T T T T T T T T T T T T T T T T T T T T T T T T T T T T T T T T T T T T T T "
};
