/* XPM */
static char *result[] = {
/* columns rows colors chars-per-pixel */
"100 97 105 2 ",
"   c #000101",
".  c #080A06",
"X  c #0C0C0B",
"o  c #0D100F",
"O  c #151514",
"+  c #191917",
"@  c #161618",
"#  c gray10",
"$  c #022402",
"%  c #1F2120",
"&  c #242424",
"*  c #2C2C2B",
"=  c #343433",
"-  c #383734",
";  c #363837",
":  c #3E3E3D",
">  c #054A05",
",  c #025102",
"<  c #026002",
"1  c #40413F",
"2  c #3F3F40",
"3  c #413F40",
"4  c #3F4140",
"5  c #424342",
"6  c #474945",
"7  c #494947",
"8  c #474748",
"9  c #494749",
"0  c #474948",
"q  c #4B4B4B",
"w  c #4D514E",
"e  c #50504F",
"r  c #4F5150",
"t  c #555554",
"y  c #585756",
"u  c #575956",
"i  c #595957",
"p  c #575759",
"a  c #575958",
"s  c #5A5A59",
"d  c #60605E",
"f  c #615F60",
"g  c #646464",
"h  c #686667",
"j  c #676966",
"k  c #686966",
"l  c #676769",
"z  c #696768",
"x  c #676968",
"c  c #6B6B6B",
"v  c #6E706F",
"b  c #70706E",
"n  c #6E6E70",
"m  c #737373",
"M  c #7B7B7B",
"N  c #018001",
"B  c #028B02",
"V  c #019C01",
"C  c #03A302",
"Z  c #02AA02",
"A  c #02B002",
"S  c #00BB00",
"D  c #208D21",
"F  c #01CC02",
"G  c #02D402",
"H  c #00D801",
"J  c #01E301",
"K  c #01EC01",
"L  c #00F700",
"P  c green",
"I  c #31C832",
"U  c #41AD41",
"Y  c #858585",
"T  c #878988",
"R  c #8D8D8D",
"E  c #8F908F",
"W  c #918F90",
"Q  c #8F9190",
"!  c #939393",
"~  c #989896",
"^  c #9C9C9C",
"/  c #A4A4A3",
"(  c #A8A8A7",
")  c #AAAAAA",
"_  c #B7B7B7",
"`  c #BEBEBE",
"'  c #C0BEBF",
"]  c #C0C0BF",
"[  c #BFBFC0",
"{  c #C1BFC0",
"}  c #BFC1C1",
"|  c #C3C3C3",
" . c #C8C7C7",
".. c #C6C8C7",
"X. c #C9CAC6",
"o. c #CACACA",
"O. c #D1D1CF",
"+. c #D2D2D2",
"@. c #DDDDDD",
"#. c #E6E4E5",
"$. c #EDEEED",
"%. c #F4F4F4",
"&. c #F9F9F7",
"*. c #F9F7F8",
"=. c #FDFDFC",
/* pixels */
"P P P P P P P P P P P P P P P P P P P P P P P P P P P P P P P P P P P P P P P P P P P P P P P P P P P P P P P P P P P P P P P P P P P P P P P P P P P P P P P P P P P P P P P P P P P P P P P P P P P P ",
"P P P P P P P P P P P P P P P P P P P P P P P P P P P P P P P P P P P P P P P P P P P P P P P P P P P P P P P P P P P P P P P P P P P P P P P P P P P P P P P P P P P P P P P P P P P P P P P P P P P P ",
"P P P P P P P P P P P P P P P P P P P P P P P P P P P P P P P P P P P P P P P P P P P P P P P P P P P P P P P P P P P P P P P P P P P P P P P P P P P P P P P P P P P P P P P P P P P P P P P P P P P P ",
"P P P P P P P P P P P P P P P P P P P P P P P P P P P P P P P P P P P P P P P P P P P P P P P P P P P P P P P L P P P P P P P P P P P P P P P P P P P P P P P P P P P P P P P P P P P P P P P P P P P P ",
"P P P P P P P P P P P P K S S S S S S S S S S S S S S S S S S S S S S S S S S S S S S S S S S S S S S S S S S F S S S S S S S S S S S S S S S S S S S S S S S S S S S G P P P P P P P P P P P P P P P P ",
"P P P P P P P P P P G ,     . X O O O o O O O O O O O O O O O O O O O @ O O O O O + O O O O O O O O O @ O O O @ O O @ O @ O + O O @ O O O O O @ @ + @ O @ O O O @ O X   . C P P P P P P P P P P P P P P ",
"P P P P P P P P K B   * t s h h k k c k k c c c z z c k c k c c z k c c c c c c k c c c c c k n c c c c c c c c c c c c c c c c c c c c c c x c c c c c k k c c c c j s 8 o   H P P P P P P P P P P P P ",
"P P P P P P P J   # s v x h g h h l x l k h j j z h z z l z k z z z l z c z k z z l l l k k z z k k k k k k k c z c z l c k z k x l x k k j h h k k z z z j k k k k j j c l ;   S P P P P P P P P P P P ",
"P P P P P P J   * n b c c c z g j j j k k z h g x k x h h h z z x j k k k j j j j x k k k z j j j c j x k k k j k z j z k k l k z z j h j h h j k k x k x c c c c c j c c c c 8   F P P P P P P P P P P ",
"P P P P P P B + c m m b m n k d s i i y s p s i t s t i t s y p p t s s s s a i s i s s s u s s s s s i p y s t p p t s y a p p a p a y t a p s p i u i u a u s d g k j k k c b 2   J P P P P P P P P P ",
"P P P P P F . s m c m b b s 3 2 q 7 q q q 8 8 7 q q q q q q q q q q q q q w q q w 7 q q w q q q q q q 7 q q q q q q q q q q q q q q q q q q q r q q t q q q q q 6 : q g j c c c c & B P P P P P P P P P ",
"P P P P P N & m c m c n q 1 ! | O.o.o.o. . .| |  . .o.| ..| |  .....o.o.o.o.o.o.X.X.o. .o.o. .o.o.o.o.X.X.X. . .o. .o.X.o.o.o.o.o.o.o.o.o.o.o.o.o.o.o.o.o.o.o. .| _ c 1 d c b c b y   K P P P P P P P P ",
"P P P P K   q c m v b t 8 _ +.| _ _ _ _ _ _ _ _ _ _ _ _ _ _ _ _ _ _ _ _ _ _ _ _ _ _ _ _ _ _ _ _ _ _ _ _ _ _ _ _ _ _ _ _ ` _ _ _ _ _ _ _ _ _ _ _ ` _ _ _ _ _ _ _ _ |  .M 1 c c b c c X S P P P P P P P P ",
"P P P P F   d k k c k 2 / +.` _ _ _ _ _ _ _ _ _ _ _ _ _ _ _ _ _ _ _ _ _ _ _ _ _ _ _ _ _ _ _ _ _ _ _ _ _ _ _ _ _ _ _ _ _ _ _ _ _ _ _ _ _ _ _ _ _ _ _ _ _ _ _ _ _ _ _ '  .y y b c c m * V P P P P P P P P ",
"P P P P S . x x c n s t O.` _ _ _ _ _ _ _ _ _ _ _ _ _ _ _ _ _ _ _ _ _ _ _ _ _ _ _ _ _ _ _ _ _ _ _ _ _ _ _ _ _ _ _ _ _ _ _ _ _ _ _ _ _ _ _ _ _ _ _ _ _ _ _ _ _ _ _ _ _  ./ 1 b c c c 3   P P P P P P P P ",
"P P P P S O c k k k q Y O._ _ _ _ _ _ _ _ _ _ _ _ _ _ _ _ _ _ _ _ _ _ _ _ _ _ _ _ _ _ _ _ _ _ _ _ _ _ _ _ _ _ _ _ _ _ _ _ _ _ _ _ _ _ _ _ _ _ _ _ _ _ _ _ _ _ _ _ _ _ ] ` 1 g c c c 8   P P P P P P P P ",
"P P P P S O c k k c 9 R o._ _ _ _ _ _ _ _ _ _ _ _ _ _ _ _ _ _ _ _ _ _ _ _ _ _ _ _ _ _ _ _ _ _ _ _ _ _ _ _ _ _ _ ` _ _ _ _ _ _ _ _ _ _ _ _ _ _ _ _ _ _ _ _ _ _ _ _ _ _ | [ 4 g c k k 8   P P P P P P P P ",
"P P P P S O c c z c 8 E o._ _ _ _ _ _ _ _ _ _ _ _ _ _ _ _ _ _ _ _ _ _ _ _ _ _ _ _ _ _ _ _ _ _ _ _ _ _ _ _ _ _ _ _ _ _ _ _ _ _ _ _ _ _ _ _ _ _ _ _ _ _ _ _ _ _ _ _ _ _ ` [ 2 d c c k 8   P P P P P P P P ",
"P P P P S @ c k k k q R o._ _ _ _ _ _ _ _ _ _ _ _ _ _ _ _ _ _ _ _ _ _ _ _ _ _ _ _ _ _ _ _ _ _ _ _ _ _ _ _ _ _ _ _ _ _ _ _ _ _ _ _ _ _ _ _ _ _ _ _ _ _ _ _ _ _ _ _ _ _ ' | 2 d x k c 8   P P P P P P P P ",
"P P P P S O c c j x 8 R o._ _ _ _ _ _ _ _ _ _ _ _ _ _ _ _ _ _ _ _ _ _ _ _ _ _ _ _ _ _ _ _ _ _ _ _ _ _ _ _ _ _ _ _ _ _ _ _ _ _ _ _ _ _ _ _ _ _ _ _ _ _ _ _ _ _ _ _ _ _ [ [ 4 d h c c 8   P P P P P P P P ",
"P P P P S O c c c c 8 R  ._ _ _ _ _ _ _ _ _ _ _ _ _ _ _ _ _ _ _ _ _ _ _ _ _ _ _ _ _ _ _ _ _ _ _ _ _ _ _ _ _ _ _ _ _ _ _ _ _ _ _ _ _ _ _ _ _ _ _ _ _ _ _ _ _ _ _ _ _ _ ` [ 1 g h c c 9   P P P P P P P P ",
"P P P P S O c c z z 8 R | _ _ _ _ _ _ _ _ _ _ _ _ _ _ _ _ _ _ _ _ _ _ _ _ _ _ _ _ _ _ _ _ _ _ _ _ _ _ _ _ _ _ _ _ _ _ _ _ _ _ _ _ _ _ _ _ _ _ _ _ _ _ _ _ _ _ _ _ _ _ ` { : g h c c q   P P P P P P P P ",
"P P P P S O c z c c 9 R | _ _ _ _ _ _ _ _ _ _ _ _ _ _ _ _ _ _ _ _ _ _ _ _ _ _ _ _ _ _ _ _ _ _ _ _ _ _ _ _ _ _ _ _ _ _ _ _ _ _ _ _ _ _ _ _ _ _ _ _ _ _ _ _ _ _ _ _ _ _ | [ 2 f l c c q   P P P P P P P P ",
"P P P P S @ c c c c q R  ._ _ _ _ _ _ _ _ _ _ _ _ _ _ _ _ _ _ _ _ _ _ _ _ _ _ _ _ _ _ _ _ _ _ _ _ _ _ _ _ _ _ _ _ _ _ _ _ _ _ _ _ _ _ _ _ _ _ _ _ _ _ _ _ _ _ _ _ _ _ | ` 2 f l c c q   P P P P P P P P ",
"P P P P S O c z k c 9 R | _ _ _ _ _ _ _ _ _ _ _ _ _ _ _ _ _ _ _ _ _ _ _ _ _ _ _ _ _ _ _ _ _ _ _ _ _ _ _ _ _ _ _ _ _ _ _ _ _ _ _ _ _ _ _ _ _ _ _ _ _ _ _ _ _ _ _ _ _ _ ` } : g j z c q   P P P P P P P P ",
"P P P P S @ b k c c q R o._ _ _ _ _ _ _ _ _ _ _ _ _ _ _ _ _ _ _ _ _ _ _ _ _ _ _ _ _ _ _ _ _ _ _ _ _ _ _ _ _ _ _ _ _ _ _ _ _ _ _ _ _ _ _ _ _ _ _ _ _ _ _ _ _ _ _ _ _ _ | [ 2 g x c c q   P P P P P P P P ",
"P P P P S @ c k c c 9 R | _ _ _ _ _ _ _ ` _ _ _ _ _ _ _ _ _ _ _ _ _ _ _ _ _ _ _ _ _ _ _ _ _ _ _ _ _ _ _ _ _ _ _ _ _ _ _ _ _ _ _ _ _ _ _ _ _ _ ` _ _ _ _ _ _ _ _ _ _ _ [ [ 3 f x c c q   P P P P P P P P ",
"P P P P S @ c c c k q R | _ _ _ _ _ _ _ _ _ _ _ _ _ _ _ _ _ _ _ _ _ _ _ _ _ _ _ _ _ _ _ _ _ _ _ _ _ _ _ _ _ _ _ _ _ _ _ _ _ _ _ _ _ _ _ _ _ _ _ _ _ _ _ _ _ _ _ _ _ _ ` } : g z c k q   P P P P P P P P ",
"P P P P S O c c z c 9 R  ._ _ _ _ _ _ _ _ _ _ _ _ _ _ _ _ _ _ _ _ _ _ _ _ _ _ _ _ _ _ _ _ _ _ _ _ _ _ _ _ _ _ _ _ _ _ _ _ _ _ _ _ _ _ _ _ _ _ _ _ _ _ _ _ _ _ _ _ _ _ ` ` : g z c c q   P P P P P P P P ",
"P P P P S O c z z c q R o._ _ _ _ _ _ _ _ _ _ _ _ _ _ _ _ _ _ _ _ _ _ _ _ _ _ _ _ _ _ _ _ _ _ _ _ _ _ _ _ _ _ _ _ _ _ _ _ _ _ _ _ _ _ _ _ _ _ _ _ _ _ _ _ _ _ _ _ _ _ { ` 3 g j c z q   P P P P P P P P ",
"P P P P S O c c c c q R  ._ _ _ _ _ _ _ _ _ _ _ _ _ _ _ _ _ _ _ _ _ _ _ _ _ _ _ _ _ _ _ _ _ _ _ _ _ _ _ _ _ _ _ _ _ _ _ _ _ _ _ _ _ _ _ _ _ _ _ _ _ _ _ _ _ _ _ _ _ _ | ` 5 g h c c q   P P P P P P P P ",
"P P P P S O c z l c q R o._ _ _ _ _ _ _ _ _ _ _ _ _ _ _ _ _ _ _ _ _ _ _ _ _ _ _ _ _ _ _ _ _ _ _ _ _ _ _ _ _ _ _ _ _ _ _ _ _ _ _ _ _ _ _ _ _ _ _ _ _ _ _ _ _ _ _ _ _ _ | ` 4 d h c c q   P P P P P P P P ",
"P P P P S @ c c c c q R o._ _ _ _ _ _ _ _ _ _ _ _ _ _ _ _ _ _ _ _ _ _ _ _ _ _ _ _ _ _ _ _ ` _ _ _ _ _ _ _ _ _ _ _ _ _ _ _ _ _ _ _ _ _ _ _ _ _ _ _ _ _ _ _ _ _ _ _ _ _ [ ` : g h c c 9   P P P P P P P P ",
"P P P P S @ c z x c q R o._ _ _ _ _ _ _ _ _ _ _ _ _ _ _ _ _ _ _ _ _ _ _ _ _ _ _ _ _ _ _ _ _ _ _ _ _ v M _ _ _ _ _ _ _ _ _ _ _ _ _ _ _ _ _ _ _ _ _ _ _ _ _ _ _ _ _ _ _ | | 5 d h c c q   P P P P P P P P ",
"P P P P S @ c c c c 9 Q o._ _ _ _ _ _ _ _ _ _ _ _ _ _ _ _ _ _ _ _ _ _ _ _ _ _ _ _ _ _ _ _ _ _ _ _ c | ( M _ _ _ _ _ _ _ _ _ _ _ _ _ _ _ _ _ _ _ _ _ _ _ _ _ _ _ _ _ _ [ | 2 g j k c q   P P P P P P P P ",
"P P P P S O c c c c 9 R  ._ _ _ _ _ _ _ _ _ _ _ _ _ _ _ _ _ _ _ _ _ _ _ _ _ _ _ _ _ _ _ _ _ _ _ k | =.=.) m _ _ _ _ _ _ _ _ _ _ _ _ _ _ _ _ _ _ _ _ _ _ _ _ _ _ _ _ _ | ` : g x c c q   P P P P P P P P ",
"P P P P S O c c x c q R  ._ _ _ _ _ _ _ _ _ _ _ _ _ _ _ _ _ _ _ _ _ _ _ _ _ _ _ _ _ _ _ _ _ _ R _ =.=.=.=.) m ` _ _ _ _ _ _ _ _ _ _ _ _ _ _ _ _ _ _ _ _ _ _ _ _ _ _ _ | ` : g j c c q   P P P P P P P P ",
"P P P P S O c c c c q R  ._ _ _ _ _ _ _ _ _ _ _ _ _ _ _ _ _ _ _ _ _ _ _ _ _ _ _ _ _ _ _ _ _ _ ) g $.=.=.=.=.( m _ _ _ _ _ _ _ _ _ _ _ _ _ _ _ _ _ _ _ _ _ _ _ _ _ _ _ [ ] 5 g k c c q   P P P P P P P P ",
"P P P P S @ n k c n q R o._ _ _ _ _ _ _ _ _ _ _ _ _ _ _ _ _ _ _ _ _ _ _ _ _ _ _ _ _ _ _ _ _ _ _ ) l $.=.=.=.=.( m _ _ _ _ _ _ _ _ _ _ _ _ _ _ _ _ _ _ _ _ _ _ _ _ _ _ | | 3 g z c c w   P P P P P P P P ",
"P P P P S @ c k x n q Q o._ _ _ _ _ _ _ _ _ _ _ _ _ _ _ _ _ _ _ _ _ _ _ _ _ _ _ _ _ _ _ _ _ _ _ _ ( k $.=.=.=.=./ m _ _ _ _ _ _ _ _ _ _ _ _ _ _ _ _ _ _ _ _ _ _ _ _ _ { ` 2 g k c c q   P P P P P P P P ",
"P P P P S @ c c c v q R o._ _ _ _ _ _ _ _ _ _ _ _ _ _ _ _ _ _ _ _ _ _ _ _ _ _ _ _ _ _ _ _ _ _ _ _ _ ) v $.=.=.&.&.( m _ _ _ _ _ _ _ _ _ _ _ _ _ _ _ _ _ _ _ _ _ _ _ _ } | 4 g c c c q   P P P P P P P P ",
"P P P P S @ c c k v q R  ._ _ _ _ _ _ _ _ _ _ _ _ _ _ _ _ _ _ _ _ _ _ _ _ _ _ _ _ _ _ _ _ _ _ _ _ _ _ ( n $.&.=.&.*.) m _ _ _ _ _ _ _ _ _ _ _ _ _ _ _ _ _ _ _ _ _ _ _ | } 5 d c c c q   P P P P P P P P ",
"P P P P S @ b c c v q R  ._ _ _ _ _ _ _ _ _ _ _ _ _ _ _ _ _ _ _ R R R R R R R R R R T R R R R R R E R R M d #.%.&.*.*.) m _ _ _ _ _ _ _ _ _ _ _ _ _ _ _ _ _ _ _ _ _ _ { } 5 g k c c q   P P P P P P P P ",
"P P P P S @ c c c n q R o._ _ _ _ _ _ _ _ _ _ _ _ _ _ _ _ _ _ ^ T | | | | | | | ' | ] | |  . .o. . . .| | | @.=.*.=.=.=.) m _ _ _ _ _ _ _ _ _ _ _ _ _ _ _ _ _ _ _ _ _ | } 4 f c c c q   P P P P P P P P ",
"P P P P S @ c c c c q R .._ _ _ _ _ _ _ _ _ _ _ _ _ _ _ _ _ _ ^ ) =.=.=.=.=.=.=.&.=.=.=.=.=.=.=.=.=.=.=.*.*.=.&.=.=.=.=.&.) m _ _ _ _ _ _ _ _ _ _ _ _ _ _ _ _ _ _ _ _ | ` 4 f c c c w   P P P P P P P P ",
"P P P P S O b c c v q ! o._ _ _ _ _ _ _ _ _ _ _ _ _ _ _ _ _ _ ^ ) =.=.=.=.=.=.=.=.&.=.=.=.=.=.=.=.=.=.=.=.*.=.=.=.=.=.*.*.$.w _ _ _ _ _ _ _ _ _ _ _ _ _ _ _ _ _ _ _ _ | | 1 g c c c q   P P P P P P P P ",
"P P P P S O c c c n w R o._ _ _ _ _ _ _ _ _ _ _ _ _ _ _ _ _ _ ^ _ &.=.=.=.=.=.=.&.&.=.=.=.=.=.=.=.=.=.=.&.&.*.*.=.=.=.=.%.M ! _ _ _ _ _ _ _ _ _ _ _ _ _ _ _ _ _ _ _ _ { ` 5 f c c c w   P P P P P P P P ",
"P P P P S @ v c c n q R o._ _ _ _ _ _ _ _ _ _ _ _ _ _ _ _ _ _ / h R T T R R T T T R R R ! ! ! ! ! ! R T T Y } &.=.=.*.%.M ! _ _ _ _ _ _ _ _ _ _ _ _ _ _ _ _ ` _ _ _ _ | { 4 g k c n q   P P P P P P P P ",
"P P P P S O c c v v q E  ._ _ _ _ _ _ _ _ _ _ _ _ _ _ _ _ _ _ _ ( ( ( ) ( ( ( ( ( ( ( ) ) _ _ _ _ ) ) ) T R %.=.=.*.%.M ! _ _ _ _ _ _ _ _ _ _ _ _ _ _ _ _ _ _ _ _ _ _ } [ 4 g c k n q   P P P P P P P P ",
"P P P P S O c c c c q E X._ _ _ _ _ _ _ _ _ _ _ _ _ _ _ _ _ _ _ _ _ _ _ _ _ _ _ _ _ _ _ _ _ _ _ _ _ _ ~ R &.*.*.*.$.m ! _ _ _ _ _ _ _ _ _ _ _ _ _ _ _ _ _ _ _ _ _ _ _ | { 2 g k c c q   P P P P P P P P ",
"P P P P S O v c v c q E o._ _ _ _ _ _ _ _ _ _ _ _ _ _ _ _ _ _ _ _ _ _ _ _ _ _ _ _ _ _ _ _ _ _ _ _ _ ! R =.=.=.*.%.M Q _ _ _ _ _ _ _ _ _ _ _ _ _ _ _ _ _ _ _ _ _ _ _ _ { } 3 g c c c q   P P P P P P P P ",
"P P P P S O v c v v q E o._ _ _ _ _ _ _ _ _ _ _ _ _ _ _ _ _ _ _ _ _ _ _ _ _ _ _ _ _ _ _ _ _ _ _ _ ! R &.=.=.=.%.M Q _ _ _ _ _ _ _ _ _ _ _ _ _ _ _ _ _ _ _ _ _ _ _ _ _ | [ 5 h c c n q   P P P P P P P P ",
"P P P P S O c c c v q R  ._ _ _ _ _ _ _ _ _ _ _ _ _ _ _ _ _ _ _ _ _ _ _ _ _ _ _ _ _ _ _ _ _ _ _ Q R =.=.=.=.%.M ! _ _ _ _ _ _ _ _ _ _ _ _ _ _ _ _ _ _ _ _ _ _ _ _ _ _ ` { 1 d k c v q   P P P P P P P P ",
"P P P P S O v c c b q E  ._ _ _ _ _ _ _ _ _ _ _ _ _ _ _ _ _ _ _ _ _ _ _ _ _ _ _ _ _ _ _ _ _ _ / Y %.=.=.=.&.M ~ _ _ _ _ _ _ _ _ _ _ _ _ _ _ _ _ _ _ _ _ _ _ _ _ _ _ _ | ` 5 g k c c q   P P P P P P P P ",
"P P P P S O c c c b q E  ._ _ _ _ _ _ _ _ _ _ _ _ _ _ _ _ _ _ _ _ _ _ _ _ _ _ _ _ _ _ _ _ _ _ ~ ~ =.=.=.*.M / _ _ _ _ _ _ _ _ _ _ _ _ _ _ _ _ _ _ _ _ _ _ _ _ _ _ _ _ ` } 2 g c c c q   P P P P P P P P ",
"P P P P S O m c c v q E  ._ _ _ _ _ _ _ _ _ _ _ _ _ _ _ _ _ _ _ _ _ _ _ _ _ _ _ _ _ _ _ _ _ _ _ T ~ =.&.T / _ _ _ _ _ _ _ _ _ _ _ _ _ _ _ _ _ _ _ _ _ _ _ _ _ _ _ _ _ | | : g c c c q   P P P P P P P P ",
"P P P P S O n c v v q W o._ _ _ _ _ _ _ _ _ _ _ _ _ _ _ _ _ _ _ _ _ _ _ _ _ _ _ _ _ _ _ _ _ _ _ _ T ^ Y / _ _ _ _ _ _ _ _ _ _ _ _ _ _ _ _ _ _ _ _ _ _ _ _ _ _ _ _ _ _ { | : g x c c q   P P P P P P P P ",
"P P P P S O n c c c q R  ._ _ _ _ _ _ _ _ _ _ _ _ _ _ _ _ _ _ _ _ _ _ _ _ _ _ _ _ _ _ _ _ _ _ _ _ _ ~ / _ _ _ _ _ _ _ _ _ _ _ _ _ _ _ _ _ _ _ _ _ _ _ _ _ _ _ _ _ _ _ ` | 5 g k c v q   P P P P P P P P ",
"P P P P S O n c c c q R  ._ _ _ _ _ _ _ _ _ _ _ _ _ _ _ _ _ _ _ _ _ _ _ _ _ _ _ _ _ _ _ _ _ _ _ _ _ _ _ _ _ _ _ _ _ _ _ _ _ _ _ _ _ _ _ _ _ _ _ _ _ _ _ _ _ _ _ _ _ _ ` ` 5 g k n c q   P P P P P P P P ",
"P P P L S O n c c b q W  ._ _ _ _ _ _ _ _ _ _ _ _ _ _ _ _ _ _ _ _ _ _ _ _ _ _ _ _ _ _ _ _ _ _ _ _ _ _ _ _ _ _ _ _ _ _ _ _ _ _ _ _ _ _ _ _ _ _ _ _ _ _ _ _ _ _ _ _ _ _ ` } 2 g k c c q   P P P P P P P P ",
"P P P P S O n c c n q R | _ _ _ _ _ _ _ _ _ _ _ _ _ _ _ _ _ _ _ _ _ _ _ _ _ _ _ _ _ _ _ _ _ _ _ _ _ _ _ _ _ _ _ _ _ _ _ _ _ _ _ _ _ _ _ _ _ _ _ _ _ _ _ _ _ _ _ _ _ _ ` { 3 g l c n q   P P P P P P P P ",
"P P P P S O n c c c q R  ._ _ _ _ _ _ _ _ _ _ _ _ _ _ _ _ _ _ _ _ _ _ _ _ _ _ _ _ _ _ _ _ _ _ _ _ _ _ _ _ _ _ _ _ _ _ _ _ _ _ _ _ _ _ _ _ _ _ _ _ _ _ _ _ _ _ _ _ _ _ { } 3 g k c c w   P P P P P P P P ",
"P P P P S O n c c c q R o._ _ _ _ _ _ _ _ _ _ _ _ _ _ _ _ _ _ _ _ _ _ _ _ _ _ _ _ _ _ _ _ _ _ _ _ _ _ _ _ _ _ _ _ _ _ _ _ _ _ _ _ _ _ _ _ _ _ _ _ _ _ _ _ _ _ _ _ _ _ | | 4 g k n c q   P P P P P P P P ",
"P P P P S O b c c c q R .._ _ _ _ _ _ _ _ _ _ _ _ _ _ _ _ _ _ _ _ _ _ _ _ _ _ _ _ _ _ _ _ _ _ _ _ _ _ _ _ _ _ _ _ _ _ _ _ _ _ _ _ _ _ _ _ _ _ _ _ _ _ _ _ _ _ _ _ _ _ [ ` 2 g z c c q   P P P P P P P P ",
"P P P P S O c c k c 9 R  ._ _ _ _ _ _ _ _ _ _ _ _ _ _ _ _ _ _ _ _ _ _ _ _ _ _ _ _ _ _ _ _ _ _ _ _ _ _ _ _ _ _ _ _ _ _ _ _ _ _ _ _ _ _ _ _ _ _ _ _ _ _ _ _ _ _ _ _ _ _ ` ` 2 g k k c q   P P P P P P P P ",
"P P P P S O n c c n 9 R  ._ _ _ _ _ _ _ _ _ _ _ _ _ _ _ _ _ _ _ _ _ _ _ _ _ _ _ _ _ _ _ _ _ _ _ _ _ _ _ _ _ _ _ _ _ _ _ _ _ _ _ _ _ _ _ _ _ _ _ _ _ _ _ _ _ _ _ _ _ _ [ | 2 g l k n q   P P P P P P P P ",
"P P P P S O n c c c 9 R o._ _ _ _ _ _ _ _ _ _ _ _ _ _ _ _ _ _ _ _ _ _ _ _ _ _ _ _ _ _ _ _ _ _ _ _ _ _ _ _ _ _ _ _ _ _ _ _ _ _ _ _ _ _ _ _ _ _ _ _ _ _ ` _ _ _ _ _ _ _ | | 2 g c c c q   P P P P P P P P ",
"P P P P S O n c c c 9 R o._ _ _ _ _ _ _ _ _ _ _ _ _ _ _ _ _ _ _ _ _ _ _ _ _ _ _ _ _ _ _ _ _ _ _ _ _ _ _ _ _ _ _ _ _ _ _ _ _ _ _ _ _ _ _ _ _ _ _ _ _ _ _ _ _ _ _ _ _ _ [ } 2 f z c c q   P P P P P P P P ",
"P P P P S O z k k c 8 R .._ _ _ _ _ _ _ _ _ _ _ _ _ _ _ _ _ _ _ _ _ _ _ _ _ _ _ _ _ _ _ _ _ _ _ _ _ _ _ _ _ _ _ _ _ _ _ _ _ _ _ _ _ _ _ _ _ _ _ _ _ _ _ _ _ _ _ _ _ _ [ [ 5 f c c c q   P P P P P P P P ",
"P P P P S O c c c c 8 R  ._ _ _ _ _ _ _ _ _ _ _ _ _ _ _ _ _ _ _ _ _ _ _ _ _ _ _ _ _ _ _ _ _ _ _ _ _ _ _ _ _ _ _ _ _ _ _ _ _ _ _ _ _ _ _ _ _ _ _ _ _ _ _ _ _ _ _ _ _ _ | ` 5 g c c c q   P P P P P P P P ",
"P P P P S O c c k c 8 R  ._ _ _ _ _ _ _ _ _ _ _ _ _ _ _ _ _ _ _ _ _ _ _ _ _ _ _ _ _ _ _ _ _ _ _ _ _ _ _ _ _ _ _ _ _ _ _ _ _ _ _ _ _ _ _ _ _ _ _ _ _ _ _ _ _ _ _ _ _ _ { [ 5 g c c c q   P P P P P P P P ",
"P P P P S O n c k k 8 R  ._ _ _ _ _ _ _ _ _ _ _ _ _ _ _ _ _ _ _ _ _ _ _ _ _ _ _ _ _ _ _ _ _ _ _ _ _ _ _ _ _ _ _ _ _ _ _ _ _ _ _ _ _ _ _ _ _ _ _ _ _ _ _ _ _ _ _ _ _ _ | | 4 s k c c q   P P P P P P P P ",
"P P P P S O c k k c 8 R o._ _ _ _ _ _ _ _ _ _ _ _ _ _ _ _ _ _ _ _ _ _ _ _ _ ` _ _ _ _ _ _ _ _ _ _ _ _ _ _ _ _ _ _ _ _ _ _ _ _ _ _ _ _ _ _ _ _ _ _ _ _ _ _ _ _ _ _ _ _ | | 5 s z c c q   P P P P P P P P ",
"P P P P S O k c c c 8 R o._ _ _ _ _ _ _ _ _ _ _ _ _ _ _ _ _ _ _ _ _ _ _ _ _ _ _ _ _ _ _ _ _ _ _ _ _ _ _ _ _ _ _ _ _ _ _ _ _ _ _ _ _ _ _ _ _ _ _ _ _ _ _ _ _ _ _ _ _ _ ` ` 5 h l c c w   P P P P P P P P ",
"P P P P S O b k c c 8 R  ._ _ _ _ _ _ _ _ _ _ _ _ _ _ _ _ _ _ _ _ _ _ _ _ _ _ _ _ _ _ _ _ _ _ _ _ _ _ _ _ _ _ _ _ _ _ _ _ _ _ _ _ _ _ _ _ _ _ _ _ _ _ _ _ _ _ _ _ _ _ | } 5 g l c c q   P P P P P P P P ",
"P P P P S O c c k c 9 R o._ _ _ _ _ _ _ _ _ _ _ _ _ _ _ _ _ _ _ _ _ _ _ _ _ _ _ _ _ _ _ _ _ _ _ _ _ _ _ _ _ _ _ _ _ _ _ _ _ _ _ _ _ _ _ _ _ _ _ _ _ _ _ _ _ _ _ _ _ _ | ` 5 g k c c q   P P P P P P P P ",
"P P P P S O c j c c q R o.` _ _ _ _ _ _ _ _ _ _ _ _ _ _ _ _ _ _ _ _ _ _ _ _ _ _ _ _ _ _ _ _ _ _ _ _ _ _ _ _ _ _ _ _ _ _ _ _ _ _ _ _ _ _ _ _ _ _ _ _ _ _ _ _ _ _ _ _ _ | [ 5 g x c c q   P P P P P P P P ",
"P P P P S O c j c c q R o._ _ _ _ _ _ _ _ _ _ _ _ _ _ _ _ _ _ _ _ _ _ _ _ _ _ _ _ _ _ _ _ _ _ _ _ _ _ _ _ _ _ _ _ _ _ _ _ _ _ _ _ _ _ _ _ _ _ _ _ _ _ _ _ _ _ _ _ _ _ | [ 5 g h c c q   P P P P P P P P ",
"P P P P S o z z z c q R +._ _ _ _ _ _ _ _ _ _ _ _ _ _ _ _ _ _ _ _ _ _ _ _ _ _ _ _ _ _ _ _ _ _ _ _ _ _ _ _ _ _ _ _ _ _ _ _ _ _ _ _ _ _ _ _ _ _ _ _ _ _ _ _ _ _ _ _ _ _ { _ 2 l c c k q   P P P P P P P P ",
"P P P P S . g g k c a m +.` _ _ _ _ _ _ _ _ _ _ _ _ _ _ _ _ _ _ _ _ _ _ _ _ _ _ _ _ _ _ _ _ _ _ _ _ _ _ _ _ _ _ _ _ _ _ _ _ _ _ _ _ _ _ _ _ _ _ _ _ _ _ _ _ _ _ _ _ _ | / : z z c c 8   P P P P P P P P ",
"P P P P S   g z c c g 6 `  ._ _ _ _ _ _ _ _ _ _ _ _ _ _ _ _ _ _ _ _ _ _ _ _ _ _ _ _ _ _ _ _ _ _ _ _ _ _ _ _ _ _ _ _ _ _ _ _ _ _ _ _ _ _ _ _ _ _ _ _ _ _ _ _ _ _ _ _ _  .g 8 k c c c :   P P P P P P P P ",
"P P P P J   y c c c k 7 c o. .` _ _ _ _ _ _ _ _ _ _ _ _ _ _ _ _ _ _ _ _ _ _ _ _ _ _ _ _ _ _ _ _ _ _ _ _ _ _ _ _ _ _ _ _ _ _ _ _ _ _ _ _ _ _ _ _ _ _ _ _ _ _ _ _ _ ` | R - g c c c c % B P P P P P P P P ",
"P P P P P   : c v c v g 0 c | O.+.o.o. .[ | [ | | | ..| .. .| ..| | ]  . .| |  ... . .....o. .o. ..... ........... .| | |  .| | ....| | | | ......} | | ..| o. .o. .Y ; q j k c c g . S P P P P P P P P ",
"P P P P P S X k c c c c c q 8 M R R R R R R R R R R R R R R R R R R R R R R R R R R R R R R R R R R R R R R R R R R R R R R R R R E R R E E R R R R R R R E R R M 8 ; t h l k k c 5   L P P P P P P P P ",
"P P P P P P C I m v v x v c g t q 8 q 0 8 0 5 8 6 7 6 7 8 q 8 8 0 q q q q 8 q q q 0 0 q q 0 q q 9 9 0 0 0 0 9 9 9 q 0 q q 9 8 q 6 7 0 7 7 q 7 7 q 0 q 0 q q q q e i l l l h g x s . A P P P P P P P P P ",
"P P P P P P J > w m c v v c k k x k k k k k c c j c j c l c c c c c k c c c c c c c c c c c c v n c n c c c v c c c k k c c c c x v v c x c c c k c c k c c c c c k c k h h g g @ < P P P P P P P P P P ",
"P P P P P P P G B U b c c c j h l h l k k k c l j c c x c c k k c c c c c k c c c v c v c c c c c c c c c v c c c c c c c k c z c c j c c c c c c c c c c c c c c c c c x x s @   J P P P P P P P P P P ",
"P P P P P P P P K > D i k x h h l x z x c c c c c c c c v c c c c c c c c c c c c c c v c v c c c c c v c c c c c c c c c c k c c c c c c x c c c c c c k c c c c c c n g 4 . < J P P P P P P P P P P P ",
"P P P P P P P P P J <   o = 5 9 q q q q w w q q e e t q t e e e t q q t q t e w t q t q w r e w r r q t q r q e e q t q t q q e e e q e e t q q q w w w q q q q q q 5 & .   Z P P P P P P P P P P P P P ",
"P P P P P P P P P P P H S >                                                                                                                                         $ C S L P P P P P P P P P P P P P P ",
"P P P P P P P P P P P P P P P P P P P P P P P P P P P P P P P P P P P P P P P P P P P P P P P P P P P P P P P P P P P P P P P P P P P P P P P P P P P P P P P P P P P P P P P P P P P P P P P P P P P P ",
"P P P P P P P P P P P P P P P P P P P P P P P P P P P P P P P P P P P P P P P P P P P P P P P P P P P P P P P P P P P P P P P P P P P P P P P P P P P P P P P P P P P P P P P P P P P P P P P P P P P P ",
"P P P P P P P P P P P P P P P P P P P P P P P P P P P P P P P P P P P P P P P P P P P P P P P P P P P P P P P P P P P P P P P P P P P P P P P P P P P P P P P P P P P P P P P P P P P P P P P P P P P P ",
"P P P P P P P P P P P P P P P P P P P P P P P P P P P P P P P P P P P P P P P P P P P P P P P P P P P P P P P P P P P P P P P P P P P P P P P P P P P P P P P P P P P P P P P P P P P P P P P P P P P P ",
"P P P P P P P P P P P P P P P P P P P P P P P P P P P P P P P P P P P P P P P P P P P P P P P P P P P P P P P P P P P P P P P P P P P P P P P P P P P P P P P P P P P P P P P P P P P P P P P P P P P P ",
"P P P P P P P P P P P P P P P P P P P P P P P P P P P P P P P P P P P P P P P P P P P P P P P P P P P P P P P P P P P P P P P P P P P P P P P P P P P P P P P P P P P P P P P P P P P P P P P P P P P P ",
"P P P P P P P P P P P P P P P P P P P P P P P P P P P P P P P P P P P P P P P P P P P P P P P P P P P P P P P P P P P P P P P P P P P P P P P P P P P P P P P P P P P P P P P P P P P P P P P P P P P P "
};
