/* XPM */
static char *brush_0[] = {
/* columns rows colors chars-per-pixel */
"300 300 225 2 ",
"   c #090602",
".  c #060B08",
"X  c #0B0B0B",
"o  c #140D05",
"O  c #1A1309",
"+  c #0E0311",
"@  c #0F0F11",
"#  c #120516",
"$  c #16051A",
"%  c #18051D",
"&  c #19081E",
"*  c #061312",
"=  c #141414",
"-  c #171A17",
";  c #1D1D1D",
":  c #271908",
">  c #221A0D",
",  c #2F1E0A",
"<  c #07201C",
"1  c #382209",
"2  c #2D2211",
"3  c #362915",
"4  c #1C0523",
"5  c #1D0923",
"6  c #1D1420",
"7  c #23072B",
"8  c #220A28",
"9  c #250C2D",
"0  c #27182B",
"q  c #280732",
"w  c #2C0B35",
"e  c #2E0A39",
"r  c #31073E",
"t  c #320A3D",
"y  c #371935",
"u  c #33113D",
"i  c #083230",
"p  c #242425",
"a  c #27262A",
"s  c #2D2D2D",
"d  c #312D34",
"f  c #353535",
"g  c #3B3B3B",
"h  c #4D2D0B",
"j  c #49371C",
"k  c #673A0C",
"l  c #431E38",
"z  c #513C25",
"x  c #12443B",
"c  c #55411F",
"v  c #78450F",
"b  c #5C4523",
"n  c #505934",
"m  c #654C27",
"M  c #6C522A",
"N  c #76582D",
"B  c #785930",
"V  c #370A43",
"C  c #3D0C4B",
"Z  c #361140",
"A  c #3E144A",
"S  c #3D3042",
"D  c #410C4F",
"F  c #42154C",
"G  c #470C58",
"H  c #4B0E5C",
"J  c #481655",
"K  c #4D195B",
"L  c #501A5F",
"P  c #50305A",
"I  c #4F0F60",
"U  c #520F64",
"Y  c #531265",
"T  c #531B62",
"R  c #57106A",
"E  c #59116D",
"W  c #5A1D6A",
"Q  c #5D1171",
"!  c #5F1E70",
"~  c #611975",
"^  c #65137B",
"/  c #68147F",
"(  c #643B6F",
")  c #642076",
"_  c #6A227E",
"`  c #105550",
"'  c #255554",
"]  c #13706A",
"[  c #424242",
"{  c #454748",
"}  c #4A4A4A",
"|  c #4F4A55",
" . c #575758",
".. c #5B5663",
"X. c #69516E",
"o. c #646464",
"O. c #66646C",
"+. c #6A6A6A",
"@. c #6E6C75",
"#. c #747474",
"$. c #7B7B7C",
"%. c #905211",
"&. c #A45C13",
"*. c #B76816",
"=. c #B26818",
"-. c #896735",
";. c #916E38",
":. c #967039",
">. c #9A743B",
",. c #B47928",
"<. c #A37A3E",
"1. c #C36E16",
"2. c #C76D14",
"3. c #CF6E12",
"4. c #C87218",
"5. c #A87E40",
"6. c #1A867A",
"7. c #30876E",
"8. c #70A277",
"9. c #AB8436",
"0. c #8D975D",
"q. c #AD8242",
"w. c #B58845",
"e. c #B98B47",
"r. c #BD8E48",
"t. c #BF9049",
"y. c #C2924A",
"u. c #CB994E",
"i. c #6C1484",
"p. c #6B1D80",
"a. c #6F1588",
"s. c #73158D",
"d. c #731D8A",
"f. c #771691",
"g. c #7B1896",
"h. c #7E189A",
"j. c #6D2381",
"k. c #6D2B80",
"l. c #74258A",
"z. c #75258B",
"x. c #773A88",
"c. c #7C2693",
"v. c #7E2895",
"b. c #754D80",
"n. c #7C7584",
"m. c #80179D",
"M. c #811A9E",
"N. c #812699",
"B. c #832A9C",
"V. c #843799",
"C. c #851CA2",
"Z. c #881EA5",
"A. c #8B1FA8",
"S. c #8A2CA3",
"D. c #8D21AB",
"F. c #9129AD",
"G. c #8D35A5",
"H. c #9424B2",
"J. c #9926B9",
"K. c #9D29BD",
"L. c #9630B2",
"P. c #9931B5",
"I. c #9D32BA",
"U. c #A134BF",
"Y. c #84778A",
"T. c #9F29C0",
"R. c #A32BC3",
"E. c #A72DC8",
"W. c #A92ECB",
"Q. c #A735C6",
"!. c #AB34CB",
"~. c #AF33D1",
"^. c #B233D4",
"/. c #B239D3",
"(. c #B534D9",
"). c #B936DD",
"_. c #B73AD9",
"`. c #BC37E0",
"'. c #BE3BE2",
"]. c #C13BE5",
"[. c #C53DEA",
"{. c #C93EEF",
"}. c #CB3FF1",
"|. c #C840ED",
" X c #CD41F4",
".X c #D042F7",
"XX c #DA46FF",
"oX c #DE48FF",
"OX c #E349FF",
"+X c #EC4CFF",
"@X c #168A87",
"#X c #189791",
"$X c #209C89",
"%X c #1FAC9F",
"&X c #64BB8A",
"*X c #2ED1B7",
"=X c #51CEA5",
"-X c #2CDFC6",
";X c #31E9CD",
":X c #2FEFD3",
">X c #818181",
",X c #83818F",
"<X c #8B8B8B",
"1X c #898694",
"2X c #949494",
"3X c #9C9B9C",
"4X c #9795A6",
"5X c #9C9AAB",
"6X c #A09FAF",
"7X c #A2A2A2",
"8X c #ABABAB",
"9X c #A8A6B3",
"0X c #B4B4B4",
"qX c #BEBEBE",
"wX c #C4C4C4",
"eX c #CACACA",
"rX c #CFCFD0",
"tX c #D2D2D2",
"yX c #D7D8D7",
"uX c #DADADA",
"iX c #E3E3E3",
"pX c #EAEAEA",
"aX c #EFEFEF",
"sX c #F3F3F3",
"dX c #FFFFFF",
/* pixels */
"dXdXdXdXdXdXdXdXdXdXdXdXdXdXdXdXdXdXdXdXdXdXdXdXdXdXdXdXdXdXdXdXdXdXdXdXdXdXdXdXdXdXdXdXdXdXdXdXdXdXdXdXdXdXdXdXdXdXdXdXdXdXdXdXdXdXdXdXdXdXdXdXdXdXdXdXdXdXdXdXdXdXdXdXdXdXdXdXdXdXdXdXdXdXdXdXdXdXdXdXdXdXdXdXdXdXdXdXdXdXdXdXdXdXdXdXdXdXdXdXdXdXdXdXdXdXdXdXdXdXdXdXdXdXdXdXdXdXdXdXdXdXdXdXdXdXdXdXdXdXdXdXdXdXdXdXdXdXdXdXdXdXdXdXdXdXdXdXdXdXdXdXdXdXdXdXdXdXdXdXdXdXdXdXdXdXdXdXdXdXdXdXdXdXdXdXdXdXdXdXdXdXdXdXdXdXdXdXdXdXdXdXdXdXdXdXdXdXdXdXdXdXdXdXdXdXdXdXdXdXdXdXdXdXdXdXdXdXdXdXdXdXdXdXdXdXdXdXdXdXdXdXdXdXdXdXdXdXdXdXdXdXdXdXdXdXdXdXdXdXdXdXdXdXdXdXdXdXdXdXdXdXdXdXdXdXdXdXdXdXdXdXdXdXdXdXdXdXdXdX",
"dXdXdXdXdXdXdXdXdXdXdXdXdXdXdXdXdXdXdXdXdXdXdXdXdXdXdXdXdXdXdXdXdXdXdXdXdXdXdXdXdXdXdXdXdXdXdXdXdXdXdXdXdXdXdXdXdXdXdXdXdXdXdXdXdXdXdXdXdXdXdXdXdXdXdXdXdXdXdXdXdXdXdXdXdXdXdXdXdXdXdXdXdXdXdXdXdXdXdXdXdXdXdXdXdXdXdXdXdXdXdXdXdXdXdXdXdXdXdXdXdXdXdXdXdXdXdXdXdXdXdXdXdXdXdXdXdXdXdXdXdXdXdXdXdXdXdXdXdXdXdXdXdXdXdXdXdXdXdXdXdXdXdXdXdXdXdXdXdXdXdXdXdXdXdXdXdXdXdXdXdXdXdXdXdXdXdXdXdXdXdXdXdXdXdXdXdXdXdXdXdXdXdXdXdXdXdXdXdXdXdXdXdXdXdXdXdXdXdXdXdXdXdXdXdXdXdXdXdXdXdXdXdXdXdXdXdXdXdXdXdXdXdXdXdXdXdXdXdXdXdXdXdXdXdXdXdXdXdXdXdXdXdXdXdXdXdXdXdXdXdXdXdXdXdXdXdXdXdXdXdXdXdXdXdXdXdXdXdXdXdXdXdXdXdXdXdXdXdXdX",
"dXdXdXdXdXdXdXdXdXdXdXdXdXdXdXdXdXdXdXdXdXdXdXdXdXdXdXdXdXdXdXdXdXdXdXdXdXdXdXdXdXdXdXdXdXdXdXdXdXdXdXdXdXdXdXdXdXdXdXdXdXdXdXdXdXdXdXdXdXdXdXdXdXdXdXdXdXdXdXdXdXdXdXdXdXdXdXdXdXdXdXdXdXdXdXdXdXdXdXdXdXdXdXdXdXdXdXdXdXdXdXdXdXdXdXdXdXdXdXdXdXdXdXdXdXdXdXdXdXdXdXdXdXdXdXdXdXdXdXdXdXdXdXdXdXdXdXdXdXdXdXdXdXdXdXdXdXdXdXdXdXdXdXdXdXdXdXdXdXdXdXdXdXdXdXdXdXdXdXdXdXdXdXdXdXdXdXdXdXdXdXdXdXdXdXdXdXdXdXdXdXdXdXdXdXdXdXdXdXdXdXdXdXdXdXdXdXdXdXdXdXdXdXdXdXdXdXdXdXdXdXdXdXdXdXdXdXdXdXdXdXdXdXdXdXdXdXdXdXdXdXdXdXdXdXdXdXdXdXdXdXdXdXdXdXdXdXdXdXdXdXdXdXdXdXdXdXdXdXdXdXdXdXdXdXdXdXdXdXdXdXdXdXdXdXdXdXdXdXdX",
"dXdXdXdXdXdXdXdXdXdXdXdXdXdXdXdXdXdXdXdXdXdXdXdXdXdXdXdXdXdXdXdXdXdXdXdXdXdXdXdXdXdXdXdXdXdXdXdXdXdXdXdXdXdXdXdXdXdXdXdXdXdXdXdXdXdXdXdXdXdXdXdXdXdXdXdXdXdXdXdXdXdXdXdXdXdXdXdXdXdXdXdXdXdXdXdXdXdXdXdXdXdXdXdXdXdXdXdXdXdXdXdXdXdXdXdXdXdXdXdXdXdXdXdXdXdXdXdXdXdXdXdXdXdXdXdXdXdXdXdXdXdXdXdXdXdXdXdXdXdXdXdXdXdXdXdXdXdXdXdXdXdXdXdXdXdXdXdXdXdXdXdXdXdXdXdXdXdXdXdXdXdXdXdXdXdXdXdXdXdXdXdXdXdXdXdXdXdXdXdXdXdXdXdXdXdXdXdXdXdXdXdXdXdXdXdXdXdXdXdXdXdXdXdXdXdXdXdXdXdXdXdXdXdXdXdXdXdXdXdXdXdXdXdXdXdXdXdXdXdXdXdXdXdXdXdXdXdXdXdXdXdXdXdXdXdXdXdXdXdXdXdXdXdXdXdXdXdXdXdXdXdXdXdXdXdXdXdXdXdXdXdXdXdXdXdXdXdXdXdX",
"dXdXdXdXdXdXdXdXdXdXdXdXdXdXdXdXdXdXdXdXdXdXdXdXdXdXdXdXdXdXdXdXdXdXdXdXdXdXdXdXdXdXdXdXdXdXdXdXdXdXdXdXdXdXdXdXdXdXdXdXdXdXdXdXdXdXdXdXdXdXdXdXdXdXdXdXdXdXdXdXdXdXdXdXdXdXdXdXdXdXdXdXdXdXdXdXdXdXdXdXdXdXdXdXdXdXdXdXdXdXdXdXdXdXdXdXdXdXdXdXdXdXdXdXdXdXdXdXdXdXdXdXdXdXdXdXdXdXdXdXdXdXdXdXdXdXdXdXdXdXdXdXdXdXdXdXdXdXdXdXdXdXdXdXdXdXdXdXdXdXdXdXdXdXdXdXdXdXdXdXdXdXdXdXdXdXdXdXdXdXdXdXdXdXdXdXdXdXdXdXdXdXdXdXdXdXdXdXdXdXdXdXdXdXdXdXdXdXdXdXdXdXdXdXdXdXdXdXdXdXdXdXdXdXdXdXdXdXdXdXdXdXdXdXdXdXdXdXdXdXdXdXdXdXdXdXdXdXdXdXdXdXdXdXdXdXdXdXdXdXdXdXdXdXdXdXdXdXdXdXdXdXdXdXdXdXdXdXdXdXdXdXdXdXdXdXdXdXdXdX",
"dXdXdXdXdXdXdXdXdXdXdXdXdXdXdXdXdXdXdXdXdXdXdXdXdXdXdXdXdXdXdXdXdXdXdXdXdXdXdXdXdXdXdXdXdXdXdXdXdXdXdXdXdXdXdXdXdXdXdXdXdXdXdXdXdXdXdXdXdXdXdXdXdXdXdXdXdXdXdXdXdXdXdXdXdXdXdXdXdXdXdXdXdXdXdXdXdXdXdXdXdXdXdXdXdXdXdXdXdXdXdXdXdXdXdXdXdXdXdXdXdXdXdXdXdXdXdXdXdXdXdXdXdXdXdXdXdXdXdXdXdXdXdXdXdXdXdXdXdXdXdXdXdXdXdXdXdXdXdXdXdXdXdXdXdXdXdXdXdXdXdXdXdXdXdXdXdXdXdXdXdXdXdXdXdXdXdXdXdXdXdXdXdXdXdXdXdXdXdXdXdXdXdXdXdXdXdXdXdXdXdXdXdXdXdXdXdXdXdXdXdXdXdXdXdXdXdXdXdXdXdXdXdXdXdXdXdXdXdXdXdXdXdXdXdXdXdXdXdXdXdXdXdXdXdXdXdXdXdXdXdXdXdXdXdXdXdXdXdXdXdXdXdXdXdXdXdXdXdXdXdXdXdXdXdXdXdXdXdXdXdXdXdXdXdXdXdXdXdXdX",
"dXdXdXdXdXdXdXdXdXdXdXdXdXdXdXdXdXdXdXdXdXdXdXdXdXdXdXdXdXdXdXdXdXdXdXdXdXdXdXdXdXdXdXdXdXdXdXdXdXdXdXdXdXdXdXdXdXdXdXdXdXdXdXdXdXdXdXdXdXdXdXdXdXdXdXdXdXdXdXdXdXdXdXdXdXdXdXdXdXdXdXdXdXdXdXdXdXdXdXdXdXdXdXdXdXdXdXdXdXdXdXdXdXdXdXdXdXdXdXdXdXdXdXdXdXdXdXdXdXdXdXdXdXdXdXdXdXdXdXdXdXdXdXdXdXdXdXdXdXdXdXdXdXdXdXdXdXdXdXdXdXdXdXdXdXdXdXdXdXdXdXdXdXdXdXdXdXdXdXdXdXdXdXdXdXdXdXdXdXdXdXdXdXdXdXdXdXdXdXdXdXdXdXdXdXdXdXdXdXdXdXdXdXdXdXdXdXdXdXdXdXdXdXdXdXdXdXdXdXdXdXdXdXdXdXdXdXdXdXdXdXdXdXdXdXdXdXdXdXdXdXdXdXdXdXdXdXdXdXdXdXdXdXdXdXdXdXdXdXdXdXdXdXdXdXdXdXdXdXdXdXdXdXdXdXdXdXdXdXdXdXdXdXdXdXdXdXdXdXdX",
"dXdXdXdXdXdXdXdXdXdXdXdXdXdXdXdXdXdXdXdXdXdXdXdXdXdXdXdXdXdXdXdXdXdXdXdXdXdXdXdXdXdXdXdXdXdXdXdXdXdXdXdXdXdXdXdXdXdXdXdXdXdXdXdXdXdXdXdXdXdXdXdXdXdXdXdXdXdXdXdXdXdXdXdXdXdXdXdXdXdXdXdXdXdXdXdXdXdXdXdXdXdXdXdXdXdXdXdXdXdXdXdXdXdXdXdXdXdXdXdXdXdXdXdXdXdXdXdXdXdXdXdXdXdXdXdXdXdXdXdXdXdXdXdXdXdXdXdXdXdXdXdXdXdXdXdXdXdXdXdXdXdXdXdXdXdXdXdXdXdXdXdXdXdXdXdXdXdXdXdXdXdXdXdXdXdXdXdXdXdXdXdXdXdXdXdXdXdXdXdXdXdXdXdXdXdXdXdXdXdXdXdXdXdXdXdXdXdXdXdXdXdXdXdXdXdXdXdXdXdXdXdXdXdXdXdXdXdXdXdXdXdXdXdXdXdXdXdXdXdXdXdXdXdXdXdXdXdXdXdXdXdXdXdXdXdXdXdXdXdXdXdXdXdXdXdXdXdXdXdXdXdXdXdXdXdXdXdXdXdXdXdXdXdXdXdXdXdXdXdX",
"dXdXdXdXdXdXdXdXdXdXdXdXdXdXdXdXdXdXdXdXdXdXdXdXdXdXdXdXdXdXdXdXdXdXdXdXdXdXdXdXdXdXdXdXdXdXdXdXdXdXdXdXdXdXdXdXdXdXdXdXdXdXdXdXdXdXdXdXdXdXdXdXdXdXdXdXdXdXdXdXdXdXdXdXdXdXdXdXdXdXdXdXdXdXdXdXdXdXdXdXdXdXdXdXdXdXdXdXdXdXdXdXdXdXdXdXdXdXdXdXdXdXdXdXdXdXdXdXdXdXdXdXdXdXdXdXdXdXdXdXdXdXdXdXdXdXdXdXdXdXdXdXdXdXdXdXdXdXdXdXdXdXdXdXdXdXdXdXdXdXdXdXdXdXdXdXdXdXdXdXdXdXdXdXdXdXdXdXdXdXdXdXdXdXdXdXdXdXdXdXdXdXdXdXdXdXdXdXdXdXdXdXdXdXdXdXdXdXdXdXdXdXdXdXdXdXdXdXdXdXdXdXdXdXdXdXdXdXdXdXdXdXdXdXdXdXdXdXdXdXdXdXdXdXdXdXdXdXdXdXdXdXdXdXdXdXdXdXdXdXdXdXdXdXdXdXdXdXdXdXdXdXdXdXdXdXdXdXdXdXdXdXdXdXdXdXdXdXdXdX",
"dXdXdXdXdXdXdXdXdXdXdXdXdXdXdXdXdXdXdXdXdXdXdXdXdXdXdXdXdXdXdXdXdXdXdXdXdXdXdXdXdXdXdXdXdXdXdXdXdXdXdXdXdXdXdXdXdXdXdXdXdXdXdXdXdXdXdXdXdXdXdXdXdXdXdXdXdXdXdXdXdXdXdXdXdXdXdXdXdXdXdXdXdXdXdXdXdXdXdXdXdXdXdXdXdXdXdXdXdXdXdXdXdXdXdXdXdXdXdXdXdXdXdXdXdXdXdXdXdXdXdXdXdXdXdXdXdXdXdXdXdXdXdXdXdXdXdXdXdXdXdXdXdXdXdXdXdXdXdXdXdXdXdXdXdXdXdXdXdXdXdXdXdXdXdXdXdXdXdXdXdXdXdXdXdXdXdXdXdXdXdXdXdXdXdXdXdXdXdXdXdXdXdXdXdXdXdXdXdXdXdXdXdXdXdXdXdXdXdXdXdXdXdXdXdXdXdXdXdXdXdXdXdXdXdXdXdXdXdXdXdXdXdXdXdXdXdXdXdXdXdXdXdXdXdXdXdXdXdXdXdXdXdXdXdXdXdXdXdXdXdXdXdXdXdXdXdXdXdXdXdXdXdXdXdXdXdXdXdXdXdXdXdXdXdXdXdXdXdXdX",
"dXdXdXdXdXdXdXdXdXdXdXdXdXdXdXdXdXdXdXdXdXdXdXdXdXdXdXdXdXdXdXdXdXdXdXdXdXdXdXdXdXdXdXdXdXdXdXdXdXdXdXdXdXdXdXdXdXdXdXdXdXdXdXdXdXdXdXdXdXdXdXdXdXdXdXdXdXdXdXdXdXdXdXdXdXdXdXdXdXdXdXdXdXdXdXdXdXdXdXdXdXdXdXdXdXdXdXdXdXdXdXdXdXdXdXdXdXdXdXdXdXdXdXdXdXdXdXdXdXdXdXdXdXdXdXdXdXdXdXdXdXdXdXdXdXdXdXdXdXdXdXdXdXdXdXdXdXdXdXdXdXdXdXdXdXdXdXdXdXdXdXdXdXdXdXdXdXdXdXdXdXdXdXdXdXdXdXdXdXdXdXdXdXdXdXdXdXdXdXdXdXdXdXdXdXdXdXdXdXdXdXdXdXdXdXdXdXdXdXdXdXdXdXdXdXdXdXdXdXdXdXdXdXdXdXdXdXdXdXdXdXdXdXdXdXdXdXdXdXdXdXdXdXdXdXdXdXdXdXdXdXdXdXdXdXdXdXdXdXdXdXdXdXdXdXdXdXdXdXdXdXdXdXdXdXdXdXdXdXdXdXdXdXdXdXdXdXdXdXdX",
"dXdXdXdXdXdXdXdXdXdXdXdXdXdXdXdXdXdXdXdXdXdXdXdXdXdXdXdXdXdXdXdXdXdXdXdXdXdXdXdXdXdXdXdXdXdXdXdXdXdXdXdXdXdXdXdXdXdXdXdXdXdXdXdXdXdXdXdXdXdXdXdXdXdXdXdXdXdXdXdXdXdXdXdXdXdXdXdXdXdXdXdXdXdXdXdXdXdXdXdXdXdXdXdXdXdXdXdXdXdXdXdXdXdXdXdXdXdXdXdXdXdXdXdXdXdXdXdXdXdXdXdXdXdXdXdXdXdXdXdXdXdXdXdXdXdXdXdXdXdXdXdXdXdXdXdXdXdXdXdXdXdXdXdXdXdXdXdXdXdXdXdXdXdXdXdXdXdXdXdXdXdXdXdXdXdXdXdXdXdXdXdXdXdXdXdXdXdXdXdXdXdXdXdXdXdXdXdXdXdXdXdXdXdXdXdXdXdXdXdXdXdXdXdXdXdXdXdXdXdXdXdXdXdXdXdXdXdXdXdXdXdXdXdXdXdXdXdXdXdXdXdXdXdXdXdXdXdXdXdXdXdXdXdXdXdXdXdXdXdXdXdXdXdXdXdXdXdXdXdXdXdXdXdXdXdXdXdXdXdXdXdXdXdXdXdXdXdXdXdX",
"dXdXdXdXdXdXdXdXdXdXdXdXdXdXdXdXdXdXdXdXdXdXdXdXdXdXdXdXdXdXdXdXdXdXdXdXdXdXdXdXdXdXdXdXdXdXdXdXdXdXdXdXdXdXdXdXdXdXdXdXdXdXdXdXdXdXdXdXdXdXdXdXdXdXdXdXdXdXdXdXdXdXdXdXdXdXdXdXdXdXdXdXdXdXdXdXdXdXdXdXdXdXdXdXdXdXdXdXdXdXdXdXdXdXdXdXdXdXdXdXdXdXdXdXdXdXdXdXdXdXdXdXdXdXdXdXdXdXdXdXdXdXdXdXdXdXdXdXdXdXdXdXdXdXdXdXdXdXdXdXdXdXdXdXdXdXdXdXdXdXdXdXdXdXdXdXdXdXdXdXdXdXdXdXdXdXdXdXdXdXdXdXdXdXdXdXdXdXdXdXdXdXdXdXdXdXdXdXdXdXdXdXdXdXdXdXdXdXdXdXdXdXdXdXdXdXdXdXdXdXdXdXdXdXdXdXdXdXdXdXdXdXdXdXdXdXdXdXdXdXdXdXdXdXdXdXdXdXdXdXdXdXdXdXdXdXdXdXdXdXdXdXdXdXdXdXdXdXdXdXdXdXdXdXdXdXdXdXdXdXdXdXdXdXdXdXdXdXdXdX",
"dXdXdXdXdXdXdXdXdXdXdXdXdXdXdXdXdXdXdXdXdXdXdXdXdXdXdXdXdXdXdXdXdXdXdXdXdXdXdXdXdXdXdXdXdXdXdXdXdXdXdXdXdXdXdXdXdXdXdXdXdXdXdXdXdXdXdXdXdXdXdXdXdXdXdXdXdXdXdXdXdXdXdXdXdXdXdXdXdXdXdXdXdXdXdXdXdXdXdXdXdXdXdXdXdXdXdXdXdXdXdXdXdXdXdXdXdXdXdXdXdXdXdXdXdXdXdXdXdXdXdXdXdXdXdXdXdXdXdXdXdXdXdXdXdXdXdXdXdXdXdXdXdXdXdXdXdXdXdXdXdXdXdXdXdXdXdXdXdXdXdXdXdXdXdXdXdXdXdXdXdXdXdXdXdXdXdXdXdXdXdXdXdXdXdXdXdXdXdXdXdXdXdXdXdXdXdXdXdXdXdXdXdXdXdXdXdXdXdXdXdXdXdXdXdXdXdXdXdXdXdXdXdXdXdXdXdXdXdXdXdXdXdXdXdXdXdXdXdXdXdXdXdXdXdXdXdXdXdXdXdXdXdXdXdXdXdXdXdXdXdXdXdXdXdXdXdXdXdXdXdXdXdXdXdXdXdXdXdXdXdXdXdXdXdXdXdXdXdXdX",
"dXdXdXdXdXdXdXdXdXdXdXdXdXdXdXdXdXdXdXdXdXdXdXdXdXdXdXdXdXdXdXdXdXdXdXdXdXdXdXdXdXdXdXdXdXdXdXdXdXdXdXdXdXdXdXdXdXdXdXdXdXdXdXdXdXdXdXdXdXdXdXdXdXdXdXdXdXdXdXdXdXdXdXdXdXdXdXdXdXdXdXdXdXdXdXdXdXdXdXdXdXdXdXdXdXdXdXdXdXdXdXdXdXdXdXdXdXdXdXdXdXdXdXdXdXdXdXdXdXdXdXdXdXdXdXdXdXdXdXdXdXdXdXdXdXdXdXdXdXdXdXdXdXdXdXdXdXdXdXdXdXdXdXdXdXdXdXdXdXdXdXdXdXdXdXdXdXdXdXdXdXdXdXdXdXdXdXdXdXdXdXdXdXdXdXdXdXdXdXdXdXdXdXdXdXdXdXdXdXdXdXdXdXdXdXdXdXdXdXdXdXdXdXdXdXdXdXdXdXdXdXdXdXdXdXdXdXdXdXdXdXdXdXdXdXdXdXdXdXdXdXdXdXdXdXdXdXdXdXdXdXdXdXdXdXdXdXdXdXdXdXdXdXdXdXdXdXdXdXdXdXdXdXdXdXdXdXdXdXdXdXdXdXdXdXdXdXdXdXdX",
"dXdXdXdXdXdXdXdXdXdXdXdXdXdXdXdXdXdXdXdXdXdXdXdXdXdXdXdXdXdXdXdXdXdXdXdXdXdXdXdXdXdXdXdXdXdXdXdXdXdXdXdXdXdXdXdXdXdXdXdXdXdXdXdXdXdXdXdXdXdXdXdXdXdXdXdXdXdXdXdXdXdXdXdXdXdXdXdXdXdXdXdXdXdXdXdXdXdXdXdXdXdXdXdXdXdXdXdXdXdXdXdXdXdXdXdXdXdXdXdXdXdXdXdXdXdXdXdXdXdXdXdXdXdXdXdXdXdXdXdXdXdXdXdXdXdXdXdXdXdXdXdXdXdXdXdXdXdXdXdXdXdXdXdXdXdXdXdXdXdXdXdXdXdXdXdXdXdXdXdXdXdXdXdXdXdXdXdXdXdXdXdXdXdXdXdXdXdXdXdXdXdXdXdXdXdXdXdXdXdXdXdXdXdXdXdXdXdXdXdXdXdXdXdXdXdXdXdXdXdXdXdXdXdXdXdXdXdXdXdXdXdXdXdXdXdXdXdXdXdXdXdXdXdXdXdXdXdXdXdXdXdXdXdXdXdXdXdXdXdXdXdXdXdXdXdXdXdXdXdXdXdXdXdXdXdXdXdXdXdXdXdXdXdXdXdXdXdXdXdX",
"dXdXdXdXdXdXdXdXdXdXdXdXdXdXdXdXdXdXdXdXdXdXdXdXdXdXdXdXdXdXdXdXdXdXdXdXdXdXdXdXdXdXdXdXdXdXdXdXdXdXdXdXdXdXdXdXdXdXdXdXdXdXdXdXdXdXdXdXdXdXdXdXdXdXdXdXdXdXdXdXdXdXdXdXdXdXdXdXdXdXdXdXdXdXdXdXdXdXdXdXdXdXdXdXdXdXdXdXdXdXdXdXdXdXdXdXdXdXdXdXdXdXdXdXdXdXdXdXdXdXdXdXdXdXdXdXdXdXdXdXdXdXdXdXdXdXdXdXdXdXdXdXdXdXdXdXdXdXdXdXdXdXdXdXdXdXdXdXdXdXdXdXdXdXdXdXdXdXdXdXdXdXdXdXdXdXdXdXdXdXdXdXdXdXdXdXdXdXdXdXdXdXdXdXdXdXdXdXdXdXdXdXdXdXdXdXdXdXdXdXdXdXdXdXdXdXdXdXdXdXdXdXdXdXdXdXdXdXdXdXdXdXdXdXdXdXdXdXdXdXdXdXdXdXdXdXdXdXdXdXdXdXdXdXdXdXdXdXdXdXdXdXdXdXdXdXdXdXdXdXdXdXdXdXdXdXdXdXdXdXdXdXdXdXdXdXdXdXdXdX",
"dXdXdXdXdXdXdXdXdXdXdXdXdXdXdXdXdXdXdXdXdXdXdXdXdXdXdXdXdXdXdXdXdXdXdXdXdXdXdXdXdXdXdXdXdXdXdXdXdXdXdXdXdXdXdXdXdXdXdXdXdXdXdXdXdXdXdXdXdXdXdXdXdXdXdXdXdXdXdXdXdXdXdXdXdXdXdXdXdXdXdXdXdXdXdXdXdXdXdXdXdXdXdXdXdXdXdXdXdXdXdXdXdXdXdXdXdXdXdXdXdXdXdXdXdXdXdXdXdXdXdXdXdXdXdXdXdXdXdXdXdXdXdXdXdXdXdXdXdXdXdXdXdXdXdXdXdXdXdXdXdXdXdXdXdXdXdXdXdXdXdXdXdXdXdXdXdXdXdXdXdXdXdXdXdXdXdXdXdXdXdXdXdXdXdXdXdXdXdXdXdXdXdXdXdXdXdXdXdXdXdXdXdXdXdXdXdXdXdXdXdXdXdXdXdXdXdXdXdXdXdXdXdXdXdXdXdXdXdXdXdXdXdXdXdXdXdXdXdXdXdXdXdXdXdXdXdXdXdXdXdXdXdXdXdXdXdXdXdXdXdXdXdXdXdXdXdXdXdXdXdXdXdXdXdXdXdXdXdXdXdXdXdXdXdXdXdXdXdXdX",
"dXdXdXdXdXdXdXdXdXdXdXdXdXdXdXdXdXdXdXdXdXdXdXdXdXdXdXdXdXdXdXdXdXdXdXdXdXdXdXdXdXdXdXdXdXdXdXdXdXdXdXdXdXdXdXdXdXdXdXdXdXdXdXdXdXdXdXdXdXdXdXdXdXdXdXdXdXdXdXdXdXdXdXdXdXdXdXdXdXdXdXdXdXdXdXdXdXdXdXdXdXdXdXdXdXdXdXdXdXdXdXdXdXdXdXdXdXdXdXdXdXdXdXdXdXdXdXdXdXdXdXdXdXdXdXdXdXdXdXdXdXdXdXdXdXdXdXdXdXdXdXdXdXdXdXdXdXdXdXdXdXdXdXdXdXdXdXdXdXdXdXdXdXdXdXdXdXdXdXdXdXdXdXdXdXdXdXdXdXdXdXdXdXdXdXdXdXdXdXdXdXdXdXdXdXdXdXdXdXdXdXdXdXdXdXdXdXdXdXdXdXdXdXdXdXdXdXdXdXdXdXdXdXdXdXdXdXdXdXdXdXdXdXdXdXdXdXdXdXdXdXdXdXdXdXdXdXdXdXdXdXdXdXdXdXdXdXdXdXdXdXdXdXdXdXdXdXdXdXdXdXdXdXdXdXdXdXdXdXdXdXdXdXdXdXdXdXdXdXdX",
"dXdXdXdXdXdXdXdXdXdXdXdXdXdXdXdXdXdXdXdXdXdXdXdXdXdXdXdXdXdXdXdXdXdXdXdXdXdXdXdXdXdXdXdXdXdXdXdXdXdXdXdXdXdXdXdXdXdXdXdXdXdXdXdXdXdXdXdXdXdXdXdXdXdXdXdXdXdXdXdXdXdXdXdXdXdXdXdXdXdXdXdXdXdXdXdXdXdXdXdXdXdXdXdXdXdXdXdXdXdXdXdXdXdXdXdXdXdXdXdXdXdXdXdXdXdXdXdXdXdXdXdXdXdXdXdXdXdXdXdXdXdXdXdXdXdXdXdXdXdXdXdXdXdXdXdXdXdXdXdXdXdXdXdXdXdXdXdXdXdXdXdXdXdXdXdXdXdXdXdXdXdXdXdXdXdXdXdXdXdXdXdXdXdXdXdXdXdXdXdXdXdXdXdXdXdXdXdXdXdXdXdXdXdXdXdXdXdXdXdXdXdXdXdXdXdXdXdXdXdXdXdXdXdXdXdXdXdXdXdXdXdXdXdXdXdXdXdXdXdXdXdXdXdXdXdXdXdXdXdXdXdXdXdXdXdXdXdXdXdXdXdXdXdXdXdXdXdXdXdXdXdXdXdXdXdXdXdXdXdXdXdXdXdXdXdXdXdXdXdX",
"dXdXdXdXdXdXdXdXdXdXdXdXdXdXdXdXdXdXdXdXdXdXdXdXdXdXdXdXdXdXdXdXdXdXdXdXdXdXdXdXdXdXdXdXdXdXdXdXdXdXdXdXdXdXdXdXdXdXdXdXdXdXdXdXdXdXdXdXdXdXdXdXdXdXdXdXdXdXdXdXdXdXdXdXdXdXdXdXdXdXdXdXdXdXdXdXdXdXdXdXdXdXdXdXdXdXdXdXdXdXdXdXdXdXdXdXdXdXdXdXdXdXdXdXdXdXdXdXdXdXdXdXdXdXdXdXdXdXdXdXdXdXdXdXdXdXdXdXdXdXdXdXdXdXdXdXdXdXdXdXdXdXdXdXdXdXdXdXdXdXdXdXdXdXdXdXdXdXdXdXdXdXdXdXdXdXdXdXdXdXdXdXdXdXdXdXdXdXdXdXdXdXdXdXdXdXdXdXdXdXdXdXdXdXdXdXdXdXdXdXdXdXdXdXdXdXdXdXdXdXdXdXdXdXdXdXdXdXdXdXdXdXdXdXdXdXdXdXdXdXdXdXdXdXdXdXdXdXdXdXdXdXdXdXdXdXdXdXdXdXdXdXdXdXdXdXdXdXdXdXdXdXdXdXdXdXdXdXdXdXdXdXdXdXdXdXdXdXdXdX",
"dXdXdXdXdXdXdXdXdXdXdXdXdXdXdXdXdXdXdXdXdXdXdXdXdXdXdXdXdXdXdXdXdXdXdXdXdXdXdXdXdXdXdXdXdXdXdXdXdXdXdXdXdXdXdXdXdXdXdXdXdXdXdXdXdXdXdXdXdXdXdXdXdXdXdXdXdXdXdXdXdXdXdXdXdXdXdXdXdXdXdXdXdXdXdXdXdXdXdXdXdXdXdXdXdXdXdXdXdXdXdXdXdXdXdXdXdXdXdXdXdXdXdXdXdXdXdXdXdXdXdXdXdXdXdXdXdXdXdXdXdXdXdXdXdXdXdXdXdXdXdXdXdXdXdXdXdXdXdXdXdXdXdXdXdXdXdXdXdXdXdXdXdXdXdXdXdXdXdXdXdXdXdXdXdXdXdXdXdXdXdXdXdXdXdXdXdXdXdXdXdXdXdXdXdXdXdXdXdXdXdXdXdXdXdXdXdXdXdXdXdXdXdXdXdXdXdXdXdXdXdXdXdXdXdXdXdXdXdXdXdXdXdXdXdXdXdXdXdXdXdXdXdXdXdXdXdXdXdXdXdXdXdXdXdXdXdXdXdXdXdXdXdXdXdXdXdXdXdXdXdXdXdXdXdXdXdXdXdXdXdXdXdXdXdXdXdXdXdXdX",
"dXdXdXdXdXdXdXdXdXdXdXdXdXdXdXdXdXdXdXdXdXdXdXdXdXdXdXdXdXdXdXdXdXdXdXdXdXdXdXdXdXdXdXdXdXdXdXdXdXdXdXdXdXdXdXdXdXdXdXdXdXdXdXdXdXdXdXdXdXdXdXdXdXdXdXdXdXdXdXdXdXdXdXdXdXdXdXdXdXdXdXdXdXdXdXdXdXdXdXdXdXdXdXdXdXdXdXdXdXdXdXdXdXdXdXdXdXdXdXdXdXdXdXdXdXdXdXdXdXdXdXdXdXdXdXdXdXdXdXdXdXdXdXdXdXdXdXdXdXdXdXdXdXdXdXdXdXdXdXdXdXdXdXdXdXdXdXdXdXdXdXdXdXdXdXdXdXdXdXdXdXdXdXdXdXdXdXdXdXdXdXdXdXdXdXdXdXdXdXdXdXdXdXdXdXdXdXdXdXdXdXdXdXdXdXdXdXdXdXdXdXdXdXdXdXdXdXdXdXdXdXdXdXdXdXdXdXdXdXdXdXdXdXdXdXdXdXdXdXdXdXdXdXdXdXdXdXdXdXdXdXdXdXdXdXdXdXdXdXdXdXdXdXdXdXdXdXdXdXdXdXdXdXdXdXdXdXdXdXdXdXdXdXdXdXdXdXdXdXdX",
"dXdXdXdXdXdXdXdXdXdXdXdXdXdXdXdXdXdXdXdXdXdXdXdXdXdXdXdXdXdXdXdXdXdXdXdXdXdXdXdXdXdXdXdXdXdXdXdXdXdXdXdXdXdXdXdXdXdXdXdXdXdXdXdXdXdXdXdXdXdXdXdXdXdXdXdXdXdXdXdXdXdXdXdXdXdXdXdXdXdXdXdXdXdXdXdXdXdXdXdXdXdXdXdXdXdXdXdXdXdXdXdXdXdXdXdXdXdXdXdXdXdXdXdXdXdXdXdXdXdXdXdXdXdXdXdXdXdXdXdXdXdXdXdXdXdXdXdXdXdXdXdXdXdXdXdXdXdXdXdXdXdXdXdXdXdXdXdXdXdXdXdXdXdXdXdXdXdXdXdXdXdXdXdXdXdXdXdXdXdXdXdXdXdXdXdXdXdXdXdXdXdXdXdXdXdXdXdXdXdXdXdXdXdXdXdXdXdXdXdXdXdXdXdXdXdXdXdXdXdXdXdXdXdXdXdXdXdXdXdXdXdXdXdXdXdXdXdXdXdXdXdXdXdXdXdXdXdXdXdXdXdXdXdXdXdXdXdXdXdXdXdXdXdXdXdXdXdXdXdXdXdXdXdXdXdXdXdXdXdXdXdXdXdXdXdXdXdXdXdX",
"dXdXdXdXdXdXdXdXdXdXdXdXdXdXdXdXdXdXdXdXdXdXdXdXdXdXdXdXdXdXdXdXdXdXdXdXdXdXdXdXdXdXdXdXdXdXdXdXdXdXdXdXdXdXdXdXdXdXdXdXdXdXdXdXdXdXdXdXdXdXdXdXdXdXdXdXdXdXdXdXdXdXdXdXdXdXdXdXdXdXdXdXdXdXdXdXdXdXdXdXdXdXdXdXdXdXdXdXdXdXdXdXdXdXdXdXdXdXdXdXdXdXdXdXdXdXdXdXdXdXdXdXdXdXdXdXdXdXdXdXdXdXdXdXdXdXdXdXdXdXdXdXdXdXdXdXdXdXdXdXdXdXdXdXdXdXdXdXdXdXdXdXdXdXdXdXdXdXdXdXdXdXdXdXdXdXdXdXdXdXdXdXdXdXdXdXdXdXdXdXdXdXdXdXdXdXdXdXdXdXdXdXdXdXdXdXdXdXdXdXdXdXdXdXdXdXdXdXdXdXdXdXdXdXdXdXdXdXdXdXdXdXdXdXdXdXdXdXdXdXdXdXdXdXdXdXdXdXdXdXdXdXdXdXdXdXdXdXdXdXdXdXdXdXdXdXdXdXdXdXdXdXdXdXdXdXdXdXdXdXdXdXdXdXdXdXdXdXdXdX",
"dXdXdXdXdXdXdXdXdXdXdXdXdXdXdXdXdXdXdXdXdXdXdXdXdXdXdXdXdXdXdXdXdXdXdXdXdXdXdXdXdXdXdXdXdXdXdXdXdXdXdXdXdXdXdXdXdXdXdXdXdXdXdXdXdXdXdXdXdXdXdXdXdXdXdXdXdXdXdXdXdXdXdXdXdXdXdXdXdXdXdXdXdXdXdXdXdXdXdXdXdXdXdXdXdXdXdXdXdXdXdXdXdXdXdXdXdXdXdXdXdXdXdXdXdXdXdXdXdXdXdXdXdXdXdXdXdXdXdXdXdXdXdXdXdXdXdXdXdXdXdXdXdXdXdXdXdXdXdXdXdXdXdXdXdXdXdXdXdXdXdXdXdXdXdXdXdXdXdXdXdXdXdXdXdXdXdXdXdXdXdXdXdXdXdXdXdXdXdXdXdXdXdXdXdXdXdXdXdXdXdXdXdXdXdXdXdXdXdXdXdXdXdXdXdXdXdXdXdXdXdXdXdXdXdXdXdXdXdXdXdXdXdXdXdXdXdXdXdXdXdXdXdXdXdXdXdXdXdXdXdXdXdXdXdXdXdXdXdXdXdXdXdXdXdXdXdXdXdXdXdXdXdXdXdXdXdXdXdXdXdXdXdXdXdXdXdXdXdXdX",
"dXdXdXdXdXdXdXdXdXdXdXdXdXdXdXdXdXdXdXdXdXdXdXdXdXdXdXdXdXdXdXdXdXdXdXdXdXdXdXdXdXdXdXdXdXdXdXdXdXdXdXdXdXdXdXdXdXdXdXdXdXdXdXdXdXdXdXdXdXdXdXdXdXdXdXdXdXdXdXdXdXdXdXdXdXdXdXdXdXdXdXdXdXdXdXdXdXdXdXdXdXdXdXdXdXdXdXdXdXdXdXdXdXdXdXdXdXdXdXdXdXdXdXdXdXdXdXdXdXdXdXdXdXdXdXdXdXdXdXdXdXdXdXdXdXdXdXdXdXdXdXdXdXdXdXdXdXdXdXdXdXdXdXdXdXdXdXdXdXdXdXdXdXdXdXdXdXdXdXdXdXdXdXdXdXdXdXdXdXdXdXdXdXdXdXdXdXdXdXdXdXdXdXdXdXdXdXdXdXdXdXdXdXdXdXdXdXdXdXdXdXdXdXdXdXdXdXdXdXdXdXdXdXdXdXdXdXdXdXdXdXdXdXdXdXdXdXdXdXdXdXdXdXdXdXdXdXdXdXdXdXdXdXdXdXdXdXdXdXdXdXdXdXdXdXdXdXdXdXdXdXdXdXdXdXdXdXdXdXdXdXdXdXdXdXdXdXdXdXdX",
"dXdXdXdXdXdXdXdXdXdXdXdXdXdXdXdXdXdXdXdXdXdXdXdXdXdXdXdXdXdXdXdXdXdXdXdXdXdXdXdXdXdXdXdXdXdXdXdXdXdXdXdXdXdXdXdXdXdXdXdXdXdXdXdXdXdXdXdXdXdXdXdXdXdXdXdXdXdXdXdXdXdXdXdXdXdXdXdXdXdXdXdXdXdXdXdXdXdXdXdXdXdXdXdXdXdXdXdXdXdXdXdXdXdXdXdXdXdXdXdXdXdXdXdXdXdXdXdXdXdXdXdXdXdXdXdXdXdXdXdXdXdXdXdXdXdXdXdXdXdXdXdXdXdXdXdXdXdXdXdXdXdXdXdXdXdXdXdXdXdXdXdXdXdXdXdXdXdXdXdXdXdXdXdXdXdXdXdXdXdXdXdXdXdXdXdXdXdXdXdXdXdXdXdXdXdXdXdXdXdXdXdXdXdXdXdXdXdXdXdXdXdXdXdXdXdXdXdXdXdXdXdXdXdXdXdXdXdXdXdXdXdXdXdXdXdXdXdXdXdXdXdXdXdXdXdXdXdXdXdXdXdXdXdXdXdXdXdXdXdXdXdXdXdXdXdXdXdXdXdXdXdXdXdXdXdXdXdXdXdXdXdXdXdXdXdXdXdXdXdX",
"dXdXdXdXdXdXdXdXdXdXdXdXdXdXdXdXdXdXdXdXdXdXdXdXdXdXdXdXdXdXdXdXdXdXdXdXdXdXdXdXdXdXdXdXdXdXdXdXdXdXdXdXdXdXdXdXdXdXdXdXdXdXdXdXdXdXdXdXdXdXdXdXdXdXdXdXdXdXdXdXdXdXdXdXdXdXdXdXdXdXdXdXdXdXdXdXdXdXdXdXdXdXdXdXdXdXdXdXdXdXdXdXdXdXdXdXdXdXdXdXdXdXdXdXdXdXdXdXdXdXdXdXdXdXdXdXdXdXdXdXdXdXdXdXdXdXdXdXdXdXdXdXdXdXdXdXdXdXdXdXdXdXdXdXdXdXdXdXdXdXdXdXdXdXdXdXdXdXdXdXdXdXdXdXdXdXdXdXdXdXdXdXdXdXdXdXdXdXdXdXdXdXdXdXdXdXdXdXdXdXdXdXdXdXdXdXdXdXdXdXdXdXdXdXdXdXdXdXdXdXdXdXdXdXdXdXdXdXdXdXdXdXdXdXdXdXdXdXdXdXdXdXdXdXdXdXdXdXdXdXdXdXdXdXdXdXdXdXdXdXdXdXdXdXdXdXdXdXdXdXdXdXdXdXdXdXdXdXdXdXdXdXdXdXdXdXdXdXdXdX",
"dXdXdXdXdXdXdXdXdXdXdXdXdXdXdXdXdXdXdXdXdXdXdXdXdXdXdXdXdXdXdXdXdXdXdXdXdXdXdXdXdXdXdXdXdXdXdXdXdXdXdXdXdXdXdXdXdXdXdXdXdXdXdXdXdXdXdXdXdXdXdXdXdXdXdXdXdXdXdXdXdXdXdXdXdXdXdXdXdXdXdXdXdXdXdXdXdXdXdXdXdXdXdXdXdXdXdXdXdXdXdXdXdXdXdXdXdXdXdXdXdXdXdXdXdXdXdXdXdXdXdXdXdXdXdXdXdXdXdXdXdXdXdXdXdXdXdXdXdXdXdXdXdXdXdXdXdXdXdXdXdXdXdXdXdXdXdXdXdXdXdXdXdXdXdXdXdXdXdXdXdXdXdXdXdXdXdXdXdXdXdXdXdXdXdXdXdXdXdXdXdXdXdXdXdXdXdXdXdXdXdXdXdXdXdXdXdXdXdXdXdXdXdXdXdXdXdXdXdXdXdXdXdXdXdXdXdXdXdXdXdXdXdXdXdXdXdXdXdXdXdXdXdXdXdXdXdXdXdXdXdXdXdXdXdXdXdXdXdXdXdXdXdXdXdXdXdXdXdXdXdXdXdXdXdXdXdXdXdXdXdXdXdXdXdXdXdXdXdXdX",
"dXdXdXdXdXdXdXdXdXdXdXdXdXdXdXdXdXdXdXdXdXdXdXdXdXdXdXdXdXdXdXdXdXdXdXdXdXdXdXdXdXdXdXdXdXdXdXdXdXdXdXdXdXdXdXdXdXdXdXdXdXdXdXdXdXdXdXdXdXdXdXdXdXdXdXdXdXdXdXdXdXdXdXdXdXdXdXdXdXdXdXdXdXdXdXdXdXdXdXdXdXdXdXdXdXdXdXdXdXdXdXdXdXdXdXdXdXdXdXdXdXdXdXdXdXdXdXdXdXdXdXdXdXdXdXdXdXdXdXdXdXdXdXdXdXdXdXdXdXdXdXdXdXdXdXdXdXdXdXdXdXdXdXdXdXdXdXdXdXdXdXdXdXdXdXdXdXdXdXdXdXdXdXdXdXdXdXdXdXdXdXdXdXdXdXdXdXdXdXdXdXdXdXdXdXdXdXdXdXdXdXdXdXdXdXdXdXdXdXdXdXdXdXdXdXdXdXdXdXdXdXdXdXdXdXdXdXdXdXdXdXdXdXdXdXdXdXdXdXdXdXdXdXdXdXdXdXdXdXdXdXdXdXdXdXdXdXdXdXdXdXdXdXdXdXdXdXdXdXdXdXdXdXdXdXdXdXdXdXdXdXdXdXdXdXdXdXdXdXdX",
"dXdXdXdXdXdXdXdXdXdXdXdXdXdXdXdXdXdXdXdXdXdXdXdXdXdXdXdXdXdXdXdXdXdXdXdXdXdXdXdXdXdXdXdXdXdXdXdXdXdXdXdXdXdXdXdXdXdXdXdXdXdXdXdXdXdXdXdXdXdXdXdXdXdXdXdXdXdXdXdXdXdXdXdXdXdXdXdXdXdXdXdXdXdXdXdXdXdXdXdXdXdXdXdXdXdXdXdXdXdXdXdXdXdXdXdXdXdXdXdXdXdXdXdXdXdXdXdXdXdXdXdXdXdXdXdXdXdXdXdXdXdXdXdXdXdXdXdXdXdXdXdXdXdXdXdXdXdXdXdXdXdXdXdXdXdXdXdXdXdXdXdXdXdXdXdXdXdXdXdXdXdXdXdXdXdXdXdXdXdXdXdXdXdXdXdXdXdXdXdXdXdXdXdXdXdXdXdXdXdXdXdXdXdXdXdXdXdXdXdXdXdXdXdXdXdXdXdXdXdXdXdXdXdXdXdXdXdXdXdXdXdXdXdXdXdXdXdXdXdXdXdXdXdXdXdXdXdXdXdXdXdXdXdXdXdXdXdXdXdXdXdXdXdXdXdXdXdXdXdXdXdXdXdXdXdXdXdXdXdXdXdXdXdXdXdXdXdXdXdX",
"dXdXdXdXdXdXdXdXdXdXdXdXdXdXdXdXdXdXdXdXdXdXdXdXdXdXdXdXdXdXdXdXdXdXdXdXdXdXdXdXdXdXdXdXdXdXdXdXdXdXdXdXdXdXdXdXdXdXdXdXdXdXdXdXdXdXdXdXdXdXdXdXdXdXdXdXdXdXdXdXdXdXdXdXdXdXdXdXdXdXdXdXdXdXdXdXdXdXdXdXdXdXdXdXdXdXdXdXdXdXdXdXdXdXdXdXdXdXdXdXdXdXdXdXdXdXdXdXdXdXdXdXdXdXdXdXdXdXdXdXdXdXdXdXdXdXdXdXdXdXdXdXdXdXdXdXdXdXdXdXdXdXdXdXdXdXdXdXdXdXdXdXdXdXdXdXdXdXdXdXdXdXdXdXdXdXdXdXdXdXdXdXdXdXdXdXdXdXdXdXdXdXdXdXdXdXdXdXdXdXdXdXdXdXdXdXdXdXdXdXdXdXdXdXdXdXdXdXdXdXdXdXdXdXdXdXdXdXdXdXdXdXdXdXdXdXdXdXdXdXdXdXdXdXdXdXdXdXdXdXdXdXdXdXdXdXdXdXdXdXdXdXdXdXdXdXdXdXdXdXdXdXdXdXdXdXdXdXdXdXdXdXdXdXdXdXdXdXdXdX",
"dXdXdXdXdXdXdXdXdXdXdXdXdXdXdXdXdXdXdXdXdXdXdXdXdXdXdXdXdXdXdXdXdXdXdXdXdXdXdXdXdXdXdXdXdXdXdXdXdXdXdXdXdXdXdXdXdXdXdXdXdXdXdXdXdXdXdXdXdXdXdXdXdXdXdXdXdXdXdXdXdXdXdXdXdXdXdXdXdXdXdXdXdXdXdXdXdXdXdXdXdXdXdXdXdXdXdXdXdXdXdXdXdXdXdXdXdXdXdXdXdXdXdXdXdXdXdXdXdXdXdXdXdXdXdXdXdXdXdXdXdXdXdXdXdXdXdXdXdXdXdXdXdXdXdXdXdXdXdXdXdXdXdXdXdXdXdXdXdXdXdXdXdXdXdXdXdXdXdXdXdXdXdXdXdXdXdXdXdXdXdXdXdXdXdXdXdXdXdXdXdXdXdXdXdXdXdXdXdXdXdXdXdXdXdXdXdXdXdXdXdXdXdXdXdXdXdXdXdXdXdXdXdXdXdXdXdXdXdXdXdXdXdXdXdXdXdXdXdXdXdXdXdXdXdXdXdXdXdXdXdXdXdXdXdXdXdXdXdXdXdXdXdXdXdXdXdXdXdXdXdXdXdXdXdXdXdXdXdXdXdXdXdXdXdXdXdXdXdXdX",
"dXdXdXdXdXdXdXdXdXdXdXdXdXdXdXdXdXdXdXdXdXdXdXdXdXdXdXdXdXdXdXdXdXdXdXdXdXdXdXdXdXdXdXdXdXdXdXdXdXdXdXdXdXdXdXdXdXdXdXdXdXdXdXdXdXdXdXdXdXdXdXdXdXdXdXdXdXdXdXdXdXdXdXdXdXdXdXdXdXdXdXdXdXdXdXdXdXdXdXdXdXdXdXdXdXdXdXdXdXdXdXdXdXdXdXdXdXdXdXdXdXdXdXdXdXdXdXdXdXdXdXdXdXdXdXdXdXdXdXdXdXdXdXdXdXdXdXdXdXdXdXdXdXdXdXdXdXdXdXdXdXdXdXdXdXdXdXdXdXdXdXdXdXdXdXdXdXdXdXdXdXdXdXdXdXdXdXdXdXdXdXdXdXdXdXdXdXdXdXdXdXdXdXdXdXdXdXdXdXdXdXdXdXdXdXdXdXdXdXdXdXdXdXdXdXdXdXdXdXdXdXdXdXdXdXdXdXdXdXdXdXdXdXdXdXdXdXdXdXdXdXdXdXdXdXdXdXdXdXdXdXdXdXdXdXdXdXdXdXdXdXdXdXdXdXdXdXdXdXdXdXdXdXdXdXdXdXdXdXdXdXdXdXdXdXdXdXdXdXdX",
"dXdXdXdXdXdXdXdXdXdXdXdXdXdXdXdXdXdXdXdXdXdXdXdXdXdXdXdXdXdXdXdXdXdXdXdXdXdXdXdXdXdXdXdXdXdXdXdXdXdXdXdXdXdXdXdXdXdXdXdXdXdXdXdXdXdXdXdXdXdXdXdXdXdXdXdXdXdXdXdXdXdXdXdXdXdXdXdXdXdXdXdXdXdXdXdXdXdXdXdXdXdXdXdXdXdXdXdXdXdXdXdXdXdXdXdXdXdXdXdXdXdXdXdXdXdXdXdXdXdXdXdXdXdXdXdXdXdXdXdXdXdXdXdXdXdXdXdXdXdXdXdXdXdXdXdXdXdXdXdXdXdXdXdXdXdXdXdXdXdXdXdXdXdXdXdXdXdXdXdXdXdXdXdXdXdXdXdXdXdXdXdXdXdXdXdXdXdXdXdXdXdXdXdXdXdXdXdXdXdXdXdXdXdXdXdXdXdXdXdXdXdXdXdXdXdXdXdXdXdXdXdXdXdXdXdXdXdXdXdXdXdXdXdXdXdXdXdXdXdXdXdXdXdXdXdXdXdXdXdXdXdXdXdXdXdXdXdXdXdXdXdXdXdXdXdXdXdXdXdXdXdXdXdXdXdXdXdXdXdXdXdXdXdXdXdXdXdXdXdX",
"dXdXdXdXdXdXdXdXdXdXdXdXdXdXdXdXdXdXdXdXdXdXdXdXdXdXdXdXdXdXdXdXdXdXdXdXdXdXdXdXdXdXdXdXdXdXdXdXdXdXdXdXdXdXdXdXdXdXdXdXdXdXdXdXdXdXdXdXdXdXdXdXdXdXdXdXdXdXdXdXdXdXdXdXdXdXdXdXdXdXdXdXdXdXdXdXdXdXdXdXdXdXdXdXdXdXdXdXdXdXdXdXdXdXdXdXdXdXdXdXdXdXdXdXdXdXdXdXdXdXdXdXdXdXdXdXdXdXdXdXdXdXdXdXdXdXdXdXdXdXdXdXdXdXdXdXdXdXdXdXdXdXdXdXdXdXdXdXdXdXdXdXdXdXdXdXdXdXdXdXdXdXdXdXdXdXdXdXdXdXdXdXdXdXdXdXdXdXdXdXdXdXdXdXdXdXdXdXdXdXdXdXdXdXdXdXdXdXdXdXdXdXdXdXdXdXdXdXdXdXdXdXdXdXdXdXdXdXdXdXdXdXdXdXdXdXdXdXdXdXdXdXdXdXdXdXdXdXdXdXdXdXdXdXdXdXdXdXdXdXdXdXdXdXdXdXdXdXdXdXdXdXdXdXdXdXdXdXdXdXdXdXdXdXdXdXdXdXdXdX",
"dXdXdXdXdXdXdXdXdXdXdXdXdXdXdXdXdXdXdXdXdXdXdXdXdXdXdXdXdXdXdXdXdXdXdXdXdXdXdXdXdXdXdXdXdXdXdXdXdXdXdXdXdXdXdXdXdXdXdXdXdXdXdXdXdXdXdXdXdXdXdXdXdXdXdXdXdXdXdXdXdXdXdXdXdXdXdXdXdXdXdXdXdXdXdXdXdXdXdXdXdXdXdXdXdXdXdXdXdXdXdXdXdXdXdXdXdXdXdXdXdXdXdXdXdXdXdXdXdXdXdXdXdXdXdXdXdXdXdXdXdXdXdXdXdXdXdXdXdXdXdXdXdXdXdXdXdXdXdXdXdXdXdXdXdXdXdXdXdXdXdXdXdXdXdXdXdXdXdXdXdXdXdXdXdXdXdXdXdXdXdXdXdXdXdXdXdXdXdXdXdXdXdXdXdXdXdXdXdXdXdXdXdXdXdXdXdXdXdXdXdXdXdXdXdXdXdXdXdXdXdXdXdXdXdXdXdXdXdXdXdXdXdXdXdXdXdXdXdXdXdXdXdXdXdXdXdXdXdXdXdXdXdXdXdXdXdXdXdXdXdXdXdXdXdXdXdXdXdXdXdXdXdXdXdXdXdXdXdXdXdXdXdXdXdXdXdXdXdXdX",
"dXdXdXdXdXdXdXdXdXdXdXdXdXdXdXdXdXdXdXdXdXdXdXdXdXdXdXdXdXdXdXdXdXdXdXdXdXdXdXdXdXdXdXdXdXdXdXdXdXdXdXdXdXdXdXdXdXdXdXdXdXdXdXdXdXdXdXdXdXdXdXdXdXdXdXdXdXdXdXdXdXdXdXdXdXdXdXdXdXdXdXdXdXdXdXdXdXdXdXdXdXdXdXdXdXdXdXdXdXdXdXdXdXdXdXdXdXdXdXdXdXdXdXdXdXdXdXdXdXdXdXdXdXdXdXdXdXdXdXdXdXdXdXdXdXdXdXdXdXdXdXdXdXdXdXdXdXdXdXdXdXdXdXdXdXdXdXdXdXdXdXdXdXdXdXdXdXdXdXdXdXdXdXdXdXdXdXdXdXdXdXdXdXdXdXdXdXdXdXdXdXdXdXdXdXdXdXdXdXdXdXdXdXdXdXdXdXdXdXdXdXdXdXdXdXdXdXdXdXdXdXdXdXdXdXdXdXdXdXdXdXdXdXdXdXdXdXdXdXdXdXdXdXdXdXdXdXdXdXdXdXdXdXdXdXdXdXdXdXdXdXdXdXdXdXdXdXdXdXdXdXdXdXdXdXdXdXdXdXdXdXdXdXdXdXdXdXdXdXdX",
"dXdXdXdXdXdXdXdXdXdXdXdXdXdXdXdXdXdXdXdXdXdXdXdXdXdXdXdXdXdXdXdXdXdXdXdXdXdXdXdXdXdXdXdXdXdXdXdXdXdXdXdXdXdXdXdXdXdXdXdXdXdXdXdXdXdXdXdXdXdXdXdXdXdXdXdXdXdXdXdXdXdXdXdXdXdXdXdXdXdXdXdXdXdXdXdXdXdXdXdXdXdXdXdXdXdXdXdXdXdXdXdXdXdXdXdXdXdXdXdXdXdXdXdXdXdXdXdXdXdXdXdXdXdXdXdXdXdXdXdXdXdXdXdXdXdXdXdXdXdXdXdXdXdXdXdXdXdXdXdXdXdXdXdXdXdXdXdXpXiXuXuXuXuXuXuXuXuXuXuXuXuXuXyXuXuXiXpXdXdXdXdXdXdXdXdXdXdXdXdXdXdXdXdXdXdXdXdXdXdXdXdXdXdXdXdXdXdXdXdXdXdXdXdXdXdXdXdXdXdXdXdXdXdXdXdXdXdXdXdXdXdXdXdXdXdXdXdXdXdXdXdXdXdXdXdXdXdXdXdXdXdXdXdXdXdXdXdXdXdXdXdXdXdXdXdXdXdXdXdXdXdXdXdXdXdXdXdXdXdXdXdXdXdXdXdXdXdXdXdX",
"dXdXdXdXdXdXdXdXdXdXdXdXdXdXdXdXdXdXdXdXdXdXdXdXdXdXdXdXdXdXdXdXdXdXdXdXdXdXdXdXdXdXdXdXdXdXdXdXdXdXdXdXdXdXdXdXdXdXdXdXdXdXdXdXdXdXdXdXdXdXdXdXdXdXdXdXdXdXdXdXdXdXdXdXdXdXdXdXdXdXdXdXdXdXdXdXdXdXdXdXdXdXdXdXdXdXdXdXdXdXdXdXdXdXdXdXdXdXdXdXdXdXdXdXdXdXdXdXdXdXdXdXdXdXdXdXdXdXdXdXdXdXdXdXdXdXdXdXdXdXdXdXdXdXdXdXdXdXdXdXdXdXdXdXdXdXdXsXeX8X<X>X<X<X<X<X<X<X<X<X<X<X<X<X>X<X3XwXpXdXdXdXdXdXdXdXdXdXdXdXdXdXdXdXdXdXdXdXdXdXdXdXdXdXdXdXdXdXdXdXdXdXdXdXdXdXdXdXdXdXdXdXdXdXdXdXdXdXdXdXdXdXdXdXdXdXdXdXdXdXdXdXdXdXdXdXdXdXdXdXdXdXdXdXdXdXdXdXdXdXdXdXdXdXdXdXdXdXdXdXdXdXdXdXdXdXdXdXdXdXdXdXdXdXdXdXdXdXdXdX",
"dXdXdXdXdXdXdXdXdXdXdXdXdXdXdXdXdXdXdXdXdXdXdXdXdXdXdXdXdXdXdXdXdXdXdXdXdXdXdXdXdXdXdXdXdXdXdXdXdXdXdXdXdXdXdXdXdXdXdXdXdXdXdXdXdXdXdXdXdXdXdXdXdXdXdXdXdXdXdXdXdXdXdXdXdXdXdXdXdXdXdXdXdXdXdXdXdXdXdXdXdXdXdXdXdXdXdXdXdXdXdXdXdXdXdXdXdXdXdXdXdXdXdXdXdXdXdXdXdXdXdXdXdXdXdXdXdXdXdXdXdXdXdXdXdXdXdXdXdXdXdXdXdXdXdXdXdXdXdXdXdXdXdXdXdXdXdXpX8X+.g s f f f f f f f f f f f f s f  .3XuXdXdXdXdXdXdXdXdXdXdXdXdXdXdXdXdXdXdXdXdXdXdXdXdXdXdXdXdXdXdXdXdXdXdXdXdXdXdXdXdXdXdXdXdXdXdXdXdXdXdXdXdXdXdXdXdXdXdXdXdXdXdXdXdXdXdXdXdXdXdXdXdXdXdXdXdXdXdXdXdXdXdXdXdXdXdXdXdXdXdXdXdXdXdXdXdXdXdXdXdXdXdXdXdXdXdXdXdXdXdXdX",
"dXdXdXdXdXdXdXdXdXdXdXdXdXdXdXdXdXdXdXdXdXdXdXdXdXdXdXdXdXdXdXdXdXdXdXdXdXdXdXdXdXdXdXdXdXdXdXdXdXdXdXdXdXdXdXdXdXdXdXdXdXdXdXdXdXdXdXdXdXdXdXdXdXdXdXdXdXdXdXdXdXdXdXdXdXdXdXdXdXdXdXdXdXdXdXdXdXdXdXdXdXdXdXdXdXdXdXdXdXdXdXdXdXdXdXdXdXdXdXdXdXdXdXdXdXdXdXdXdXdXdXdXdXdXdXdXdXdXdXdXdXdXdXdXdXdXdXdXdXdXdXdXdXdXdXdXdXdXdXdXdXdXdXdXdXdXdXiX2X[ X . . . . . . . . . . . . . . . f >XtXdXdXdXdXdXdXdXdXdXdXdXdXdXdXdXdXdXdXdXdXdXdXdXdXdXdXdXdXdXdXdXdXdXdXdXdXdXdXdXdXdXdXdXdXdXdXdXdXdXdXdXdXdXdXdXdXdXdXdXdXdXdXdXdXdXdXdXdXdXdXdXdXdXdXdXdXdXdXdXdXdXdXdXdXdXdXdXdXdXdXdXdXdXdXdXdXdXdXdXdXdXdXdXdXdXdXdXdXdXdXdX",
"dXdXdXdXdXdXdXdXdXdXdXdXdXdXdXdXdXdXdXdXdXdXdXdXdXdXdXdXdXdXdXdXdXdXdXdXdXdXdXdXdXdXdXdXdXdXdXdXdXdXdXdXdXdXdXdXdXdXdXdXdXdXdXdXdXdXdXdXdXdXdXdXdXdXdXdXdXdXdXdXdXdXdXdXdXdXdXdXdXdXdXdXdXdXdXdXdXdXdXdXdXdXdXdXdXdXdXdXdXdXdXdXdXdXdXdXdXdXdXdXdXdXdXdXdXdXdXdXdXdXdXdXdXdXdXdXdXdXdXdXdXdXdXdXdXdXdXdXdXdXdXdXdXdXdXdXdXdXdXdXdXdXdXdXdXdXdXiX2Xg . . . . . . . . . . . . . . . . p $.tXdXdXdXdXdXdXdXdXdXdXdXdXdXdXdXdXdXdXdXdXdXdXdXdXdXdXdXdXdXdXdXdXdXdXdXdXdXdXdXdXdXdXdXdXdXdXdXdXdXdXdXdXdXdXdXdXdXdXdXdXdXdXdXdXdXdXdXdXdXdXdXdXdXdXdXdXdXdXdXdXdXdXdXdXdXdXdXdXdXdXdXdXdXdXdXdXdXdXdXdXdXdXdXdXdXdXdXdXdXdXdX",
"dXdXdXdXdXdXdXdXdXdXdXdXdXdXdXdXdXdXdXdXdXdXdXdXdXdXdXdXdXdXdXdXdXdXdXdXdXdXdXdXdXdXdXdXdXdXdXdXdXdXdXdXdXdXdXdXdXdXdXdXdXdXdXdXdXdXdXdXdXdXdXdXdXdXdXdXdXdXdXdXdXdXdXdXdXdXdXdXdXdXdXdXdXdXdXdXdXdXdXdXdXdXdXdXdXdXdXdXdXdXdXdXdXdXdXdXdXdXdXdXdXdXdXdXdXdXdXdXdXdXdXdXdXdXdXdXdXdXdXdXdXdXdXdXdXdXdXdXdXdXdXdXdXdXdXdXdXdXdXdXdXdXdXdXdXdXdXiX2Xg . . . . . . . . . . . . . . . . s $.tXdXdXdXdXdXdXdXdXdXdXdXdXdXdXdXdXdXdXdXdXdXdXdXdXdXdXdXdXdXdXdXdXdXdXdXdXdXdXdXdXdXdXdXdXdXdXdXdXdXdXdXdXdXdXdXdXdXdXdXdXdXdXdXdXdXdXdXdXdXdXdXdXdXdXdXdXdXdXdXdXdXdXdXdXdXdXdXdXdXdXdXdXdXdXdXdXdXdXdXdXdXdXdXdXdXdXdXdXdXdXdX",
"dXdXdXdXdXdXdXdXdXdXdXdXdXdXdXdXdXdXdXdXdXdXdXdXdXdXdXdXdXdXdXdXdXdXdXdXdXdXdXdXdXdXdXdXdXdXdXdXdXdXdXdXdXdXdXdXdXdXdXdXdXdXdXdXdXdXdXdXdXdXdXdXdXdXdXdXdXdXdXdXdXdXdXdXdXdXdXdXdXdXdXdXdXdXdXdXdXdXdXdXdXdXdXdXdXdXdXdXdXdXdXdXdXdXdXdXdXdXdXdXdXdXdXdXdXdXdXdXdXdXdXdXdXdXdXdXdXdXdXdXdXdXdXdXdXdXdXdXdXdXdXdXdXdXdXdXdXdXdXdXdXdXdXdXdXdXdXiX2Xg . . . . . . . . . . . . . . . . s >.tXdXdXdXdXdXdXdXdXdXdXdXdXdXdXdXdXdXdXdXdXdXdXdXdXdXdXdXdXdXdXdXdXdXdXdXdXdXdXdXdXdXdXdXdXdXdXdXdXdXdXdXdXdXdXdXdXdXdXdXdXdXdXdXdXdXdXdXdXdXdXdXdXdXdXdXdXdXdXdXdXdXdXdXdXdXdXdXdXdXdXdXdXdXdXdXdXdXdXdXdXdXdXdXdXdXdXdXdXdXdXdX",
"dXdXdXdXdXdXdXdXdXdXdXdXdXdXdXdXdXdXdXdXdXdXdXdXdXdXdXdXdXdXdXdXdXdXdXdXdXdXdXdXdXdXdXdXdXdXdXdXdXdXdXdXdXdXdXdXdXdXdXdXdXdXdXdXdXdXdXdXdXdXdXdXdXdXdXdXdXdXdXdXdXdXdXdXdXdXdXdXdXdXdXdXdXdXdXdXdXdXdXdXdXdXdXdXdXdXdXdXdXdXdXdXdXdXdXdXdXdXdXdXdXdXdXdXdXdXdXdXdXdXdXdXdXdXdXdXdXdXdXdXdXdXdXdXdXdXdXdXdXdXdXdXdXdXdXdXdXdXdXdXdXdXdXdXdXdXdXiX2Xz . . . . . . . . . . . . . . . . s 8.tXdXdXdXdXdXdXdXdXdXdXdXdXdXdXdXdXdXdXdXdXdXdXdXdXdXdXdXdXdXdXdXdXdXdXdXdXdXdXdXdXdXdXdXdXdXdXdXdXdXdXdXdXdXdXdXdXdXdXdXdXdXdXdXdXdXdXdXdXdXdXdXdXdXdXdXdXdXdXdXdXdXdXdXdXdXdXdXdXdXdXdXdXdXdXdXdXdXdXdXdXdXdXdXdXdXdXdXdXdXdXdX",
"dXdXdXdXdXdXdXdXdXdXdXdXdXdXdXdXdXdXdXdXdXdXdXdXdXdXdXdXdXdXdXdXdXdXdXdXdXdXdXdXdXdXdXdXdXdXdXdXdXdXdXdXdXdXdXdXdXdXdXdXdXdXdXdXdXdXdXdXdXdXdXdXdXdXdXdXdXdXdXdXdXdXdXdXdXdXdXdXdXdXdXdXdXdXdXdXdXdXdXdXdXdXdXdXdXdXdXdXdXdXdXdXdXdXdXdXdXdXdXdXdXdXdXdXdXdXdXdXdXdXdXdXdXdXdXdXdXdXdXdXdXdXdXdXdXdXdXdXdXdXdXdXdXdXdXdXdXdXdXdXdXdXdXdXdXdXdXiX2X[ . . . . . . . . . . . . . . . . s 8.tXdXdXdXdXdXdXdXdXdXdXdXdXdXdXdXdXdXdXdXdXdXdXdXdXdXdXdXdXdXdXdXdXdXdXdXdXdXdXdXdXdXdXdXdXdXdXdXdXdXdXdXdXdXdXdXdXdXdXdXdXdXdXdXdXdXdXdXdXdXdXdXdXdXdXdXdXdXdXdXdXdXdXdXdXdXdXdXdXdXdXdXdXdXdXdXdXdXdXdXdXdXdXdXdXdXdXdXdXdXdXdX",
"dXdXdXdXdXdXdXdXdXdXdXdXdXdXdXdXdXdXdXdXdXdXdXdXdXdXdXdXdXdXdXdXdXdXdXdXdXdXdXdXdXdXdXdXdXdXdXdXdXdXdXdXdXdXdXdXdXdXdXdXdXdXdXdXdXdXdXdXdXdXdXdXdXdXdXdXdXdXdXdXdXdXdXdXdXdXdXdXdXdXdXdXdXdXdXdXdXdXdXdXdXdXdXdXdXdXdXdXdXdXdXdXdXdXdXdXdXdXdXdXdXdXdXdXdXdXdXdXdXdXdXdXdXdXdXdXdXdXdXdXdXdXdXdXdXdXdXdXdXdXdXdXdXdXdXdXdXdXdXdXdXdXsXsXpXsXsXtX<Xg . . . . . . . . X X + + + X . + d $.wXpXsXsXpXpXpXpXpXpXpXpXpXpXsXdXdXdXdXdXdXdXdXdXdXdXdXdXdXdXdXdXdXdXdXdXdXdXdXdXdXdXdXdXdXdXdXdXdXdXdXdXdXdXdXdXdXdXdXdXdXdXdXdXdXdXdXdXdXdXdXdXdXdXdXdXdXdXdXdXdXdXdXdXdXdXdXdXdXdXdXdXdXdXdXdXdXdXdXdXdXdXdXdXdXdXdXdXdXdXdXdX",
"dXdXdXdXdXdXdXdXdXdXdXdXdXdXdXdXdXdXdXdXdXdXdXdXdXdXdXdXdXdXdXdXdXdXdXdXdXdXdXdXdXdXdXdXdXdXdXdXdXdXdXdXdXdXdXdXdXdXdXdXdXdXdXdXdXdXdXdXdXdXdXdXdXdXdXdXdXdXdXdXdXdXdXdXdXdXdXdXdXdXdXdXdXdXdXdXdXdXdXdXdXdXdXdXdXdXdXdXdXdXdXdXdXdXdXdXdXdXdXdXdXdXdXdXdXdXdXdXdXdXdXdXdXdXdXdXdXdXdXdXdXdXdXdXdXdXdXdXdXdXdXdXdXdXdXdXdXdXdXdXdXsXtXqX8X8X8X2Xo.a . . . . . . . # q A J J F F F F P @.2X8X0X8X8X8X8X8X8X8X8X8X8X8XwXiXdXdXdXdXdXdXdXdXdXdXdXdXdXdXdXdXdXdXdXdXdXdXdXdXdXdXdXdXdXdXdXdXdXdXdXdXdXdXdXdXdXdXdXdXdXdXdXdXdXdXdXdXdXdXdXdXdXdXdXdXdXdXdXdXdXdXdXdXdXdXdXdXdXdXdXdXdXdXdXdXdXdXdXdXdXdXdXdXdXdXdXdXdXdXdXdX",
"dXdXdXdXdXdXdXdXdXdXdXdXdXdXdXdXdXdXdXdXdXdXdXdXdXdXdXdXdXdXdXdXdXdXdXdXdXdXdXdXdXdXdXdXdXdXdXdXdXdXdXdXdXdXdXdXdXdXdXdXdXdXdXdXdXdXdXdXdXdXdXdXdXdXdXdXdXdXdXdXdXdXdXdXdXdXdXdXdXdXdXdXdXdXdXdXdXdXdXdXdXdXdXdXdXdXdXdXdXdXdXdXdXdXdXdXdXdXdXdXdXdXdXdXdXdXdXdXdXdXdXdXdXdXdXdXdXdXdXdXdXdXdXdXdXdXdXdXdXdXdXdXdXdXdXdXdXdXdXdXdXiX8X#. . . .} s = . . . . . . . 8 W N.F.L.F.F.F.F.V.x... . . . . . . . . . .} }  .>XwXpXdXdXdXdXdXdXdXdXdXdXdXdXdXdXdXdXdXdXdXdXdXdXdXdXdXdXdXdXdXdXdXdXdXdXdXdXdXdXdXdXdXdXdXdXdXdXdXdXdXdXdXdXdXdXdXdXdXdXdXdXdXdXdXdXdXdXdXdXdXdXdXdXdXdXdXdXdXdXdXdXdXdXdXdXdXdXdXdXdXdXdXdXdXdXdX",
"dXdXdXdXdXdXdXdXdXdXdXdXdXdXdXdXdXdXdXdXdXdXdXdXdXdXdXdXdXdXdXdXdXdXdXdXdXdXdXdXdXdXdXdXdXdXdXdXdXdXdXdXdXdXdXdXdXdXdXdXdXdXdXdXdXdXdXdXdXdXdXdXdXdXdXdXdXdXdXdXdXdXdXdXdXdXdXdXdXdXdXdXdXdXdXdXdXdXdXdXdXdXdXdXdXdXdXdXdXdXdXdXdXdXdXdXdXdXdXdXdXdXdXdXdXdXdXdXdXdXdXdXdXdXdXdXdXdXdXdXdXdXdXdXdXdXdXdXdXdXdXdXdXdXdXdXdXdXdXdXdXtX<Xg = X X X X . . . . . . . . Z v.^. X X|. X.X|.Q.k.y = X @ = = = = X X X X X -  .7XpXdXdXdXdXdXdXdXdXdXdXdXdXdXdXdXdXdXdXdXdXdXdXdXdXdXdXdXdXdXdXdXdXdXdXdXdXdXdXdXdXdXdXdXdXdXdXdXdXdXdXdXdXdXdXdXdXdXdXdXdXdXdXdXdXdXdXdXdXdXdXdXdXdXdXdXdXdXdXdXdXdXdXdXdXdXdXdXdXdXdXdXdXdXdXdX",
"dXdXdXdXdXdXdXdXdXdXdXdXdXdXdXdXdXdXdXdXdXdXdXdXdXdXdXdXdXdXdXdXdXdXdXdXdXdXdXdXdXdXdXdXdXdXdXdXdXdXdXdXdXdXdXdXdXdXdXdXdXdXdXdXdXdXdXdXdXdXdXdXdXdXdXdXdXdXdXdXdXdXdXdXdXdXdXdXdXdXdXdXdXdXdXdXdXdXdXdXdXdXdXdXdXdXdXdXdXdXdXdXdXdXdXdXdXdXdXdXdXdXdXdXdXdXdXdXdXdXdXdXdXdXdXdXdXdXdXdXdXdXdXdXdXdXdXdXdXdXdXdXdXdXdXdXdXdXdXdXdXtX$.p . . . . . . . . . . . . . A S.|.OXOXXXOXOXXX_./ 4 . . . . . . . . . . . . . [ 7XpXdXdXdXdXdXdXdXdXdXdXdXdXdXdXdXdXdXdXdXdXdXdXdXdXdXdXdXdXdXdXdXdXdXdXdXdXdXdXdXdXdXdXdXdXdXdXdXdXdXdXdXdXdXdXdXdXdXdXdXdXdXdXdXdXdXdXdXdXdXdXdXdXdXdXdXdXdXdXdXdXdXdXdXdXdXdXdXdXdXdXdXdXdXdXdX",
"dXdXdXdXdXdXdXdXdXdXdXdXdXdXdXdXdXdXdXdXdXdXdXdXdXdXdXdXdXdXdXdXdXdXdXdXdXdXdXdXdXdXdXdXdXdXdXdXdXdXdXdXdXdXdXdXdXdXdXdXdXdXdXdXdXdXdXdXdXdXdXdXdXdXdXdXdXdXdXdXdXdXdXdXdXdXdXdXdXdXdXdXdXdXdXdXdXdXdXdXdXdXdXdXdXdXdXdXdXdXdXdXdXdXdXdXdXdXdXdXdXdXdXdXdXdXdXdXdXdXdXdXdXdXdXdXdXdXdXdXdXdXdXdXdXdXdXdXdXdXdXdXdXdXdXdXdXdXdXdXdXtX$.a . . . . . . . . . . . . . Z S.|.OXOXoXOXOXXX_./ 4 . . . . . . . . . . . . . [ 7XpXdXdXdXdXdXdXdXdXdXdXdXdXdXdXdXdXdXdXdXdXdXdXdXdXdXdXdXdXdXdXdXdXdXdXdXdXdXdXdXdXdXdXdXdXdXdXdXdXdXdXdXdXdXdXdXdXdXdXdXdXdXdXdXdXdXdXdXdXdXdXdXdXdXdXdXdXdXdXdXdXdXdXdXdXdXdXdXdXdXdXdXdXdXdXdX",
"dXdXdXdXdXdXdXdXdXdXdXdXdXdXdXdXdXdXdXdXdXdXdXdXdXdXdXdXdXdXdXdXdXdXdXdXdXdXdXdXdXdXdXsXsXsXsXsXdXdXdXdXsXsXsXdXdXdXdXdXdXdXdXdXdXdXdXdXdXdXdXdXdXdXdXdXdXdXdXdXdXdXdXdXdXdXdXdXdXdXdXdXdXdXdXdXdXdXdXdXdXdXdXdXdXdXdXdXdXdXdXdXdXdXdXdXdXdXdXdXdXdXdXdXdXdXdXdXdXdXdXdXdXdXdXdXdXdXdXdXdXdXdXdXdXdXdXdXdXdXdXdXdXdXdXsXsXdXdXdXsXeX$.s . . . . . . . . . . . . # F S.[.XXXXXXXXXX.X^.j.q . . . . . . . . . . . . X [ 3XiXdXdXdXsXsXdXdXdXdXsXsXdXdXdXdXdXdXdXdXdXdXdXdXdXdXdXdXdXdXdXdXdXdXdXdXdXdXdXdXdXdXdXdXdXdXdXdXdXdXdXdXdXdXdXdXdXdXdXdXdXdXdXdXdXdXdXdXdXdXdXdXdXdXdXdXdXdXdXdXdXdXdXdXdXdXdXdXdXdXdXdXdXdXdXdX",
"dXdXdXdXdXdXdXdXdXdXdXdXdXdXdXdXdXdXdXdXdXdXdXdXdXdXdXdXdXdXdXdXdXdXdXdXdXdXdXsXiXeXwXqXqXqXqXqXqXqXqXqXqXqXwXeXiXdXdXdXdXdXdXdXdXdXdXdXdXdXdXdXdXdXdXdXdXdXdXdXdXdXdXdXdXdXdXdXdXdXdXdXdXdXdXdXdXdXdXdXdXdXdXdXdXdXdXdXdXdXdXdXdXdXdXdXdXdXdXdXdXdXdXdXdXdXdXdXdXdXdXdXdXdXdXdXdXdXdXdXdXdXdXdXdXdXdXdXdXdXdXdXpXtXwXqXqXqXqXwXqX3X .; . . . . $ 8 t Z u u u u A ) I.|.XXXXXXXXXX.X_.B.T u u u e 5 X . . . . . . X g $.8XwXwXwXqXqXqXqXqXqXqXqXqXwXuXpXdXdXdXdXdXdXdXdXdXdXdXdXdXdXdXdXdXdXdXdXdXdXdXdXdXdXdXdXdXdXdXdXdXdXdXdXdXdXdXdXdXdXdXdXdXdXdXdXdXdXdXdXdXdXdXdXdXdXdXdXdXdXdXdXdXdXdXdXdXdXdXdXdXdXdXdXdXdXdXdX",
"dXdXdXdXdXdXdXdXdXdXdXdXdXdXdXdXdXdXdXdXdXdXdXdXdXdXdXdXdXdXdXdXdXdXdXdXdXdXdXpXqX<X+.o.o.+.+.+.+.+.+.+.o.o.+.<XwXpXdXdXdXdXdXdXdXdXdXdXdXdXdXdXdXdXdXdXdXdXdXdXdXdXdXdXdXdXdXdXdXdXdXdXdXdXdXdXdXdXdXdXdXdXdXdXdXdXdXdXdXdXdXdXdXdXdXdXdXdXdXdXdXdXdXdXdXdXdXdXdXdXdXdXdXdXdXdXdXdXdXdXdXdXdXdXdXdXdXdXdXdXdXdXtX7X#.o.o.o.+.+.+. .f = . . . + t W c.N.B.v.v.v.B.P._. XXXXXXXXXXX.X|.!.S.v.v.N.j.J 4 . . . . . . . - [  .+.+.+.O.O.O.O.O.O.+.o.o.$.7XuXdXdXdXdXdXdXdXdXdXdXdXdXdXdXdXdXdXdXdXdXdXdXdXdXdXdXdXdXdXdXdXdXdXdXdXdXdXdXdXdXdXdXdXdXdXdXdXdXdXdXdXdXdXdXdXdXdXdXdXdXdXdXdXdXdXdXdXdXdXdXdXdXdXdXdXdXdXdXdXdX",
"dXdXdXdXdXdXdXdXdXdXdXdXdXdXdXdXdXdXdXdXdXdXdXdXdXdXdXdXdXdXdXdXdXdXdXdXdXdXdXuX2X} - = - - - - - - - - - = p  .7XiXdXdXdXdXdXdXdXdXdXdXdXdXdXdXdXdXdXdXdXdXdXdXdXdXdXdXdXdXdXdXdXdXdXdXdXdXdXdXdXdXdXdXdXdXdXdXdXdXdXdXdXdXdXdXdXdXdXdXdXdXdXdXdXdXdXdXdXdXdXdXdXdXdXdXdXdXdXdXdXdXdXdXdXdXdXdXdXdXdXdXdXdXdXsXqX#.f - = - - - - - @ . . . . $ J S._.].].'.'.'.'.[. X.XXXXXXXXXXX.X.X X].].[.].Q.j.q . . . . . . . . = - - - - - - - - - - - = - f $.wXdXdXdXdXdXdXdXdXdXdXdXdXdXdXdXdXdXdXdXdXdXdXdXdXdXdXdXdXdXdXdXdXdXdXdXdXdXdXdXdXdXdXdXdXdXdXdXdXdXdXdXdXdXdXdXdXdXdXdXdXdXdXdXdXdXdXdXdXdXdXdXdXdXdXdXdXdXdXdXdX",
"dXdXdXdXdXdXdXdXdXdXdXdXdXdXdXdXdXdXdXdXdXdXdXdXdXdXdXdXdXdXdXdXdXdXdXdXdXdXdXuX<Xf . . . . . . . . . . . . . g 2XiXdXdXdXdXdXdXdXdXdXdXdXdXdXdXdXdXdXdXdXdXdXdXdXdXdXdXdXdXdXdXdXdXdXdXdXdXdXdXdXdXdXdXdXdXdXdXdXdXdXdXdXdXdXdXdXdXdXdXdXdXdXdXdXdXdXdXdXdXdXdXdXdXdXdXdXdXdXdXdXdXdXdXdXdXdXdXdXdXdXdXdXdXdXsX0X .= . . . . . . . . . . . . % W Q..XOXOXXXXXXXXXXXXX.XXXXX.X.X.X.XXXXXXXXXOXoX].N.t . . . . . . . . . . . . . . . . . . . . . . - o.qXdXdXdXdXdXdXdXdXdXdXdXdXdXdXdXdXdXdXdXdXdXdXdXdXdXdXdXdXdXdXdXdXdXdXdXdXdXdXdXdXdXdXdXdXdXdXdXdXdXdXdXdXdXdXdXdXdXdXdXdXdXdXdXdXdXdXdXdXdXdXdXdXdXdXdXdXdXdXdXdX",
"dXdXdXdXdXdXdXdXdXdXdXdXdXdXdXdXdXdXdXdXdXdXdXdXdXdXdXdXdXdXdXdXdXdXdXdXdXdXdXuX>Xs . . . . . . . . . . . . . g 2XiXdXdXdXdXdXdXdXdXdXdXdXdXdXdXdXdXdXdXdXdXdXdXdXdXdXdXdXdXdXdXdXdXdXdXdXdXdXdXdXdXdXdXdXdXdXdXdXdXdXdXdXdXdXdXdXdXdXdXdXdXdXdXdXdXdXdXdXdXdXdXdXdXdXdXdXdXdXdXdXdXdXdXdXdXdXdXdXdXdXdXdXdXdXsX0X .X . . . . . . . . . . . . % W Q..XOXOXXXXXoXXXXXXXXXXXXXXX.X.X.XXXXXXXOXOXOX[.B.t . . . . . . . . . . . . . . . . . . . . . . = o.qXsXdXdXdXdXdXdXdXdXdXdXdXdXdXdXdXdXdXdXdXdXdXdXdXdXdXdXdXdXdXdXdXdXdXdXdXdXdXdXdXdXdXdXdXdXdXdXdXdXdXdXdXdXdXdXdXdXdXdXdXdXdXdXdXdXdXdXdXdXdXdXdXdXdXdXdXdXdXdXdX",
"dXdXdXdXdXdXdXdXdXdXdXdXdXdXdXdXdXdXdXdXdXdXdXdXdXdXdXdXdXdXdXdXdXdXdXdXdXdXdXuX<Xf . . . . . . . . . . . . . g 2XiXdXdXdXdXdXdXdXdXdXdXdXdXdXdXdXdXdXdXdXdXdXdXdXdXdXdXdXdXdXdXdXdXdXdXdXdXdXdXdXdXdXdXdXdXdXdXdXdXdXdXdXdXdXdXdXdXdXdXdXdXdXdXdXdXdXdXdXdXdXdXdXdXdXdXdXdXdXdXdXdXdXdXdXdXdXdXdXdXdXdXdXdXdXsX0X .= . . . . . . . . . . . . $ W Q..XOXXXXXXXXXXXXXXXXXXXXX.X.X.XXXXXXXXXXXoXXX'.v.Z . . . . . . . . . . . . . . . . . . . . . . - +.qXdXdXdXdXdXdXdXdXdXdXdXdXdXdXdXdXdXdXdXdXdXdXdXdXdXdXdXdXdXdXdXdXdXdXdXdXdXdXdXdXdXdXdXdXdXdXdXdXdXdXdXdXdXdXdXdXdXdXdXdXdXdXdXdXdXdXdXdXdXdXdXdXdXdXdXdXdXdXdXdX",
"dXdXdXdXdXdXdXdXdXdXdXdXdXdXdXdXdXdXdXdXdXdXdXdXdXdXdXdXdXdXdXdXdXdXdXdXdXdXdXuX<Xf . . . . . . . . . . . . . g 2XiXdXdXdXdXdXdXdXdXdXdXdXdXdXdXdXdXdXdXdXdXdXdXdXdXdXdXdXdXdXdXdXdXdXdXdXdXdXdXdXdXdXdXdXdXdXdXdXdXdXdXdXdXdXdXdXdXdXdXdXdXdXdXdXdXdXdXdXdXdXdXdXdXdXdXdXdXdXdXdXdXdXdXdXdXdXdXdXdXdXdXdXdXdXsX0X .- . . . . . . . . . . . . $ W U..XXXXX.X.XXX.X.XXXXXXXXX.X.X.XXXXXXXXXXXXXXX'.v.u . . . . . . . . . . . . . . . . . . . . . . - +.wXdXdXdXdXdXdXdXdXdXdXdXdXdXdXdXdXdXdXdXdXdXdXdXdXdXdXdXdXdXdXdXdXdXdXdXdXdXdXdXdXdXdXdXdXdXdXdXdXdXdXdXdXdXdXdXdXdXdXdXdXdXdXdXdXdXdXdXdXdXdXdXdXdXdXdXdXdXdXdXdX",
"dXdXdXdXdXdXdXdXdXdXdXdXdXdXdXdXdXdXdXdXdXdXdXdXdXdXdXdXdXdXdXdXdXdXdXdXdXdXdXuX<Xf . . . . . . . . . . . . . [ 2XiXdXdXdXdXdXdXdXdXdXdXdXdXdXdXdXdXdXdXdXdXdXdXdXdXdXdXdXdXdXdXdXdXdXdXdXdXdXdXdXdXdXdXdXdXdXdXdXdXdXdXdXdXdXdXdXdXdXdXdXdXdXdXdXdXdXdXdXdXdXdXdXdXdXdXdXdXdXdXdXdXdXdXdXdXdXdXdXdXdXdXdXdXdXdXqXo.- . . . . . . . . . . . . # T U..XoXXX.XXXXX.X.X.X.XXXXXXX.X.XXXXXXXXXXXXXXX'.v.t . . . . . . . . . . . . . . . . . . . . . . - +.wXdXdXdXdXdXdXdXdXdXdXdXdXdXdXdXdXdXdXdXdXdXdXdXdXdXdXdXdXdXdXdXdXdXdXdXdXdXdXdXdXdXdXdXdXdXdXdXdXdXdXdXdXdXdXdXdXdXdXdXdXdXdXdXdXdXdXdXdXdXdXdXdXdXdXdXdXdXdXdXdX",
"dXdXdXdXdXdXdXdXdXdXdXdXdXdXdXdXdXdXdXdXdXdXdXdXdXdXdXdXdXdXdXdXdXdXdXdXdXdXdXuX<Xf . . . . . . . . . . . . . [ 2XiXdXdXdXdXdXdXdXdXdXdXdXdXdXdXdXdXdXdXdXdXdXdXdXdXdXdXdXdXdXdXdXdXdXdXdXdXdXdXdXdXdXdXdXdXdXdXdXdXdXdXdXdXdXdXdXdXdXdXdXdXdXdXdXdXdXdXdXdXdXdXdXdXdXdXdXdXdXdXdXdXdXdXdXdXdXdXdXdXdXdXdXdXdXsX0X .= . . . . . . . . . . . . $ W U..XXXXX.XXXXXXXXXXX.X.XXX.X.X.X.XXXXX.XXXXXXX'.v.u . . . . . . . . . . . . . . . . . . . . . . - +.wXdXdXdXdXdXdXdXdXdXdXdXdXdXdXdXdXdXdXdXdXdXdXdXdXdXdXdXdXdXdXdXdXdXdXdXdXdXdXdXdXdXdXdXdXdXdXdXdXdXdXdXdXdXdXdXdXdXdXdXdXdXdXdXdXdXdXdXdXdXdXdXdXdXdXdXdXdXdXdXdX",
"dXdXdXdXdXdXdXdXdXdXdXdXdXdXdXdXdXdXdXdXdXdXdXdXdXdXdXdXdXdXdXdXdXdXdXdXdXdXdXuX<Xf . . . . . . . . . . . . . g 2XiXdXdXdXdXdXdXdXdXdXdXdXdXdXdXdXdXdXdXdXdXdXdXdXdXdXdXdXdXdXdXdXdXdXdXdXdXdXdXdXdXdXdXdXdXdXdXdXdXdXdXdXdXdXdXdXdXdXdXdXdXdXdXdXdXdXdXdXdXdXdXdXdXdXdXdXdXdXdXdXdXdXdXdXdXdXdXdXdXsXiXuXuXuXeX2X} = . . . . . . . + & 5 5 5 u j.!..XXXXXXXXXXX.X.X.XXXXXXX.X.XXXXXXXXX.XXXXXXX].S.K 8 & 5 8 8 8 8 5 5 5 8 8 5 % + . . . . . . . =  .7XtXiXuXyXyXyXuXiXsXdXdXdXdXdXdXdXdXdXdXdXdXdXdXdXdXdXdXdXdXdXdXdXdXdXdXdXdXdXdXdXdXdXdXdXdXdXdXdXdXdXdXdXdXdXdXdXdXdXdXdXdXdXdXdXdXdXdXdXdXdXdXdXdXdXdXdXdXdXdXdX",
"dXdXdXdXdXdXdXdXdXdXdXdXdXdXdXdXdXdXdXdXdXdXdXdXdXdXdXdXdXdXdXdXdXdXdXdXdXdXdXuX<Xf . . . . . . . . . . . . . g 2XiXdXdXdXdXdXdXdXdXdXdXdXdXdXdXdXdXdXdXdXdXdXdXdXdXdXdXdXdXdXdXdXdXdXdXdXdXdXdXdXdXdXdXdXdXdXdXdXdXdXdXdXdXdXdXdXdXdXdXdXdXdXdXdXdXdXdXdXdXdXdXdXdXdXdXdXdXdXdXdXdXdXdXdXdXdXdXdXsXtX8X<X<X<X>Xo.f X . . . . . . # u L ~ ) ~ l.F._..XXXXXXXXXXX.X.X.XXXXXXX.X.XXXXXXXXX.X.XXXXX|.Q.v._ ! ~ ) ) ) ) ) ) ) ) _ ) K q + . . . . . . X f o.>X<X<X<X>X>X2X8XtXsXdXdXdXdXdXdXdXdXdXdXdXdXdXdXdXdXdXdXdXdXdXdXdXdXdXdXdXdXdXdXdXdXdXdXdXdXdXdXdXdXdXdXdXdXdXdXdXdXdXdXdXdXdXdXdXdXdXdXdXdXdXdXdXdXdXdXdXdXdXdX",
"dXdXdXdXdXdXdXdXdXdXdXdXdXdXdXdXdXdXdXdXdXdXdXdXdXdXdXdXdXdXdXdXdXdXdXdXdXdXdXuX<Xf . . . . . . . . . . . . . g 2XiXdXdXdXdXdXdXdXdXdXdXdXdXdXdXdXdXdXdXdXdXdXdXdXdXdXdXdXdXdXdXdXdXdXdXdXdXdXdXdXdXdXdXdXdXdXdXdXdXdXdXdXdXdXdXdXdXdXdXdXdXdXdXdXdXdXdXdXdXdXdXdXdXdXdXdXdXdXdXdXdXdXdXdXdXdXdXdXpX0X#.g s f f p = . . . . . . . 5 T S.!./.!./.'. X.XXXXX.XXXXX.X.XXXXXXXXX.X.XXXXX.X.X.X.XXXXX.X[._.!.!.!.!.!.!.!.!.!.!.!./.Q.B.K & . . . . . . . = p f f f f f f [ #.0XpXdXdXdXdXdXdXdXdXdXdXdXdXdXdXdXdXdXdXdXdXdXdXdXdXdXdXdXdXdXdXdXdXdXdXdXdXdXdXdXdXdXdXdXdXdXdXdXdXdXdXdXdXdXdXdXdXdXdXdXdXdXdXdXdXdXdXdXdXdXdX",
"dXdXdXdXdXdXdXdXdXdXdXdXdXdXdXdXdXdXdXdXdXdXdXdXdXdXdXdXdXdXdXdXdXdXdXdXdXdXdXuX<Xf . . . . . . . . . . . . . g 2XiXdXdXdXdXdXdXdXdXdXdXdXdXdXdXdXdXdXdXdXdXdXdXdXdXdXdXdXdXdXdXdXdXdXdXdXdXdXdXdXdXdXdXdXdXdXdXdXdXdXdXdXdXdXdXdXdXdXdXdXdXdXdXdXdXdXdXdXdXdXdXdXdXdXdXdXdXdXdXdXdXdXdXdXdXdXdXdXpX7X} X . . . . . . . . . . . . 8 _ /..XXX.X.X.XXX.X.X.X.XXXXX.X.XXXXXXXXX.X.XXXXX.X.X.X.XXXXX.X.X.X.X.X.X.X.X.X.X.X.X.X.XXX.XQ.~ 5 . . . . . . . . . . . . . . . X } 7XpXdXdXdXdXdXdXdXdXdXdXdXdXdXdXdXdXdXdXdXdXdXdXdXdXdXdXdXdXdXdXdXdXdXdXdXdXdXdXdXdXdXdXdXdXdXdXdXdXdXdXdXdXdXdXdXdXdXdXdXdXdXdXdXdXdXdXdXdXdXdX",
"dXdXdXdXdXdXdXdXdXdXdXdXdXdXdXdXdXdXdXdXdXdXdXdXdXdXdXdXdXdXdXdXdXdXdXdXdXdXdXuX<Xf . . . . . . . . . . . . . z 3XpXdXdXdXdXdXdXdXdXdXdXdXdXdXdXdXdXdXdXdXdXdXdXdXdXdXdXdXdXdXdXdXdXdXdXdXdXdXdXdXdXdXdXdXdXdXdXdXdXdXdXdXdXdXdXdXdXdXdXdXdXdXdXdXdXdXdXdXdXdXdXdXdXdXdXdXdXdXdXdXdXdXdXdXdXdXdXdXpX7X[ . . . . . . . . . . . . . 8 j._.oX+XOXXXXXXXXX.X.X.X.XXX.XXXXXXXXXXX.X.XXX.X.X.XXXXXXXXXXXXXXXoXoXoXOXOXoXoXOXOXoXOXOXXX!.~ 5 . . . . . . . . . . . . . . . . [ 7XpXdXdXdXdXdXdXdXdXdXdXdXdXdXdXdXdXdXdXdXdXdXdXdXdXdXdXdXdXdXdXdXdXdXdXdXdXdXdXdXdXdXdXdXdXdXdXdXdXdXdXdXdXdXdXdXdXdXdXdXdXdXdXdXdXdXdXdXdXdXdX",
"dXdXdXdXdXdXdXdXdXdXdXdXdXdXdXdXdXdXdXdXdXdXdXdXdXdXdXdXdXdXdXdXdXdXdXdXdXdXdXuX<Xf . . . . . . . . . . . . . z 3XiXdXdXdXdXdXdXdXdXdXdXdXdXdXdXdXdXdXdXdXdXdXdXdXdXdXdXdXdXdXdXdXdXdXdXdXdXdXdXdXdXdXdXdXdXdXdXdXdXdXdXdXdXdXdXdXdXdXdXdXdXdXdXdXdXdXdXdXdXdXdXdXdXdXdXdXdXdXdXdXdXdXdXdXdXdXdXdXpX7X{ . . . . . . . . . . . . . 8 _ _.XXOXXXXXXXXXXX.X.X.X.XXX.XXXXXXXXXXX.X.XXX.X.X.XXXXXXXXXXXXXXXXXXXXXXXXXXXXXXXXXXXXXOX.X!.~ 5 . . . . . . . . . . . . . . . X } 7XpXdXdXdXdXdXdXdXdXdXdXdXdXdXdXdXdXdXdXdXdXdXdXdXdXdXdXdXdXdXdXdXdXdXdXdXdXdXdXdXdXdXdXdXdXdXdXdXdXdXdXdXdXdXdXdXdXdXdXdXdXdXdXdXdXdXdXdXdXdXdX",
"dXdXdXdXdXdXdXdXdXdXdXdXdXdXdXdXdXdXdXdXdXdXdXdXdXdXdXdXdXdXdXdXdXdXdXdXdXdXdXuX<Xf . . . . . . . . . . . . * [ <XeXpXsXpXpXiXiXpXpXpXpXiXpXpXsXdXdXdXdXdXdXdXdXdXdXdXdXdXdXdXdXdXdXdXdXdXdXdXdXdXdXdXdXdXdXdXdXdXdXdXdXdXdXdXdXdXdXdXdXdXdXdXdXdXdXdXdXdXdXdXdXdXdXdXdXdXdXdXdXdXsXpXpXiXiXiXpXpXtX2X| 5 + + # # # # # # # # X # Z l.^.XXoXXXXXXXXX.X.X.X.X.XXXXXXXXXXXXXXXXXXXXX.X.X.XXXXX.X.X.XXXXXXXXX.X.X.X.X.XXXXXXXXXoX.X!._ q # X # # $ # # X . . . . . . . X [ 2XtXpXpXpXpXsXdXdXdXdXdXdXdXdXdXdXdXdXdXdXdXdXdXdXdXdXdXdXdXdXdXdXdXdXdXdXdXdXdXdXdXdXdXdXdXdXdXdXdXdXdXdXdXdXdXdXdXdXdXdXdXdXdXdXdXdXdXdXdXdXdX",
"dXdXdXdXdXdXdXdXdXdXdXdXdXdXdXdXdXdXdXdXdXdXdXdXdXdXdXdXdXdXdXdXdXdXdXdXdXdXdXuX<Xf . . . . . . . * < i i i i ' @.2X7X7X7X7X3X3X7X7X7X7X3X3X8XwXiXdXdXdXdXdXdXdXdXdXdXdXdXdXdXdXdXdXdXdXdXdXdXdXdXdXdXdXdXdXdXdXdXdXdXdXdXdXdXdXdXdXdXdXdXdXdXdXdXdXdXdXdXdXdXdXdXdXdXdXdXdXdXdXpXtX0X7X3X3X3X7X7X2XY.( T J J J J J J K L L K K K _ F.'.XXXXXXXXXX.X.X.X.X.X.XXXXXXXXXXXXXXXXXXXXX.X.X.XXXXX.X.X.X.XXXXX.X.X.X.X.X.XXXXXXXXXXX.X_.S.~ K J K L T T F q # . . . . . . X s o.2X7X7X7X0XtXsXdXdXdXdXdXdXdXdXdXdXdXdXdXdXdXdXdXdXdXdXdXdXdXdXdXdXdXdXdXdXdXdXdXdXdXdXdXdXdXdXdXdXdXdXdXdXdXdXdXdXdXdXdXdXdXdXdXdXdXdXdXdXdXdX",
"dXdXdXdXdXdXdXdXdXdXdXdXdXdXdXdXdXdXdXdXdXdXdXdXdXdXdXdXdXdXdXdXdXdXdXdXdXdXdXuX<Xf . . . . . . . < i ` ] ] ] ' ' { } } { { { { } } } } [ [  .<XeXsXdXdXdXdXdXdXdXdXdXdXdXdXdXdXdXdXdXdXdXdXdXdXdXdXdXdXdXdXdXdXdXdXdXdXdXdXdXdXdXdXdXdXdXdXdXdXdXdXdXdXdXdXdXdXdXdXdXdXdXdXdXdXuX7X+.} [ [ } { } | ( V.L.K.P.P.P.P.P.P.P.P.P.L.P.Q._. X.XXXXX.X.X.X.X.X.X.XXXXX.X.XXXXXXXXXXXXXXXXXXXXXXXXX.X.X.X.X.X.XXXXXXXXX.X.XXXXXXXXXXX.X X_.Q.P.L.P.P.I.P.B.W 8 . . . . . . . = s [ [ [ } +.8XiXdXdXdXdXdXdXdXdXdXdXdXdXdXdXdXdXdXdXdXdXdXdXdXdXdXdXdXdXdXdXdXdXdXdXdXdXdXdXdXdXdXdXdXdXdXdXdXdXdXdXdXdXdXdXdXdXdXdXdXdXdXdXdXdX",
"dXdXdXdXdXdXdXdXdXdXdXdXdXdXdXdXdXdXdXdXdXdXdXdXdXdXdXdXdXdXdXdXdXdXdXdXdXdXdXuX<Xf . . . . . . . i ` ] @X@X6.] i < X X X X X X X X X X . . p o.0XsXdXdXdXdXdXdXdXdXdXdXdXdXdXdXdXdXdXdXdXdXdXdXdXdXdXdXdXdXdXdXdXdXdXdXdXdXdXdXdXdXdXdXdXdXdXdXdXdXdXdXdXdXdXdXdXdXdXdXdXdXdXdXtX>Xf X . X X . . 6 T L.[..X.X X X X X X X X X X X X.X.X.XXX.X.X.X.X.X.X.X.XXXXX.X.XXXXXXXXXXXXX.X.XXXXXXXXX.X.X.X.X.X.XXXXXXX.X.X.XXXXXXXXX.X.X.X.X X X X X X.X.X^.l.t . . . . . . . . . X . . X g <XuXdXdXdXdXdXdXdXdXdXdXdXdXdXdXdXdXdXdXdXdXdXdXdXdXdXdXdXdXdXdXdXdXdXdXdXdXdXdXdXdXdXdXdXdXdXdXdXdXdXdXdXdXdXdXdXdXdXdXdXdXdXdXdXdX",
"dXdXdXdXdXdXdXdXdXdXdXdXdXdXdXdXdXdXdXdXdXdXdXdXdXdXdXdXdXdXdXdXdXdXdXdXdXdXdXuX<Xf . . . . . . . i ` @X#X#X@X] i . . . . . . . . . . . . . X  .0XsXdXdXdXdXdXdXdXdXdXdXdXdXdXdXdXdXdXdXdXdXdXdXdXdXdXdXdXdXdXdXdXdXdXdXdXdXdXdXdXdXdXdXdXdXdXdXdXdXdXdXdXdXdXdXdXdXdXdXdXdXdXdXtX$.p . . . . . . + J I..XOXOXoXoXoXXXXXoXoXoXoXXXXXXXXXXXXX.X.XXXXXXXXXXXXXXXXX.X.X.X.X.X.XXXXX.X.X.X.XXXXX.X.X.X.XXX.XXXXX.X.X.XXXXXXX.X.X.X.XXXXXXXXXXXXXOXOXOX[.N.Z . . . . . . . . . . . . . d >XyXdXdXdXdXdXdXdXdXdXdXdXdXdXdXdXdXdXdXdXdXdXdXdXdXdXdXdXdXdXdXdXdXdXdXdXdXdXdXdXdXdXdXdXdXdXdXdXdXdXdXdXdXdXdXdXdXdXdXdXdXdXdXdXdX",
"dXdXdXdXdXdXdXdXdXdXdXdXdXdXdXdXdXdXdXdXdXdXdXdXdXdXdXdXdXdXdXdXdXdXdXdXdXdXdXuX<Xf . . . . . . . i ` @X#X#X@X] i . . . . . . . . . . . . . @  .0XsXdXdXdXdXdXdXdXdXdXdXdXdXdXdXdXdXdXdXdXdXdXdXdXdXdXdXdXdXdXdXdXdXdXdXdXdXdXdXdXdXdXdXdXdXdXdXdXdXdXdXdXdXdXdXdXdXdXdXdXdXdXdXtX$.s . . . . . . + J I..XOXOXXXXXXXXXXXXXXXXXXXXXXXXXXXXXXXXX.XXXXXXXXXXXXXXXXX.X.X.X.X.X.X.X.X.X.X.X.XXXXX.X.XXX.XXXXXXXXX.X.X.XXXXXXX.X.X.X.XXXXXXXXXXXXXXXOXOX].v.t . . . . . . . . . . . . . f <XuXdXdXdXdXdXdXdXdXdXdXdXdXdXdXdXdXdXdXdXdXdXdXdXdXdXdXdXdXdXdXdXdXdXdXdXdXdXdXdXdXdXdXdXdXdXdXdXdXdXdXdXdXdXdXdXdXdXdXdXdXdXdXdXdX",
"dXdXdXdXdXdXdXdXdXdXdXdXdXdXdXdXdXdXdXdXdXdXdXdXdXdXdXdXdXdXdXdXdXdXdXdXdXdXdXyX<Xf . . . . . . . i ` @X#X#X@X] i * . . . . . . . . . . . . =  .0XsXdXdXdXdXdXdXdXdXdXdXdXdXdXdXdXdXdXdXdXdXdXdXdXdXdXdXdXdXdXdXdXdXdXdXdXdXdXdXdXdXdXdXdXdXdXdXdXdXdXdXdXdXdXdXdXdXdXdXdXdXdXdXrX$.s . . . . . . # L P. XoXXX.X.X.X.X.X.X.X.X.XXXXXXXXXXXXXXXXXXXXXXXXXXXXXXXXX.X.X.X.X.X.X.X.XXX.XXXXX.X.X.X.XXXXXXXXX.X.X.X.X.X.X.X.X.XXXXXXXXXXXXX.X.X.XXXXXXX'.v.Z . . . . . . . . . . . . . f <XuXdXdXdXdXdXdXdXdXdXdXdXdXdXdXdXdXdXdXdXdXdXdXdXdXdXdXdXdXdXdXdXdXdXdXdXdXdXdXdXdXdXdXdXdXdXdXdXdXdXdXdXdXdXdXdXdXdXdXdXdXdXdXdXdX",
"dXdXdXdXdXdXdXdXdXdXdXdXdXdXdXdXdXdXdXdXdXdXdXdXdXdXdXdXdXdXdXdXdXdXdXdXdXdXdXyX<Xf . . . . . . . i ` @X#X#X@X] i . . . . . . . . . . . . . =  .qXdXdXdXdXdXdXdXdXdXdXdXdXdXdXdXdXdXdXdXdXdXdXdXdXdXdXdXdXdXdXdXdXdXdXdXdXdXdXdXdXdXdXdXdXdXdXdXdXdXdXdXdXdXdXdXdXdXdXdXdXdXdXdXtX$.s . . . . . . + K P. XoXXX.X.XXX.X.XXX.X.X.XXXXXXX.XXXXXXXXX.X.XXXXXXXXXXXXX.X.X.X.X.X.XXXXXXXXXXXXXXXXXXXXXXXXXXXXX.XXX.X.XXX.X.X.XXXXXXXXXXXXXXX.X.X.XXXXXXX'.v.u . . . . . . . . . . . . . f <XuXdXdXdXdXdXdXdXdXdXdXdXdXdXdXdXdXdXdXdXdXdXdXdXdXdXdXdXdXdXdXdXdXdXdXdXdXdXdXdXdXdXdXdXdXdXdXdXdXdXdXdXdXdXdXdXdXdXdXdXdXdXdXdXdX",
"dXdXdXdXdXdXdXdXdXdXdXdXdXdXdXdXdXdXdXdXdXdXdXdXdXdXdXdXdXdXdXdXdXdXdXdXdXdXdXyX<Xf . . . . . . . i ` @X#X#X@X] i . . . . . . . . . . . . . = o.qXdXdXdXdXdXdXdXdXdXdXdXdXdXdXdXdXdXdXdXdXdXdXdXdXdXdXdXdXdXdXdXdXdXdXdXdXdXdXdXdXdXdXdXdXdXdXdXdXdXdXdXdXdXdXdXdXdXdXdXdXdXdXdXtX$.p . . . . . . X K L. XoXXXXXXXXXXXXXXXXX.X.XXXXX.X.X.X.XXX.X.X.X.X.XXXXXXXXX.X.XXXXXXXXXXXXXXXXXXXXXXXXXXXXXXXXXXXXXXXXXXXXXXXXX.X.XXXXXXXXXXXXXXX.X.X.XXXoXXX'.v.t . . . . . . . . . . . . . f <XiXdXdXdXdXdXdXdXdXdXdXdXdXdXdXdXdXdXdXdXdXdXdXdXdXdXdXdXdXdXdXdXdXdXdXdXdXdXdXdXdXdXdXdXdXdXdXdXdXdXdXdXdXdXdXdXdXdXdXdXdXdXdXdXdX",
"dXdXdXdXdXdXdXdXdXdXdXdXdXdXdXdXdXdXdXdXdXdXdXdXdXdXdXdXdXdXdXdXdXdXdXdXdXdXdXuX<Xf . . . . . . . i ` @X#X#X@X] i * . . . . . . . . . . . . =  .0XpXdXdXsXdXdXdXdXdXdXdXdXdXdXsXsXdXdXdXdXdXdXdXdXdXdXdXdXdXdXdXdXdXdXdXdXdXdXdXdXdXdXdXdXdXdXdXdXdXdXdXsXsXsXsXsXsXdXdXdXdXdXdXeX$.s . . . . . . & T I. XoXXXXXXXXXXXXXXXXX.X.XXXXX.X.X.X.X.X.X.X.X.X.X.X.XXXXX.X.XXXXXXXXXXXXXXXXX.X.X.X.X.X.X.X.XXXXXXXXXXXXXXXXX.X.X.XXXXXXXXXXXXXXXXX.XXXXXXX'.B.Z X . . . . . . . . . . . X g <XtXdXdXdXsXdXdXdXdXdXdXsXsXdXdXdXdXdXdXdXdXdXdXdXdXdXdXdXdXdXdXdXdXdXdXdXdXdXdXdXdXdXdXdXdXdXdXdXdXdXdXdXdXdXdXdXdXdXdXdXdXdXdXdXdX",
"dXdXdXdXdXdXdXdXdXdXdXdXdXdXdXdXdXdXdXdXdXdXdXdXdXdXdXdXdXdXdXdXdXdXdXdXdXdXdXuX<Xf . . . . . . . i ` @X#X#X@X] ` x i i i i i i i < . . . . X [ <X0XwXwXqXqXqXqXqXqXqXqXqXqXqXqXqXeXuXsXdXdXdXdXdXdXdXdXdXdXdXdXdXdXdXdXdXdXdXdXdXdXdXdXdXdXdXdXdXiXtXwXqXqXqXqXqXqXqXqXqXqXwXqX7X@.P Z t t Z u u F l.!..XXXXXXXXXXXXXXXXXXXXX.XXX.X.X.X.X.X.X.X.X.XXXXXXX.X.X.XXXXXXXXXXX.XXXXXXXXX.X X[.].'.'.[.{..X.XXXXX.X.X.X.X.X.X.X.XXXXXXXXXXXXXXXXXXXXXXX[.L.! Z u u Z Z Z Z Z Z Z t t Z P n.8XqXwXqXqXqXqXqXqXqXqXqXqXwXtXpXdXdXdXdXdXdXdXdXdXdXdXdXdXdXdXdXdXdXdXdXdXdXdXdXdXdXdXdXdXdXdXdXdXdXdXdXdXdXdXdXdXdXdXdXdXdXdXdXdX",
"dXdXdXdXdXdXdXdXdXdXdXdXdXdXdXdXdXdXdXdXdXdXdXdXdXdXdXdXdXdXdXdXdXdXdXdXdXdXdXuX<Xf . . . . . . . i ` @X#X#X@X@X6.6.6.6.6.6.6.6.] x < . . .   p } o.+.+.O.O.O.O.+.+.+.+.O.O.o.o.o.$.8XuXdXdXdXdXdXdXdXdXdXdXdXdXdXdXdXdXdXdXdXdXdXdXdXdXdXdXdXdXsXwX2X#.o.o.O.O.+.+.+.+.O.o.+.+.O.X.x.v.N.v.v.v.v.B.I.'..XXXXX.XXXXXXXXXXXXXXXXXXXXX.X.X.X.X.X.XXX.XXXXX.X.X.X.XXXXXXXXX.X.XXXXXXXXX X'.W.R.K.K.E.(.}..XXXXX.X.X.X.X.X.X.X.XXXXX.X.X.X.XXXXXXXXXXX X_.L.B.v.v.v.v.v.v.v.v.v.v.N.v.x.X.+.O.o.O.O.+.+.+.+.O.O.o.o.#.3XeXsXdXdXdXdXdXdXdXdXdXdXdXdXdXdXdXdXdXdXdXdXdXdXdXdXdXdXdXdXdXdXdXdXdXdXdXdXdXdXdXdXdXdXdXdXdXdXdXdX",
"dXdXdXdXdXdXdXdXdXdXdXdXdXdXdXdXdXdXdXdXdXdXdXdXdXdXdXdXdXdXdXdXdXdXdXdXdXdXdXuX<Xf . . . . . . . i ` @X#X#X@X#X%X*X*X*X*X*X*X*X%X] i . . . . X = - - - - - - - - - - - - - - = - g >XeXdXdXdXdXdXdXdXdXdXdXdXdXdXdXdXdXdXdXdXdXdXdXdXdXdXdXdXdXpX8X .s = = - - - - - - - - - - l k.U.'.[.].'.'.'.].|..X.XXXXX.X.X.XXXXXXXXXXXXX.X.X.X.XXX.XXXXXXXXXXXXXXXXX.X.XXXXX.X.X.X.X.XXXXX.X{.~.H.C.M.M.D.E.[..XXXXXXXXXXXXXXXXXXXXXXXXX.X.X.X.X.X.XXXXXXX.X X[.'.'.'.'.'.'.'.'.'.'.].[._.P.) y - - - - - - - - - - = = s +.0XsXdXdXdXdXdXdXdXdXdXdXdXdXdXdXdXdXdXdXdXdXdXdXdXdXdXdXdXdXdXdXdXdXdXdXdXdXdXdXdXdXdXdXdXdXdXdXdXdX",
"dXdXdXdXdXdXdXdXdXdXdXdXdXdXdXdXdXdXdXdXdXdXdXdXdXdXdXdXdXdXdXdXdXdXdXdXdXdXdXuX<Xf . . . . . . . i ` @X#X@X#X#X*X-X:X:X:X:X:X:X*X] i . . . . . . . . . . . . . . . . . . . . . . p #.eXdXdXdXdXdXdXdXdXdXdXdXdXdXdXdXdXdXdXdXdXdXdXdXdXdXdXdXdXpX3X[ . . . . . . . . . . . . . 8 j._.XXOXXXXXXXXXXXXXXX.X.X.X.X.X.X.XXXXXXXXX.XXX.X.X.XXXXXXXXXXXXXXXXXXX.X.X.XXXXXXX.X.X.X.XXXXX.X[.E.Z.f.s.f.C.T.'..XXXXXXXXXXXXXXXXXXXXXXXXX.X.X.X.X.XXXXXXXXXXXXXXXXXXXXXXXXXXXXXXXXXXXoXOXXX!.~ 4 . . . . . . . . . . . . X  .8XpXdXdXdXdXdXdXdXdXdXdXdXdXdXdXdXdXdXdXdXdXdXdXdXdXdXdXdXdXdXdXdXdXdXdXdXdXdXdXdXdXdXdXdXdXdXdXdXdX",
"dXdXdXdXdXdXdXdXdXdXdXdXdXdXdXdXdXdXdXdXdXdXdXdXdXdXdXdXdXdXdXdXdXdXdXdXdXdXdXuX<Xf . . . . . . . i ` @X@X@X@X#X*X-X:X:X:X:X:X:X*X6.i . . . . . . . . . . . . . . . . . . . . . . - #.wXdXdXdXdXdXdXdXdXdXdXdXdXdXdXdXdXdXdXdXdXdXdXdXdXdXdXdXdXpX3X[ . . . . . . . . . . . . . 7 j._.oXOXOXXXXXOXOXXXXXXXXXXXXX.X.XXXXXXXXX.X.XXXXX.X.X.X.XXXXXXXXX.X.XXXXXXXXXXX.X.X.X.XXX.XXXXX.X[.W.Z.f.s.s.C.R.]..XXXXXXXXXXXXXXXXXXXXXXXXX.X.XXXXX.X.X.X.X.XXXXXXXOXOXoXoXoXoXXXXXoXoXOXOXXX!.~ 4 . . . . . . . . . . . . X } 8XpXdXdXdXdXdXdXdXdXdXdXdXdXdXdXdXdXdXdXdXdXdXdXdXdXdXdXdXdXdXdXdXdXdXdXdXdXdXdXdXdXdXdXdXdXdXdXdXdX",
"dXdXdXdXdXdXdXdXdXdXdXdXdXdXdXdXdXdXdXdXdXdXdXdXdXdXdXdXdXdXdXdXdXdXdXdXdXdXdXuX<Xf . . . . . . . i ` @X@X@X@X#X*X-X:X:X;X:X:X:X*X] i . . . . . . . . . . . . . . . . . . . . . . p #.eXdXdXdXdXdXdXdXdXdXdXdXdXdXdXdXdXdXdXdXdXdXdXdXdXdXdXdXdXpX7X} X . . . . . . . . . . . . 8 j._.XXOXXXXXXXXXXXXXXX.XXXXXXX.X.XXXXXXXXX.X.XXXXX.XXX.X.XXXXXXXXXXX.XXXXXXXXX.X.X.X.X.XXX.XXXXX.X[.W.A.f.s.f.C.R.]..XXXXX.X.X.X.XXXXXXXXXXXXX.X.X.XXX.X.X.X.X.X.XXXXXXXXXXXXXXXXXXXXXXXXXXXOX.X!.~ 8 . . . . . . . . . . . . =  .8XpXdXdXdXdXdXdXdXdXdXdXdXdXdXdXdXdXdXdXdXdXdXdXdXdXdXdXdXdXdXdXdXdXdXdXdXdXdXdXdXdXdXdXdXdXdXdXdXdX",
"dXdXdXdXdXdXdXdXdXdXdXdXdXdXdXdXdXdXdXdXdXdXdXdXdXdXdXdXdXdXdXdXdXdXdXdXdXdXdXuX<Xf . . . . . . . i ` 6.@X@X@X#X*X-X;X:X;X;X:X:X*X] i . . . . . . . . . . . . . . . . . . . . . . p #.eXdXdXdXdXdXdXdXdXdXdXdXdXdXdXdXdXdXdXdXdXdXdXdXdXdXdXdXdXpX7X} X . . . . . . . . . . . . 8 _ _..XoXXX.X.X.XXX.X.X.X.XXXXX.XXXXXXXXX.X.X.XXXXXXXXX.X.X.XXXXXXX.X.X.X.XXXXXXXXXXXXXXXXXXXXXXXXX{.W.A.f.s.f.C.R.]..XXXXX.X.X.X.X.X.XXXXXXXXX.X.XXXXXXXXX.XXX.X.XXXXXXXXX.X.X.X.X.X.X.X.XXXoX.X!.) 5 . . . . . . . . . . . . =  .8XsXdXdXdXdXdXdXdXdXdXdXdXdXdXdXdXdXdXdXdXdXdXdXdXdXdXdXdXdXdXdXdXdXdXdXdXdXdXdXdXdXdXdXdXdXdXdXdXdX",
"dXdXdXdXdXdXdXdXdXdXdXdXdXdXdXdXdXdXdXdXdXdXdXdXdXdXdXdXdXdXdXdXdXdXdXdXdXdXdXuX<Xf . . . . . . . i ` ] @X@X@X#X*X-X;X:X;X;X:X:X*X] i . . . . . . . . . . . . . . . . . . . . . . p #.eXdXdXdXdXdXdXdXdXdXdXdXdXdXdXdXdXdXdXdXdXdXdXdXdXdXdXdXdXsX7X} X . . . . . . . . . . . . 8 _ _..XoXXX.X.X.X.X.X.X.X.XXXXX.X.XXXXX.X.X.X.XXXXXXXXX.X.XXXXXXXXX.X.X.X.X.XXXXXXXXXXXoXoXoXOXOXXX}.~.D.f.s.f.C.R.]..XXXXX.X.X.X.X.X.X.X.XXXXX.X.XXXXXXXXXXXXX.X.X.XXXXXXX.X.X.X.X.X.X.X.XXXOX.XQ.! & . . . . . . . . . . . . =  .0XsXdXdXdXdXdXdXdXdXdXdXdXdXdXdXdXdXdXdXdXdXdXdXdXdXdXdXdXdXdXdXdXdXdXdXdXdXdXdXdXdXdXdXdXdXdXdXdXdX",
"dXdXdXdXdXdXdXdXdXdXdXdXdXdXdXdXdXdXdXdXdXdXdXdXdXdXdXdXdXdXdXdXdXdXdXdXdXdXdXuX<Xf . . . . . . . i ` @X@X@X@X#X*X-X;X:X;X;X:X;X*X] i . . . . . . . . . . . . . . . . . . . . . . p #.eXdXdXdXdXdXdXdXdXdXdXdXdXdXdXdXdXdXdXdXdXdXdXdXdXdXdXdXdXpX7X} X . . . . . . . . . . . . 8 _ _..XoXXX.X.XXXXXXXXX.X.XXXXX.X.X.X.XXXXXXXXXXXXXXXXX.X.X.X.XXXXX.X.X.XXXXXXX.XXXXXXXXXXXXXXXoXXX{.W.A.f.s.f.C.R.]..XXXXX.XXXXX.X.X.X.X.X.X.X.XXXXXXXXXXXXXXXXXXXXX.X.X.X.X.X.XXXXX.X.X.XXXXX.X!.~ 5 . . . . . . . . . . . . =  .8XsXdXdXdXdXdXdXdXdXdXdXdXdXdXdXdXdXdXdXdXdXdXdXdXdXdXdXdXdXdXdXdXdXdXdXdXdXdXdXdXdXdXdXdXdXdXdXdXdX",
"dXdXdXdXdXdXdXdXdXdXdXdXdXdXdXdXdXdXdXdXdXdXdXdXdXdXdXdXdXdXdXdXdXdXdXdXdXdXdXuX<Xf . . . . . . . i ] @X#X#X#X%X*X-X;X;X;X;X:X;X*X7.s O O O O o   . . . . . . . . . . . . . . . . p #.eXdXdXdXdXdXdXdXdXdXdXdXdXdXdXdXdXdXdXdXdXpXiXuXuXuXuXiXiXwX>Xg X . . . . . . X # 5 5 & 8 F v._..XXXXXXXXXXXXXXXXX.X.XXXXX.X.X.X.XXXXXXXXXXXXXXXXX.X.X.X.XXXXX.X.XXXXXXXXX.X X[._._._._._._._.!.K.C.f.f.f.C.R.'..XXXXXXXXXXXXX.X.X.X.X.X.X.X.XXXXXXXXXXXXXXXXX.X.X.XXX.X.XXXXXXXXX.X.XXXXX.X_.l.Z 5 & 5 5 8 5 % # . . . . X } 2XeXiXuXuXuXyXuXiXpXdXdXdXdXdXdXdXdXdXdXdXdXdXdXdXdXdXdXdXdXdXdXdXdXdXdXdXdXdXdXdXdXdXdXdXdXdXdXdXdX",
"dXdXdXdXdXdXdXdXdXdXdXdXdXdXdXdXdXdXdXdXdXdXdXdXdXdXdXdXdXdXdXdXdXdXdXdXdXdXdXuX<Xf . . . . . . . i ] %X%X%X%X*X*X-X;X;X;X;X:X;X*X7.n h h h h 1 O . . . . . . . . . . . . . . . . p #.wXdXdXdXdXdXdXdXdXdXdXdXdXdXdXdXdXdXdXdXpXwX3X<X>X<X<X<X<X$. .p . . . . . . . % Z T ) ~ ) l.I.]..XXXXXXXXXXXXXXX.X.X.X.X.X.X.X.X.XXXXX.X.XXXXXXXXX.X.XXXXXXX.X.X.XXXXXXXXX.X_.P.v.l.l.l.l.l.l.l.g.g.f.f.f.C.R.'..XXXXX.X.X.X.X.X.X.XXXXXXXXXXXXXXX.XXX.X.X.X.X.X.XXXXXXXXXXXXXXXXXXXXXXXXX.X'.L.l.) ! ~ ) ~ ~ T Z $ . . . X s  .>X<X<X<X<X>X<X7XeXpXdXdXdXdXdXdXdXdXdXdXdXdXdXdXdXdXdXdXdXdXdXdXdXdXdXdXdXdXdXdXdXdXdXdXdXdXdXdXdX",
"dXdXdXdXdXdXdXdXdXdXdXdXdXdXdXdXdXdXdXdXdXdXdXdXdXdXdXdXdXdXdXdXdXdXdXdXdXdXdXuX<Xf . . . . . . . ` @X*X-X-X*X-X-X;X;X;X;X;X:X;X*X8.-.%.&.&.%.k : . . . . . . . . . . . . . . . . p #.wXdXdXdXdXdXdXdXdXdXdXdXdXdXdXdXdXdXdXdXuX3X .f s f f g g s p X . . . . . . . q ) L.!./.!._.]. X.XXXXXXXXXXXXXXX.X.X.X.X.XXXXXXXXXXXXX.X.X.X.XXXXX.X.XXXXX.X.X.X.XXXXXXXoX XQ.j.A q q q q q q A Y i.f.f.f.C.R.]..XXXXX.X.XXXXX.X.XXX.X.XXXXXXXXXXX.X.X.X.X.X.X.X.XXXXXXXXXXXXXXXXXXXXXXXXX.X X'._.!.Q.!.!./.!.F.~ q . . . . = p f g g f f s f o.7XiXdXdXdXdXdXdXdXdXdXdXdXdXdXdXdXdXdXdXdXdXdXdXdXdXdXdXdXdXdXdXdXdXdXdXdXdXdXdXdX",
"dXdXdXdXdXdXdXdXdXdXdXdXdXdXdXdXdXdXdXdXdXdXdXdXdXdXdXdXdXdXdXdXdXdXdXdXdXdXdXyX<Xf . . . . . . * ` $X*X:X:X;X;X;X;X;X;X;X;X:X;X=X8.9.*.2.2.=.v , . . . . . . . . . . . . . . . . p #.eXdXdXdXdXdXdXdXdXdXdXdXdXdXdXdXdXdXdXdXtX>.s . . . . . . . . . . . . . . . . t v._.XXXX.X.X.XXXXX.X.XXX.X.X.X.X.XXXXX.X.XXXXXXXXX.X.X.X.X.X.X.X.XXXXXXXXX.XXXXXXX.X.XXXXX}.P.L $ . . . . . . % C ^ f.h.f.C.R.]..XXXXXXXXXXXXXXX.X.X.XXXXXXX.XXXXXXXXX.X.X.XXXXX.X.X.XXXXXXXXXXXXXXX.X.X.XXX.X.X.X.X.X.X.XXX.X_.v.t . . . . . . . . . . . . . g <XuXdXdXdXdXdXdXdXdXdXdXdXdXdXdXdXdXdXdXdXdXdXdXdXdXdXdXdXdXdXdXdXdXdXdXdXdXdXdXdX",
"dXdXdXdXdXdXdXdXdXdXdXdXdXdXdXdXdXdXdXdXdXdXdXdXdXdXdXdXdXdXdXdXdXdXdXdXdXdXdXyX<Xf . . . . . . * ` $X-X:X:X:X:X:X:X:X:X:X:X:X:X*X8.q.4.3.3.=.v , . . . . . . . . . . . . . . . . p #.eXdXdXdXdXdXdXdXdXdXdXdXdXdXdXdXdXdXdXdXtX$.p . . . . . . . . . . . . . . . . t v.[.OXOXOXXXXXXXXX.X.X.X.X.X.X.X.XXXXX.X.XXXXXXXXX.X.X.X.X.X.X.X.XXXXXXXXX.XXXXXXX.X.XXXXX}.L.J X . . . . . . # Z ^ f.h.f.C.R.]..XoXXXXXXXXXXXXXXXXX.XXXXX.X.XXX.XXXXX.X.XXXXXXXXX.X.XXXXXXXXXXXXXXXXX.X.XXXXXXXoXoXoXoXOXOXOX[.N.t . . . . . . . . . . . . . f <XuXdXdXdXdXdXdXdXdXdXdXdXdXdXdXdXdXdXdXdXdXdXdXdXdXdXdXdXdXdXdXdXdXdXdXdXdXdXdXdX",
"dXdXdXdXdXdXdXdXdXdXdXdXdXdXdXdXdXdXdXdXdXdXdXdXdXdXdXdXdXdXdXdXdXdXdXdXdXdXdXyX<Xf . . . . . . * ` $X-X:X:X;X;X:X:X:X:X:X:X:X:X*X8.q.4.3.4.=.v , . . . . . . . . . . . . . . . . p #.eXdXdXdXdXdXdXdXdXdXdXdXdXdXdXdXdXdXdXdXtX$.s . . . . . . . . . . . . . . . . t v.].oXOXXXXXXXXXXXXXXX.X.X.X.XXXXXXXXX.X.X.X.XXXXXXXXXXXXXXXXX.X.XXXXX.X.X.X.XXXXXXXXXXXXX}.L.J + . . . . . . # C ^ f.f.f.C.R.]..XoXXXXXXXXXXXXXXXXX.X.X.X.X.X.X.XXXXXXX.XXXXXXXXX.X.X.XXXXX.XXXXX.X.X.X.XXXXXXXXXXXXXXXXXOXoX].v.t . . . . . . . . . . . . . f <XuXdXdXdXdXdXdXdXdXdXdXdXdXdXdXdXdXdXdXdXdXdXdXdXdXdXdXdXdXdXdXdXdXdXdXdXdXdXdXdX",
"dXdXdXdXdXdXdXdXdXdXdXdXdXdXdXdXdXdXdXdXdXdXdXdXdXdXdXdXdXdXdXdXdXdXdXdXdXdXdXuX<Xf . . . . . . . ` $X-X:X:X;X;X;X*X*X*X*X-X;X*X=X8.9.2.2.2.=.%.h O     o o       . . . . . . . . p #.eXdXdXdXdXdXdXdXdXdXdXdXdXdXdXsXpXpXpXiXqX#.a . . . . . . . . X # # # # # X % F B.].XXXXXX.X.XXXXXXXXX.X.XXXXXXXXXXXXX.X.X.X.XXXXXXXXXXXXXXXXXXXXX.X.X.X.X.X.XXXXXXX.XXXXX}.L.J # . . . . . . $ C ^ f.f.f.C.K.). X.X.X X X.X.X.X.X.XXXXXXX.X.X.X.XXXXXXXXXXXXXXXXX.X.X.X.X.X.XXXXXXX.X.X.XXXXXXX.X.X.XXXXXXXXX].B.F $ X + # X . . . . . . . . f $.wXpXsXpXpXpXpXpXpXpXpXpXiXpXsXsXdXdXdXdXdXdXdXdXdXdXdXdXdXdXdXdXdXdXdXdXdXdXdXdX",
"dXdXdXdXdXdXdXdXdXdXdXdXdXdXdXdXdXdXdXdXdXdXdXdXdXdXdXdXdXdXdXdXdXdXdXdXdXdXdXuX<Xf . . . . . . . ` $X-X:X:X;X*X=X&X&X&X&X&X&X&X8.0.9.4.2.2.*.%.k h h h h h h h , O   . . . . . . p #.wXdXdXdXdXdXdXdXdXdXdXdXdXdXiXwX8X7X7X3X>X} - . . . . . . . 4 Z J T T L K J T l.I.|.XXXXXXXXXXXXXXXXXX.X.X.XXXXXXXXXXXXXXXXXXX.XXXXXXXXXXXXXXXXX.X.X.XXXXXXXXXXXXXXXXXXXXX XP.L # . . . . . . $ C ^ f.h.f.M.H.R.^.(.(.(.(.^.(.'.}..XXXXX.X.X.X.X.XXXXXXXXXXXXXXXXX.X.X.X.X.X.XXXXXXXXXXXXX.X.X.X.X.X.XXXXXXXXX|.I.l.T K L K Z & . . . . . . . p  .>X7X7X7X7X7X3X3X3X3X3X3X3X7XqXiXdXdXdXdXdXdXdXdXdXdXdXdXdXdXdXdXdXdXdXdXdXdXdXdX",
"dXdXdXdXdXdXdXdXdXdXdXdXdXdXdXdXdXdXdXdXdXdXdXdXdXdXdXdXdXdXdXdXdXdXdXdXdXdXdXuX<Xf . . . . . . . ` $X-X:X:X;X=X&X0.q.q.0.0.0.q.q.9.,.4.2.2.*.=.&.%.%.%.%.%.%.%.k 1   . . . . . . p #.wXdXdXdXdXdXdXdXdXdXdXdXdXdXtX2X .[ [ } g p X . . . . . . X Z / F.I.I.P.P.L.P.Q.'..XXXXXXXXXXXXXXXXXXX.X.XXXXXXXXXXXXXXXXX.XXX.X.XXXXXXXXXXXXX.X.X.X.XXXXXXXXX.XXXXX.XXXXX XP.L # . . . . . . $ C ^ f.h.f.h.C.D.H.H.H.H.H.H.J.W.'..XXXXX.X.X.X.X.XXXXXXXXXXXXXXXXX.X.X.X.X.X.XXXXXXXXX.XXX.X.X.X.XXX.XXXXXXXXX X'.!.I.I.I.S._ u X . . . . . . X p g } } } } } } } { { { [ [  .>XwXsXdXdXdXdXdXdXdXdXdXdXdXdXdXdXdXdXdXdXdXdXdXdXdX",
"dXdXdXdXdXdXdXdXdXdXdXdXdXdXdXdXdXdXdXdXdXdXdXdXdXdXdXdXdXdXdXdXdXdXdXdXdXdXdXuX<Xf . . . . . . . ` $X*X:X:X;X=X0.9.*.4.*.,.,.,.*.*.4.4.2.2.2.*.*.*.*.*.=.*.*.=.%.h o . . . . . . p #.wXdXdXdXdXdXdXdXdXdXdXdXdXdXwX#.s X . X X . . . . . . . . # J F.]..X.X X X X X X.X.X.XXX.X.XXX.X.XXX.X.X.XXXXXXXXXXXXX.X.X.X.X.X.X.X.XXXXXXXXXXXXX.X.X.XXX.X.X.X.XXX.XXXoX XP.L # . . . . . . $ C ^ f.h.f.f.g.h.h.h.h.h.h.g.M.J.(. XXXXX.X.XXX.X.XXXXX.XXXXX.XXXXX.X.XXX.X.X.X.XXX.X.X.X.XXX.XXXXXXXXXXXXX.X.X.X.X.X X.X.X].S.F + . . . . . . . . X X X X X X X X X X X . . -  .8XpXdXdXdXdXdXdXdXdXdXdXdXdXdXdXdXdXdXdXdXdXdXdXdX",
"dXdXdXdXdXdXdXdXdXdXdXdXdXdXdXdXdXdXdXdXdXdXdXdXdXdXdXdXdXdXdXdXdXdXdXdXdXdXdXuX<Xf . . . . . . . ` $X*X:X:X;X=X0.,.2.3.2.2.2.2.2.2.4.4.2.2.2.4.4.4.4.4.4.4.4.2.%.h O . . . . . . p #.wXdXdXdXdXdXdXdXdXdXdXdXdXsXqXo.= . . . . . . . . . . . . # T I..XOXOXOXoXXXXXXXXXXX.X.X.X.X.X.X.X.X.X.X.X.XXXXXXXXX.X.X.X.X.X.X.X.XXXXXXXXXXXXXXX.X.XXXXX.X.X.X.XXXXXXXXX XP.L # . . . . . . $ C ^ f.h.f.f.f.f.f.f.f.f.f.s.g.H.(. XXXXX.XXXXX.XXXXXXX.X.X.X.XXXXXXX.XXXXX.X.XXXXX.X.X.X.XXXXXXXXXXXXXXXXX.X.XXXXXXXOXOXOX.XL.J + . . . . . . . . . . . . . . . . . . . . . X } 8XpXdXdXdXdXdXdXdXdXdXdXdXdXdXdXdXdXdXdXdXdXdXdXdX",
"dXdXdXdXdXdXdXdXdXdXdXdXdXdXdXdXdXdXdXdXdXdXdXdXdXdXdXdXdXdXdXdXdXdXdXdXdXdXdXuX<Xf . . . . . . * ` $X*X:X:X;X=X0.,.2.2.2.2.2.2.2.2.2.2.2.2.2.2.4.4.4.4.4.4.4.2.%.h o . . . . . . p #.eXdXdXdXdXdXdXdXdXdXdXdXdXsXqXo.= . . . . . . . . . . . . # T I..XOXOXXXXXXXXXXXXXXX.X.XXXXXXX.X.X.X.X.X.X.X.XXXXXXXXX.X.X.X.XXXXX.X.X.X.X.X.X.XXXXXXX.XXX.X.XXXXXXXXXXXXX}.L.J # . . . . . . $ C ^ f.h.f.f.f.f.f.f.f.f.f.s.h.H.^. XXXXXXXXXXXXXXX.X.X.X.X.X.X.X.XXXXXXXXX.X.X.X.X.XXXXXXXXXXXXXXXXXXXXXXX.X.XXXXXXXXXOXOX}.F.F X . . . . . . . . . . . . . . . . . . . . . X  .8XpXdXdXdXdXdXdXdXdXdXdXdXdXdXdXdXdXdXdXdXdXdXdXdX",
"dXdXdXdXdXdXdXdXdXdXdXdXdXdXdXdXdXdXdXdXdXdXdXdXdXdXdXdXdXdXdXdXdXdXdXdXdXdXdXuX<Xf . . . . . . * ` $X-X:X:X;X=X0.,.2.2.2.4.2.2.2.2.4.2.2.2.2.2.2.2.2.2.2.2.4.*.%.h o . . . . . . p #.eXdXdXdXdXdXdXdXdXdXdXdXdXsXqXO.- . . . . . . . . . . . . # L P. XXXXXXX.X.X.X.X.X.X.XXXXXXXXX.X.X.X.X.X.X.X.XXXXXXXXX.X.X.X.X.XXX.X.X.X.X.X.X.X.XXX.X.XXXXX.XXXXX.X.XXXXX}.L.J # . . . . . . $ C ^ f.h.f.f.f.f.f.f.f.f.f.f.h.H.(. XXXXXXXXXXXXXXX.X.X.X.X.X.X.X.XXXXXXXXX.X.X.X.X.X.XXXXXXX.XXXXXXXXXXXXX.X.XXXXX.XXXXXXX{.S.F X . . . . . . . . . . . . . . . . . . . . . =  .8XpXdXdXdXdXdXdXdXdXdXdXdXdXdXdXdXdXdXdXdXdXdXdXdX",
"dXdXdXdXdXdXdXdXdXdXdXdXdXdXdXdXdXdXdXdXdXdXdXdXdXdXdXdXdXdXdXdXdXdXdXdXdXdXdXuX<Xf . . . . . . * ` $X-X:X:X;X=X0.,.2.2.2.2.2.2.2.2.2.2.2.2.2.2.4.4.4.4.4.4.4.2.%.h o . . . . . . p #.eXdXdXdXdXdXdXdXdXdXdXdXdXdXwX+.- . . . . . . . . . . . . # K P. XXXXX.X.X.X.XXXXXXXXXXXXXXXXXXXXX.X.X.X.X.X.X.XXXXXXXXX.X.X.XXXXXXXXX.XXXXX.X.XXXXXXX.XXXXXXXXXXXXXXXOXOX.XI.J # . . . . . . $ C ^ h.m.h.h.h.f.f.f.f.f.f.f.h.H.(..XXXXXXXXX.XXXXXXX.XXXXXXXXX.XXXXXXX.X.X.XXX.X.XXXXXXXXX.X.X.X.XXX.XXXXXXXXXXXXX.X.XXXXX[.S.F X . . . . . . . . . . . . . . . . . . . . . =  .8XsXdXdXdXdXdXdXdXdXdXdXdXdXdXdXdXdXdXdXdXdXdXdXdX",
"dXdXdXdXdXdXdXdXdXdXdXdXdXdXdXdXdXdXdXdXdXdXdXdXdXdXdXdXdXdXdXdXdXdXdXdXdXdXdXuX<Xf . . . . . . * ` $X-X:X:X;X=X0.,.2.2.2.2.2.2.2.2.2.2.2.2.2.4.4.4.4.4.4.4.4.2.%.h o . . . . . . p $.eXdXdXdXdXdXdXdXdXdXdXdXdXdXwX+.- . . . . . . . . . . . . X K L. XXXXX.X.X.X.XXXXXXXXXXXXXXXXXXXXXXXXXXXXX.X.X.X.XXXXX.X.X.X.XXXXXXXXXXXXXXX.X.XXXXXXX.XXXXXoXOXOXoXXXOXOX.XI.L # . . . . . . $ D / h.m.m.h.h.g.f.f.f.f.f.f.h.H.(..XoXoXXXXXXXXXXXXXXXXXXXXXXXXXXXXX.X.X.XXXXX.XXXXXXXXXXX.X.X.X.X.X.XXXXXXXXXXXXX.X.XXXXX{.S.F . . . . . . . . . . . . . . . . . . . . . . =  .0XsXdXdXdXdXdXdXdXdXdXdXdXdXdXdXdXdXdXdXdXdXdXdXdX",
"dXdXdXdXdXdXdXdXdXdXdXdXdXdXdXdXdXdXdXdXdXdXdXdXdXdXdXdXdXdXdXdXdXdXdXdXdXdXdXuX<Xf . . . . . . . ` $X*X:X:X;X=X0.,.2.2.2.2.2.2.2.2.2.2.2.2.2.2.*.*.*.*.*.*.2.=.%.h o . . . . . . p #.wXsXdXdXsXdXdXsXsXsXsXdXdXsXqXo.- . . . . . . . . . . . . & T I. XXXXXXXXXXXXXXX.X.X.X.X.X.X.X.XXXXXXXXXXX.X.X.X.XXXXXXXXX.X.XXXXXXX.X.X.X.XXXXXXXXXXX.X.X.X.X.X.X X X.X.X{.L.K # . . . . . . # V Q s.f.f.f.f.f.f.f.f.f.f.f.h.H.^. X.X.X.X.X.X.X.XXX.X.X.X.XXXXXXXXXXX.X.XXXXXXXXXXXXXXX.X.X.X.X.X.X.X.XXXXXXXXXXX.X.XXXXX{.F.K $ . . . . . . . . . . . . . . . . . . . . . @  .7XiXdXdXsXdXsXdXdXdXdXdXdXdXdXdXdXdXdXdXdXdXdXdXdX",
"dXdXdXdXdXdXdXdXdXdXdXdXdXdXdXdXdXdXdXdXdXdXdXdXdXdXdXdXdXdXdXdXdXdXdXdXdXdXdXuX<Xf . . . . . . . x 7.&X=X=X=X8.0.,.2.2.2.2.2.2.2.2.2.2.2.2.*.=.&.%.%.%.%.%.%.%.k 1   . . . . . . -  .2XqXwXqXqXqXqXqXqXqXqXwXwXqX<X} = . . . X 5 q Z Z Z u t t F l.!..XXXXX.XXXXX.X.X}.[.'.'.].[.}..XXXXXXXXXXXXX.X.X.XXXXXXXXXXX.XXXXX.X.X.X.XXXXXXXXXXXXX.X.X]./.Q.U.I.I.Q.Q.P.l.A + . . . . . . + e H R Q R ~ i.s.f.f.f.f.f.f.h.D.E.).].].].[. X.XXXXX.X.X.X.X.XXXXXXXXX.X.XXXXXXXXXXXXXXXXX.X.X.X.X.X.X.X.XXXXXXXXX.X.XXXXX XQ._ F u u Z Z Z Z Z Z Z Z Z Z Z Z Z q 4 X . . . X g $.0XwXwXqXqXqXwXeXiXsXdXdXdXdXdXdXdXdXdXdXdXdXdXdX",
"dXdXdXdXdXdXdXdXdXdXdXdXdXdXdXdXdXdXdXdXdXdXdXdXdXdXdXdXdXdXdXdXdXdXdXdXdXdXdXuX<Xf . . . . . . . s n 8.0.0.0.0.9.,.2.2.2.2.2.2.2.2.2.2.2.2.*.%.v h h h h h h h 1 O   . . . . . . @ f  .o.+.+.O.+.+.+.+.+.+.+.+.o.} s X . . . $ A _ v.B.v.v.v.v.S.U.'..XXXXXXXXXXX.X}.).E.K.K.R.W.`. XXXXXXX.X.XXXXX.X.XXXXX.XXXXXXXXXXXXXXX.X.XXXXX.XXXXXXXXX|.Q.c.W T T W W W T A 8 X . . . . . . . $ e r r r C U i.f.h.h.f.f.f.h.C.H.K.R.R.R.!.'. XXXXXXX.X.X.X.X.X.XXXXXXX.X.X.XXXXXXXXXXXXXXXXX.X.X.X.XXXXXXXXXXXXX.X.XXXXX.X_.I.B.v.v.v.v.v.v.v.v.v.v.v.v.v.B.v.j.J 4 . . . . p [ o.+.+.O.o.o.+.<XqXpXdXdXdXdXdXdXdXdXdXdXdXdXdXdX",
"dXdXdXdXdXdXdXdXdXdXdXdXdXdXdXdXdXdXdXdXdXdXdXdXdXdXdXdXdXdXdXdXdXdXdXdXdXdXdXuX<Xf . . . . . .   1 M ,.9.9.,.,.,.*.2.2.2.2.2.2.2.2.2.2.4.4.=.%.h O o o O O O o     . . . . . . . . X - - - - - - - - - - - - - - = X . . . . 8 ! I.'.[.].'.'.'.].|. X.XXX.XXXXXXX.X[.W.D.M.h.C.H.~.{.XXXXXX.X.XXXXX.X.XXX.X.XXXXXXXXXXXXX.X.X.XXX.X.X.X.XXXXX].S.J 5 # $ % % % & # X . . . . . . . . . X X X X 4 C Q f.h.h.f.f.f.f.h.M.C.C.M.C.H.^.}.XXXXXXXXXX.X.X.X.XXXXX.X.X.X.X.XXXXXXXXX.XXXXXXX.X.X.X.XXXXXXX.X.X.X.XXXXX.X.X|.]._.'.'.'.'.'.'.'.'.'.'.'.'.[.].Q.j.q . . . . X = - - - - - = p } 2XuXdXdXdXdXdXdXdXdXdXdXdXdXdXdX",
"dXdXdXdXdXdXdXdXdXdXdXdXdXdXdXdXdXdXdXdXdXdXdXdXdXdXdXdXdXdXdXdXdXdXdXdXdXdXdXuX<Xf . . . . . .   h %.*.4.4.2.2.2.2.2.2.2.2.2.2.2.2.2.4.4.4.=.v , . . . . . . . . . . . . . . . . . . . . . . . . . . . . . . . . . . . . . . 8 j._.XXOXXXXXXXXXXXXXXXXXXXXXXXXXXX.X].R.C.f.s.f.Z.W.[..XXXXX.X.XXXXXXXXXXX.X.X.X.XXXXXXXXXXXXXXXXXXXXXXXXXOXXX'.v.u . . . . . . . . . . . . . . . . . . . . . . X t Q f.M.h.h.h.h.f.f.f.f.f.s.f.D.!.}.XXoXXXXXXXXXXXXXXX.XXXXXXX.X.XXXXXXXXX.X.XXXXX.X.X.X.XXXXX.X.X.X.XXXXXXXXXXXXXXXXXXXXXXXXXXXXXXXXXXXXXXXXXXXOXXX].v.u . . . . . . . . . . . . . f <XuXdXdXdXdXdXdXdXdXdXdXdXdXdXdX",
"dXdXdXdXdXdXdXdXdXdXdXdXdXdXdXdXdXdXdXdXdXdXdXdXdXdXdXdXdXdXdXdXdXdXdXdXdXdXdXuX<Xf . . . . . .   h %.2.3.3.2.2.2.2.2.2.2.2.2.2.2.4.4.4.3.4.=.v , . . . . . . . . . . . . . . . . . . . . . . . . . . . . . . . . . . . . . . 8 _ _.XXOXOXoXoXXXoXXXXXXXXXXXXXoXoXXX].R.M.s.s.f.Z.W.[..XXXXX.XXXXXXXXXXXXX.X.XXXXXXXXXXXOXOXOXOXXXXXXXXXOXOXOX].B.u . . . . . . . . . . . . . . . . . . . . . . X t Q f.C.M.h.h.h.h.h.f.f.f.s.f.D.~. XXXoXoXXXXXXXXXXXXX.X.X.XXX.X.XXXXXXXXX.X.XXXXX.X.X.X.XXXXX.X.X.X.XXXXXXXXXXXXXXXXXXXXXXXXXXXXXXXXXXXXXXXXXOXOXOX[.v.u . . . . . . . . . . . . . s <XuXdXdXdXdXdXdXdXdXdXdXdXdXdXdX",
"dXdXdXdXdXdXdXdXdXdXdXdXdXdXdXdXdXdXdXdXdXdXdXdXdXdXdXdXdXdXdXdXdXdXdXdXdXdXdXyX<Xf . . . . . .   h %.=.4.4.2.2.2.2.2.2.2.2.2.2.2.2.2.2.2.2.=.v , . . . . . . . . . . . . . . . . . . . . . . . . . . . . . . . . . . . . . . 8 j._.XXOXXXXXXXXXXXXX.X.X.X.X.XXXXX.X].R.C.f.s.f.A.W.[..XXXXXXXXX.X.XXX.X.XXXXXXX.XXX.X.X.X.XXXXX.X.X.X.XXXXXXX_.v.u . . . . . . . . . . . . . . . . . . . . . . + t Q f.h.h.f.f.f.f.f.f.f.f.f.f.D.!.}.XXXXXXXX.XXXXXXXXX.X.X.X.X.XXXXXXXXX.X.X.XXXXXXX.X.XXXXXXXXXXX.X.XXXXX.X.X.X.XXXXXXXXXXXXXXXXXXXXXXXXXXXXXXXoXXX'.v.Z . . . . . . . . . . . . . f <XuXdXdXdXdXdXdXdXdXdXdXdXdXdXdX",
"dXdXdXdXdXdXdXdXdXdXdXdXdXdXdXdXdXdXdXdXdXdXdXdXdXdXdXdXdXdXdXdXdXdXdXdXdXdXdXyX<Xf . . . . . .   , k %.&.&.&.&.=.*.2.2.2.2.2.2.*.=.&.&.&.&.%.k : . . . . . . . . X = - - - - - - = X . . . . . . . . . . . . . . X $ 8 8 8 8 F v._..XXXXX.XXXXX.X.X}.[.[.[.[.{.}.[.^.J.M.f.s.f.A.W.[..XXXXXXXXX.X.X.X.X.XXXXX.X X'._././._._._._._._._._._._.I._ q . . . . . . . . + # $ $ $ $ $ $ # X . . . . X e H ~ / ^ ^ ^ ^ ^ i.s.f.f.f.f.A.R.`.[.{.[.[.[.[.{. X.X.XXXXX.X.X.XXXXX.X.X.X.XXXXX.X.XXXXXXXXXXXXX.X.XXXXX.X.X.X.XXXXXXX.X.X.X.XXX.XXXXXXX.X.XXXXXXX].S.T q 8 8 8 8 % $ $ $ $ # + % S $.0XtXtXtXuXiXsXdXdXdXdXdXdXdXdX",
"dXdXdXdXdXdXdXdXdXdXdXdXdXdXdXdXdXdXdXdXdXdXdXdXdXdXdXdXdXdXdXdXdXdXdXdXdXdXdXuX<Xf . . . . . . . O h h k h k v %.=.2.4.2.2.4.2.=.%.v k k k h 1 O . . . . . . . @ s { | | | | | | [ s @ . . . . . . . . . . . . . 5 A ! j._ j.v.U.[..XXXXXXXXXXX.X[.(.W.E.W.W.W.W.W.K.D.M.f.f.f.A.W.[.XXXXXX.X.X.X.X.XXXXXXXXX.X_.F.l._ _ _ _ _ / / / _ _ j.j.! A % . . . . . . . # 7 Z C C C C C C r 4 X . . . . % e C C C C Z Z C I ^ s.f.f.f.C.H.R.W.W.W.W.E.W.~.'.}..XXXXXXX.X.XXXXXXXXX.X.XXXXXXX.X.XXXXXXXXXXXXXXXXXXXXX.X.X.XXXXXXXXXXXXXXXXXXXXXXXXX.XXXXXXXXX X!.S.j._ _ _ W J D C C C C C C K ..@.$.$.8.2XqXiXdXdXdXdXdXdXdXdX",
"dXdXdXdXdXdXdXdXdXdXdXdXdXdXdXdXdXdXdXdXdXdXdXdXdXdXdXdXdXdXdXdXdXdXdXdXdXdXdXuX<Xf . . . . . . .   o O : O : h v =.4.4.2.2.4.2.=.v h : O : O o   . . . . . . . ; } @.n.,Xn.n.,Xn.@.{ - . . . . . . . . . . . . . q _ I._._._._.[..X.XXXXXXXXXXX.X).R.D.Z.Z.A.A.D.A.C.M.h.f.f.f.A.W.[.XXXXXX.X.X.X.XXXXXXXXXXX XQ._ Z 8 8 8 8 8 8 8 8 8 8 8 8 8 $ X . . . . . . . 4 C Q ^ ^ ^ ^ ^ ^ U r # . . . . X # $ $ $ $ # # % r U s.f.h.f.h.C.Z.D.D.D.A.Z.Z.H.W.[..XXXXXXX.X.X.XXXXX.X.X.XXXXXXX.X.XXXXXXXXXXXXXXXXXXXXX.X.X.XXXXXXXXXXXXXXXXXXXXX.XXX.X.XXXXXXX.X|._._._._.!.L.g.i.^ ^ ^ ^ ^ ^ W F d s p s } <XtXdXdXdXdXdXdXdXdX",
"dXdXdXdXdXdXdXdXdXdXdXdXdXdXdXdXdXdXdXdXdXdXdXdXdXdXdXdXdXdXdXdXdXdXdXdXdXdXdXuX<Xf . . . . . . . . . . . . . , k =.2.4.2.2.4.2.&.k , . . . . . . . . . . . . . p ..,X5X5X5X5X5X5X,X .p . . . . . . . . . . . . . Z v.'.XXXXXX.X.X.X.X.X.XXXXXXX X(.H.h.f.f.f.f.f.f.f.f.f.f.f.f.A.W.{.XXXXXX.X.XXXXXXXXXXXXXXX XP.L # . . . . . . . . . . . . . . . . . . . . . . 7 H s.h.h.f.f.h.f.^ C $ . . . . . . . . . . . . . 7 H a.h.h.f.f.f.f.f.f.f.f.f.f.C.R.]..XXXXX.X.X.XXXXXXXXX.X.XXXXX.X.X.X.XXXXX.X.XXXXXXXXXXXXX.X.X.XXX.X.X.X.XXXXX.X.X.X.X.X.X.XXXXXXXXXXX.XXXXX.X).J.M.f.f.f.f.h.f.~ Z # . . . p #.eXdXdXdXdXdXdXdXdX",
"dXdXdXdXdXdXdXdXdXdXdXdXdXdXdXdXdXdXdXdXdXdXdXdXdXdXdXdXdXdXdXdXdXdXdXdXdXdXdXuX<Xf . . . . . . . . . . . . . : k =.2.4.2.2.4.2.&.k : . . . . . . . . . . . . . p ..1X6X9X6X6X9X6X,X .p . . . . . . . . . . . . . Z B.[.OXOXOXXXXXXX.X.X.XXXXXXX X^.H.g.s.s.f.f.f.f.f.f.f.f.f.f.A.W.{.XXXXXX.XXXXXXXXXXXXXXXoX XL.K X . . . . . . . . . . . . . . . . . . . . . . 7 U s.M.M.h.M.C.h.^ C $ . . . . . . . . . . . . . 8 H a.h.h.f.f.f.f.f.f.f.f.s.s.M.K.'..XXXXXXX.X.XXXXXXXXX.X.XXXXX.X.X.X.XXXXX.X.X.X.XXXXXXXXX.X.X.XXX.X.X.X.XXX.X.X.X.X.X.X.X.XXXXXXXXXXXoXOXOXXX'.J.C.f.h.h.m.C.f.Q V X . . . - @.wXdXdXdXdXdXdXdXdX",
"dXdXdXdXdXdXdXdXdXdXdXdXdXdXdXdXdXdXdXdXdXdXdXdXdXdXdXdXdXdXdXdXdXdXdXdXdXdXdXuX<Xf . . . . . . . . . . . . . , v =.4.4.2.2.4.2.&.k : . . . . . . . . . . . . . p ..1X5X6X5X5X6X5X,X .p . . . . . . . . . . . . . Z v.].XXOXXXXXXXXX.X.X.X.XXXXX X(.H.h.f.f.f.f.f.f.f.f.f.f.f.f.A.W.[..XXXXXXX.XXXXX.X.XXXXXoX XL.J + . . . . . . . . . . . . . . . . . . . . . . 7 H s.h.M.h.h.m.f.^ C $ . . . . . . . . . . . . . 7 H a.h.h.f.f.f.f.f.f.f.f.f.f.C.R.]..XXXXX.X.XXXXXXXXXXXXX.XXXXX.X.X.X.XXXXX.X.XXXXXXXXX.X.X.X.X.X.X.X.XXXXX.X.X.X.X.X.X.X.X.X.XXXXXXXXXXXXXXX.X).J.M.f.f.h.h.M.f.~ V + . . . p #.wXdXdXdXdXdXdXdXdX",
"dXdXdXdXdXdXdXdXdXdXdXdXdXdXdXdXdXdXdXdXdXdXdXdXdXdXdXdXdXdXdXdXdXdXdXdXdXdXdXuX<Xf . . . . . . . . . . . . . , v =.4.4.2.2.4.2.&.k : . . . . . . . . . . . . . p ..,X5X5X5X5X5X5X,X .p . . . . . . . . . . . . . Z v.'.XXXXXXXXXX.X.X.X.X.XXXXX X(.H.h.f.f.f.f.f.f.f.f.f.f.f.f.A.W.[..XXXXXXXXX.XXX.X.XXXXXOX XP.J # . . . . . . . . . . . . . . . . . . . . . . 7 H a.h.h.f.h.h.f.^ C $ . . . . . . . . . . . . . 7 H s.h.h.f.f.f.f.f.f.f.f.f.f.C.R.]..XXXXXXXXXXXXXXXXXXXXX.XXXXX.X.X.X.XXXXX.X.XXXXXXXXX.X.X.X.X.X.X.X.XXXXX.XXX.X.XXX.X.X.X.X.XXXXXXXXX.XXXXX.X).J.M.f.f.f.h.h.f.~ V # . . . p #.eXdXdXdXdXdXdXdXdX",
"dXdXdXdXdXdXdXdXdXdXdXdXdXdXdXdXdXdXdXdXdXdXdXdXdXdXdXdXdXdXdXdXdXdXdXdXdXdXdXuX>Xs . . . . . . . . . . . . . , v =.4.4.4.4.4.4.&.k : . . . . . . . . . . . . . p ..,X5X5X5X5X5X4X,X| ; . . . . . . . . . . . . . u v.].oXOXXXXXXXXXXXXXXXXXoXoX.X(.H.h.f.f.g.g.f.f.f.f.f.f.s.f.Z.E.[..XXXXXXX.X.X.XXXXXoXOXOX.XK.T # . . . . . . . . . . . . . . . . . . . . . . 7 H i.h.h.f.f.h.f.^ C # . . . . . . . . . . . . . 7 H s.M.M.h.h.h.h.h.h.h.h.f.h.Z.R.[.XXOXOXXXXXoXoXXXXXXXXXXX.X.X.X.X.X.X.X.X.XXXXXXX.X.X.X.X.X.X.X.XXXXXXXXXXXXXXXXXXXXX.X.X.X.X.XXXXX.X.XXXXX.X).J.M.f.f.f.f.h.f.~ Z # . . . p #.eXdXdXdXdXdXdXdXdX",
"dXdXdXdXdXdXdXdXdXdXdXdXdXdXdXdXdXdXdXdXdXdXdXdXdXdXdXdXdXdXdXdXdXdXdXdXdXdXdXuX>Xs . . . . . . . . . . . . . , v =.4.4.4.4.4.4.&.k : . . . . . . . . . . . . . p ..,X5X5X5X5X5X4X,X| ; . . . . . . . . . . . . . u v.].XXOXXXXXXXXXXXXXXXXXoXoX.X(.H.h.f.f.g.g.f.f.f.f.f.f.f.f.Z.E.[..XXXXXXX.X.X.XXXXXXXOXOX.XI.L # . . . . . . . . . . . . . . . . . . . . . . 7 H i.h.h.f.f.h.f.^ C $ . . . . . . . . . . . . . 7 H s.M.M.h.h.h.h.h.h.h.h.f.f.Z.R.[.XXOXXXXXXXXXXXXXXXXXXXXX.X.X.X.X.X.X.X.X.XXXXXXX.X.X.X.XXXXXXXXXXXXXXXXXXXXXXXXXXXXX.X.X.X.XXXXXXXXX.XXXXX.X).J.M.f.f.f.f.h.f.~ Z # . . . p #.eXdXdXdXdXdXdXdXdX",
"dXdXdXdXdXdXdXdXdXdXdXdXdXdXdXdXdXdXdXdXdXdXdXdXdXdXdXdXdXdXdXdXdXdXdXdXdXdXdXuX2X} - X = = = = = X . . . . . : k %.=.=.=.=.=.=.%.h : . . . . . . . . . . . . . p ..1X5X5X5X5X5X5X,X .p . . . . . . X X X X . . # A v._..X.X.X X X.X.X.X X.X.X.X{.^.H.h.f.f.f.f.f.g.h.M.M.M.M.M.H.~.{.XXXXXX.XXXXX.X.X|.].[.{._.S.J # . . . . . . . . X X X X X X X X X X X X X # e U a.h.h.f.f.h.f.^ G 4 X . X X X X X X X X X X + q H ^ s.s.s.i.i.i.i.i.i.i.i.i.g.H.~.].[.[.].[.].[.|..X.XXXXX.X.X.X.X.X.XXXXXXXXXXX.X.XXXXXXXXXXX.X.X.X.X.X.X.X.X.X.X.XXXXX.XXXXXXXXX.XXXXXXXXX.X).J.M.f.f.f.f.h.f.~ Z # . . . p #.eXdXdXdXdXdXdXdXdX",
"dXdXdXdXdXdXdXdXdXdXdXdXdXdXdXdXdXdXdXdXdXdXdXdXdXdXdXdXdXdXdXdXdXdXdXdXdXdXdXiX0X>Xo. . . .o.o. .g - . . . . O h k v v v v v v k h O . . . . . . . . . . . . . p ..1X5X5X5X5X5X5X,X .p . . . . + 4 e e e e q e t I v.R.).).(.(.(.(.(.(.(.(.(.(.^.K.A.h.f.f.f.f.f.g.C.D.J.K.J.K.W.). XXXXXXX.XXXXX.X_.I.S.B.S.v.! t X . . . . . . X $ 7 e e e e e e e e e e q q t G Q s.f.f.f.f.h.f.i.Y C e q q e e e e e q e q e e Z D H H H H H H H H H H H H H Y ~ v.B.S.B.B.B.B.S.I._..XXXXX.X.X.X.XXXXXXXXXXXXXXX.X.XXXXXXXXXXX.X.X.X.X.X.X.X.X.X.XXXXXXXXXXXXXXXXX.XXXXXXXXX.X).J.M.f.f.f.f.h.f.~ Z # . . . p #.eXdXdXdXdXdXdXdXdX",
"dXdXdXdXdXdXdXdXdXdXdXdXdXdXdXdXdXdXdXdXdXdXdXdXdXdXdXdXdXdXdXdXdXdXdXdXdXdXdXsXuXwX0X0X0X0XqXqX8X$.g X . . .   : , 1 1 , , 1 , , O   . . . . . . . . . . . . . p ..1X5X5X5X5X5X5X,X .p . . . . 4 C U R E R R U E ^ g.D.H.J.H.H.H.H.H.H.H.H.H.H.H.A.M.g.f.f.f.f.f.h.D.R.^.'.'.'.].}..X.XXX.X.XXXXX|.I._ F Z Z Z q % . . . . . . . + e G R R R R R R R R R R R R E ~ i.f.f.f.f.f.h.f.s.i.Q R R R R R R R R R R E R U G V e 7 7 7 7 7 7 7 7 7 7 7 7 7 e Z Z A A Z Z Z F _ I.|.XXXXXX.XXXXXXXXXXXXXXXXX.X.X.X.XXXXXXXXXXXXXXXXXXXXX.X.XXXXXXXXXXXXXXXXX.XXX.X.XXXXXXX.X).J.M.f.f.f.h.h.f.~ Z # . . . p #.eXdXdXdXdXdXdXdXdX",
"dXdXdXdXdXdXdXdXdXdXdXdXdXdXdXdXdXdXdXdXdXdXdXdXdXdXdXdXdXdXdXdXdXdXdXdXdXdXdXdXdXsXsXsXsXsXdXdXiX7X} X . . . . .       . . . .   . . . . . . . . . . . . . . . p ..1X5X5X5X5X5X5X,X .p . . . X e U i.f.f.s.s.s.s.f.f.h.h.M.h.h.h.h.h.h.h.h.h.h.h.h.g.f.f.f.f.f.f.h.H.~.{..X.X.X.X.X.X.X.X.X.XXXXX[.S.F # . . . . . . . . . . . . $ Z Q s.f.s.s.s.s.s.s.s.s.s.s.s.f.f.f.f.f.f.f.f.f.f.f.f.s.s.s.s.s.s.s.s.s.s.f.f.i.U e + . . . . . . . . . . . . . . X X X X X . . # F S.[.XXXXXX.XXXXXXXXXXXXXXXXX.X.X.X.XXXXXXXXXXXXXXXXXXXXX.XXXXXXXXXXXXXXXXXXX.X.X.X.XXXXXXX.X).J.M.f.f.f.h.h.f.~ Z # . . . p #.eXdXdXdXdXdXdXdXdX",
"dXdXdXdXdXdXdXdXdXdXdXdXdXdXdXdXdXdXdXdXdXdXdXdXdXdXdXdXdXdXdXdXdXdXdXdXdXdXdXdXdXdXdXdXdXdXdXdXsX0X .= . . . . . . . . . . . . . . . . . . . . . . . . . . . . p ..1X5X5X5X5X5X5X,X .p . . . X e R f.M.M.h.h.h.h.h.f.f.f.f.f.f.f.f.f.f.f.f.f.f.f.f.f.f.f.f.g.f.f.h.H.^. XoXoXXXXXXXXX.X.X.XXXXXXX[.B.Z . . . . . . . . . . . . . $ C ^ h.C.M.h.h.h.h.h.h.h.h.h.h.h.h.f.f.f.f.f.f.f.f.h.h.h.h.h.h.h.h.h.h.h.h.M.m.f.R e . . . . . . . . . . . . . . . . . . . . . . . Z B.[.XXXXXXXXXXXXXXXXXXXXXXXX.X.X.X.XXXXXXXXXXXXXXXXXXXXXXXXXXXXXXXXXXXXXXX.X.X.X.XXXXXXXXX.X).J.M.f.f.f.h.h.f.~ Z # . . . p #.eXdXdXdXdXdXdXdXdX",
"dXdXdXdXdXdXdXdXdXdXdXdXdXdXdXdXdXdXdXdXdXdXdXdXdXdXdXdXdXdXdXdXdXdXdXdXdXdXdXdXdXdXdXdXdXdXdXdXsX8X .= . . . . . . . . . . . . . . . . . . . . . . . . . . . . p ..1X5X5X5X5X5X5X,X .p . . . X e R f.m.m.h.h.h.h.f.f.f.f.f.f.f.f.f.f.f.f.f.f.f.f.f.f.f.f.f.g.f.f.h.H.^. XXXoXXXXXXXXX.X.X.XXXXXXX[.B.Z . . . . . . . . . . . . . $ C ^ h.M.h.h.h.h.h.h.h.h.h.h.h.h.f.f.f.f.f.f.f.f.f.f.h.h.h.h.h.h.h.h.h.h.h.M.m.s.R e X . . . . . . . . . . . . . . . . . . . . . . Z B.[.XXXXXX.XXXXXXXXXXXXXXXXX.X.X.X.XXXXXXXXXXXXXXXXX.X.XXXXXXXXX.XXXXXXX.X.X.X.X.X.XXXXXXX.X).J.M.f.f.f.h.h.f.~ Z # . . . p #.eXdXdXdXdXdXdXdXdX",
"dXdXdXdXdXdXdXdXdXdXdXdXdXdXdXdXdXdXdXdXdXdXdXdXdXdXdXdXdXdXdXdXdXdXdXdXdXdXdXdXdXdXdXdXdXdXdXdXpX8X .= . . . . . . . . . . . . . . . . . . . . . . . . . . . . p ..,X5X5X5X5X5X5X,X .p . . . X e R s.h.h.f.f.f.f.f.f.f.f.f.f.f.f.f.f.f.f.f.f.f.f.f.f.f.f.f.f.f.f.h.H.^. XXXXXXXXXXXXXXX.X.XXXXXXX[.S.A X . . . . . . . . . . . . $ C ^ f.h.f.f.f.f.f.f.f.f.f.f.f.f.f.f.g.g.g.g.f.f.f.f.f.f.f.f.f.f.f.f.f.f.f.h.h.s.U e X . . . . . . . . . . . . . . . . . . . . . X A S.[.XXXXXX.X.X.XXXXXXXXX.X.X.X.X.X.X.X.XXXXXXXXX.X.X.X.X.XXX.X.X.X.XXXXXXXXX.X.X.X.X.XXXXX.X).J.M.f.f.f.f.h.f.Q Z # . . . p #.eXdXdXdXdXdXdXdXdX",
"dXdXdXdXdXdXdXdXdXdXdXdXdXdXdXdXdXdXdXdXdXdXdXdXdXdXdXdXdXdXdXdXdXdXdXdXdXdXdXdXdXdXdXdXdXdXdXdXpX8X .X . . . . . . . . . . . . . . . . . . . . . . . . . . . . p ..1X5X9X5X5X9X5X,X .p . . . X e R f.m.h.h.h.h.h.f.f.f.f.f.f.f.f.f.f.f.f.f.f.f.f.f.f.f.f.f.f.f.s.f.D.^. XXXXXXXXXXXXXXXXXXXXXOXOX|.S.F X . . . . . . . . . . . . $ C ^ f.h.f.f.f.f.f.f.f.f.f.f.f.f.h.h.h.h.h.h.h.h.h.h.h.h.h.h.h.h.h.h.h.f.f.h.m.f.R e X . . . . . . . . . . . . . . . . . . . . . X A S.[.XXXXXX.X.X.X.X.XXXXX.X.X.X.X.X.X.X.XXXXX.X.X.X.X.X.X.X.X.X.X.X.XXXXXXX.X.X.X.X.X.XXXXX.X).J.M.f.f.f.f.h.f.Q V + . . . p #.eXdXdXdXdXdXdXdXdX",
"dXdXdXdXdXdXdXdXdXdXdXdXdXdXdXdXdXdXdXdXdXdXdXdXdXdXdXdXdXdXdXdXdXdXdXdXdXdXdXdXdXdXdXdXdXdXdXdXpX7X} . . . . . . . . . . . . . . . . . . . . . . . . . . . . . p ..1X6X9X5X5X6X5X,X .p . . . X e E f.C.m.h.h.h.h.h.f.f.f.f.f.f.f.f.f.f.f.f.f.f.f.f.f.f.f.f.f.f.s.f.D.^. XXXXXXXXXXXXXXXoXoXOXOXOX XS.F X . . . . . . . . . . . . # C ^ f.h.f.f.f.f.f.f.f.f.f.f.f.h.h.h.h.h.h.h.h.h.h.h.h.h.h.h.h.h.h.h.h.h.h.M.M.f.E e X . . . . . . . . . . . . . . . . . . . . . X A B.].XXXXXX.X.XXXXXXX.X.X.X.X.X.X.X.X.XXXXXXX.X.X.X.X.X.X.X.X.X.X.X.XXXXXXX.X.X.X.X.X.XXXXX.X).J.M.f.f.f.h.h.f.Q Z + . . . p #.eXdXdXdXdXdXdXdXdX",
"dXdXdXdXdXdXdXdXdXdXdXdXdXdXdXdXdXdXdXdXdXdXdXdXdXdXdXdXdXdXdXdXdXdXdXdXdXdXdXdXdXdXdXdXdXdXdXdXpX8X .= . . . . . . . . . . . . . . . . X X . . . . . . . . . . p ..,X4X5X4X4X4X4Xn.| ; . . . X q U s.f.f.s.s.s.f.f.f.g.h.h.h.h.h.h.h.h.h.h.h.h.h.h.h.h.h.h.h.g.f.h.H.^. XXXXXXX.X.X.X.X.X.X.XXX.X'.B.A X . . . . . . . . . . . . % C ^ f.h.f.f.f.f.f.f.f.f.f.f.f.f.f.f.f.f.f.f.f.f.f.f.f.f.f.f.f.f.f.f.s.s.f.f.f.s.Y q X . . . . . . . . . . . . . . . . . . . . . X Z B.].XXXX.X.X.X.XXXXX.XXX.X.X.X.X.X.XXXXXXXXX.X.X.X.XXX.X.X.X.X.X.X.XXXXXXX.X.X.X.X.X.XXXXX.X).J.M.f.f.f.h.h.f.~ Z $ . . . p #.wXsXdXdXdXsXsXsXsX",
"dXdXdXdXdXdXdXdXdXdXdXdXdXdXdXdXdXdXdXdXdXdXdXdXdXdXdXdXdXdXdXdXdXdXdXdXdXdXdXdXdXdXdXdXdXdXdXdXsXwX$.} g g [ [ [ [ g g z [ [ [ z [ g g [ [ g s @ . . . . . . . ; { O.n.n.@.@.n.@.O.g = . . . . 7 G E Q Q R R R Q i.g.D.H.H.H.H.H.H.D.D.D.D.H.H.D.D.H.H.D.H.H.D.D.H.R.). XXXXXXX X_.!.U.U.U.Q.Q.Q.F._ e . . . . . # 4 4 4 4 4 4 4 e H i.f.h.f.f.g.g.f.f.f.f.f.f.f.s./ Q E E Q Q R R R R Q Q Q Q Q Q Q Q R R R Q Q E G 7 . . . . X 5 w Z Z t t Z t q 5 X . . . . . . X Z S.[.XXXX.X.XXXXXXXXXXXXXXXXX.XXX.X.X.X.XXXXXXX.XXXXXXXXXXXXXXXXXXXXXXXXXXX.X.X.XXX.XXXXXXX.X).J.M.f.f.f.h.h.f.^ H q 4 $ 4 y O.2XqXwXqXqXqXqXqXqX",
"dXdXdXdXdXdXdXdXdXdXdXdXdXdXdXdXdXdXdXdXdXdXdXdXdXdXdXdXdXdXdXdXdXdXdXdXdXdXdXdXdXdXdXdXdXdXdXdXdXuX0X3X2X2X2X2X2X2X2X2X2X2X2X2X2X2X2X2X3X3X<X .s . . . . . . . @ p g [ { g g [ [ f p X . . . . # 7 t Z t t e e Z Y v.R.^.(.^.^.^.^.^.^.^.^.^.^.^.^.^.^.^.^.^.^.~.^.).[..XXXXX.X].P.l.W T W W W W T Z & . . . . # e D G H G G G H U ~ s.f.f.f.f.g.g.g.f.f.f.f.h.f.^ H Z t t t t r r r r t t t t t t t t r r r r Z t 7 # . . . . 5 F j.N.B.v.v.N.v.j.J 5 . . . . . . X Z S.[.XXXX.X.X.XXXXXXXXXXXXXXXXXXX.X.X.XXXXXXXXXXXXXXXXXXXXXXXXXXXXXXXXXXXXX.X.X.XXXXXXXXXXX.X).J.M.f.f.f.f.h.f.s.Q I G G G K P ..o.+.+.+.+.+.+.+.",
"dXdXdXdXdXdXdXdXdXdXdXdXdXdXdXdXdXdXdXdXdXdXdXdXdXdXdXdXdXdXdXdXdXdXdXdXdXdXdXdXdXdXdXdXdXdXdXdXdXsXpXiXiXiXiXiXiXiXiXiXiXiXiXiXiXiXiXiXiXiXeX<Xg X . . . . . . . X = = @ @ @ @ = @ X . . . . . . X + + + + X . $ A v._. X.X X}. X X X X X X X X}. X X X}. X X X X X X.X.XXXXX.X_.l.Z % # $ $ % & % + . . . . . 8 G ^ i.i.i.i.i.i.a.s.f.g.g.f.f.f.f.f.f.g.g.h.h.s.R V $ X X + + X X X X + + + + + + + + + X + + X X X . . . . . q _ Q.].[.].].|.].Q.l.t . . . . . . X A S.[.XXXXXXXXXXXXXXXXXXXXXXXX.X.X.X.XXXXXXXXXXXXXXXXXXX.XXXXXXXXXXXXXXXXXXXXX.X.X.X.XXXXXXX.X).J.M.f.f.f.f.f.f.f.s.i.i.i.i.~ J y - - - - - - - - ",
"dXdXdXdXdXdXdXdXdXdXdXdXdXdXdXdXdXdXdXdXdXdXdXdXdXdXdXdXdXdXdXdXdXdXdXdXdXdXdXdXdXdXdXdXdXdXdXdXdXdXdXdXdXdXdXdXdXdXdXdXdXdXdXdXdXdXdXdXdXdXpX7X} X . . . . . . . . . . . . . . . . . . . . . . . . . . . . . . . u N.].XXOXXXXXXXXXXXXXXXXXXXXXXXXXXXXXXXXXXXXXXXXXXXXXXXXXOXXX^._ 8 . . . . . . . . . . . . . 7 U s.M.m.h.h.h.h.h.h.f.g.g.f.f.f.f.f.f.g.g.h.h.s.U e X . . . . . . . . . . . . . . . . . . . . . . . . . . . . q l._.XXOXXXXXOXXX].N.u . . . . . . X A B.[.XXXXXXXXXXXX.XXXXXXXXXXX.X.XXX.XXXXXXXXXXXXXXXXX.X.X.X.XXXXXXXXXXXXXXXXX.X.X.X.XXXXXXX.X).J.h.f.f.f.f.f.f.f.f.h.h.M.h.i.G $ . . . . . . . . ",
"dXdXdXdXdXdXdXdXdXdXdXdXdXdXdXdXdXdXdXdXdXdXdXdXdXdXdXdXdXdXdXdXdXdXdXdXdXdXdXdXdXdXdXdXdXdXdXdXdXdXdXdXdXdXdXdXdXdXdXdXdXdXdXdXdXdXdXdXdXdXpX7X} X . . . . . . . . . . . . . . . . . . . . . . . . . . . . . . . u B.|.OX+XOXOXOXOXOXOXOXOXOXOXOXOXOXOXOXOXOXOXOXOXOXOXOXOXOXoX_._ 8 . . . . . . . . . . . . . 7 U f.C.C.C.M.M.C.M.h.h.g.f.f.f.f.f.f.f.g.f.h.h.s.U e . . . . . . . . . . . . . . . . . . . . . . . . . . . . . q l._.OXOXOXOXOXOX[.N.u . . . . . . . Z B.].XXXXXXXX.X.X.X.XXXXXXX.X.X.XXXXXXXXXXXXXXXXX.X.X.X.X.X.X.X.XXXXXXXXXXXXXXXXX.X.XXXXXXX.X).H.h.s.s.f.f.f.f.f.f.h.M.C.M.i.G $ . . . . . . . . ",
"dXdXdXdXdXdXdXdXdXdXdXdXdXdXdXdXdXdXdXdXdXdXdXdXdXdXdXdXdXdXdXdXdXdXdXdXdXdXdXdXdXdXdXdXdXdXdXdXdXdXdXdXdXdXdXdXdXdXdXdXdXdXdXdXdXdXdXdXdXdXpX7X} X . . . . . . . . . . . . . . . . . . . . . . . . . . . . . . . u v.'.XXXXXX.X.X.X.X.XXX.X.X.X.XXXXX.X.X.X.X.X.X.XXXXXXXXXoX.X!._ 8 . . . . . . . . . . . . . 7 H a.h.h.f.f.f.f.f.f.f.f.g.f.f.f.f.f.f.g.g.h.h.s.R e X . . . . . . . . . . . . . . . . . . . . . . . . . . . . q l._.XXOXXXXXOXXX'.v.Z . . . . . . X A S.[.XXXXXX.X.X.X.X.XXXXXXXXX.X.XXXXXXXXX.XXXXX.X.X.X.X.X.X.X.X.X.X.XXXXXXXXXXXXX.X.XXXXXXX.X).J.M.f.f.f.f.f.f.f.f.f.h.M.h.i.G % . . . . . . . . ",
"dXdXdXdXdXdXdXdXdXdXdXdXdXdXdXdXdXdXdXdXdXdXdXdXdXdXdXdXdXdXdXdXdXdXdXdXdXdXdXdXdXdXdXdXdXdXdXdXdXdXdXdXdXdXdXdXdXdXdXdXdXdXdXdXdXdXdXdXdXdXpX7X} X . . . . . . . X # $ $ $ $ $ $ # X . . . . . . . . . . . . . . q ~ P.^._._._._._._._._._._.^.!.!.!.^.^._._._._._._._.!.^._.^.F.W 5 . . . . . . . . . . . . . 4 C E ^ ^ ^ ^ ^ ^ / i.f.f.f.f.f.f.f.f.f.f.f.h.h.s.R e X . . . . . . . X # $ $ $ $ $ $ $ $ $ $ $ $ $ % 8 8 8 8 q K B.'.XXXXXXXXXXXX].S.T q 8 8 8 8 8 q W L.|.XXXX.X.X.X.X.X.X.XXX.X.XXXXXXXXX.X.X.X.XXXXXXXXXXXXXXXXXXXXXXXXX.X.X.X.XXXXXXXXX.XXXXX.X'.R.D.Z.Z.A.A.A.A.C.M.h.h.h.f.^ D % . . . . . . . . ",
"dXdXdXdXdXdXdXdXdXdXdXdXdXdXdXdXdXdXdXdXdXdXdXdXdXdXdXdXdXdXdXdXdXdXdXdXdXdXdXdXdXdXdXdXdXdXdXdXdXdXdXdXdXdXdXdXdXdXdXdXdXdXdXdXdXdXdXdXdXdXpX7X} X . . . . . . + 7 V C C C C C C t 7 + . . . . . . . . . . . . . % A W j.j.j.j.j.j._ j._ _ _ _ / / _ _ _ _ _ _ j.j._ j./ / j._ W u # . . . . . . . . . . . . . # 7 Z C C C C Z C G E i.f.f.f.f.f.g.f.f.f.f.h.h.s.R e X . . . . . . X 4 t C C C C C C C C C C C V C J E _ _ _ j.B.Q.|.XXXXXXXXXXXX X!.S.j._ _ j._ ~ j.S./. XXXXX.X.XXX.X.X.XXXXX.X.X.XXXXX.X.X.X.X.XXXXXXXXXXXXXXXXXXXXXXXXX.X.X.X.X.X.XXX.X.XXXXX.X{.).!.W.E.W.W.W.W.K.D.M.f.h.f.^ D % . . . . . . . . ",
"dXdXdXdXdXdXdXdXdXdXdXdXdXdXdXdXdXdXdXdXdXdXdXdXdXdXdXdXdXdXdXdXdXdXdXdXdXdXdXdXdXdXdXdXdXdXdXdXdXdXdXdXdXdXdXdXdXdXdXdXdXdXdXdXdXdXdXdXdXdXpX7X} X . . . . . . % Z R ^ / ^ ^ / ^ R Z $ . . . . . . . . . . . . . X $ 8 8 8 8 8 8 8 8 8 8 8 8 8 8 8 8 8 8 8 8 8 8 8 8 8 8 8 8 8 5 # . . . . . . . . . . . . . . . + $ $ $ $ $ # $ q G / f.h.f.f.f.f.f.f.f.f.h.h.s.R e X . . . . . . # r U ^ / ^ ^ ^ ^ ^ ^ ^ ^ ^ Q ^ g.F.!._._._._.|..XXXXX.X.XXXXX.X|._._./._._.~.!.^._. X.XXXXXXXXX.X.X.X.X.X.X.X.XXXXXXXXX.X.X.X.X.XXX.X.XXX.XXXXX.X.X.X.X.X.X.X.XXXXXXXXX.X.XXX.X.X}.{.[.{.{.{.{.[.(.K.C.f.h.f.^ D % . . . . . . . . ",
"dXdXdXdXdXdXdXdXdXdXdXdXdXdXdXdXdXdXdXdXdXdXdXdXdXdXdXdXdXdXdXdXdXdXdXdXdXdXdXdXdXdXdXdXdXdXdXdXdXdXdXdXdXdXdXdXdXdXdXdXdXdXdXdXdXdXdXdXdXdXpX7X} X . . . . . . 4 G i.f.h.f.f.h.f./ G 4 . . . . . . . . . . . . . . . . . . . . . . . . . . . . . . . . . . . . . . . . . . . . . . . . . . . . . . . . . . . . . . . . . . . . . $ C ^ f.h.f.f.g.g.f.f.f.f.h.h.s.R q X . . . . . . $ C ^ f.h.f.f.f.f.f.f.f.f.f.f.h.H.^. XXXXX.XXXXXXXXX.X.X.X.XXXXX.X.X.X.X.X.X.X.X.X.XXXXXXXXXXXXXXXXX.X.X.XXX.X.XXXXXXXXX.X.X.X.X.X.X.X.X.X.X.X.X.X.X.X.X.X.X.X.XXXXXXXXX.X.X.X.X.X.XXXXXXXXXXXXX.X[.R.Z.f.f.f./ D % . . . . . . . . ",
"dXdXdXdXdXdXdXdXdXdXdXdXdXdXdXdXdXdXdXdXdXdXdXdXdXdXdXdXdXdXdXdXdXdXdXdXdXdXdXdXdXdXdXdXdXdXdXdXdXdXdXdXdXdXdXdXdXdXdXdXdXdXdXdXdXdXdXdXdXdXpX7X{ X . . . . . . 8 H s.M.C.h.M.C.h.i.G 4 . . . . . . . . . . . . . . . . . . . . . . . . . . . . . . . . . . . . . . . . . . . . . . . . . . . . . . . . . . . . . . . . . . . . . # C ^ f.h.h.f.f.f.f.f.f.f.h.h.s.R e X . . . . . . $ C ^ h.C.m.h.h.h.h.h.h.h.h.f.C.J.`..XOXOXoXXXXXXXXXXXXXXXXXXXXXXXXXoXoXXXXXoXOXoXXXXX.XXXXXXXXX.X.X.X.XXXXX.XXXXXXXXXXXXX.X.X.X.X.X.X.X.XXX.X.X.X.X.X.X.X.X.XXXXXXXXXXXXX.X.XXXXXXXXXXXXXXXXXoXXX[.R.Z.f.f.f./ G 4 . . . . . . . . ",
"dXdXdXdXdXdXdXdXdXdXdXdXdXdXdXdXdXdXdXdXdXdXdXdXdXdXdXdXdXdXdXdXdXdXdXdXdXdXdXdXdXdXdXdXdXdXdXdXdXdXdXdXdXdXdXdXdXdXdXdXdXdXdXdXdXdXdXdXdXdXpX7X{ X . . . . . . 8 H i.h.M.h.h.M.f./ G % . . . . . . . . . . . . . . . . . . . . . . . . . . . . . . . . . . . . . . . . . . . . . . . . . . . . . . . . . . . . . . . . . . . . . $ C ^ f.h.h.f.g.f.f.f.f.f.h.h.s.R e X . . . . . . $ C ^ f.m.h.f.f.f.f.f.f.h.f.f.M.H.(..XXXXXXXXXXXXXXXXXXXXXXX.X.XXXXXXXXXXXXXXXXXXXXX.X.XXXXXXXXX.X.XXX.XXXXX.X.XXXXXXXXX.X.X.X.X.X.X.X.XXXXXXXXX.X.X.X.X.X.X.XXXXXXXXXXX.X.XXXXXXXXX.X.XXXXXXXXX.X[.R.Z.f.f.f./ G 4 . . . . . . . . ",
"dXdXdXdXdXdXdXdXdXdXdXdXdXdXdXdXdXdXdXdXdXdXdXdXdXdXdXdXdXdXdXdXdXdXdXdXdXdXdXdXdXdXdXdXdXdXdXdXdXdXdXdXdXdXdXdXdXdXdXdXdXdXdXdXdXdXdXdXdXdXpX7X{ X . . . . . . 4 G i.h.h.f.f.h.f.^ D % . . . . . . . . . . . . . . . . . . . . . . . . . . . . . . . . . . . . . . . . . . . . . . . . . . . . . . . . . . . . . . . . . . . . . $ C ^ f.h.h.g.f.f.f.g.f.f.h.h.s.R e X . . . . . . $ C ^ f.h.f.f.f.f.f.f.f.f.f.f.h.H.(. XXXXX.X.X.X.X.X.X.XXXXX.XXX.X.XXXXXXXXXXXXXXXXX.X.X.XXXXX.X.X.XXXXXXXXXXXXXXXXXXXXXXXXX.X.XXX.XXXXXXXXXXXXXXXXXXXXX.X.XXXXXXXXXXXXXXXXXXXXXXXXX.X.X.X.XXXXX.X[.R.Z.f.f.f./ G 4 . . . . . . . . ",
"dXdXdXdXdXdXdXdXdXdXdXdXdXdXdXdXdXdXdXdXdXdXdXdXdXdXdXdXdXdXdXdXdXdXdXdXdXdXdXdXdXdXdXdXdXdXdXdXdXdXdXdXdXdXdXdXdXdXdXdXdXdXdXdXdXdXdXdXdXdXpX7X{ X . . . . . . 4 G i.h.h.f.f.h.f.^ C $ . . . . . . . . . . . . . . . . . . . . . . . . . . . . . . . . . . . . . . . . . . . . . . . . . . . . . . . . . . . . . . . . . . . . . $ C ^ h.C.M.h.h.h.h.h.h.h.m.m.f.R e X . . . . . . $ C ^ f.h.f.f.f.f.f.f.f.f.f.f.h.H.(. XXXXXXX.X.X.X.X.X.XXXXXXX.X.X.XXXXXXXXXXXXXXXXX.X.X.X.XXXXX.X.XXXXXXXXXXXXXXXXXXXXXXXXXXX.XXXXXXXXXXXXXXXXXXXXXXXXX.X.XXXXXXXXXXXXXXXXXXXXXXXXX.X.X.X.XXXXX.X[.R.Z.f.f.f.i.G 4 . . . . . . . . ",
"dXdXdXdXdXdXdXdXdXdXdXdXdXdXdXdXdXdXdXdXdXdXdXdXdXdXdXdXdXdXdXdXdXdXdXdXdXdXdXdXdXdXdXdXdXdXdXdXdXdXdXdXdXdXdXdXdXdXdXdXdXdXdXdXdXdXdXdXdXdXpX7X} X . . . . . . 4 G i.h.h.f.f.h.g./ G % . . . . . . . . . . . . . . . . . . . . . . . . . . . . . . . . . . . . . . . . . . . . . . . . . . . . . . . . . . . . . . . . . . . . . $ C ^ h.m.h.h.h.h.h.h.f.f.h.m.f.R e X . . . . . . $ C ^ f.h.h.f.f.f.f.f.f.f.f.f.h.H.(. XXXXX.X.X.XXXXXXX.X.X.XXXXXXXXXXXXX.XXX.X.X.X.XXXXXXXXXXXXXXXXX.X.X.X.XXX.X.X.X.X.X.X.X.XXXXX.X.X.X.X.X.X.X.X.X.XXXXX.X.X.X.X.X.X.X.XXX.X.X.X.XXXXX.XXXXXXX.X[.R.Z.f.f.f./ G 4 . . . . . . . . ",
"dXdXdXdXdXdXdXdXdXdXdXdXdXdXdXdXdXdXdXdXdXdXdXdXdXdXdXdXdXdXdXdXdXdXdXdXdXdXdXdXdXdXdXdXdXdXdXdXdXdXdXdXdXdXdXdXdXdXdXdXdXdXdXdXdXdXdXdXdXdXpX7X} X . . . . . . 4 G i.h.h.f.f.h.g.i.H 7 X . X X . . . . . . . . . . . X X X X X . . . . . . . . . . . . . . . . . . . . . . . . . X + # $ # # $ # # X . . . . . . . . . . . . . . # Z R i.s.s.a.a.a.a.a.i.i.s.s./ H q X . . . . . . $ C ^ f.h.f.f.f.f.g.f.f.f.f.f.h.H.(. XXXXX.XXX.XXXXX.X.X.X.XXXXX.XXX.X.XXXXX.X.X.X.XXXXXXXXXXXXXXXXX.X.X.X.X.X.X.X.X.X.X.X.XXXXXXXXX.X.X.X.X.X.X.X.XXXXXXXXX.X.X.X.X.X.X.X.X.X.X.X.XXXXXXXXXXXXX.X[.R.Z.f.f.f./ G 4 . . . . . . . . ",
"dXdXdXdXdXdXdXdXdXdXdXdXdXdXdXdXdXdXdXdXdXdXdXdXdXdXdXdXdXdXdXdXdXdXdXdXdXdXdXdXdXdXdXdXdXdXdXdXdXdXdXdXdXdXdXdXdXdXdXdXdXdXdXdXdXdXdXdXdXdXpX7X} X . . . . . . 4 G i.h.h.f.f.h.f.a.E C e q q q 4 X . . . . . . . X % 7 e e e 7 $ . . . . . . . . . . . . . . . . . . . . . . . + 8 F K T T L T L F t $ . . . . . . . . . . . . . X 7 C H I H H H H H H H H H H H V 4 . . . . . . . $ C ^ f.h.f.f.g.g.g.g.g.f.f.f.h.H.(. XXXXX.XXXXXXXXXXXXX.X.X.XXX.X.X.X.X.X.X.XXX.X.XXXXX.XXXXX.XXXXX.X.XXX.XXXXX.X.X.X.XXXXXXXXXXXXXXXXX.X.X.X.XXXXXXXXXXXXXXXXX.X.X.X.XXXXX.XXXXX.XXXXX.X.XXXXX.X[.R.Z.f.f.f./ G 4 . . . . . . . . ",
"dXdXdXdXdXdXdXdXdXdXdXdXdXdXdXdXdXdXdXdXdXdXdXdXdXdXdXdXdXdXdXdXdXdXdXdXdXdXdXdXdXdXdXdXdXdXdXdXdXdXdXdXdXdXdXdXdXdXdXdXdXdXdXdXdXdXdXdXdXdXpX7X} X . . . . . . 4 G i.h.h.f.f.f.f.s.i.Q E E E I V $ . . . . . . . $ r H R Q R G e + . . . . . . . . . . . . . . . . . . . . . . 5 K v.P.I.P.P.I.I.S.W q . . . . . . . . . . . . . . # 4 7 7 7 7 7 7 7 7 7 7 7 7 7 % X . . . . . . . $ C ^ f.h.f.f.g.g.g.g.f.f.f.f.h.H.(. XXXXX.XXXXXXXXXXX.X.X.X.XXXXXXXXX.X.X.XXXXX.XXXXXXX.X.X.X.XXXXXXX.XXXXXXX.X.X.X.XXXXXXXXXXXXXXXXXXXXX.X.XXXXXXXXXXXXXXXXXXXXX.X.X.X.XXXXXXXXXXX.XXX.XXXXXXX.X[.R.Z.f.h.f./ G 4 . . . . . . . . ",
"dXdXdXdXdXdXdXdXdXdXdXdXdXdXdXdXdXdXdXdXdXdXdXdXdXdXdXdXdXdXdXdXdXdXdXdXdXdXdXdXdXdXdXdXdXdXdXdXdXdXdXdXdXdXdXdXdXdXdXdXdXdXdXdXdXdXdXdXdXdXpX7X{ X . . . . . . 4 H i.f.h.f.f.f.f.f.f.f.s.f.f.i.G 8 . . . . . . . 4 G ^ f.f.s.Q Z # . . . . . . . . . . . . . . . . . . . . . . 8 ~ Q. X.X.X X.X.X_.B.Z X . . . . . . . . . . . . . . . . . . . . . . . . . . . . . . . . . . . . . $ C ^ f.h.f.f.f.f.f.f.f.f.f.f.h.H.(. XXXXXXXXXXXXX.XXXXXXXXX.X.X.X.XXXXXXXXXXXXXXXXX.X.X.X.X.X.X.X.XXXXXXXXXXXXX.X.X.X.XXXXXXXXXXXXXXXXXXXXXXXXXXXXXXXXXXXXXXXXX.X.X.X.XXXXXXXXXXXXX.XXX.XXXXXXX.X[.R.Z.f.h.f.^ D % . . . . . . . . ",
"dXdXdXdXdXdXdXdXdXdXdXdXdXdXdXdXdXdXdXdXdXdXdXdXdXdXdXdXdXdXdXdXdXdXdXdXdXdXdXdXdXdXdXdXdXdXdXdXdXdXdXdXdXdXdXdXdXdXdXdXdXdXdXdXdXdXdXdXdXdXpX7X{ X . . . . . . 4 G i.f.h.f.f.f.f.f.f.h.h.M.M.s.H 7 . . . . . . . 8 H s.m.C.h.^ C $ . . . . . . . . . . . . . . . . . . . . . . 8 j._.XXOXOXOXOXOX{.S.A . . . . . . . . . . . . . . . . . . . . . . . . . . . . . . . . . . . . . . $ C ^ f.M.h.h.h.g.f.f.f.f.f.f.h.H.(..XXXXXXXXXXXXXXXXXXXXXXXXXXXXXXX.XXXXXXXXXXXXXXX.X.X.X.X.X.X.X.XXXXXXXXXXXXX.X.X.X.XXXXXXXXXXX.XXXXXXXXXXXXXXXXX.XXXXXXXXXXX.X.X.X.XXXXXXXXXXXXX.XXX.X.XXXXX.X[.R.Z.f.h.f.^ D % . . . . . . . . ",
"dXdXdXdXdXdXdXdXdXdXdXdXdXdXdXdXdXdXdXdXdXdXdXdXdXdXdXdXdXdXdXdXdXdXdXdXdXdXdXdXdXdXdXdXdXdXdXdXdXdXdXdXdXdXdXdXdXdXdXdXdXdXdXdXdXdXdXdXdXdXpX7X{ X . . . . . . 4 G i.f.f.f.f.f.f.f.f.f.h.M.M.s.H 7 . . . . . . . 4 H i.m.C.h.^ C $ . . . . . . . . . . . . . . . . . . . . . . 8 j._.XXOXOXXXOXOX{.S.Z . . . . . . . . . . . . . . . . . . . . . . . . . . . . . . . . . . . . . . $ C ^ h.m.h.h.h.h.f.f.f.f.f.f.h.H.(..XoXoXXXXXXXXXXXXXXXXXXXXXXXXXXXXXXX.XXX.X.XXXXXXX.XXXXXXXXX.XXXXXXX.X.XXXXXXX.X.XXXXXXXXXXX.X.X.X.XXX.X.XXX.X.X.X.XXXXXXXXXXX.X.XXXXXXX.X.XXXXXXXXXXX.XXXXX.X[.R.Z.f.f.f.^ D % . . . . . . . . ",
"dXdXdXdXdXdXdXdXdXdXdXdXdXdXdXdXdXdXdXdXdXdXdXdXdXdXdXdXdXdXdXdXdXdXdXdXdXdXdXdXdXdXdXdXdXdXdXdXdXdXdXdXdXdXdXdXdXdXdXdXdXdXdXdXdXdXdXdXdXdXpX7X{ X . . . . . . 8 H s.M.C.h.h.h.h.h.h.g.f.h.h.s.H 7 . . . . . . . 4 H i.h.C.f.^ C $ . . . . . . . . . . . . . . . . . . . . . . q j._..XoXXXXXXXXX[.S.F # . . X . . . . . . . . . . . . . . . . . . . . . . . . . . . . . . . . . . # Z Q s.f.s.f.f.f.g.f.f.f.f.f.h.H.^.}..X.X.X.X.X.X.X.X.X.X.X.X.X.X.XXXXXXX.X.X.X.XXXXXXXXXXXXXXXXXXXXX.X.X.XXXXXXXXX.X.XXXXXXXXX.X.X.X.X.X.X.X.X.X.X.X.XXXXXXXXX.X.XXXXXXXXX.X.X.XXX.XXXXX.XXXXX.X[.R.Z.f.f.f./ D % . . . . . . . . ",
"dXdXdXdXdXdXdXdXdXdXdXdXdXdXdXdXdXdXdXdXdXdXdXdXdXdXdXdXdXdXdXdXdXdXdXdXdXdXdXdXdXdXdXdXdXdXdXdXdXdXdXdXdXdXdXdXdXdXdXdXdXdXdXdXdXdXdXdXdXdXpX7X{ X . . . . . . 8 R N.J.J.H.H.H.H.H.Z.M.f.h.h.s.H 7 . . . . . . . 4 G i.h.m.f.^ C $ . . . . . . . . . . . . . . . . . # 4 7 4 7 F v._.XXoXXX.XXXXX|.I._ F Z Z A t q 7 7 7 7 7 7 7 4 # . . . . . . . . . . . . . . . . . . . . . . . + e G U R R Q ^ s.f.h.f.f.f.f.h.D.R.(.'.'.'.'.'.'.'.'.'.'.`.'.].[..X.XXXXX.X.X.XXXXXXXXXXX.X.XXXXXXXXXXX.X.XXXXXXXXX.X.X.X.XXXXX.XXXXXXXXXXXXXXXXXXXXX.XXXXX.X.X.X.XXXXXXXXX.X.XXXXXXXXXXX.XXXXX.X[.R.Z.f.f.f./ G 4 . . . . . . . . ",
"dXdXdXdXdXdXdXdXdXdXdXdXdXdXdXdXdXdXdXdXdXdXdXdXdXdXdXdXdXdXdXdXdXdXdXdXdXdXdXdXdXdXdXdXdXdXdXdXdXdXdXdXdXdXdXdXdXdXdXdXdXdXdXdXdXdXdXdXdXdXpX7X} X . . . . . . q / K.).).(.(.(.(.!.J.C.f.h.h.s.H 7 . . . . . . . 4 G i.h.m.f.^ C $ . . . . . . . . . . . . . . . . # e G H H H ~ F.].XXXXXX.XXXXX.X_.I.S.B.S.B.d.~ U H H H H U H C 7 + . . . . . . . . . . . . . . . . . . . . . . . $ 7 e e e Z H ^ f.h.h.f.f.f.g.C.D.J.K.K.K.K.K.K.K.K.K.K.J.K.R.(.{..XXXXX.X.X.XXXXXXXXX.X.X.X.XXXXXXXXX.X.X.XXXXXXX.X.X.X.X.XXX.X.XXXXXXXXXXXXXXXXX.X.XXX.X.X.X.X.XXXXXXX.X.X.XXXXXXXXX.X.XXXXX.X[.R.Z.f.h.f./ G 4 . . . . . . . . ",
"dXdXdXdXdXdXdXdXdXdXdXdXdXdXdXdXdXdXdXdXdXdXdXdXdXdXdXdXdXdXdXdXdXdXdXdXdXdXdXdXdXdXdXdXdXdXdXdXdXdXdXdXdXdXdXdXdXdXdXdXdXdXdXdXdXdXdXdXdXdXpX7X} X . . . . . . u v._..X.X.X.X.X.X[.W.D.f.f.h.s.H 7 . . . . . . . 4 G i.h.M.f.^ C $ . . . . . . . . . . . . . . . . % C ^ s.a.s.M.R.[..XXXXX.XXXXX.X.X|.[.|.|.].W.D.s.i.i.i.s.s.s.Q Z $ . . . . . . . . . . . . . . . . . . . . . . . . . X . X % Z Q f.h.h.f.f.f.f.h.M.M.C.C.C.M.M.M.M.M.M.M.M.M.D.R.]..XXXXX.X.XXXXXXX.X.X.X.X.X.X.X.XXXXXXX.X.X.XXXXX.XXX.X.X.X.X.X.X.X.XXXXXXXXX.X.X.X.X.X.X.X.XXX.XXXXX.X.X.XXXXXXX.X.X.X.XXXXX.X[.R.Z.f.f.f./ G 4 . . . . . . . . ",
"dXdXdXdXdXdXdXdXdXdXdXdXdXdXdXdXdXdXdXdXdXdXdXdXdXdXdXdXdXdXdXdXdXdXdXdXdXdXdXdXdXdXdXdXdXdXdXdXdXdXdXdXdXdXdXdXdXdXdXdXdXdXdXdXdXdXdXdXdXdXpX7X} X . . . . . . Z v.].oXOXXXXXoXXX}.!.D.f.f.h.s.H 7 . . . . . . . 4 G i.h.M.f.^ C $ . . . . . . . . . . . . . . . . 4 G i.h.h.h.D.W.[..XXXXX.X.X.XXXXXXXXXoXOXXX`.J.C.f.f.h.h.M.h.^ C $ . . . . . . . . . . . . . . . . . . . . . . . . . . . . X t E f.h.h.f.f.f.f.f.f.f.f.f.f.f.f.f.f.f.f.f.f.f.M.K.'..XXXXXXX.X.XXXXX.X.X.X.X.X.X.X.XXXXX.X.X.X.XXXXXXXXX.XXX.X.X.X.X.XXXXXXXXXXXXX.X.X.X.X.XXX.XXXXXXXXX.X.X.X.XXXXX.X.X.X.XXXXX.X[.R.Z.f.f.f.i.G 4 . . . . . . . . ",
"dXdXdXdXdXdXdXdXdXdXdXdXdXdXdXdXdXdXdXdXdXdXdXdXdXdXdXdXdXdXdXdXdXdXdXdXdXdXdXdXdXdXdXdXdXdXdXdXdXdXdXdXdXdXdXdXdXdXdXdXdXdXdXdXdXdXdXdXdXdXpX7X{ X . . . . . . Z N.].oXOXXXXXoXXX}.~.D.f.f.f.a.H 7 . . . . . . . 4 H i.h.C.f.^ C $ . . . . . . . . . . . . . . . . 7 H i.h.h.h.D.W.[..XXXXX.X.X.XXXXXXXXXOXOXXX[.R.C.f.f.h.h.M.f.^ C $ . . . . . . . . . . . . . . . . . . . . . . . . . . . . X t E f.h.h.f.f.f.f.f.f.f.f.f.f.f.f.f.f.f.f.f.s.f.M.K.'..XXXXXXX.X.X.X.X.XXXXXXXXXXXXX.X.X.X.X.X.X.X.X.XXXXXXXXX.X.XXXXX.X.X.X.X.X.X.X.XXXXX.X.XXXXXXXXX.X.X.X.X.X.X.X.X.XXXXXXXXXXX.X[.R.Z.f.f.f./ G 4 . . . . . . . . ",
"dXdXdXdXdXdXdXdXdXdXdXdXdXdXdXdXdXdXdXdXdXdXdXdXdXdXdXdXdXdXdXdXdXdXdXdXdXdXdXdXdXdXdXdXdXdXdXdXdXdXdXdXdXdXdXdXdXdXdXdXdXdXdXdXdXdXdXdXdXdXpX7X{ X . . . . . . Z v.'.XXXXXXXXXXXX}.!.D.f.f.f.a.H 7 . . . . . . . 4 H i.h.C.f.^ C $ . . . . . . . . . . . . . . . . 8 H i.f.f.f.A.W.[..XXXXX.X.X.X.XXXXXXXXXXX.X'.K.C.f.f.f.h.h.f.^ C $ . . . . . . . . . . . . . . . . . . . . . . . . . . . . + t Q f.h.h.f.f.f.f.f.f.f.f.f.f.f.f.f.f.f.f.f.f.f.C.R.]..XXXXX.X.X.X.X.XXXXXXXXXXXXXXXXX.X.X.XXX.X.XXX.XXXXXXXXX.X.X.XXX.X.X.X.X.X.X.X.XXX.X.X.XXXXXXXXX.XXX.X.XXX.X.X.XXXXXXXXXXXXX.X[.R.Z.f.f.f./ G 4 . . . . . . . . ",
"dXdXdXdXdXdXdXdXdXdXdXdXdXdXdXdXdXdXdXdXdXdXdXdXdXdXdXdXdXdXdXdXdXdXdXdXdXdXdXdXdXdXdXdXdXdXdXdXdXdXdXdXdXdXdXdXdXdXdXdXdXdXdXdXdXdXdXdXdXdXpX7X} X . . . . . . Z v.'.XXXXXXXXXXXX{.W.D.f.f.f.i.H 7 . . . . . . . 4 H i.h.M.f.^ C $ . . . . . . . . . . . . . . . . 8 H i.f.f.f.D.W.{.XXXXXXXXXXXXXXXXXXXXXXXX.X'.K.M.f.f.f.f.h.f.Q V # . . . . . . . . . . . . . . . . . . . . . . . . . . . . + t Q f.M.h.f.f.g.g.h.h.f.f.f.h.f.f.f.f.f.g.f.f.f.C.R.]..XXXXXXXXXXX.X.XXXXXXXXXXXXXXXXX.X.XXXXXXXXXXXXXXXXX.X.X.X.XXXXXXXXX.XXXXX.XXXXXXXXX.X.X.X.XXXXXXXXXXXXXXXXX.X.XXXXXXXXXXXXX.X[.R.Z.f.f.f./ G 4 . . . . . . . . ",
"dXdXdXdXdXdXdXdXdXdXdXdXdXdXdXdXdXdXdXdXdXdXdXdXdXdXdXdXdXdXdXdXdXdXdXdXdXdXdXdXdXdXdXdXdXdXdXdXdXdXdXdXdXdXdXdXdXdXdXdXdXdXdXdXdXdXdXdXdXdXpX7X} X . . . . . . Z v.'.XXXXXXXXXXXX{.W.A.f.f.f.i.H 7 . . . . . . . 4 H i.h.C.f.^ C $ . . . . . . . . . . . . . . . . 4 H i.f.f.f.D.W.}.XXoXXXXXXXXXXXXXXXXXoXoX.X'.K.M.f.f.f.h.h.f.Q V + . . . . . . . . . . . . . . . . . . . . . . . . . . . . + Z Q f.C.M.h.h.h.h.h.M.h.h.h.h.h.h.f.f.f.f.f.f.f.C.R.[.XXoXXXXXXXXXXXXXXXXXXXXXXXXXXX.X.X.XXXXXXXXXXXXXXXXXXX.X.X.XXXXXXXXXXXXXXXXXXXXXXXXX.X.X.XXXXXXXXXXXXXXXXXXX.X.X.XXXXXXXXXXX.X[.R.Z.f.f.f./ G 4 . . . . . . . . ",
"dXdXdXdXdXdXdXdXdXdXdXdXdXdXdXdXdXdXdXdXdXdXdXdXdXdXdXdXdXdXdXdXdXdXdXdXdXdXdXdXdXdXdXdXdXdXdXdXdXdXdXdXdXdXdXdXdXdXdXdXdXdXdXdXdXdXdXdXdXdXpX7X{ X . . . . . . t v._.XXoXXXXXXXXX}.!.D.h.f.h.s.H 7 . . . . . . . 4 G i.h.C.f.^ C $ . . . . . . . . . . . . . . . . 4 G i.f.f.f.A.W.[..XXXXX.X.XXX.X.X.X.XXXXX.X'.K.M.f.f.f.f.h.f.^ C $ . . . . . . . . . . . . . . . . . . . . . . . . . . . . + t Q f.h.f.f.f.f.f.f.f.f.f.f.f.f.f.f.f.f.f.f.f.f.C.R.]..XXXXXXXXXXX.X.X.X.X.X.XXXXXXXXXXXXX.XXXXXXXXXXXXXXXXXXXXX.XXXXXXXXXXXXX.X.X.X.X.X.XXXXXXX.X.X.X.X.X.X.X.XXXXX.X.X.X.X.XXXXX.X[.R.Z.f.f.f.^ D % . . . . . . . . ",
"dXdXdXdXdXdXdXdXdXdXdXdXdXdXdXdXdXdXdXdXdXdXdXdXdXdXdXdXdXdXdXdXdXdXdXdXdXdXdXdXdXdXdXdXdXdXdXdXdXdXdXdXdXdXdXdXdXdXdXdXdXdXdXdXdXpXuXtXtXtXqX>Xg   . . . . . . t v._.XXoXXXXXXXXX}.(.J.D.A.A.h.R e . . . . . . . 4 G i.h.C.f.^ C $ . . . . . . . . . . . . . . . . 4 G i.f.f.f.Z.R.).[.{.[.[.[.[.[.[.[.[.{.}.[.^.H.M.f.f.f.f.h.f.i.Y Z 8 8 8 8 8 8 8 8 8 8 8 8 8 5 + . . . . . . . . . . . . . X e H ~ ^ ^ ^ ^ ^ ^ ^ ^ ^ ^ Q ^ i.s.f.f.f.f.f.f.f.M.J.^.[.}.{.[.{.{.[.}..X.XXXXXXXXXXXXX.XXX.X.XXXXXXXXXXXXXXXXX.X.XXX.XXXXXXXXX.X.X.X.XXX.XXXXX.X.X.X.X.X.X.X.XXXXXXXXX.X.X.X.XXXXX.X[.R.Z.f.h.f.^ D % . . . . . . . . ",
"dXdXdXdXdXdXdXdXdXdXdXdXdXdXdXdXdXdXdXdXdXdXdXdXdXdXdXdXdXdXdXdXdXdXdXdXdXdXdXdXdXdXdXdXdXdXdXdXdXdXdXdXdXdXdXdXdXdXdXdXdXdXdXdXpXwX3X>X$.>X#. .p . . . . . . . u v.'.XXoXXXXXXX.X.X].^.W.W.W.K./ t . . . . . . . 4 G i.h.C.f.^ C $ . . . . . . . . . . . . . . . . 4 G i.f.h.f.M.H.R.W.W.W.W.W.W.W.W.W.W.W.W.W.J.D.h.f.f.f.f.f.f.g.d.j.j._ j.j._ _ _ _ _ _ j.j._ K q X . . . . . . . . . . . . . % q C C C C C C C C C C C V C H Q s.f.h.f.f.f.f.M.D.K.W.W.W.W.W.W.!.(.[..XXXXXXXXX.X.X.X.X.X.X.X.XXXXXXXXX.X.X.X.X.X.X.X.XXXXXXX.XXXXXXXXXXXXXXXXX.X.X.X.XXXXXXXXXXXXXXXXX.X.XXXXX.X[.R.Z.f.f.f.^ D % . . . . . . . . ",
"dXdXdXdXdXdXdXdXdXdXdXdXdXdXdXdXdXdXdXdXdXdXdXdXdXdXdXdXdXdXdXdXdXdXdXdXdXdXdXdXdXdXdXdXdXdXdXdXdXdXdXdXdXdXdXdXdXdXdXdXdXdXdXdXiX3X .f s s s - X . . . . . . . Z v.'.XXoXXXXXXX.X.X X}.[.}.}.^.v.Z X . . . . . . 4 G i.h.C.f.^ C $ . . . . . . . . . . . . . . . . 4 G i.h.h.f.h.C.Z.A.D.D.A.A.A.A.A.A.A.D.D.A.C.M.g.f.f.f.f.f.f.C.L.!._._._._._._.^.^.^.^._._.!.v.F # . . . . . . . . . . . . . X # $ $ $ $ $ $ $ $ $ $ $ # $ q H i.g.h.f.f.f.f.g.M.C.A.A.A.A.A.Z.D.R.'..XXXXXXX.X.X.X.X.X.X.X.XXXXXXXXXXXXX.X.X.X.X.X.X.X.XXXXXXXXXXXXXXXXXXXXX.X.X.X.XXXXXXXXXXXXXXXXXXXXX.XXXXX.X[.R.Z.f.f.f./ D % . . . . . . . . ",
"dXdXdXdXdXdXdXdXdXdXdXdXdXdXdXdXdXdXdXdXdXdXdXdXdXdXdXdXdXdXdXdXdXdXdXdXdXdXdXdXdXdXdXdXdXdXdXdXdXdXdXdXdXdXdXdXdXdXdXdXdXdXdXdXyX<Xf . . . . . . . . . . . . . Z v.'.XXXXXXXXXX.X.X.X.XXXXXXX[.B.A X . . . . . . 4 G i.h.m.f.^ C $ . . . . . . . . . . . . . . . . 4 G i.f.h.f.f.f.f.f.f.f.f.f.f.f.f.f.f.f.f.f.f.f.f.f.f.f.f.f.f.A.W.[..XXXXXXX.X.X.X.X.X.XXXXX}.P.J # . . . . . . . . . . . . . . . . . . . . . . . . . . . . 4 G i.h.h.f.f.f.f.f.f.f.f.f.f.f.f.f.h.H.(..XXXXXXXXX.X.X.X.X.X.X.X.XXXXXXXXX.X.X.X.X.X.X.X.X.X.XXXXXXXXXXXXXXXXXXXXX.X.X.X.XXXXXXXXXXXXXXXXXXXXXXXXX.X[.R.Z.f.f.f./ G 4 . . . . . . . . ",
"dXdXdXdXdXdXdXdXdXdXdXdXdXdXdXdXdXdXdXdXdXdXdXdXdXdXdXdXdXdXdXdXdXdXdXdXdXdXdXdXdXdXdXdXdXdXdXdXdXdXdXdXdXdXdXdXdXdXdXdXdXdXdXdXtX>Xs . . . . . . . . . . . . . Z v.'.XXXXXX.X.XXXXXXXXXXXOXOX|.S.A X . . . . . . 4 G i.h.m.f.^ C $ . . . . . . . . . . . . . . . . 4 H i.h.C.h.h.f.f.s.s.s.s.s.s.s.s.s.s.s.s.s.s.f.f.f.f.f.f.s.f.Z.W.}.XXOXOXoXXXXXoXoXXXXXOXOX.XI.L # . . . . . . . . . . . . . . . . . . . . . . . . . . . . % G i.M.C.h.h.h.h.h.h.f.f.f.f.f.f.f.h.J.)..XOXOXoXXXXXXX.X.XXX.X.X.XXXXXXXXX.X.X.X.X.XXX.X.XXX.XXX.XXXXXXXXXXXXXXXXX.X.X.X.XXXXXXXXXXX.XXXXXXXXXXXXX.X[.R.Z.f.f.f./ G 4 . . . . . . . . ",
"dXdXdXdXdXdXdXdXdXdXdXdXdXdXdXdXdXdXdXdXdXdXdXdXdXdXdXdXdXdXdXdXdXdXdXdXdXdXdXdXdXdXdXdXdXdXdXdXdXdXdXdXdXdXdXdXdXdXdXdXdXdXdXdXyX<Xf . . . . . . . . . . . . . Z v.'.XXXXXX.X.XXXXXXXXXXXoXoX|.B.A X . . . . . . 4 G i.h.M.f.^ C $ . . . . . . . . . . . . . . . . 4 G i.h.m.h.f.f.f.f.f.f.f.f.f.f.f.f.f.f.f.f.f.f.f.f.f.f.f.f.f.Z.W.{.XXXXXXXXXXXXXXXXXXXXoXOX}.P.J # . . . . . . . . . . . . . . . . . . . . . . . . . . . . % G i.h.M.h.h.h.h.h.h.f.f.f.f.f.f.f.M.H.)..XXXoXXXXXXXXXXXXX.X.X.X.X.XXXXX.X.X.X.X.XXXXXXXXXXXXX.X.X.X.XXX.XXXXXXXXXXX.X.XXXXXXXXXXX.X.X.X.XXX.XXXXX.X[.R.Z.f.f.f./ G 4 . . . . . . . . ",
"dXdXdXdXdXdXdXdXdXdXdXdXdXdXdXdXdXdXdXdXdXdXdXdXdXdXdXdXdXdXdXdXdXdXdXdXdXdXdXdXdXdXdXdXdXdXdXdXdXdXdXdXdXdXdXdXdXdXdXdXdXdXdXdXyX<Xf . . . . . . . . . . . . . Z v.'.XXXXXX.X.XXX.X.X.XXXXXXX[.B.Z X . . . . . . 4 G i.h.M.f.^ C $ . . . . . . . . . . . . . . . . 4 C Q i.i.i.s.g.M.C.C.C.C.C.C.C.C.C.C.C.C.C.C.C.C.C.C.C.C.M.C.H.~.{..XXXXX.X.X.XXXXXXXXXXXXX}.K.T 4 X . + + X X X . . . . . . . . . . . . . . . . . . . . . $ Z Q i.s.i.i.i.i.i.i.i.i.i.i.i.i.i.s.N.K._.].].].[. X.XXXXX.X.X.X.XXXXXXXXX.X.X.X.XXXXXXXXXXXXX.X.X.X.X.X.XXXXXXXXXXXXX.X.XXXXXXXXX.X.X.X.X.X.XXXXX.X[.R.Z.f.h.f.i.G 4 . . . . . . . . ",
"dXdXdXdXdXdXdXdXdXdXdXdXdXdXdXdXdXdXdXdXdXdXdXdXdXdXdXdXdXdXdXdXdXdXdXdXdXdXdXdXdXdXdXdXdXdXdXdXdXdXdXdXdXdXdXdXdXdXdXdXdXdXdXdXuX<Xf . . . . . . . . . . . . . Z v.'.XXXXXXXXXXXXXXXX.XXXXXXX[.B.A X . . . . . . 4 H i.h.C.f.^ C $ . . . . . . . . . . . . . . . . # e C G G G E d.D.R.R.R.R.R.R.R.R.R.R.R.R.R.R.R.R.R.R.R.R.R.R.W.'. XXXXXXXXX.XXXXX.X.X.XXXXX.XQ.l.D e e t t t r e % . . . . . . . . . . . . . . . . . . . . + 7 C H H G G G G G G G G G G G G G H E / l.v.v.v.F.!.{.XXXXXXXXXXXXXX.X.XXXXXXX.XXXXX.X.X.X.X.XXXXXXXXXXXXX.XXX.X.XXXXXXX.X.X.XXX.X.X.X.X.X.X.XXXXX.X[.R.Z.f.h.f./ G 4 . . . . . . . . ",
"dXdXdXdXdXdXdXdXdXdXdXdXdXdXdXdXdXdXdXdXdXdXdXdXdXdXdXdXdXdXdXdXdXdXdXdXdXdXdXdXdXdXdXdXdXdXdXdXdXdXdXdXdXdXdXdXdXdXdXdXdXdXdXdXuX<Xf . . . . . . . . . . . . . Z v.'.XXXXXX.XXX.X.X.X.XXXoXXX[.S.A X . . . . . . 4 G i.h.C.f.^ C $ . . . . . . . . . . . . . . . . . # % 4 % 4 C l.Q.].[.].'.'.].].].].].].].].].].].].].].].].].[.}..XXXXXXXXXXXXXXX.X.X.XXXXX.X^.S.^ E R E Q Q R H e + . . . . . . . . . . . . . . . . . . . . # % 4 4 4 4 4 4 4 4 4 4 4 4 4 4 4 8 8 q t t q Z T S.'.XXXXXXXXXXXXXX.X.XXXXXXXXXXXXXXX.X.X.X.XXXXXXXXX.XXX.X.X.X.XXXXXXX.X.X.XXXXX.X.X.X.X.X.XXXXXXX[.R.Z.f.h.f./ G 4 . . . . . . . . ",
"dXdXdXdXdXdXdXdXdXdXdXdXdXdXdXdXdXdXdXdXdXdXdXdXdXdXdXdXdXdXdXdXdXdXdXdXdXdXdXdXdXdXdXdXdXdXdXdXdXdXdXdXdXdXdXdXdXdXdXdXdXdXdXdXuX<Xf . . . . . . . . . . . . . Z v.'.XXXXXX.X.XXX.X.X.XXXXXXX[.S.A X . . . . . . 4 H i.h.C.f.^ C $ . . . . . . . . . . . . . . . . . . . . . . q j._..XXX.X.X.X.X.X.X.X.X.X.X.X.X.X.X.X.X.X.X.X.X.X.X.XXXXXXXXXXXXXXXXXXXXXXXXX.X).J.h.s.s.f.f.f.f.Q Z # . . . . . . . . . . . . . . . . . . . . . . . . . . . . . . . . . . . . . . . . . . . X u c._.XXXXXXXXXXXX.X.X.X.XXXXXXXXXXXXXXXXX.X.XXXXX.X.X.X.X.X.X.X.XXXXXXXXX.X.X.X.X.X.XXX.XXXXXXXXXXX[.R.Z.f.f.f./ G 4 . . . . . . . . ",
"dXdXdXdXdXdXdXdXdXdXdXdXdXdXdXdXdXdXdXdXdXdXdXdXdXdXdXdXdXdXdXdXdXdXdXdXdXdXdXdXdXdXdXdXdXdXdXdXdXdXdXdXdXdXdXdXdXdXdXdXdXdXdXdXuX<Xf . . . . . . . . . . . . . Z v.'.XXXXXXXXXXXXXXXX.XXXoXXX[.S.A X . . . . . . 4 H i.h.C.f.^ C $ . . . . . . . . . . . . . . . . . . . . . . 8 _ _.XXOXXXXXXXXXXXXXXXXXXXXXXXXXXXXXXXXXXXXXoXXXXXXX.X.X.XXXXXXXXXXXXXXXXXXXXX.X'.R.C.h.h.h.M.C.h.^ C $ . . . . . . . . . . . . . . . . . . . . . . . . . . . . . . . . . . . . . . . . . . . . 8 l._.XXoXXX.XXXXX.X.X.X.XXXXXXXXXXXXXXXXXXX.XXX.X.X.X.X.X.X.X.X.XXXXXXXXX.X.XXX.X.X.XXXXXXXXXXXXX.X[.R.Z.f.f.f./ G 4 . . . . . . . . ",
"dXdXdXdXdXdXdXdXdXdXdXdXdXdXdXdXdXdXdXdXdXdXdXdXdXdXdXdXdXdXdXdXdXdXdXdXdXdXdXdXdXdXdXdXdXdXdXdXdXdXdXdXdXdXdXdXdXdXdXdXdXdXdXdXuX<Xf . . . . . . . . . . . . . Z v.'.XXXXXXXXXXXX.X.X.XXXoXXX[.B.A X . . . . . . 4 G i.h.C.f.^ C $ . . . . . . . . . . . . . . . . . . . . . . 8 _ _.XXOXXXXXXXXXXXXXXXXXXXXXXXXXXXXXXXXXXXXXXXXXXXXX.X.X.X.X.XXXXX.X.XXX.XXXXX.X'.K.C.f.f.h.h.m.h.^ C $ . . . . . . . . . . . . . . . . . . . . . . . . . . . . . . . . . . . . . . . . . . . . q l._.XXoXXX.XXXXX.X.X.X.XXXXXXXXX.X.XXXXXXXXXXXXX.X.X.X.X.X.X.X.XXXXXXXXXXX.XXXXX.X.X.X.XXXXXXXXX.X[.R.Z.f.f.f.^ D % . . . . . . . . ",
"dXdXdXdXdXdXdXdXdXdXdXdXdXdXdXdXdXdXdXdXdXdXdXdXdXdXdXdXdXdXdXdXdXdXdXdXdXdXdXdXdXdXdXdXdXdXdXdXdXdXdXdXdXdXdXdXdXdXdXdXdXdXdXdXuX<Xf . . . . . . . . . . . . . Z v.'.XXXXXXXX.XXX.X.X.XXXXXXX[.B.Z X . . . . . . 4 G i.h.M.f.^ C $ . . . . . . . . . . . . . . . . . . . . . . 8 _ _..XXXXXXXXX.X.X.X.X.XXXXXXX.X.X.X.X.X.XXXXXXXXX.X.X.X.X.X.XXXXXXX.XXXXXXXXX.X'.K.M.f.f.f.f.h.f.^ C $ . . . . . . . . . . . . . . . . . . . . . . . . . . . . . . . . . . . . . . . . . . . . q l._.XXXXXX.XXXXX.X.X.X.XXXXXXXXXXX.XXXXXXXXXXXXX.X.X.X.X.X.X.X.XXXXXXXXXXX.XXXXX.XXX.X.XXXXXXXXX.X[.R.Z.f.f.f.^ D % . . . . . . . . ",
"dXdXdXdXdXdXdXdXdXdXdXdXdXdXdXdXdXdXdXdXdXdXdXdXdXdXdXdXdXdXdXdXdXdXdXdXdXdXdXdXdXdXdXdXdXdXdXdXdXdXdXdXdXdXdXdXdXdXdXdXdXdXdXdXuX<Xf . . . . . . . . . . . . . Z B.].OXOXXXXXXXXXXXXXXXXXOXOX|.S.A X . . . . . . 4 G i.h.M.f.^ C $ . . . . . . . . . . . . . . . . . . . . . . 8 j._.XXOXoXXXXXXXXXXXXXXXXXXXXXXXXX.X.X.X.X.X.X.XXX.X.X.X.XXXXXXXXX.XXX.X.XXXXX.X'.K.C.f.f.f.f.h.f.^ C $ . . . . . . . . . . . . . . . . . . . . . . . . . . . . . . . . . . . . . . . . . . . . e l._.XXOXXXXXXXXXXXXXXXXXXXXXXXXXXXXXXXXXXXXXXXXXXXXXXX.X.X.XXXXXXXXXXXXXXXXXXXXXXXXX.X.X.XXXXXXX.X[.E.A.h.h.f.i.G % . . . . . . . . ",
"dXdXdXdXdXdXdXdXdXdXdXdXdXdXdXdXdXdXdXdXdXdXdXdXdXdXdXdXdXdXdXdXdXdXdXdXdXdXdXdXdXdXdXdXdXdXdXdXdXdXdXdXdXdXdXdXdXdXdXdXdXdXdXdXyX>Xs . . . . . . . . . . . . . Z B.[.OXOXOXOXoXoXoXoXXXoXOXOX XS.A X . . . . . . 4 G i.h.M.f.^ C $ . . . . . . . . . . . . . . . . . . . . . . 8 l._.XXOXOXXXXXXXXXXXXXXXXXXXXXXXXXXX.X.X.X.X.X.XXXXX.X.XXX.XXXXXXX.X.X.X.XXXXX.X'.K.C.f.f.f.f.h.f.^ C $ . . . . . . . . . . . . . . . . . . . . . . . . . . . . . . . . . . . . . . . . . . . . t c.'.OXOXOXXXXXXXXXXXoXoXoXoXoXoXXXXXXXXXXXXXOXOXoXXXXXXXXXXXXXXXXXXXXXXXXXXXXXXXXXXX.X.XXXXXXXXX.X[.E.A.h.m.h.i.G % . . . . . . . . ",
"dXdXdXdXdXdXdXdXdXdXdXdXdXdXdXdXdXdXdXdXdXdXdXdXdXdXdXdXdXdXdXdXdXdXdXdXdXdXdXdXdXdXdXdXdXdXdXdXdXdXdXdXdXdXdXdXdXdXdXdXdXdXdXdXuX2X[ X . X X X . . . . . . . . u c._..X.X X X X X X X X X.X.X_.v.Z X . . . . . . 4 G i.h.C.f.^ C $ . . . . . . . . . . . . . . . . . . . . . . 8 ~ Q. X.X.X X X X X X.X.X.X.X.X.X.X.X.X.X.X.XXX.X.XXXXX.X.X.X.X.X.X.XXXXXXXXXXX.X'.K.M.f.f.f.f.h.f.^ C $ . . . . . . . . . . . . . . . .                                           . . . . . . . q l./. X.X}.}. X X X X}.}. X X X X X X X X X X X X X.X.X.XXXXXXX.X.X.X.X.X.X.XXXXXXXXX.X.X.X.XXXXX.X].R.M.s.s.s.^ C % . . . . . . . . ",
"dXdXdXdXdXdXdXdXdXdXdXdXdXdXdXdXdXdXdXdXdXdXdXdXdXdXdXdXdXdXdXdXdXdXdXdXdXdXdXdXdXdXdXdXdXdXdXdXdXdXdXdXdXdXdXdXdXdXdXdXdXdXdXdXiX8X#.} [ } [ s = . . . . . . . 8 W S.I.I.P.P.P.P.P.P.P.P.I.I.S.W q . . . . . . . 4 G i.h.C.f.^ C $ . . . . . . . + % 7 7 7 7 7 7 8 % + . . . . % J v.P.I.P.P.P.P.I.Q.^.).'.`.'.[. X.XXXXXXXXXXXXXXXXXXX.X.X.X.X.X.X.X.XXXXXXXXX.X'.K.M.f.f.f.f.h.f.^ C $ . . . . . . . . . . . . . . : 2 2 3 2 3 3 3 3 3 3 3 3 3 3 3 3 3 3 3 3 3 3 2 : o . . . . 8 T B.P.I.P.L.P.P.P.P.L.L.P.P.P.P.P.P.P.P.P.P.L.P.Q._. XXXXXXX.X.X.X.X.X.X.X.XXXXXXXXX.X.X.X.XXXXX.X_.D./ R R R H e # . . . . . . . . ",
"dXdXdXdXdXdXdXdXdXdXdXdXdXdXdXdXdXdXdXdXdXdXdXdXdXdXdXdXdXdXdXdXdXdXdXdXdXdXdXdXdXdXdXdXdXdXdXdXdXdXdXdXdXdXdXdXdXdXdXdXdXdXdXdXsXtX0X7X7X7X2Xo.s . . . . . . . $ e F T L J J J L L L L L T T J t $ . . . . . . . 4 G i.h.C.f.^ C $ . . . . . . . 4 Z H I I H I H H V 4 . . . . X 8 F J T T L K K T p.S.K.K.J.T.~.]..XXXXXXXXXXXXXXXXX.XXXXX.X.X.X.XXXXXXXXXXXXX.X'.K.M.f.f.f.f.h.f.^ C $ . . . . . . . . . . . . . : j m B B N N N N N N N N N N N N N N N N N N B M z ,   . . . # q F L T J J L L L L J J J J L L L L L L L K J L j.P.[.XXXXXXXXXX.X.X.X.XXXXX.X.XXXXX.X.X.X.XXXoX.X_.v.G e e e 7 % X . . . . . . . . ",
"dXdXdXdXdXdXdXdXdXdXdXdXdXdXdXdXdXdXdXdXdXdXdXdXdXdXdXdXdXdXdXdXdXdXdXdXdXdXdXdXdXdXdXdXdXdXdXdXdXdXdXdXdXdXdXdXdXdXdXdXdXdXdXdXdXsXpXpXpXpXtX2X[ X . . . . . . . X # # # # # # # # # # # $ # # X . . . . . . . . 4 G i.h.C.f.^ C $ . . . . . . X e I i.s.s.a.s.s.i.U e X . . . . X + # $ $ # # # 5 C ~ h.C.M.C.J.). XXXXXXXXXXXXXXXXXXXXXXXXXXX.X.X.XXXXXXXXXXX.X'.K.M.f.f.f.g.h.f.^ C $ . . . . . . . . . . . . . 2 m >.q.q.5.5.5.5.5.5.5.5.5.5.5.5.5.5.5.5.5.q.q.>.N 3 . . . . . X # # # # # # # # # # # # # # $ # # # # # # X $ Z v._.XXXXXXXXXX.X.X.X.XXXXX.X.XXXXXXXXXXXXXXXoX.X!.~ 8 X . X X . . . . . . . . . . ",
"dXdXdXdXdXdXdXdXdXdXdXdXdXdXdXdXdXdXdXdXdXdXdXdXdXdXdXdXdXdXdXdXdXdXdXdXdXdXdXdXdXdXdXdXdXdXdXdXdXdXdXdXdXdXdXdXdXdXdXdXdXdXdXdXdXdXdXdXdXdXpX7X} X . . . . . . . . . . . . . . . . . . . . . . . . . . . . . . . 4 G i.h.m.f.^ C $ . . . . . . X e R f.M.M.h.h.m.f.Q r X . . . . . . . . . . . . . e U s.f.f.h.H.^. XXXXXXXXXXXXXXXXXXXXXXXXXXXXXXXXXXXXXXXXXXX.X'.K.M.f.f.f.h.h.f.^ C $ . . . . . . . . . . . .   3 N q.y.y.r.r.r.r.r.r.r.r.r.r.r.r.r.r.r.r.r.y.y.q.-.j . . . . . . . . . . . . . . . . . . . . . . . . . . . . . q l._.XXXXXXXXXX.X.X.X.XXXXX.X.X.X.XXXXXXXXXXXXX.X!.! 4 . . . . . . . . . . . . . . ",
"dXdXdXdXdXdXdXdXdXdXdXdXdXdXdXdXdXdXdXdXdXdXdXdXdXdXdXdXdXdXdXdXdXdXdXdXdXdXdXdXdXdXdXdXdXdXdXdXdXdXdXdXdXdXdXdXdXdXdXdXdXdXdXdXdXdXdXdXdXdXpX7X} X . . . . . . . . . . . . . . . . . . . . . . . . . . . . . . . 4 G i.h.m.f.^ C $ . . . . . . X e R f.M.M.h.M.m.f.Q r + . . . . . . . . . . . . . e U s.f.f.g.H.^. XXXXXXXXXXXXXXXXXXXXXXXXXXXXXXXXXXX.XXXXXXX.X'.K.M.f.f.f.h.h.f.^ C $ . . . . . . . . . . . .   3 B q.y.y.y.r.r.r.r.r.r.r.r.r.r.r.r.r.r.r.r.y.y.w.-.j . . . . . . . . . . . . . . . . . . . . . . . . . . . . . q l._.XXoXXXXXXX.X.X.X.XXXXX.X.X.X.X.XXXXXXXXXOX.X!.! 5 . . . . . . . . . . . . . . ",
"dXdXdXdXdXdXdXdXdXdXdXdXdXdXdXdXdXdXdXdXdXdXdXdXdXdXdXdXdXdXdXdXdXdXdXdXdXdXdXdXdXdXdXdXdXdXdXdXdXdXdXdXdXdXdXdXdXdXdXdXdXdXdXdXdXdXdXdXdXdXpX7X} X . . . . . . . . . . . . . . . . . . . . . . . . . . . . . . . 4 G i.h.M.f.^ C $ . . . . . . X e R s.h.h.f.h.h.f.R r + . . . . . . . . . . . . X e R s.f.f.h.H.(. XXXXXXX.X.XXXXX.X.X.X.X.X.XXXXX.X.X.X.XXXXX.X'.K.M.f.f.f.h.h.f.^ C $ . . . . . . . . . . . .   3 N 5.r.r.e.e.e.e.e.e.e.e.e.e.e.e.e.e.e.e.e.r.y.q.-.j . . . . . . . . . . . . . . . . . . . . . . . . . . . . . q l._.XXXXXXXXXXXX.X.XXXXXXXXXXXXXXXXXXX.X.XXXoX.X!.~ 5 . . . . . . . . . . . . . . ",
"dXdXdXdXdXdXdXdXdXdXdXdXdXdXdXdXdXdXdXdXdXdXdXdXdXdXdXdXdXdXdXdXdXdXdXdXdXdXdXdXdXdXdXdXdXdXdXdXdXdXdXdXdXdXdXdXdXdXdXdXdXdXdXdXdXdXdXdXdXdXiX3X[ X . . . . . . . . . . . . . . . . . . . . . . . . . . . . . . . 4 G i.h.C.f.^ C $ . . . . . . X e R s.h.h.f.h.h.f.R r + . . . . . . . . . . . . X e R s.f.f.h.H.(..XXXXXXXXXXXXXXXXX.X.X.X.X.XXX.X.X.X.X.XXXXX.X'.K.M.f.f.f.f.h.f.^ Z # . . . . . . . . . . . .   3 N q.y.y.r.r.r.r.r.r.r.r.r.r.r.r.r.r.r.r.r.y.y.q.-.j   . . . . . . . . . . . . . . . . . . . . . . . . . . . . q l._.XXOXXXXXXXXXXXXXXXXXXXXXXXXXXX.XXXXX.XXXoX.X!.~ 5 . . . . . . . . . . . . . . ",
"dXdXdXdXdXdXdXdXdXdXdXdXdXdXdXdXdXdXdXdXdXdXdXdXdXdXdXdXdXdXdXdXdXdXdXdXdXdXdXdXdXdXdXdXdXdXdXdXdXdXdXdXdXdXdXdXdXdXdXdXdXdXdXdXdXdXdXdXdXdXiX3X[ . . . . . . . . . . . . . . . . . . . . . . . . . . . . . . . . 4 G i.m.C.h.^ C $ . . . . . . X q R s.h.h.f.h.h.f.Q t X . . . . . . . . . . . . X e R s.h.f.h.H.(..XoXoXXXXXXXXXXXXX.X.XXXXXXXXXXXXXXX.X.XXXXX.X'.K.M.f.f.f.h.M.f.^ C # . . . . . . . . . . . .   3 N q.y.y.y.y.y.y.y.y.y.t.r.r.y.y.y.y.r.r.r.y.y.w.-.j . . . . . . . . . . . . . . . . . . . . . . . . . . . . . q c.'.OXOXOXXXXXOXOXXXXXXXXXOXOXXXXX.X.X.X.XXXOX.XQ.! & . . . . . . . . . . . . . . ",
"dXdXdXdXdXdXdXdXdXdXdXdXdXdXdXdXdXdXdXdXdXdXdXdXdXdXdXdXdXdXdXdXdXdXdXdXdXdXdXdXdXdXdXdXdXdXdXdXdXdXdXdXdXdXdXdXdXdXdXdXdXdXdXdXdXdXdXdXdXdXpX7X} X . . . . . . . . . . . . . . . . . . . . . . . . . . . . . . . 4 G i.h.m.f.^ C $ . . . . . . X e R s.h.h.f.h.h.f.Q t X . . . . . . . . . . . . X e R s.h.f.h.H.(. XXXXX.X.X.X.X.X.X.X.X.XXXXXXXXX.XXX.X.XXXXX.X'.K.M.f.f.f.h.h.f.^ C $ . . . . . . . . . . . .   2 N <.e.r.e.e.e.e.e.e.e.e.e.e.e.e.e.e.e.e.w.r.y.q.-.j o . . . . . . . . . . . . . . . . . . . . . . . . . . . . q l._.XXXXXX.XXXXXXX.X.X.X.XXXXX.X.X.X.X.X.XXXoX.X!.) 8 . . . . . . . . . . . . . . ",
"dXdXdXdXdXdXdXdXdXdXdXdXdXdXdXdXdXdXdXdXdXdXdXdXdXdXdXdXdXdXdXdXdXdXdXdXdXdXdXdXdXdXdXdXdXdXdXdXdXdXdXdXdXdXdXdXdXdXdXdXdXdXdXdXdXdXdXdXdXdXpX0X+.f p s s s s s s s s s s s s s s p =   . . . . + 5 8 8 8 8 8 8 8 Z H Q ^ i.^ U r # . . . . . . X e R s.h.h.f.h.h.f.Q t X . . . . . . . . . . . . X e R s.h.f.h.D.W.].{.{.[.[.[.[.}. X.X.XXX.X.X.X.XXX.XXX.XXXXX.X`.K.M.f.f.f.f.h.f.i.H e $ $ $ # X . . . . . . . . 2 b -.>.>.>.:.:.:.:.>.>.:.:.>.>.>.>.>.>.:.:.>.>.:.N j 2 O O : : : : : O O O : : : : : : : : O o   . . . . . . . 8 W L.^._._._._._._._._.!.!._._.'. X.XXXXXXXXXXX.X_.c.F 8 8 8 8 # . . . . . . . . . ",
"dXdXdXdXdXdXdXdXdXdXdXdXdXdXdXdXdXdXdXdXdXdXdXdXdXdXdXdXdXdXdXdXdXdXdXdXdXdXdXdXdXdXdXdXdXdXdXdXdXdXdXdXdXdXdXdXdXdXdXdXdXdXdXdXdXdXdXdXdXdXsXtX7X>X$.$.$.$.$.$.$.>.$.$.$.$.>X>X$.+.[ - . . . X q K _ l.j._ _ _ _ ! Y G C C C r 4 X . . . . . . X e R s.h.h.f.h.h.f.Q t X . . . . . . . . . . . . X e R s.h.f.h.Z.J.R.W.W.W.W.E.W.^.]. X.XXX.X.X.X.X.X.XXXXXXXXX.X`.K.M.f.f.f.f.h.f.s.Q H C C C V 7 + . . . . . . . O 3 z b m b b b b b b b b b b b b b b b b b b b b b b b b b b b b b b b b b b b b b b b b m z 3 O . . . . . . . $ Z W _ j.j._ _ j.j.j._ / ~ _ l.S._..XXXXXXXXXXX.X].I.v.j.j._ W Z $ . . . . . . . . ",
"dXdXdXdXdXdXdXdXdXdXdXdXdXdXdXdXdXdXdXdXdXdXdXdXdXdXdXdXdXdXdXdXdXdXdXdXdXdXdXdXdXdXdXdXdXdXdXdXdXdXdXdXdXdXdXdXdXdXdXdXdXdXdXdXdXdXdXdXdXdXdXpXuXtXtXtXtXtXtXtXtXrXrXrXtXtXtXuXtX0X@.s . . . + F v.!._._._._._.!.S.T q # # # # X . . . . . . . X e R s.h.h.f.h.h.f.Q t + . . . . . . . . . . . . X e R s.h.h.f.h.C.Z.D.D.D.Z.Z.D.J.^.}..XXXXX.X.X.XXXXXXX.XXXXX.X'.K.M.f.f.f.f.f.f.f.s.i.^ ^ ^ R Z $ . . . . . . .   o O : : : : O O O O O O O : : : : : O O O O O : j M -.>.>.>.>.>.>.>.>.>.>.:.:.:.:.>.>.>.>.-.m 2   . . . . . . . # 4 8 8 8 8 8 8 8 8 8 8 8 8 u ~ I. XXXXXXXXXXX.X X]._._._.^.L.W 8 . . . . . . . . ",
"dXdXdXdXdXdXdXdXdXdXdXdXdXdXdXdXdXdXdXdXdXdXdXdXdXdXdXdXdXdXdXdXdXdXdXdXdXdXdXdXdXdXdXdXdXdXdXdXdXdXdXdXdXdXdXdXdXdXdXdXdXdXdXdXdXdXdXdXdXdXdXdXdXdXdXdXdXdXdXdXdXdXdXdXdXdXdXdXdXyX<Xf . . . # K P. XOXXXXXXXOX.XQ.W % . . . . . . . . . . . . X q R s.h.h.f.h.h.f.E t + . . . . . . . . . . . . X e R s.h.h.f.f.f.f.f.f.f.f.f.f.D.W.[.XXXXXXXXXX.XXXXX.X.XXXXX.X`.K.M.f.f.f.f.f.f.f.f.f.f.h.h.i.G 4 . . . . . . . . . . . . . . . . . . . . . . . . . . . . . . .   3 N 5.r.r.r.e.r.r.e.e.e.e.r.r.e.e.e.e.r.r.5.B 3   . . . . . . . . . . . . . . . . . . . . . # J F. XoXXXXXXXXX.X.X.X.XXXoXXX_.l.q . . . . . . . . ",
"dXdXdXdXdXdXdXdXdXdXdXdXdXdXdXdXdXdXdXdXdXdXdXdXdXdXdXdXdXdXdXdXdXdXdXdXdXdXdXdXdXdXdXdXdXdXdXdXdXdXdXdXdXdXdXdXdXdXdXdXdXdXdXdXdXdXdXdXdXdXdXdXdXdXdXdXdXdXdXdXdXdXdXdXdXdXdXdXdXuX<Xd . . . X L U.XX+X+XOX+X+XoX!.W $ . . . . . . . . . . . . . e U s.f.f.f.f.f.s.E t + . . . . . . . . . . . . X e R f.m.m.h.h.f.f.f.f.f.f.s.f.Z.W.{.XXoXXXXXXXXXXXXX.X.XXXXX.X`.J.M.s.s.f.f.f.f.f.f.h.M.C.M.i.H 4 . . . . . . . . . . . . . . . . . . . . . . . . . . . . . . . . 2 B q.u.u.y.y.y.y.y.y.y.y.y.y.y.y.y.y.y.y.q.B 3 . . . . . . . . . . . . . . . . . . . . . . . F S.|.XXXX.X.X.X.XXXXXXXOXOXOX'.c.q . . . . . . . . ",
"dXdXdXdXdXdXdXdXdXdXdXdXdXdXdXdXdXdXdXdXdXdXdXdXdXdXdXdXdXdXdXdXdXdXdXdXdXdXdXdXdXdXdXdXdXdXdXdXdXdXdXdXdXdXdXdXdXdXdXdXdXdXdXdXdXdXdXdXdXdXdXdXdXdXdXdXdXdXdXdXdXdXdXdXdXdXdXdXdXuX<Xf . . . + K I..XOXOXXXOXOX.XQ.W % . . . . . . . . . . . . X e R s.h.f.f.f.h.s.E t + . . . . . . . . . . . . X e R f.m.h.h.f.f.f.f.f.f.f.f.f.A.W.{.XXoXXXXXXXXXXXXX.X.XXXXX.X'.K.M.f.f.f.f.f.f.f.f.f.h.M.h.i.G 4 . . . . . . . . . . . . . . . . . . . . . . . . . . . . . . . . 3 N q.y.y.t.r.r.r.t.t.r.r.r.r.r.r.r.r.y.y.q.B 3 . . . . . . . . . . . . . . . . . . . . . . X F F.|.XXXX.X.X.XXXXXXXXXXXOXXX_.l.q . . . . . . . . ",
"dXdXdXdXdXdXdXdXdXdXdXdXdXdXdXdXdXdXdXdXdXdXdXdXdXdXdXdXdXdXdXdXdXdXdXdXdXdXdXdXdXdXdXdXdXdXdXdXdXdXdXdXdXdXdXdXdXdXdXdXdXdXdXdXdXdXdXdXdXdXdXdXdXdXdXdXdXdXdXdXdXdXdXdXdXdXdXdXdXuX3X} p = - a W G._.].]._.].[._.S.K $ . . . . X $ & & & & % % 8 F ^ M.Z.Z.C.Z.Z.M.~ Z + . . . . . . . . . . . . X e H ^ i.i.i.s.s.f.f.f.f.f.f.f.Z.R.'.}. X X X.X.X.X.XXXXXXXXX.X].R.D.M.M.C.C.C.C.C.M.h.f.h.h.i.H e # X X + + + + X . . . . . . X X + + + + + + + + + + + + + + + @ 3 M :.5.5.<.<.<.<.<.<.<.<.<.<.<.q.q.e.r.r.q.-.j : o o @ @ @ @ @ @ @ @ o o o @ @ o   . . . . X F S.{.XXXXXX.X.X.X.X.X.XXXOXXX_.l.q . . . . . . . . ",
"dXdXdXdXdXdXdXdXdXdXdXdXdXdXdXdXdXdXdXdXdXdXdXdXdXdXdXdXdXdXdXdXdXdXdXdXdXdXdXdXdXdXdXdXdXdXdXdXdXdXdXdXdXdXdXdXdXdXdXdXdXdXdXdXdXdXdXdXdXdXdXdXdXdXdXdXdXdXdXdXdXdXdXdXdXdXdXdXdXpXqX<X+.o.o.+.X.x.v.v.v.v.N.B.v.W u + . . . # q J W W W W T T ! l.D.K.R.R.R.R.R.J.d.D # . . . . . . . . . . . . . 4 t G G G H R / f.g.h.f.f.f.f.C.H.E.^.^.^.(.]. X.XXXXXXXXXXX.X{.(.R.T.K.R.R.R.R.J.D.M.f.f.f.s.Q G t t t t t Z t 7 # . . . . X 4 q t Z t t t t t t t t t t t t r t l z M M M m m M M M M M M M M N -.5.w.r.r.q.:.N z j j j j j j j j j j j j j z j j , o . . . X F S.{.XXXXXX.X.X.X.XXX.XXXOXXX_.l.q . . . . . . . . ",
"dXdXdXdXdXdXdXdXdXdXdXdXdXdXdXdXdXdXdXdXdXdXdXdXdXdXdXdXdXdXdXdXdXdXdXdXdXdXdXdXdXdXdXdXdXdXdXdXdXdXdXdXdXdXdXdXdXdXdXdXdXdXdXdXdXdXdXdXdXdXdXdXdXdXdXdXdXdXdXdXdXdXdXdXdXdXdXdXdXsXiXeXwXwXwX0X1X..A t t t t t t q $ . . . . 4 L B.U.Q.Q.U.U.U.Q.!._.'.].].].[.[.).S.J $ . . . . . . . . . . . . . X $ 4 4 4 7 Z E s.h.h.f.f.f.f.h.C.D.D.D.D.J.~.[..XXXXXXXXXXX.X.X{.].'.'.].].[.].^.K.C.f.f.f.f.i.^ Q E Q Q Q Q R G 7 . . . . # t H Q Q Q Q Q Q Q Q Q Q Q Q Q Q Q E J l 3 2 2 , , , , 2 2 2 2 2 2 3 m :.w.y.r.w.q.>.-.-.-.-.-.-.-.-.-.-.-.-.-.-.;.-.B z : . . . + F S.|.XXXXXXXX.XXXXXXXXXXXOXXX_.l.q . . . . . . . . ",
"dXdXdXdXdXdXdXdXdXdXdXdXdXdXdXdXdXdXdXdXdXdXdXdXdXdXdXdXdXdXdXdXdXdXdXdXdXdXdXdXdXdXdXdXdXdXdXdXdXdXdXdXdXdXdXdXdXdXdXdXdXdXdXdXdXdXdXdXdXdXdXdXdXdXdXdXdXdXdXdXdXdXdXdXdXdXdXdXdXdXdXdXdXdXdXiX3X} @ . . . . . . . . . . . . 8 _ !..XXX.X.X.X.X.X.X.X.X.X.X.XXXXX XK.T $ . . . . . . . . . . . . . . . . . . X 7 H s.h.h.g.f.f.f.f.g.h.h.f.g.Z.R.]..XXXXXXX.X.XXX.X.X.X.X.X.X.XXX.X[.W.A.f.f.f.f.f.f.f.f.f.f.f.f.s.U e X . . . % D ^ f.f.f.f.f.f.f.f.f.f.f.f.f.f.f.s.R t # . . . . . . . . . . . . O z -.q.y.r.e.e.w.w.q.q.q.q.q.q.q.q.w.w.w.w.w.e.e.<.m 2 . . . + F S.|.XXXXXXXXXXXXXXXXXXXXOXXX_.l.q . . . . . . . . ",
"dXdXdXdXdXdXdXdXdXdXdXdXdXdXdXdXdXdXdXdXdXdXdXdXdXdXdXdXdXdXdXdXdXdXdXdXdXdXdXdXdXdXdXdXdXdXdXdXdXdXdXdXdXdXdXdXdXdXdXdXdXdXdXdXdXdXdXdXdXdXdXdXdXdXdXdXdXdXdXdXdXdXdXdXdXdXdXdXdXdXdXdXdXdXdXsX7X} . . . . . . . . . . . . . 8 j._.XXOXOXoXoXoXXXXXXXXXXXXXXXoXOX.XQ.W $ . . . . . . . . . . . . . . . . . . . 8 H a.h.h.f.f.f.f.f.f.f.f.s.s.M.T.'..XXXXX.X.X.XXXXXXXXXXXXXXXoXoXXX{.W.A.f.f.f.f.f.h.h.M.h.h.M.m.f.R e X . . . 4 G i.h.C.M.h.h.h.h.h.h.h.h.h.h.m.m.f.R e . . . . . . . . . . . . . . j -.q.y.r.e.r.r.t.y.y.y.y.t.t.t.t.t.t.t.t.y.y.y.5.N 2 . . . + F F.|.XXXX.XXXXXXXXXXXXXXXXXXX_.l.q . . . . . . . . ",
"dXdXdXdXdXdXdXdXdXdXdXdXdXdXdXdXdXdXdXdXdXdXdXdXdXdXdXdXdXdXdXdXdXdXdXdXdXdXdXdXdXdXdXdXdXdXdXdXdXdXdXdXdXdXdXdXdXdXdXdXdXdXdXdXdXdXdXdXdXdXdXdXdXdXdXdXdXdXdXdXdXdXdXdXdXdXdXdXdXdXdXdXdXdXdXpX7X} . . . . . . . . . . . . . 8 j._.XXOXXXXXXXXXXXXXXXXXXXXXXXXXOX.XQ.W $ . . . . . . . . . . . . . . . . . . . 7 H i.h.h.f.f.f.f.f.f.f.f.f.f.C.R.]..XXXXX.X.X.XXXXXXXXXXXXXXXXXoXXX{.W.A.f.f.f.f.f.h.h.h.h.h.h.h.s.R e X . . . 4 G i.h.M.h.h.h.h.h.h.h.h.h.h.h.h.h.s.R e X . . . . . . . . . . . . o j -.q.y.r.e.e.r.r.r.r.r.r.r.r.r.r.r.r.r.r.r.y.y.5.M 2 . . . + F F.|.XXXXXXXX.XXXXX.XXXXXOXXX_.l.q . . . . . . . . ",
"dXdXdXdXdXdXdXdXdXdXdXdXdXdXdXdXdXdXdXdXdXdXdXdXdXdXdXdXdXdXdXdXdXdXdXdXdXdXdXdXdXdXdXdXdXdXdXdXdXdXdXdXdXdXdXdXdXdXdXdXdXdXdXdXdXdXdXdXdXdXdXdXdXdXdXdXdXdXdXdXdXdXdXdXdXdXdXdXdXdXdXdXdXdXdXpX7X} X . . . . . . . . . . . . 8 _ _.XXOXXXXX.X.X.X.XXXXXXXXX.XXXXX.XU.W $ . . . . . . . . . . . . . . . . . . . 7 H a.h.h.f.f.f.f.f.f.f.f.f.f.C.R.]..XXXXXXXXXXX.X.XXXXX.XXX.XXXXX.X[.W.A.f.f.f.f.f.f.f.f.f.f.h.h.s.U e X . . . 4 G i.f.h.f.f.f.f.f.f.f.f.f.f.f.h.h.s.R e X . . . . . . . . . . . . o j -.q.y.r.e.e.e.e.e.e.e.e.e.e.e.e.e.e.e.e.e.y.r.<.M 2 . . . + J F.|.XXXXXX.X.X.X.X.XXXXXOXXX_.l.q . . . . . . . . ",
"dXdXdXdXdXdXdXdXdXdXdXdXdXdXdXdXdXdXdXdXdXdXdXdXdXdXdXdXdXdXdXdXdXdXdXdXdXdXdXdXdXdXdXdXdXdXdXdXdXdXdXdXdXdXdXdXdXdXdXdXdXdXdXdXdXdXdXdXdXdXdXdXdXdXdXdXdXdXdXdXdXdXdXdXdXdXdXdXdXdXdXdXdXdXdXpX3X[ . . . . . . . . . . . . . 7 _ _.XXOXoXXXXXXXXXXXXXXXXXXXXXOXOX.XQ.W # . . . . . . . . . . . . . . . . . . . 7 I s.M.M.h.h.h.h.h.h.g.f.f.f.C.R.]..XXXXXXX.XXX.X.XXXXX.X.X.XXXXX.X[.E.Z.f.s.f.f.f.f.f.f.f.f.f.f.s.U e X . . . % G ^ f.h.f.f.f.f.f.f.f.f.f.f.f.h.h.s.R e . . . . . . . . . . . . . o j -.w.y.y.r.r.e.e.e.e.e.e.e.e.e.e.e.e.e.e.e.t.r.<.M 2 . . . + J F. XOXOXXXXXXXXXXXXXXXXXOXoX_.l.q . . . . . . . . ",
"dXdXdXdXdXdXdXdXdXdXdXdXdXdXdXdXdXdXdXdXdXdXdXdXdXdXdXdXdXdXdXdXdXdXdXdXdXdXdXdXdXdXdXdXdXdXdXdXdXdXdXdXdXdXdXdXdXdXdXdXdXdXdXdXdXdXdXdXdXdXdXdXdXdXdXdXdXdXdXdXdXdXdXdXdXdXdXdXdXdXdXdXdXdXdXpX3X[ . . . . . . . . . . . . . 7 / _.XXOXOXoXoXoXXXXXXXXXXXXXXXOXOXXXQ.W # . . . . . . . . . . . . . . . . . . . 7 I s.m.m.h.h.h.h.h.h.f.f.f.f.C.R.]..XXXXX.XXXXX.X.XXXXXXXXXXXXXXX.X[.E.Z.f.s.f.f.f.f.f.f.f.f.f.f.s.R q X . . . % D ^ f.f.f.f.f.f.f.f.f.f.f.f.f.h.h.s.R q . . . . . . . . . . . . . o j -.e.y.y.r.r.r.e.e.e.e.e.e.e.e.e.e.e.e.e.e.r.e.<.M 2 . . . + J L. XOXOXXXXXXXXXXXXXXXOXOXOX_.l.e . . . . . . . . ",
"dXdXdXdXdXdXdXdXdXdXdXdXdXdXdXdXdXdXdXdXdXdXdXdXdXdXdXdXdXdXdXdXdXdXdXdXdXdXdXdXdXdXdXdXdXdXdXdXdXdXdXdXdXdXdXdXdXdXdXdXdXdXdXdXdXdXdXdXdXdXdXdXdXdXdXdXdXdXdXdXdXdXdXdXdXdXdXdXdXdXdXdXdXdXdXpX7X .= . . X X X X X X X X . X w _ !. X.X X X X X X X X X X X X.X.X|.I.! 8 X . X X X X X X X X X X X . . . . . . 7 H i.f.f.s.s.s.s.f.f.f.f.f.f.C.R.]..XXXXX.XXXXX.X.XXXXXXXXX.XXXXXXX[.W.D.h.g.h.h.h.h.h.h.h.h.M.M.f.E e X . . . 4 G i.M.M.h.h.h.h.h.h.h.f.f.f.f.h.h.s.E t # . . . . . . . . . . . . O j -.5.q.q.q.q.w.e.e.e.e.e.e.e.e.e.e.e.e.e.e.r.e.<.M 2 . . . + F S.'..X.X X X X X X}.}. X.X.X_.l.u X . X X X X X X ",
"dXdXdXdXdXdXdXdXdXdXdXdXdXdXdXdXdXdXdXdXdXdXdXdXdXdXdXdXdXdXdXdXdXdXdXdXdXdXdXdXdXdXdXdXdXdXdXdXdXdXdXdXdXdXdXdXdXdXdXdXdXdXdXdXdXdXdXdXdXdXdXdXdXdXdXdXdXdXdXdXdXdXdXdXdXdXdXdXdXdXdXdXdXdXdXpXqX$. .[ [ } } } { { { } } { } | x.G.P.K.P.P.P.P.P.P.P.P.P.P.L.P.I.L.V.( | } { } } } } } } } } } } [ s = . . . . % V H R R R R R R Q i.s.f.f.f.C.R.]..XXXXX.X.XXX.X.XXXXX.X.X.X.XXXXX X(.R.H.H.H.H.H.H.H.H.H.H.J.J.D.p.Z X . . . 8 Y N.H.J.H.H.H.H.H.A.M.g.f.f.f.f.h.f.~ G q 7 7 7 7 7 7 7 7 7 7 7 7 0 z M B -.-.-.:.5.w.r.r.e.e.e.e.e.e.e.e.e.e.e.y.e.<.m 2 . . . X t ~ S.I.P.L.P.P.P.P.L.L.L.P.P.G.x...} { } } { { { } ",
"dXdXdXdXdXdXdXdXdXdXdXdXdXdXdXdXdXdXdXdXdXdXdXdXdXdXdXdXdXdXdXdXdXdXdXdXdXdXdXdXdXdXdXdXdXdXdXdXdXdXdXdXdXdXdXdXdXdXdXdXdXdXdXdXdXdXdXdXdXdXdXdXdXdXdXdXdXdXdXdXdXdXdXdXdXdXdXdXdXdXdXdXdXdXdXsXuXqX7X3X3X7X7X7X3X3X3X3X7X7X3X1Xb.( K J K L L L L L L L L L J J J T ( n.2X7X7X7X7X7X7X7X7X7X7X7X7X<Xo.s . . . . X 4 q e e q q e e C Y i.f.f.f.C.R.]..XXXXX.X.XXX.X.XXXXX.X.X.X.XXXXX.X[.).(.^.(.(.(.(.(.(.(.(.).).!.N.F + . . . 8 ~ K.(.).(.(.(.(.~.K.Z.h.f.f.f.f.f.f.i.Q U H H H H H H H H H H H H J F l j j j j M :.q.r.r.e.e.e.e.e.e.e.e.e.e.e.y.e.<.m 2 . . . . % t J L L J L L L L J J J J L W X.1X3X7X7X7X3X3X3X3X",
"dXdXdXdXdXdXdXdXdXdXdXdXdXdXdXdXdXdXdXdXdXdXdXdXdXdXdXdXdXdXdXdXdXdXdXdXdXdXdXdXdXdXdXdXdXdXdXdXdXdXdXdXdXdXdXdXdXdXdXdXdXdXdXdXdXdXdXdXdXdXdXdXdXdXdXdXdXdXdXdXdXdXdXdXdXdXdXdXdXdXdXdXdXdXdXdXsXpXpXiXiXpXpXpXpXpXpXpXpXpXpXwX$.d # X + # # # # # # # # # # + X & { 2XeXpXpXpXpXpXpXpXpXpXpXpXpXtX2X[ X . . . . . X X X X X . X 4 G ^ f.f.f.C.R.]..XXXXXXXXXXX.X.X.X.X.XXXXXXXXXXX.X.X.X X X X X X X X X X X.X.X[.F.J # . . . q l._..X.X.X X.X.X[.!.D.h.f.f.f.f.f.f.f.s.s.a.a.i.i.s.s.s.s.i.a.s.s.^ J 8 @     O j -.q.r.r.e.e.e.e.e.e.e.e.e.e.e.r.r.<.M 2 . . . . . X # # # # # # # # # # # X # d @.qXiXpXpXpXpXpXpXpX",
"dXdXdXdXdXdXdXdXdXdXdXdXdXdXdXdXdXdXdXdXdXdXdXdXdXdXdXdXdXdXdXdXdXdXdXdXdXdXdXdXdXdXdXdXdXdXdXdXdXdXdXdXdXdXdXdXdXdXdXdXdXdXdXdXdXdXdXdXdXdXdXdXdXdXdXdXdXdXdXdXdXdXdXdXdXdXdXdXdXdXdXdXdXdXdXdXdXdXdXdXdXdXdXdXdXdXdXdXdXdXdXtX$.p . . . . . . . . . . . . . . . . g 2XiXdXdXdXdXdXdXdXdXdXdXdXdXpX7X} X . . . . . . . . . . . . $ C ^ f.h.h.C.R.]..XXXXXXXXXXXXXXX.X.X.X.XXXXX.X.XXXXXXXXXXXXXXXXXXXXXXXXXXXoXOX XP.J # . . . e l._.XXOXXXXXoXXX X^.D.f.f.f.f.f.f.f.f.h.h.h.h.f.f.h.h.h.h.h.h.m.m.i.G 4 . . . . 3 B q.y.y.r.r.r.r.r.r.r.r.r.r.r.y.y.5.M 2 . . . . . . . . . . . . . . . . . . . p #.rXdXdXdXdXdXdXdXdX",
"dXdXdXdXdXdXdXdXdXdXdXdXdXdXdXdXdXdXdXdXdXdXdXdXdXdXdXdXdXdXdXdXdXdXdXdXdXdXdXdXdXdXdXdXdXdXdXdXdXdXdXdXdXdXdXdXdXdXdXdXdXdXdXdXdXdXdXdXdXdXdXdXdXdXdXdXdXdXdXdXdXdXdXdXdXdXdXdXdXdXdXdXdXdXdXdXdXdXdXdXdXdXdXdXdXdXdXdXdXdXdXtX$.2 . . . . . . . . . . . . . . . . f 2XiXdXdXdXdXdXdXdXdXdXdXdXdXpX7X} X . . . . . . . . . . . . $ C / h.m.h.Z.R.[.XXoXoXXXXXoXXXXXXX.XXXXXXXXX.X.XXXXXXXXXXXXXXXXXXXXXXXXXXXOXOX.XP.J # . . . e l._.XXOXXXXXoXXX X^.D.f.s.s.f.f.f.f.f.f.h.h.h.h.h.h.h.h.h.h.h.M.M.i.G 4 . . . . 3 B q.y.y.y.y.y.y.t.y.y.y.y.y.y.y.y.5.M 2 . . . . . . . . . . . . . . . . . . . p $.tXdXdXdXdXdXdXdXdX",
"dXdXdXdXdXdXdXdXdXdXdXdXdXdXdXdXdXdXdXdXdXdXdXdXdXdXdXdXdXdXdXdXdXdXdXdXdXdXdXdXdXdXdXdXdXdXdXdXdXdXdXdXdXdXdXdXdXdXdXdXdXdXdXdXdXdXdXdXdXdXdXdXdXdXdXdXdXdXdXdXdXdXdXdXdXdXdXdXdXdXdXdXdXdXdXdXdXdXdXdXdXdXdXdXdXdXdXdXdXdXdXtX>Xs . . . . . . . . . . . . . . . X [ 3XiXdXdXdXdXdXdXdXdXdXdXdXdXpX3X} X . . . . . . . . . . . . $ C ^ f.f.f.C.K.'..XXXXX.X.X.X.X.X.XXXXXXXXXXX.X.X.X.X.X.XXXXX.X.X.X.XXXXXXXXXXX XL.J # . . . q l._.XXoXXXXXXXXX X^.H.h.f.f.f.f.f.f.g.g.f.f.f.f.f.f.f.f.f.f.f.h.h.i.G 4 . . . . 3 B q.r.r.w.w.w.w.w.w.w.w.w.w.e.r.e.<.M 2   . . . . . . . . . . . . . . . . . . p #.wXdXdXdXdXdXdXdXdX",
"dXdXdXdXdXdXdXdXdXdXdXdXdXdXdXdXdXdXdXdXdXdXdXdXdXdXdXdXdXdXdXdXdXdXdXdXdXdXdXdXdXdXdXdXdXdXdXdXdXdXdXdXdXdXdXdXdXdXdXdXdXdXdXdXdXdXdXdXdXdXdXdXdXdXdXdXdXdXdXdXdXdXdXdXdXdXdXdXdXdXdXdXdXdXdXdXdXdXdXdXdXdXdXdXdXdXdXdXdXdXdXuX3X .f f f f f f f f f f f f f f s g +.8XpXdXdXdXdXdXdXdXdXdXdXdXdXpX7X} X . . . . . . . . . . . . # t I Q Q Q i.S.W.].[.[.[.].].[.{..X.XXXXX.X.X.XXXXXXXXXXXXXXX.X.XXXXXXX.X.XXXXX XP.L # . . . q l._.XXoXXXXXXXXX X).R.D.D.D.D.D.D.D.Z.M.g.f.f.f.f.f.f.f.f.f.f.h.f.i.U t 4 $ $ 8 l M -.:.:.:.:.;.;.;.;.;.;.;.;.;.:.;.-.m j 2 : : 2 , , : : : : , , : O o . . . . -  .3XwXeXeXeXwXwXwXwX",
"dXdXdXdXdXdXdXdXdXdXdXdXdXdXdXdXdXdXdXdXdXdXdXdXdXdXdXdXdXdXdXdXdXdXdXdXdXdXdXdXdXdXdXdXdXdXdXdXdXdXdXdXdXdXdXdXdXdXdXdXdXdXdXdXdXdXdXdXdXdXdXdXdXdXdXdXdXdXdXdXdXdXdXdXdXdXdXdXdXdXdXdXdXdXdXdXdXdXdXdXdXdXdXdXdXdXdXdXdXdXdXpXwX3X<X>X<X<X<X<X<X<X<X<X<X<X<X<X>X<X7XeXsXdXdXdXdXdXdXdXdXdXdXdXdXpX7X} X . . . . . . . . . . . . X 4 e V V V G ^ S.R.W.R.R.R.R.E.^.[..XXXXX.X.X.X.XXXXXXXXXXXXXXX.XXXXX.X.X.XXXXX XP.L # . . . q l._.XXoXXX.XXXXX.X[.(.~.W.W.!.~.~.W.K.D.h.f.f.f.f.f.f.f.f.f.f.f.f.s.^ U G G G F F z z c c z z z z z z z z z z z z z b b m m m m m m m m m m m m m m j 2 . . . . = f  .#.#.#.#.#.#.#.#.",
"dXdXdXdXdXdXdXdXdXdXdXdXdXdXdXdXdXdXdXdXdXdXdXdXdXdXdXdXdXdXdXdXdXdXdXdXdXdXdXdXdXdXdXdXdXdXdXdXdXdXdXdXdXdXdXdXdXdXdXdXdXdXdXdXdXdXdXdXdXdXdXdXdXdXdXdXdXdXdXdXdXdXdXdXdXdXdXdXdXdXdXdXdXdXdXdXdXdXdXdXdXdXdXdXdXdXdXdXdXdXdXdXpXiXuXuXuXuXuXuXuXuXuXuXuXuXuXuXuXuXiXpXdXdXdXdXdXdXdXdXdXdXdXdXdXpX7X} X . . . . . . . . . . . . . X + # + + 4 G i.C.A.A.Z.C.C.D.K.)..XXXXX.X.XXXXXXXXX.XXX.X.XXXXXXXXXXX.X.XXXXX XP.L # . . . q l._.XXXXXX.X.XXX.X.X X}.}.}.}.}. X[.^.J.M.f.f.f.f.g.g.f.f.f.f.f.f.f.s.i.i.i.i.~ J y : O O O O O O O O O O O O O @ O , z B >.<.<.>.>.>.>.>.>.>.<.<.>.B j o . . . . = - p p p p p p p p ",
"dXdXdXdXdXdXdXdXdXdXdXdXdXdXdXdXdXdXdXdXdXdXdXdXdXdXdXdXdXdXdXdXdXdXdXdXdXdXdXdXdXdXdXdXdXdXdXdXdXdXdXdXdXdXdXdXdXdXdXdXdXdXdXdXdXdXdXdXdXdXdXdXdXdXdXdXdXdXdXdXdXdXdXdXdXdXdXdXdXdXdXdXdXdXdXdXdXdXdXdXdXdXdXdXdXdXdXdXdXdXdXdXdXdXdXdXdXdXdXdXdXdXdXdXdXdXdXdXdXdXdXdXdXdXdXdXdXdXdXdXdXdXdXdXdXpX7X} X . . . . . . . . . . . . . . . . . . X r E f.h.f.f.f.f.h.H.(. XXXXX.X.XXXXXXXXX.X.X.X.XXXXXXXXXXX.X.XXXXX XP.L # . . . q l._.XXXXXX.X.XXXXXXXXXXXXXXXXXXXXX.X'.K.M.f.f.f.f.g.g.g.f.f.f.f.f.f.f.f.h.h.h.s.U q . . . . . . . . . . . . . . . . o j -.w.y.r.r.r.r.r.r.r.r.r.y.q.;.z O . . . . . . . . . . . . . . ",
"dXdXdXdXdXdXdXdXdXdXdXdXdXdXdXdXdXdXdXdXdXdXdXdXdXdXdXdXdXdXdXdXdXdXdXdXdXdXdXdXdXdXdXdXdXdXdXdXdXdXdXdXdXdXdXdXdXdXdXdXdXdXdXdXdXdXdXdXdXdXdXdXdXdXdXdXdXdXdXdXdXdXdXdXdXdXdXdXdXdXdXdXdXdXdXdXdXdXdXdXdXdXdXdXdXdXdXdXdXdXdXdXdXdXdXdXdXdXdXdXdXdXdXdXdXdXdXdXdXdXdXdXdXdXdXdXdXdXdXdXdXdXdXdXdXpX7X} X . . . . . . . . . . . . . . . . . . X e E s.f.f.f.s.s.g.H.^. XXXXXXXXXXX.XXXXXXXXX.X.XXXXXXXXXXXXXXXXXXX XP.L # . . . q l._.XXXXXXXXXX.X.XXXXXXXoXXXXXoXoX.X'.K.C.f.f.f.f.g.g.g.g.g.f.f.f.g.h.h.M.M.M.s.U 7 . . . . . . . . . . . . . . . . . j -.e.u.y.t.t.t.y.y.y.t.y.y.r.:.b O . . . . . . . . . . . . . . ",
"dXdXdXdXdXdXdXdXdXdXdXdXdXdXdXdXdXdXdXdXdXdXdXdXdXdXdXdXdXdXdXdXdXdXdXdXdXdXdXdXdXdXdXdXdXdXdXdXdXdXdXdXdXdXdXdXdXdXdXdXdXdXdXdXdXdXdXdXdXdXdXdXdXdXdXdXdXdXdXdXdXdXdXdXdXdXdXdXdXdXdXdXdXdXdXdXdXdXdXdXdXdXdXdXdXdXdXdXdXdXdXdXdXdXdXdXdXdXdXdXdXdXdXdXdXdXdXdXdXdXdXdXdXdXdXdXdXdXdXdXdXdXdXdXdXiX7X} X . . . . . . . . . . . . . . . . . . X t E f.h.f.f.f.f.h.H.(. XXXXXXXXX.X.XXX.XXXXX.X.XXXXXXXXXXXXXXXXXXX XP.L # . . . q l._.XXXXXXXXXX.X.XXXXXXXXXXXXXXXXX.X'.K.C.f.f.f.f.g.g.g.g.g.g.f.f.g.g.g.h.h.h.s.U 7 . . . . . . . . . . . . . . . . o j -.q.y.r.r.r.r.r.r.r.r.r.y.e.:.z O . . . . . . . . . . . . . . ",
"dXdXdXdXdXdXdXdXdXdXdXdXdXdXdXdXdXdXdXdXdXdXdXdXdXdXdXdXdXdXdXdXdXdXdXdXdXdXdXdXdXdXdXdXdXdXdXdXdXdXdXdXdXdXdXdXdXdXdXdXdXdXdXdXdXdXdXdXdXdXdXdXdXdXdXdXdXdXdXdXdXdXdXdXdXdXdXdXdXdXdXdXdXdXdXdXdXdXdXdXdXdXdXdXdXdXdXdXdXdXdXdXdXdXdXdXdXdXdXdXdXdXdXdXdXdXdXdXdXdXdXdXdXdXdXdXdXdXdXdXdXdXdXdXdXiX3X[ X . . . . . . . . . . . . . . . . . . X t Q f.h.h.f.f.f.h.H.(. XXXXXXXXX.X.X.X.XXXXXXX.XXXXX.X.X.X.XXXXXXX}.L.J # . . . q l._.XXoXXXXXXX.X.XXXXXXXXX.X.XXXXX.X'.K.M.f.f.f.f.f.f.f.g.f.f.f.f.f.f.f.f.h.h.s.U 7 . . . . . . . . . . . . . . . . o j -.q.y.r.r.e.e.e.e.e.e.r.y.w.:.z O . . . . . . . . . . . . . . ",
"dXdXdXdXdXdXdXdXdXdXdXdXdXdXdXdXdXdXdXdXdXdXdXdXdXdXdXdXdXdXdXdXdXdXdXdXdXdXdXdXdXdXdXdXdXdXdXdXdXdXdXdXdXdXdXdXdXdXdXdXdXdXdXdXdXdXdXdXdXdXdXdXdXdXdXdXdXdXdXdXdXdXdXdXdXdXdXdXdXdXdXdXdXdXdXdXdXdXdXdXdXdXdXdXdXdXdXdXdXdXdXdXdXdXdXdXdXdXdXdXdXdXdXdXdXdXdXdXdXdXdXdXdXdXdXdXdXdXdXdXdXdXdXdXdXiX3X[ . . . . . . . . . . . . . . . . . . . X Z Q f.C.M.h.h.f.M.H.(. XXXXXXX.X.X.X.X.XXXXXXXXXXXXX.X.X.X.XXXXXXX}.L.J X . . . q l._.XXoXXXXXXX.X.X.XXXXXXX.X.XXXXX.X).J.M.f.s.f.f.f.f.f.f.f.f.f.f.f.f.f.f.h.h.s.U 7 . . . . . . . . . . . . . . . . o j -.e.y.y.t.t.t.t.t.t.t.y.y.r.:.z @ . . . . . . . . . . . . . . ",
"dXdXdXdXdXdXdXdXdXdXdXdXdXdXdXdXdXdXdXdXdXdXdXdXdXdXdXdXdXdXdXdXdXdXdXdXdXdXdXdXdXdXdXdXdXdXdXdXdXdXdXdXdXdXdXdXdXdXdXdXdXdXdXdXdXdXdXdXdXdXdXdXdXdXdXdXdXdXdXdXdXdXdXdXdXdXdXdXdXdXdXdXdXdXdXdXdXdXdXdXdXdXdXdXdXdXdXdXdXdXdXdXdXdXdXdXdXdXdXdXdXdXdXdXdXdXdXdXdXdXdXdXdXdXdXdXdXdXdXdXdXdXdXdXdXiX3X[ . . . . . . . . . . . . . . . . . . . X t Q f.M.h.h.f.f.M.H.(. XXXXX.X.XXX.X.X.XXXXXXXXXXX.X.X.X.X.X.XXXoX XP.K # . . . q l._.XXOXXXXXXXXXXX.X.X.X.X.X.XXXXX.X`.K.M.f.f.f.f.f.f.f.f.f.f.f.g.f.f.f.f.h.h.s.U 7 . . . . . . . . . . . . . . . . @ j -.q.y.y.r.r.r.r.r.r.r.r.y.e.:.z O . . . . . . . . . . . . . . ",
"dXdXdXdXdXdXdXdXdXdXdXdXdXdXdXdXdXdXdXdXdXdXdXdXdXdXdXdXdXdXdXdXdXdXdXdXdXdXdXdXdXdXdXdXdXdXdXdXdXdXdXdXdXdXdXdXdXdXdXdXdXdXdXdXdXdXdXdXdXdXdXdXdXdXdXdXdXdXdXdXdXdXdXdXdXdXdXdXdXdXdXdXdXdXdXdXdXdXdXdXdXdXdXdXdXdXdXdXdXdXdXdXdXdXdXdXdXdXdXdXdXdXdXdXdXdXdXdXdXdXdXdXdXdXdXdXdXdXdXdXdXdXdXdXdXpX8X .s = - - = X . . . . . . . . . . . . . X q U i.s.i.i.i.i.s.D.~. XXXXXXX.XXX.X.X.XXXXXXXXXXX.X.X.X.X.X.XXXXX XQ.) q # X 5 F B._.XXXXXXXXXXXXXX.X.X.X.X.X.XXXXX.X'.R.D.C.C.C.M.h.g.f.f.f.f.g.g.f.f.f.f.h.h.s.R t $ X X + + + + X . . . . . . . . o j B >.<.5.<.<.<.<.<.<.<.<.<.<.-.b 2 o o o o   . . . . . . . . . ",
"dXdXdXdXdXdXdXdXdXdXdXdXdXdXdXdXdXdXdXdXdXdXdXdXdXdXdXdXdXdXdXdXdXdXdXdXdXdXdXdXdXdXdXdXdXdXdXdXdXdXdXdXdXdXdXdXdXdXdXdXdXdXdXdXdXdXdXdXdXdXdXdXdXdXdXdXdXdXdXdXdXdXdXdXdXdXdXdXdXdXdXdXdXdXdXdXdXdXdXdXdXdXdXdXdXdXdXdXdXdXdXdXdXdXdXdXdXdXdXdXdXdXdXdXdXdXdXdXdXdXdXdXdXdXdXdXdXdXdXdXdXdXdXdXdXsXwX2X#.o.+.o.} p . . . . . . . . . . . . . . 4 Z G H H G G G H d.Q. XXXXX.X.XXXXX.X.XXXXXXXXXXX.X.X.X.X.XXXXXXX.X_.S.) T T W l.I.|.XXXXXX.X.X.X.X.X.XXXXXXXXXXXXX.X[.(.R.R.R.R.J.D.M.f.f.f.f.f.f.f.f.f.f.h.h.s.^ H Z r r t t Z t e $ . . . . . . . . 2 z m M M M M M M M M M M M m m b z j j j j , . . . . . . . . . ",
"dXdXdXdXdXdXdXdXdXdXdXdXdXdXdXdXdXdXdXdXdXdXdXdXdXdXdXdXdXdXdXdXdXdXdXdXdXdXdXdXdXdXdXdXdXdXdXdXdXdXdXdXdXdXdXdXdXdXdXdXdXdXdXdXdXdXdXdXdXdXdXdXdXdXdXdXdXdXdXdXdXdXdXdXdXdXdXdXdXdXdXdXdXdXdXdXdXdXdXdXdXdXdXdXdXdXdXdXdXdXdXdXdXdXdXdXdXdXdXdXdXdXdXdXdXdXdXdXdXdXdXdXdXdXdXdXdXdXdXdXdXdXdXdXdXdXiXtXwXwXwX0X>X[ X . . . . . . . . . . . . . + $ 4 8 4 4 4 % 8 Y F.[.XXXXXX.XXXXX.X.X.X.XXXXXXX.X.X.XXXXXXXXXXX.X|._.Q.I.I.Q./.'..XXXXX.X.X.X.X.X.X.XXXXXXXXXXXXX.X.X{.].].].'.^.J.C.f.f.f.f.f.f.f.f.f.f.g.g.f.s.^ Q R R R Q Q E H e + . . . . . . . o : , 2 2 2 2 2 2 2 2 2 , , 2 j m B -.:.-.N j O . . . . . . . . ",
"dXdXdXdXdXdXdXdXdXdXdXdXdXdXdXdXdXdXdXdXdXdXdXdXdXdXdXdXdXdXdXdXdXdXdXdXdXdXdXdXdXdXdXdXdXdXdXdXdXdXdXdXdXdXdXdXdXdXdXdXdXdXdXdXdXdXdXdXdXdXdXdXdXdXdXdXdXdXdXdXdXdXdXdXdXdXdXdXdXdXdXdXdXdXdXdXdXdXdXdXdXdXdXdXdXdXdXdXdXdXdXdXdXdXdXdXdXdXdXdXdXdXdXdXdXdXdXdXdXdXdXdXdXdXdXdXdXdXdXdXdXdXdXdXdXdXdXdXdXdXdXpX8X .= . . . . . . . . . . . . . . . . . . . . . + F S.[.XXoXXXXXXXXXXXXX.X.X.X.XXXXX.X.X.X.XXXXX.X.X.X.X.X.X.X.X.X.X.XXXXXXX.X.XXXXX.X.X.X.XXXXX.X.X.X.X.X.X.X.X.X].R.Z.f.f.f.f.f.f.f.f.g.g.g.g.f.f.f.f.f.f.f.f.f.s.Q Z + . . . . . . . . . . . . . . . . . . . . . . , m >.w.y.q.>.m : . . . . . . . . ",
"dXdXdXdXdXdXdXdXdXdXdXdXdXdXdXdXdXdXdXdXdXdXdXdXdXdXdXdXdXdXdXdXdXdXdXdXdXdXdXdXdXdXdXdXdXdXdXdXdXdXdXdXdXdXdXdXdXdXdXdXdXdXdXdXdXdXdXdXdXdXdXdXdXdXdXdXdXdXdXdXdXdXdXdXdXdXdXdXdXdXdXdXdXdXdXdXdXdXdXdXdXdXdXdXdXdXdXdXdXdXdXdXdXdXdXdXdXdXdXdXdXdXdXdXdXdXdXdXdXdXdXdXdXdXdXdXdXdXdXdXdXdXdXdXdXdXdXdXdXdXdXdXqXo.= . . . . . . . . . . . . . . . . . . . . . . Z B.].XXOXXXXXXXXXXXXX.X.X.X.XXXXX.X.X.X.XXXXX.X.XXXXXOXOXOXoXXXXXXX.XXXXX.X.XXXXXXXXX.X.XXXXX.X.X.XXXXXXXXXoXXX[.E.Z.f.f.f.f.f.f.f.f.g.g.f.f.f.f.h.h.h.h.h.M.m.f.^ Z # . . . . . . . . . . . . . . . . . . . . . . : m <.y.u.y.<.M , . . . . . . . . ",
"dXdXdXdXdXdXdXdXdXdXdXdXdXdXdXdXdXdXdXdXdXdXdXdXdXdXdXdXdXdXdXdXdXdXdXdXdXdXdXdXdXdXdXdXdXdXdXdXdXdXdXdXdXdXdXdXdXdXdXdXdXdXdXdXdXdXdXdXdXdXdXdXdXdXdXdXdXdXdXdXdXdXdXdXdXdXdXdXdXdXdXdXdXdXdXdXdXdXdXdXdXdXdXdXdXdXdXdXdXdXdXdXdXdXdXdXdXdXdXdXdXdXdXdXdXdXdXdXdXdXdXdXdXdXdXdXdXdXdXdXdXdXdXdXdXdXdXdXdXdXdXsXqXo.= . . . . . . . . . . . . . . . . . . . . . X A S.[.XXoXXX.X.X.X.X.X.X.XXXXXXXXXXXXX.X.XXXXX.X.XXXXXXXXXXXXXXXXX.X.XXXXXXXXXXXXXXXXX.X.X.XXX.X.XXXXXXXXXXXoXXX[.E.Z.f.f.f.f.g.g.f.f.f.f.f.f.f.f.f.h.h.h.h.h.m.f.Q V # . . . . . . . . . . . . . . . . . . . . . . : m <.y.u.r.<.m , . . . . . . . . ",
"dXdXdXdXdXdXdXdXdXdXdXdXdXdXdXdXdXdXdXdXdXdXdXdXdXdXdXdXdXdXdXdXdXdXdXdXdXdXdXdXdXdXdXdXdXdXdXdXdXdXdXdXdXdXdXdXdXdXdXdXdXdXdXdXdXdXdXdXdXdXdXdXdXdXdXdXdXdXdXdXdXdXdXdXdXdXdXdXdXdXdXdXdXdXdXdXdXdXdXdXdXdXdXdXdXdXdXdXdXdXdXdXdXdXdXdXdXdXdXdXdXdXdXdXdXdXdXdXdXdXdXdXdXdXdXdXdXdXdXdXdXdXdXdXdXdXdXdXdXdXdXsX0X .= . . . . . . . . . . . . . . . . . . . . . X A S.[.XXXXXX.X.X.X.X.X.X.XXXXXXXXXXXXX.X.XXXXX.X.XXXXXXXXX.X.X.X.X.X.XXXXXXXXXXXXXXXXX.X.X.XXXXX.X.XXXXXXXXXXX.X[.R.Z.f.f.f.g.g.g.f.g.f.f.f.f.f.f.f.f.f.f.f.h.h.f.Q V # . . . . . . . . . . . . . . . . . . . . . . , m >.r.y.e.>.m , . . . . . . . . ",
"dXdXdXdXdXdXdXdXdXdXdXdXdXdXdXdXdXdXdXdXdXdXdXdXdXdXdXdXdXdXdXdXdXdXdXdXdXdXdXdXdXdXdXdXdXdXdXdXdXdXdXdXdXdXdXdXdXdXdXdXdXdXdXdXdXdXdXdXdXdXdXdXdXdXdXdXdXdXdXdXdXdXdXdXdXdXdXdXdXdXdXdXdXdXdXdXdXdXdXdXdXdXdXdXdXdXdXdXdXdXdXdXdXdXdXdXdXdXdXdXdXdXdXdXdXdXdXdXdXdXdXdXdXdXdXdXdXdXdXdXdXdXdXdXdXdXdXdXdXdXdXsX0X .= . . . . . . . . . . . . . . . . . . . . . X Z S.[.XXXXXX.X.X.X.X.X.X.XXXXXXXXX.X.XXXXXXXXX.X.XXXXX.X.X.X.XXXXXXXXX.X.XXXXX.X.X.X.XXXXX.X.XXXXX.X.X.X.XXXXX.X[.R.C.f.s.f.f.f.f.f.f.f.f.f.f.f.f.f.f.f.f.f.h.h.f.Q Z # . . . . . . . . . . . . . . . . . . . . . . , m <.y.u.r.<.m : . . . . . . . . ",
"dXdXdXdXdXdXdXdXdXdXdXdXdXdXdXdXdXdXdXdXdXdXdXdXdXdXdXdXdXdXdXdXdXdXdXdXdXdXdXdXdXdXdXdXdXdXdXdXdXdXdXdXdXdXdXdXdXdXdXdXdXdXdXdXdXdXdXdXdXdXdXdXdXdXdXdXdXdXdXdXdXdXdXdXdXdXdXdXdXdXdXdXdXdXdXdXdXdXdXdXdXdXdXdXdXdXdXdXdXdXdXdXdXdXdXdXdXdXdXdXdXdXdXdXdXdXdXdXdXdXdXdXdXdXdXdXdXdXdXdXdXdXdXdXdXdXdXdXdXdXdXsX0X .X . . . . . . . . . . . . . . . . . . . . . X Z B.].XXXXXXXXXXXX.X.X.X.XXXXXXX.X.X.XXXXXXXXX.XXXXXXXXX.X.X.XXXXXXX.X.XXXXXXX.X.X.XXXXXXXXX.XXXXX.XXX.X.XXXXX.X[.R.C.f.s.f.f.f.f.f.f.f.f.f.f.f.f.f.f.f.f.f.h.h.f.Q Z + . . . . . . . . . . . . . . . . . . . . . . , m <.y.u.y.<.m : . . . . . . . . ",
"dXdXdXdXdXdXdXdXdXdXdXdXdXdXdXdXdXdXdXdXdXdXdXdXdXdXdXdXdXdXdXdXdXdXdXdXdXdXdXdXdXdXdXdXdXdXdXdXdXdXdXdXdXdXdXdXdXdXdXdXdXdXdXdXdXdXdXdXdXdXdXdXdXdXdXdXdXdXdXdXdXdXdXdXdXdXdXdXdXdXdXdXdXdXdXdXdXdXdXdXdXdXdXdXdXdXdXdXdXdXdXdXdXdXdXdXdXdXdXdXdXdXdXdXdXdXdXdXdXdXdXdXdXdXdXdXdXdXdXdXdXdXdXdXdXdXdXdXdXdXdXsXqXo.p . . X X X X X . . . . . . . . . . . . . . X A B.].XXXXXXXXXXXXXXXX.XXXXXXXXXXX.X.XXX.XXXXX.X.XXXXXXXXX.X.XXXXX.X.X.X.XXXXX.X.XXXXXXXXX.X.XXXXXXXXXXXXXXXXX.X[.E.D.h.g.h.h.h.h.h.h.h.h.h.h.h.h.g.f.f.f.f.h.h.f.~ C $ . . . . . . . . . . . . . . . . . . . . . . : b :.q.e.q.:.b : . . . . . . . . ",
"dXdXdXdXdXdXdXdXdXdXdXdXdXdXdXdXdXdXdXdXdXdXdXdXdXdXdXdXdXdXdXdXdXdXdXdXdXdXdXdXdXdXdXdXdXdXdXdXdXdXdXdXdXdXdXdXdXdXdXdXdXdXdXdXdXdXdXdXdXdXdXdXdXdXdXdXdXdXdXdXdXdXdXdXdXdXdXdXdXdXdXdXdXdXdXdXdXdXdXdXdXdXdXdXdXdXdXdXdXdXdXdXdXdXdXdXdXdXdXdXdXdXdXdXdXdXdXdXdXdXdXdXdXdXdXdXdXdXdXdXdXdXdXdXdXdXdXdXdXdXdXsXeX<X .[ [ } } } } g p X . . . . . . . . . . . . X Z B.].XXXXXX.XXXXXXXXX.XXXXXXXXXXX.X.X.X.XXXXX.X.XXXXXXXXX.X.XXXXX.X.X.X.XXXXX.X.XXXXXXXXX.X.XXXXXXXXXXXXXXXXX.X}.^.K.H.H.H.H.H.H.H.H.H.H.H.H.H.D.C.g.f.f.f.h.h.f./ H t 7 7 7 7 7 7 4 $ X . . . . . . . . . . . . . O j M -.-.-.N j O . . . . . . . . ",
"dXdXdXdXdXdXdXdXdXdXdXdXdXdXdXdXdXdXdXdXdXdXdXdXdXdXdXdXdXdXdXdXdXdXdXdXdXdXdXdXdXdXdXdXdXdXdXdXdXdXdXdXdXdXdXdXdXdXdXdXdXdXdXdXdXdXdXdXdXdXdXdXdXdXdXdXdXdXdXdXdXdXdXdXdXdXdXdXdXdXdXdXdXdXdXdXdXdXdXdXdXdXdXdXdXdXdXdXdXdXdXdXdXdXdXdXdXdXdXdXdXdXdXdXdXdXdXdXdXdXdXdXdXdXdXdXdXdXdXdXdXdXdXdXdXdXdXdXdXdXdXdXiXwX8X3X3X3X7X7X3X>X} - . . . . . . . . . . . . X A S.[.XXXXXX.X.X.XXXXXXXXXXXXXXXXXXXXX.X.X.XXX.X.X.XXXXXXXXX.XXX.X.X.X.XXXXXXX.XXXXXXXXX.X.X.XXXXXXXXXXX.X.XXX.X.X[.).^.^.^.(.(.(.(.(.(.(.(.(.^.R.D.h.f.f.f.f.f.f.s.^ Y H H H H H H G q $ . . . . . . . . . . . . .   : 3 j j j 3 : . . . . . . . . . ",
"dXdXdXdXdXdXdXdXdXdXdXdXdXdXdXdXdXdXdXdXdXdXdXdXdXdXdXdXdXdXdXdXdXdXdXdXdXdXdXdXdXdXdXdXdXdXdXdXdXdXdXdXdXdXdXdXdXdXdXdXdXdXdXdXdXdXdXdXdXdXdXdXdXdXdXdXdXdXdXdXdXdXdXdXdXdXdXdXdXdXdXdXdXdXdXdXdXdXdXdXdXdXdXdXdXdXdXdXdXdXdXdXdXdXdXdXdXdXdXdXdXdXdXdXdXdXdXdXdXdXdXdXdXdXdXdXdXdXdXdXdXdXdXdXdXdXdXdXdXdXdXdXdXsXpXpXiXiXpXpXiXqX#.s . . . . . . . . . . . . X A S.[.XXXXXX.X.X.XXXXXXXXXXXXXXXXX.XXX.X.X.X.X.X.XXXXXXXXXXXXXXXXX.X.X.X.XXXXXXXXXXXXXXXXX.X.XXXXXXXXXXXXX.X.X.X.X.X.X X X X X X X X X X X.X.X{.^.H.M.f.f.f.f.f.f.f.s.s.s.s.s.i.s.s.~ G 4 . . . . . . . . . . . . . . . . o o o .   . . . . . . . . . ",
"dXdXdXdXdXdXdXdXdXdXdXdXdXdXdXdXdXdXdXdXdXdXdXdXdXdXdXdXdXdXdXdXdXdXdXdXdXdXdXdXdXdXdXdXdXdXdXdXdXdXdXdXdXdXdXdXdXdXdXdXdXdXdXdXdXdXdXdXdXdXdXdXdXdXdXdXdXdXdXdXdXdXdXdXdXdXdXdXdXdXdXdXdXdXdXdXdXdXdXdXdXdXdXdXdXdXdXdXdXdXdXdXdXdXdXdXdXdXdXdXdXdXdXdXdXdXdXdXdXdXdXdXdXdXdXdXdXdXdXdXdXdXdXdXdXdXdXdXdXdXdXdXdXdXdXdXdXdXdXdXdXtX>Xs . . . . . . . . . . . . . Z B.[.XXXXXXXX.X.X.X.XXXXXXXXX.X.X.X.X.X.XXXXXXXXXXXXXXXXXXXXX.X.X.X.X.X.X.X.XXXXXXXXXXXXXXXXXXXXXXXXX.X.X.X.X.XXXXXXXXXXXXXXXXXXXXXXXXXXXXXoX.X).J.M.f.f.f.f.f.f.f.f.h.h.h.h.h.m.h.i.H 4 . . . . . . . . . . . . . . . . . . . . . . . . . . . . . . ",
"dXdXdXdXdXdXdXdXdXdXdXdXdXdXdXdXdXdXdXdXdXdXdXdXdXdXdXdXdXdXdXdXdXdXdXdXdXdXdXdXdXdXdXdXdXdXdXdXdXdXdXdXdXdXdXdXdXdXdXdXdXdXdXdXdXdXdXdXdXdXdXdXdXdXdXdXdXdXdXdXdXdXdXdXdXdXdXdXdXdXdXdXdXdXdXdXdXdXdXdXdXdXdXdXdXdXdXdXdXdXdXdXdXdXdXdXdXdXdXdXdXdXdXdXdXdXdXdXdXdXdXdXdXdXdXdXdXdXdXdXdXdXdXdXdXdXdXdXdXdXdXdXdXdXdXdXdXdXdXdXdXtX>Xs . . . . . . . . . . . . . Z B.[.XXXXXXXX.X.X.X.XXXXX.X.X.X.X.X.X.X.X.XXXXXXXXXXXXXXXXX.XXX.X.X.X.X.X.X.X.XXXXXXXXXXXXXXX.X.XXXXX.X.X.X.X.XXXXXXXXXXXXXXXXXXXXXXXXXXXoXoX.X).J.h.s.s.f.f.f.f.f.f.h.h.h.h.h.m.m.i.G 4 . . . . . . . . . . . . . . . . . . . . . . . . . . . . . . ",
"dXdXdXdXdXdXdXdXdXdXdXdXdXdXdXdXdXdXdXdXdXdXdXdXdXdXdXdXdXdXdXdXdXdXdXdXdXdXdXdXdXdXdXdXdXdXdXdXdXdXdXdXdXdXdXdXdXdXdXdXdXdXdXdXdXdXdXdXdXdXdXdXdXdXdXdXdXdXdXdXdXdXdXdXdXdXdXdXdXdXdXdXdXdXdXdXdXdXdXdXdXdXdXdXdXdXdXdXdXdXdXdXdXdXdXdXdXdXdXdXdXdXdXdXdXdXdXdXdXdXdXdXdXdXdXdXdXdXdXdXdXdXdXdXdXdXdXdXdXdXdXdXdXdXdXdXdXdXdXdXdXtX>Xs . . . . . . . . . . . . X F S.[.XXoXXXXXXX.X.X.X.X.X.X.X.X.XXXXXXX.X.X.XXXXXXXXXXXXX.X.XXXXX.X.X.X.X.X.XXXXXXXXXXX.XXXXX.X.X.X.X.X.X.XXXXXXXXXXXXXXXXXXXXXXXXXXXXXXXXXXX.X).J.M.f.f.g.g.g.g.f.f.f.f.f.f.f.h.h.i.H 7 . . . . . . . . . . . . . . . . . . . . . . . . . . . . . . ",
"dXdXdXdXdXdXdXdXdXdXdXdXdXdXdXdXdXdXdXdXdXdXdXdXdXdXdXdXdXdXdXdXdXdXdXdXdXdXdXdXdXdXdXdXdXdXdXdXdXdXdXdXdXdXdXdXdXdXdXdXdXdXdXdXdXdXdXdXdXdXdXdXdXdXdXdXdXdXdXdXdXdXdXdXdXdXdXdXdXdXdXdXdXdXdXdXdXdXdXdXdXdXdXdXdXdXdXdXdXdXdXdXdXdXdXdXdXdXdXdXdXdXdXdXdXdXdXdXdXdXdXdXdXdXdXdXdXdXdXdXdXdXdXdXdXdXdXdXdXdXdXdXdXdXdXdXdXdXdXdXdXtX&Xs . . . . # 8 q q q q q q Z ! P.{.XXXXXXXXXXXX.X.X.X.X.X.XXX.XXXXX.X.X.X.XXXXXXXXXXXXX.X.XXXXX.XXX.X.X.X.XXXXXXXXX.X.XXX.X.X.X.X.X.X.X.XXXXXXXXXXXXXXXXXXXXXXXXX.XXXXXXXXX.X'.E.H.D.D.D.D.D.D.Z.C.h.f.f.f.f.h.f.s.E F t q q q q q q q q q q t q 8 # . . . .   = s f g f f f f f f ",
"dXdXdXdXdXdXdXdXdXdXdXdXdXdXdXdXdXdXdXdXdXdXdXdXdXdXdXdXdXdXdXdXdXdXdXdXdXdXdXdXdXdXdXdXdXdXdXdXdXdXdXdXdXdXdXdXdXdXdXdXdXdXdXdXdXdXdXdXdXdXdXdXdXdXdXdXdXdXdXdXdXdXdXdXdXdXdXdXdXdXdXdXdXdXdXdXdXdXdXdXdXdXdXdXdXdXdXdXdXdXdXdXdXdXdXdXdXdXdXdXdXdXdXdXdXdXdXdXdXdXdXdXdXdXdXdXdXdXdXdXdXdXdXdXdXdXdXdXdXdXdXdXdXdXdXdXdXdXdXdXdXtX>Xs . . . X t W l.c.l.l.l.l.v.F._. XXXXX.X.XXX.X.X.X.X.XXXXXXXXXXXXXXXXX.X.X.XXX.X.XXX.X.X.XXXXXXXXXXXXX.XXXXXXX.X.X.X.X.X.XXXXX.X.X.X.X.XXX.X.XXXXXXXXXXX.XXXXX.X.X.X.XXXXX.X}.).^.W.W.!.~.~.!.R.H.M.f.f.f.f.f.f.g.g.l.l.l.l.l.l.l.l.l.l.l.l.v.l.W t + . . . = g +.<X<X<X<X<X<X<X<X",
"dXdXdXdXdXdXdXdXdXdXdXdXdXdXdXdXdXdXdXdXdXdXdXdXdXdXdXdXdXdXdXdXdXdXdXdXdXdXdXdXdXdXdXdXdXdXdXdXdXdXdXdXdXdXdXdXdXdXdXdXdXdXdXdXdXdXdXdXdXdXdXdXdXdXdXdXdXdXdXdXdXdXdXdXdXdXdXdXdXdXdXdXdXdXdXdXdXdXdXdXdXdXdXdXdXdXdXdXdXdXdXdXdXdXdXdXdXdXdXdXdXdXdXdXdXdXdXdXdXdXdXdXdXdXdXdXdXdXdXdXdXdXdXdXdXdXdXdXdXdXdXdXdXdXdXdXdXdXdXdXdXtX>.s . . . $ K S._.'._._._._._.]. X.XXXXX.X.XXX.X.X.XXXXXXXXXXXXXXXXXXX.X.X.X.X.X.X.X.X.X.X.XXXXXXXXXXXXXXXXXXXXXXX.X.X.X.X.XXXXXXXXX.X.X.XXX.X.XXXXXXXXXXX.XXXXX.X.X.X.XXXXX.X.X X}.{.{.{.}. X{.).K.C.f.f.f.f.f.f.M.H.!._._._._._._._._._._._.'._.F.T % . . . - o.8XtXiXuXuXuXuXuXuX",
"dXdXdXdXdXdXdXdXdXdXdXdXdXdXdXdXdXdXdXdXdXdXdXdXdXdXdXdXdXdXdXdXdXdXdXdXdXdXdXdXdXdXdXdXdXdXdXdXdXdXdXdXdXdXdXdXdXdXdXdXdXdXdXdXdXdXdXdXdXdXdXdXdXdXdXdXdXdXdXdXdXdXdXdXdXdXdXdXdXdXdXdXdXdXdXdXdXdXdXdXdXdXdXdXdXdXdXdXdXdXdXdXdXdXdXdXdXdXdXdXdXdXdXdXdXdXdXdXdXdXdXdXdXdXdXdXdXdXdXdXdXdXdXdXdXdXdXdXdXdXdXdXdXdXdXdXdXdXdXdXdXrX$.s . . . & W Q..XOXXXXXXXXXXXXXXXXX.XXX.X.XXXXX.X.X.X.XXXXXXXXX.X.XXXXXXXXXXX.X.X.X.X.X.X.XXXXXXXXXXXXXXXXX.X.X.X.XXXXX.X.XXXXX.X.X.X.XXXXX.X.XXXXXXXXX.X.XXX.X.X.X.X.X.XXXXXXXXXXXXXXXXXXXXX.X[.R.Z.f.f.f.f.f.f.C.R.]..XXXXXXXXXXXXXXXXXXXXXOX.X!.) 8 . . . p #.eXdXdXdXdXdXdXdXdX",
"dXdXdXdXdXdXdXdXdXdXdXdXdXdXdXdXdXdXdXdXdXdXdXdXdXdXdXdXdXdXdXdXdXdXdXdXdXdXdXdXdXdXdXdXdXdXdXdXdXdXdXdXdXdXdXdXdXdXdXdXdXdXdXdXdXdXdXdXdXdXdXdXdXdXdXdXdXdXdXdXdXdXdXdXdXdXdXdXdXdXdXdXdXdXdXdXdXdXdXdXdXdXdXdXdXdXdXdXdXdXdXdXdXdXdXdXdXdXdXdXdXdXdXdXdXdXdXdXdXdXdXdXdXdXdXdXdXdXdXdXdXdXdXdXdXdXdXdXdXdXdXdXdXdXdXdXdXdXdXdXdXrX$.s . . . & W Q.XXOXOXOXoXoXXXXXXXXXXXXX.X.XXXXX.X.X.X.XXXXXXXXXXX.XXXXXXXXXXXXX.X.X.X.X.X.XXXXXXXXXXXXX.XXX.X.X.X.XXX.X.X.XXXXX.X.X.X.XXXXX.X.XXXXXXXXX.X.XXXXX.X.X.X.XXXXXXXXXXXXXXXXXXXXXoXXX[.E.Z.f.f.f.f.f.f.C.R.[.XXOXOXXXXXXXXXXXXXXXOXOXXX/._ 8 . . . p $.eXdXdXdXdXdXdXdXdX",
"dXdXdXdXdXdXdXdXdXdXdXdXdXdXdXdXdXdXdXdXdXdXdXdXdXdXdXdXdXdXdXdXdXdXdXdXdXdXdXdXdXdXdXdXdXdXdXdXdXdXdXdXdXdXdXdXdXdXdXdXdXdXdXdXdXdXdXdXdXdXdXdXdXdXdXdXdXdXdXdXdXdXdXdXdXdXdXdXdXdXdXdXdXdXdXdXdXdXdXdXdXdXdXdXdXdXdXdXdXdXdXdXdXdXdXdXdXdXdXdXdXdXdXdXdXdXdXdXdXdXdXdXdXdXdXdXdXdXdXdXdXdXdXdXdXdXdXdXdXdXdXdXdXdXdXdXdXdXdXdXdXrX$.s . . . & W Q..XOXXXXXXXXXXXXXXX.XXX.XXX.XXXXXXXXX.X.XXXXXXXXX.X.X.X.XXXXXXXXXXXXX.XXX.X.XXXXX.XXX.X.X.X.XXX.XXXXXXXXX.X.XXXXX.X.XXXXXXXXX.X.XXXXXXX.X.X.X.X.X.X.X.X.X.X.XXXXX.XXXXXXXXXXXXX.X[.R.Z.f.f.f.f.f.f.C.R.]..XXXXXXXXXXXXXXXXXXXXXOX.X!.) 8 . . . p #.eXdXdXdXdXdXdXdXdX",
"dXdXdXdXdXdXdXdXdXdXdXdXdXdXdXdXdXdXdXdXdXdXdXdXdXdXdXdXdXdXdXdXdXdXdXdXdXdXdXdXdXdXdXdXdXdXdXdXdXdXdXdXdXdXdXdXdXdXdXdXdXdXdXdXdXdXdXdXdXdXdXdXdXdXdXdXdXdXdXdXdXdXdXdXdXdXdXdXdXdXdXdXdXdXdXdXdXdXdXdXdXdXdXdXdXdXdXdXdXdXdXdXdXdXdXdXdXdXdXdXdXdXdXdXdXdXdXdXdXdXdXdXdXdXdXdXdXdXdXdXdXdXdXdXdXdXdXdXdXdXdXdXdXdXdXdXdXdXdXdXdXrX$.s . . . & W U..XXXXXXXXXXX.X.X.X.XXXXXXXXXXXXXXXXX.X.XXXXXXXXX.X.X.X.X.XXXXXXXXXXXXXXX.XXXXXXX.X.X.X.X.X.XXXXXXXXXXXXX.X.XXXXX.X.XXXXXXXXX.X.XXXXXXX.X.X.XXX.X.X.X.X.X.XXXXXXX.X.X.X.X.XXXXX.X[.R.Z.f.f.f.f.f.f.C.R.]..XXXXX.X.X.XXXXXXXXXXXoX.X!.) 8 . . . p #.eXdXdXdXdXdXdXdXdX",
"dXdXdXdXdXdXdXdXdXdXdXdXdXdXdXdXdXdXdXdXdXdXdXdXdXdXdXdXdXdXdXdXdXdXdXdXdXdXdXdXdXdXdXdXdXdXdXdXdXdXdXdXdXdXdXdXdXdXdXdXdXdXdXdXdXdXdXdXdXdXdXdXdXdXdXdXdXdXdXdXdXdXdXdXdXdXdXdXdXdXdXdXdXdXdXdXdXdXdXdXdXdXdXdXdXdXdXdXdXdXdXdXdXdXdXdXdXdXdXdXdXdXdXdXdXdXdXdXdXdXdXdXdXdXdXdXdXdXdXdXdXdXdXdXdXdXdXdXdXdXdXdXdXdXdXdXdXdXdXdXdXtX&Xs . . . % T U. XXXXX.X.XXX.X.X.X.XXXXX.X.XXXXXXXXX.X.XXXXXXXXXXX.X.X.X.X.X.X.XXXXXXX.X.X.XXXXXXX.X.X.XXXXXXXXXXXXXXXXXXX.XXXXXXXXX.X.X.X.XXXXX.X.XXXXXXXXXXXXXXXXXXXXXXXXXXX.XXXXXXXXXXXXXXX.X[.R.C.f.s.f.f.s.s.M.T.'..XXXXX.X.X.XXXXXXXXXXXoX.XQ.~ 5 . . . p $.eXdXdXdXdXdXdXdXdX",
"dXdXdXdXdXdXdXdXdXdXdXdXdXdXdXdXdXdXdXdXdXdXdXdXdXdXdXdXdXdXdXdXdXdXdXdXdXdXdXdXdXdXdXdXdXdXdXdXdXdXdXdXdXdXdXdXdXdXdXdXdXdXdXdXdXdXdXdXdXdXdXdXdXdXdXdXdXdXdXdXdXdXdXdXdXdXdXdXdXdXdXdXdXdXdXdXdXdXdXdXdXdXdXdXdXdXdXdXdXdXdXdXdXdXdXdXdXdXdXdXdXdXdXdXdXdXdXdXdXdXdXdXdXdXdXdXdXdXdXdXdXdXdXdXdXdXdXdXdXdXdXdXdXdXdXdXdXdXdXdXdXtX&Xs . . . % T I..XXXXX.X.X.X.X.X.XXXXXXXXX.XXXXXXXXX.X.X.XXXXXXX.X.X.XXX.X.X.X.XXXXXXXXX.X.XXXXXXXXX.X.XXXXXXXXXXXXXXXXX.X.X.XXXXXXX.X.X.X.XXX.X.X.XXXXXXXXXXXXXXXXXXXXXXXXX.X.XXX.XXXXXXXXXXX.X[.R.C.f.f.f.f.f.f.C.R.]..XXXXX.X.X.XXXXXXXXXXXoX.XQ.~ 5 . . . p #.eXdXdXdXdXdXdXdXdX",
"dXdXdXdXdXdXdXdXdXdXdXdXdXdXdXdXdXdXdXdXdXdXdXdXdXdXdXdXdXdXdXdXdXdXdXdXdXdXdXdXdXdXdXdXdXdXdXdXdXdXdXdXdXdXdXdXdXdXdXdXdXdXdXdXdXdXdXdXdXdXdXdXdXdXdXdXdXdXdXdXdXdXdXdXdXdXdXdXdXdXdXdXdXdXdXdXdXdXdXdXdXdXdXdXdXdXdXdXdXdXdXdXdXdXdXdXdXdXdXdXdXdXdXdXdXdXdXdXdXdXdXdXdXdXdXdXdXdXdXdXdXdXdXdXdXdXdXdXdXdXdXdXdXdXdXdXdXdXdXdXdXtX>Xs . . . % W U..XXXXX.X.XXX.X.XXXXXXXXX.X.XXXXX.XXX.X.XXXXX.X.X.X.XXXXXXXXX.XXXXXXX.X.X.X.XXXXXXXXX.X.X.XXX.X.XXX.XXXXXXXXX.X.XXXXX.XXX.X.XXXXX.X.XXX.XXXXX.X.XXXXXXXXX.X.X.X.X.X.X.X.XXXXXXX.X[.W.H.C.M.C.C.M.C.D.E.[..XXXXXXX.X.XXXXXXXXXXXoX.XQ.~ 4 . . . p o.0XuXpXiXiXiXiXiXiX",
"dXdXdXdXdXdXdXdXdXdXdXdXdXdXdXdXdXdXdXdXdXdXdXdXdXdXdXdXdXdXdXdXdXdXdXdXdXdXdXdXdXdXdXdXdXdXdXdXdXdXdXdXdXdXdXdXdXdXdXdXdXdXdXdXdXdXdXdXdXdXdXdXdXdXdXdXdXdXdXdXdXdXdXdXdXdXdXdXdXdXdXdXdXdXdXdXdXdXdXdXdXdXdXdXdXdXdXdXdXdXdXdXdXdXdXdXdXdXdXdXdXdXdXdXdXdXdXdXdXdXdXdXdXdXdXdXdXdXdXdXdXdXdXdXdXdXdXdXdXdXdXdXdXdXdXdXdXdXdXdXdXtX>.s . . . % W U..XXXXX.X.XXX.X.XXXXXXXXX.X.XXXXX.X.X.X.XXXXX.X.X.X.XXXXXXXXXXXXXXXXXXX.X.X.XXXXXXX.X.X.X.X.X.X.X.X.XXXXXXXXX.X.XXXXXXXXX.XXXXXXX.X.X.X.XXXXX.XXXXXXXXXXXXX.X.X.X.X.X.X.X.XXXXX.X X).W.R.K.R.R.K.T.E.(.}..XXXXXXX.X.XXXXX.X.XXXoX.XQ.~ 4 . . . = [ #.2X3X2X2X2X2X2X2X",
"dXdXdXdXdXdXdXdXdXdXdXdXdXdXdXdXdXdXdXdXdXdXdXdXdXdXdXdXdXdXdXdXdXdXdXdXdXdXdXdXdXdXdXdXdXdXdXdXdXdXdXdXdXdXdXdXdXdXdXdXdXdXdXdXdXdXdXdXdXdXdXdXdXdXdXdXdXdXdXdXdXdXdXdXdXdXdXdXdXdXdXdXdXdXdXdXdXdXdXdXdXdXdXdXdXdXdXdXdXdXdXdXdXdXdXdXdXdXdXdXdXdXdXdXdXdXdXdXdXdXdXdXdXdXdXdXdXdXdXdXdXdXdXdXdXdXdXdXdXdXdXdXdXdXdXdXdXdXdXdXdXrX$.s . . . % W U..XXXXX.XXXXX.XXXXXXXXX.X.X.XXX.X.X.XXXXXXXXX.XXXXX.X.X.XXXXXXXXX.X.XXXXXXXXX.X.X.X.XXXXX.X.X.X.XXXXXXXXX.XXX.X.X.X.XXXXXXXXXXXXXXXXX.X.X.XXX.X.XXXXXXXXX.X.X.X.X.X.X.X.X.XXXXX.X.X}.[.].].].].'.'.[.}..X.XXXXXXXXXXX.X.X.X.XXXXX.X!.~ 5 . . . X - d g [ [ g z [ [ [ ",
"dXdXdXdXdXdXdXdXdXdXdXdXdXdXdXdXdXdXdXdXdXdXdXdXdXdXdXdXdXdXdXdXdXdXdXdXdXdXdXdXdXdXdXdXdXdXdXdXdXdXdXdXdXdXdXdXdXdXdXdXdXdXdXdXdXdXdXdXdXdXdXdXdXdXdXdXdXdXdXdXdXdXdXdXdXdXdXdXdXdXdXdXdXdXdXdXdXdXdXdXdXdXdXdXdXdXdXdXdXdXdXdXdXdXdXdXdXdXdXdXdXdXdXdXdXdXdXdXdXdXdXdXdXdXdXdXdXdXdXdXdXdXdXdXdXdXdXdXdXdXdXdXdXdXdXdXdXdXdXdXdXrX$.s . . . % W U..XXXXX.XXXXXXXXXXXXXXXXX.X.X.X.X.X.XXX.XXXXXXXXXXXXX.X.XXXXXXX.X.X.XXXXXXXXX.X.X.X.XXXXXXX.X.X.XXXXX.XXX.X.X.X.XXX.XXXXXXXXXXXXX.XXX.X.X.X.X.X.XXXXXXXXX.X.X.X.X.X.X.X.XXXXX.X.X.X.X.X.X.X.X.X.X.X.X.X.XXXXXXXXXXXXX.X.X.X.XXXXX.X!.~ 5 . . . . . . . . . . . . . . ",
"dXdXdXdXdXdXdXdXdXdXdXdXdXdXdXdXdXdXdXdXdXdXdXdXdXdXdXdXdXdXdXdXdXdXdXdXdXdXdXdXdXdXdXdXdXdXdXdXdXdXdXdXdXdXdXdXdXdXdXdXdXdXdXdXdXdXdXdXdXdXdXdXdXdXdXdXdXdXdXdXdXdXdXdXdXdXdXdXdXdXdXdXdXdXdXdXdXdXdXdXdXdXdXdXdXdXdXdXdXdXdXdXdXdXdXdXdXdXdXdXdXdXdXdXdXdXdXdXdXdXdXdXdXdXdXdXdXdXdXdXdXdXdXdXdXdXdXdXdXdXdXdXdXdXdXdXdXdXdXdXdXrX$.s . . . $ W U..XXXXXXXXXXXXXXXXXXXXXXXXXXXXXXX.X.X.X.X.X.XXXXXXXXX.X.X.XXXXXXX.X.X.X.XXXXX.X.XXXXXXXXX.X.X.XXXXXXX.X.X.X.XXXXXXXXXXXXX.X.X.X.X.X.X.X.XXXXX.X.X.XXXXX.X.X.X.X.XXX.XXXXXXXXX.XXXXXXXXXXXoXXXXXXXXXXXXXXX.XXX.X.X.X.X.XXXXXXXXXOX.XQ.! & . . . . . . . . . . . . . . ",
"dXdXdXdXdXdXdXdXdXdXdXdXdXdXdXdXdXdXdXdXdXdXdXdXdXdXdXdXdXdXdXdXdXdXdXdXdXdXdXdXdXdXdXdXdXdXdXdXdXdXdXdXdXdXdXdXdXdXdXdXdXdXdXdXdXdXdXdXdXdXdXdXdXdXdXdXdXdXdXdXdXdXdXdXdXdXdXdXdXdXdXdXdXdXdXdXdXdXdXdXdXdXdXdXdXdXdXdXdXdXdXdXdXdXdXdXdXdXdXdXdXdXdXdXdXdXdXdXdXdXdXdXdXdXdXdXdXdXdXdXdXdXdXdXdXdXdXdXdXdXdXdXdXdXdXdXdXdXdXdXdXrX$.s . . . $ W U..XXXXXXXXXXX.XXXXXXXXXXXXXXXXX.X.X.X.X.X.X.XXXXXXXXX.X.X.X.XXXXX.X.X.XXXXXXX.XXXXXXXXXXX.X.XXXXXXXXX.X.X.X.XXXXXXXXXXXXXXX.X.X.X.X.X.X.X.XXX.X.XXXXXXXXX.X.XXX.XXXXXXXXXXXXX.XXXXXXXXXXXXXXXXXXXXXXXXXXX.X.X.X.X.X.X.XXXXXXXXXOX.XQ.! & . . . . . . . . . . . . . . ",
"dXdXdXdXdXdXdXdXdXdXdXdXdXdXdXdXdXdXdXdXdXdXdXdXdXdXdXdXdXdXdXdXdXdXdXdXdXdXdXdXdXdXdXdXdXdXdXdXdXdXdXdXdXdXdXdXdXdXdXdXdXdXdXdXdXdXdXdXdXdXdXdXdXdXdXdXdXdXdXdXdXdXdXdXdXdXdXdXdXdXdXdXdXdXdXdXdXdXdXdXdXdXdXdXdXdXdXdXdXdXdXdXdXdXdXdXdXdXdXdXdXdXdXdXdXdXdXdXdXdXdXdXdXdXdXdXdXdXdXdXdXdXdXdXdXdXdXdXdXdXdXdXdXdXdXdXdXdXdXdXdXtX&Xs . . . % W U..XoXXXXX.XXX.X.XXXXXXXXXXXXX.X.X.XXXXXXX.X.XXXXXXXXX.X.X.X.XXXXX.X.X.XXXXXXX.X.X.XXXXXXX.X.XXXXXXXXX.X.X.X.XXXXX.X.X.XXXXXXX.X.X.X.X.X.XXXXXXXXX.X.XXXXXXXXXXXXX.X.X.X.X.X.XXXXXXX.X.X.XXXXX.X.X.X.XXXXXXXXX.X.XXXXXXX.X.X.XXXXX.X/._ q X X X X . . . . . . . . . . ",
"dXdXdXdXdXdXdXdXdXdXdXdXdXdXdXdXdXdXdXdXdXdXdXdXdXdXdXdXdXdXdXdXdXdXdXdXdXdXdXdXdXdXdXdXdXdXdXdXdXdXdXdXdXdXdXdXdXdXdXdXdXdXdXdXdXdXdXdXdXdXdXdXdXdXdXdXdXdXdXdXdXdXdXdXdXdXdXdXdXdXdXdXdXdXdXdXdXdXdXdXdXdXdXdXdXdXdXdXdXdXdXdXdXdXdXdXdXdXdXdXdXdXdXdXdXdXdXdXdXdXdXdXdXdXdXdXdXdXdXdXdXdXdXdXdXdXdXdXdXdXdXdXdXdXdXdXdXdXdXdXdXtX&Xs . . . % W U..XoXXXXX.X.X.X.XXXXXXXXXXXXX.X.X.X.XXXXX.XXXXXXXXXXX.X.X.XXXXXXX.X.X.X.XXXXX.X.XXXXXXXXX.X.XXXXXXXXX.X.X.X.XXXXX.X.XXXXXXXXX.XXX.X.X.X.XXXXXXXXXXX.X.XXXXXXXXXXX.XXX.X.X.X.XXXXXXXXX.X.XXXXX.X.X.X.XXXXXXXXX.X.XXXXXXX.X.X.XXXXX.X_.S.W F F F Z 8 X . . . . . . . . ",
"dXdXdXdXdXdXdXdXdXdXdXdXdXdXdXdXdXdXdXdXdXdXdXdXdXdXdXdXdXdXdXdXdXdXdXdXdXdXdXdXdXdXdXdXdXdXdXdXdXdXdXdXdXdXdXdXdXdXdXdXdXdXdXdXdXdXdXdXdXdXdXdXdXdXdXdXdXdXdXdXdXdXdXdXdXdXdXdXdXdXdXdXdXdXdXdXdXdXdXdXdXdXdXdXdXdXdXdXdXdXdXdXdXdXdXdXdXdXdXdXdXdXdXdXdXdXdXdXdXdXdXdXdXdXdXdXdXdXdXdXdXdXdXdXdXdXdXdXdXdXdXdXdXdXdXdXdXdXdXdXdXtX>Xs . . . % W U..XOXXXXX.X.X.X.X.XXX.X.XXX.X.X.XXXXXXXXXXXXXXXXXXXXX.X.XXXXXXX.X.X.XXXXXXXXX.X.X.X.XXXXXXX.XXX.XXXXX.X.XXX.XXX.X.X.XXXXXXXXXXXXXXXXX.XXXXXXXXXXX.X.X.X.XXXXXXXXXXXXXXXXX.XXXXXXXXXXX.X.X.XXX.XXX.X.XXXXX.XXXXXXXXXXXXX.X.X.XXXXX.X|._.P.F.L.F.v.J 4 . . . . . . . . ",
"dXdXdXdXdXdXdXdXdXdXdXdXdXdXdXdXdXdXdXdXdXdXdXdXdXdXdXdXdXdXdXdXdXdXdXdXdXdXdXdXdXdXdXdXdXdXdXdXdXdXdXdXdXdXdXdXdXdXdXdXdXdXdXdXdXdXdXdXdXdXdXdXdXdXdXdXdXdXdXdXdXdXdXdXdXdXdXdXdXdXdXdXdXdXdXdXdXdXdXdXdXdXdXdXdXdXdXdXdXdXdXdXdXdXdXdXdXdXdXdXdXdXdXdXdXdXdXdXdXdXdXdXdXdXdXdXdXdXdXdXdXdXdXdXdXdXdXdXdXdXdXdXdXdXdXdXdXdXdXdXdXtX>.s . . . % W U..XOXXXXX.X.X.X.X.X.X.X.X.X.X.X.X.XXXXXXXXXXX.XXXXX.X.X.XXXXXXXXX.X.XXXXXXXXX.X.X.XXXXXXXXXXX.X.XXXXXXX.XXXXX.X.X.X.X.XXXXXXXXXXXXXXXXXXXXXXXXXXX.X.X.X.XXXXXXXXXXXXXXXXXXXXXXXXXXX.X.X.X.X.XXXXX.XXXXXXX.X.XXXXXXXXXXX.X.X.X.X.X.X.X.X X X.X X!./ q . . . . . . . . ",
"dXdXdXdXdXdXdXdXdXdXdXdXdXdXdXdXdXdXdXdXdXdXdXdXdXdXdXdXdXdXdXdXdXdXdXdXdXdXdXdXdXdXdXdXdXdXdXdXdXdXdXdXdXdXdXdXdXdXdXdXdXdXdXdXdXdXdXdXdXdXdXdXdXdXdXdXdXdXdXdXdXdXdXdXdXdXdXdXdXdXdXdXdXdXdXdXdXdXdXdXdXdXdXdXdXdXdXdXdXdXdXdXdXdXdXdXdXdXdXdXdXdXdXdXdXdXdXdXdXdXdXdXdXdXdXdXdXdXdXdXdXdXdXdXdXdXdXdXdXdXdXdXdXdXdXdXdXdXdXdXdXrX$.s . . . & W U..XoXXXXXXX.X.X.X.X.X.X.X.XXXXXXXXXXX.X.XXXXX.X.X.X.XXXXXXXXXXXXXXXXXXX.X.X.XXXXXXXXX.X.XXXXX.X.X.X.XXXXXXXXX.X.XXXXX.X.X.X.X.XXXXXXXXXXXXXXXXXXXXX.X.X.X.XXXXXXXXXXXXXXXXXXX.X.X.X.XXXXX.X.XXXXXXXXX.X.X.X.XXX.X.X.XXXXXXXXXXXXXXXXXXXoXoXOXOX'.c.e . . . . . . . . ",
"dXdXdXdXdXdXdXdXdXdXdXdXdXdXdXdXdXdXdXdXdXdXdXdXdXdXdXdXdXdXdXdXdXdXdXdXdXdXdXdXdXdXdXdXdXdXdXdXdXdXdXdXdXdXdXdXdXdXdXdXdXdXdXdXdXdXdXdXdXdXdXdXdXdXdXdXdXdXdXdXdXdXdXdXdXdXdXdXdXdXdXdXdXdXdXdXdXdXdXdXdXdXdXdXdXdXdXdXdXdXdXdXdXdXdXdXdXdXdXdXdXdXdXdXdXdXdXdXdXdXdXdXdXdXdXdXdXdXdXdXdXdXdXdXdXdXdXdXdXdXdXdXdXdXdXdXdXdXdXdXdXrX$.s . . . & W U..XoXXXXXXX.X.X.X.X.X.X.XXXXXXXXXXXXX.XXXXXXX.X.X.X.XXXXXXXXX.XXXXXXX.X.X.X.XXXXXXXXX.X.X.XXX.X.X.X.XXXXXXXXX.XXXXXXX.X.X.X.X.X.XXXXXXXXXXXXXXXXX.X.X.X.XXXXXXXXXXXXXXXXX.XXX.X.X.X.XXXXXXX.XXXXXXXXX.X.X.X.XXX.X.X.XXXXXXXXXXX.XXXXXXXXXoXOXXX'.c.t . . . . . . . . ",
"dXdXdXdXdXdXdXdXdXdXdXdXdXdXdXdXdXdXdXdXdXdXdXdXdXdXdXdXdXdXdXdXdXdXdXdXdXdXdXdXdXdXdXdXdXdXdXdXdXdXdXdXdXdXdXdXdXdXdXdXdXdXdXdXdXdXdXdXdXdXdXdXdXdXdXdXdXdXdXdXdXdXdXdXdXdXdXdXdXdXdXdXdXdXdXdXdXdXdXdXdXdXdXdXdXdXdXdXdXdXdXdXdXdXdXdXdXdXdXdXdXdXdXdXdXdXdXdXdXdXdXdXdXdXdXdXdXdXdXdXdXdXdXdXdXdXdXdXdXdXdXdXdXdXdXdXdXdXdXdXdXrX$.s . . . & W U..XXXXXXXXXXX.X.XXX.XXXXXXXXXXXXX.X.X.X.XXXXXXXXX.X.X.XXX.X.X.X.XXXXXXXXX.X.XXXXX.X.X.X.XXXXXXXXX.XXXXXXX.X.X.X.XXXXXXXXX.X.X.X.X.X.XXXXXXXXX.X.X.X.X.X.X.X.XXXXX.XXX.X.X.X.X.X.XXXXXXXXX.X.X.X.XXXXXXXXXXXXXXXXX.X.X.X.XXXXXXXXX.X.X.X.XXXoXXX_.l.q . . . . . . . . ",
"dXdXdXdXdXdXdXdXdXdXdXdXdXdXdXdXdXdXdXdXdXdXdXdXdXdXdXdXdXdXdXdXdXdXdXdXdXdXdXdXdXdXdXdXdXdXdXdXdXdXdXdXdXdXdXdXdXdXdXdXdXdXdXdXdXdXdXdXdXdXdXdXdXdXdXdXdXdXdXdXdXdXdXdXdXdXdXdXdXdXdXdXdXdXdXdXdXdXdXdXdXdXdXdXdXdXdXdXdXdXdXdXdXdXdXdXdXdXdXdXdXdXdXdXdXdXdXdXdXdXdXdXdXdXdXdXdXdXdXdXdXdXdXdXdXdXdXdXdXdXdXdXdXdXdXdXdXdXdXdXdXrX$.s . . . & W U..XXXXXXXXXXXXX.XXXXXXXXXXXXXXX.X.X.X.X.XXXXXXXXXXX.X.X.X.X.X.X.XXXXXXX.X.X.XXXXXXX.X.X.XXXXXXXXXXXXXXX.X.X.X.X.XXXXXXXXXXX.X.X.X.X.X.XXXXX.X.X.X.X.X.X.X.XXXXXXX.X.X.X.X.X.X.XXXXXXXXXXX.X.X.X.X.XXXXXXXXXXXXXXXXXXXXXXXXXXXXXXXXXXXXX.XXXoXXX_.l.q . . . . . . . . ",
"dXdXdXdXdXdXdXdXdXdXdXdXdXdXdXdXdXdXdXdXdXdXdXdXdXdXdXdXdXdXdXdXdXdXdXdXdXdXdXdXdXdXdXdXdXdXdXdXdXdXdXdXdXdXdXdXdXdXdXdXdXdXdXdXdXdXdXdXdXdXdXdXdXdXdXdXdXdXdXdXdXdXdXdXdXdXdXdXdXdXdXdXdXdXdXdXdXdXdXdXdXdXdXdXdXdXdXdXdXdXdXdXdXdXdXdXdXdXdXdXdXdXdXdXdXdXdXdXdXdXdXdXdXdXdXdXdXdXdXdXdXdXdXdXdXdXdXdXdXdXdXdXdXdXdXdXdXdXdXdXdXtX$.s . . . % W U..XXXXXXXXXXX.X.X.XXXXXXX.X.X.X.X.X.X.X.X.XXXXXXX.X.X.X.X.X.XXXXXXX.X.X.XXXXXXXXXXXXXXXXX.X.X.X.XXXXXXXXXXXXXXXXXXXXXXXXX.X.X.X.XXXXXXXXXXXXXXXXX.X.X.XXXXXXXXXXX.X.X.X.XXXXXXXXX.X.X.XXXXXXX.X.X.XXXXXXXXXXXXXXXXXXXXXXXXXXXXXXXXXXXXXXXXXXXXX_.l.w . . . . . . . . ",
"dXdXdXdXdXdXdXdXdXdXdXdXdXdXdXdXdXdXdXdXdXdXdXdXdXdXdXdXdXdXdXdXdXdXdXdXdXdXdXdXdXdXdXdXdXdXdXdXdXdXdXdXdXdXdXdXdXdXdXdXdXdXdXdXdXdXdXdXdXdXdXdXdXdXdXdXdXdXdXdXdXdXdXdXdXdXdXdXdXdXdXdXdXdXdXdXdXdXdXdXdXdXdXdXdXdXdXdXdXdXdXdXdXdXdXdXdXdXdXdXdXdXdXdXdXdXdXdXdXdXdXdXdXdXdXdXdXdXdXdXdXdXdXdXdXdXdXdXdXdXdXdXdXdXdXdXdXdXdXdXdXtX>Xs . . . % T I..XXXXXXX.X.X.X.X.X.XXXXX.XXX.X.X.X.X.X.XXXXXXXXX.X.X.X.XXX.XXXXXXX.X.X.XXXXXXXXXXXXXXXXX.X.X.X.XXXXXXXXX.X.X.X.XXXXXXXXX.X.X.X.XXXXXXXXXXXXXXXXX.X.X.XXXXXXXXXXX.X.X.X.XXXXXXXXX.X.X.XXXXXXX.X.XXXXX.X.X.X.X.X.X.X.X.X.X.X.X.X.X.X.X.XXXXXXXXX_.l.w . . . . . . . . ",
"dXdXdXdXdXdXdXdXdXdXdXdXdXdXdXdXdXdXdXdXdXdXdXdXdXdXdXdXdXdXdXdXdXdXdXdXdXdXdXdXdXdXdXdXdXdXdXdXdXdXdXdXdXdXdXdXdXdXdXdXdXdXdXdXdXdXdXdXdXdXdXdXdXdXdXdXdXdXdXdXdXdXdXdXdXdXdXdXdXdXdXdXdXdXdXdXdXdXdXdXdXdXdXdXdXdXdXdXdXdXdXdXdXdXdXdXdXdXdXdXdXdXdXdXdXdXdXdXdXdXdXdXdXdXdXdXdXdXdXdXdXdXdXdXdXdXdXdXdXdXdXdXdXdXdXdXdXdXdXdXdXtX>Xs . . . $ T U. XXXXX.XXXXX.X.XXXXXXXXXXXXXXXXX.XXX.X.X.X.XXXXXXX.XXXXXXXXXXXXXXXXX.X.X.XXX.X.X.X.XXXXXXXXX.X.XXXXX.X.X.X.X.X.X.X.XXXXX.X.XXXXXXXXX.X.X.X.XXX.X.X.XXXXXXXXXXXXXXXXX.X.XXXXXXX.X.X.XXXXXXXXX.XXX.X.X.X}.[.[.[.[.[.[.[.[.[.[.[.[.[.{. X.XXXOXXX_.l.q . . . . . . . . ",
"dXdXdXdXdXdXdXdXdXdXdXdXdXdXdXdXdXdXdXdXdXdXdXdXdXdXdXdXdXdXdXdXdXdXdXdXdXdXdXdXdXdXdXdXdXdXdXdXdXdXdXdXdXdXdXdXdXdXdXdXdXdXdXdXdXdXdXdXdXdXdXdXdXdXdXdXdXdXdXdXdXdXdXdXdXdXdXdXdXdXdXdXdXdXdXdXdXdXdXdXdXdXdXdXdXdXdXdXdXdXdXdXdXdXdXdXdXdXdXdXdXdXdXdXdXdXdXdXdXdXdXdXdXdXdXdXdXdXdXdXdXdXdXdXdXdXdXdXdXdXdXdXdXdXdXdXdXdXdXdXdXtX>Xs . . . $ T I..XXXXXXXXXXX.X.X.XXXXXXXXXXXXXXXXXXX.X.X.XXXXXXXXXXXXXXXXXXXXXXXXXXX.X.X.XXX.X.X.X.XXXXXXXXX.X.XXXXX.X.X.X.X.X.X.X.XXXXX.X.XXXXXXXXX.X.X.X.XXX.X.X.XXXXXXXXXXXXXXXXX.X.XXXXXXX.X.X.XXXXXXXXX.XXXXX.X[.^.E.R.R.R.R.R.R.R.R.R.R.R.R.^.]..XXXOXXX_.l.q . . . . . . . . ",
"dXdXdXdXdXdXdXdXdXdXdXdXdXdXdXdXdXdXdXdXdXdXdXdXdXdXdXdXdXdXdXdXdXdXdXdXdXdXdXdXdXdXdXdXdXdXdXdXdXdXdXdXdXdXdXdXdXdXdXdXdXdXdXdXdXdXdXdXdXdXdXdXdXdXdXdXdXdXdXdXdXdXdXdXdXdXdXdXdXdXdXdXdXdXdXdXdXdXdXdXdXdXdXdXdXdXdXdXdXdXdXdXdXdXdXdXdXdXdXdXdXdXdXdXdXdXdXdXdXdXdXdXdXdXdXdXdXdXdXdXdXdXdXdXdXdXdXdXdXdXdXdXdXdXdXdXdXdXdXdXdXtX$.s . . . % W Q..XOXXX.X.X.XXXXXXXXX.X.XXXXXXXXX.X.X.X.XXXXXXXXXXXXXXXXXXX.X.X.X.X.XXXXXXX.X.X.XXXXXXXXXXXXX.X.X.X.X.XXXXXXXXXXXXX.X.X.X.X.XXXXXXXXXXXXX.X.X.XXXXXXX.X.X.X.X.X.X.XXXXXXXXXXX.XXXXXXX.X.X.X.XXXXXXX X(.K.Z.C.C.Z.Z.Z.Z.Z.Z.Z.C.C.Z.J.^.}.XXOXXX_.l.q . . . . . . . . ",
"dXdXdXdXdXdXdXdXdXdXdXdXdXdXdXdXdXdXdXdXdXdXdXdXdXdXdXdXdXdXdXdXdXdXdXdXdXdXdXdXdXdXdXdXdXdXdXdXdXdXdXdXdXdXdXdXdXdXdXdXdXdXdXdXdXdXdXdXdXdXdXdXdXdXdXdXdXdXdXdXdXdXdXdXdXdXdXdXdXdXdXdXdXdXdXdXdXdXdXdXdXdXdXdXdXdXdXdXdXdXdXdXdXdXdXdXdXdXdXdXdXdXdXdXdXdXdXdXdXdXdXdXdXdXdXdXdXdXdXdXdXdXdXdXdXdXdXdXdXdXdXdXdXdXdXdXdXdXdXdXdXtX$.s . . . % W Q..XOXXX.X.XXXXXXXXXXX.XXXXXXXXXXX.X.XXX.XXXXXXXXXXXXXXXXX.X.X.X.X.X.XXXXXXX.X.X.XXXXX.X.X.X.X.X.X.X.X.XXXXXXXXXXXXX.X.X.X.X.X.X.X.X.XXXXX.X.X.XXXXXXX.X.X.X.X.X.X.XXXXXXXXXXX.XXXXXXX.X.X.X.X.XXXXX X^.D.g.f.f.f.f.f.f.f.f.f.f.f.f.D.!.{.XXOXXX_.l.q . . . . . . . . ",
"dXdXdXdXdXdXdXdXdXdXdXdXdXdXdXdXdXdXdXdXdXdXdXdXdXdXdXdXdXdXdXdXdXdXdXdXdXdXdXdXdXdXdXdXdXdXdXdXdXdXdXdXdXdXdXdXdXdXdXdXdXdXdXdXdXdXdXdXdXdXdXdXdXdXdXdXdXdXdXdXdXdXdXdXdXdXdXdXdXdXdXdXdXdXdXdXdXdXdXdXdXdXdXdXdXdXdXdXdXdXdXdXdXdXdXdXdXdXdXdXdXdXdXdXdXdXdXdXdXdXdXdXdXdXdXdXdXdXdXdXdXdXdXdXdXdXdXdXdXdXdXdXdXdXdXdXdXdXdXdXdXtX$.s . . . % W U..XOXXXXX.X.XXXXX.X.X.X.XXXXXXX.X.X.XXXXXXXXXXXXXXXXX.X.X.X.X.X.XXXXXXXXX.X.XXXXXXXXX.X.X.X.XXXXX.X.XXXXXXXXXXXXXXXXX.X.XXXXX.X.X.X.XXXXXXXXX.X.XXXXXXXXX.X.X.X.X.XXXXXXX.X.X.X.XXXXXXXXX.X.XXXXXXX}.~.D.f.s.f.f.f.f.f.f.f.f.f.s.f.D.W.}.XXOXXX_.l.q . . . . . . . . ",
"dXdXdXdXdXdXdXdXdXdXdXdXdXdXdXdXdXdXdXdXdXdXdXdXdXdXdXdXdXdXdXdXdXdXdXdXdXdXdXdXdXdXdXdXdXdXdXdXdXdXdXdXdXdXdXdXdXdXdXdXdXdXdXdXdXdXdXdXdXdXdXdXdXdXdXdXdXdXdXdXdXdXdXdXdXdXdXdXdXdXdXdXdXdXdXdXdXdXdXdXdXdXdXdXdXdXdXdXdXdXdXdXdXdXdXdXdXdXdXdXdXdXdXdXdXdXdXdXdXdXdXdXdXdXdXdXdXdXdXdXdXdXdXdXdXdXdXdXdXdXdXdXdXdXdXdXdXdXdXdXdXtX$.s . . . % W U..XOXXXXXXX.XXX.X.X.X.X.XXXXXXXXX.X.XXXXXXXXX.XXXXX.X.X.X.X.X.X.XXXXXXXXX.X.XXXXXXXXX.X.X.X.XXXXX.X.XXXXXXXXXXXXXXXXX.X.XXXXX.X.X.X.XXXXXXXXX.X.XXXXXXXXX.X.X.X.X.XXXXXXX.X.X.X.XXXXXXXXX.X.XXXXXXX X^.D.g.f.f.f.f.f.f.f.f.f.f.f.f.D.!.}.XXOXXX^.l.q . . . . . . . . ",
"dXdXdXdXdXdXdXdXdXdXdXdXdXdXdXdXdXdXdXdXdXdXdXdXdXdXdXdXdXdXdXdXdXdXdXdXdXdXdXdXdXdXdXdXdXdXdXdXdXdXdXdXdXdXdXdXdXdXdXdXdXdXdXdXdXdXdXdXdXdXdXdXdXdXdXdXdXdXdXdXdXdXdXdXdXdXdXdXdXdXdXdXdXdXdXdXdXdXdXdXdXdXdXdXdXdXdXdXdXdXdXdXdXdXdXdXdXdXdXdXdXdXdXdXdXdXdXdXdXdXdXdXdXdXdXdXdXdXdXdXdXdXdXdXdXdXdXdXdXdXdXdXdXdXdXdXdXdXdXdXdXrX$.s . . . $ W U..XXXXX.X.X.XXXXXXX.X.X.XXXXX.X.X.X.XXXXXXXXX.X.X.X.X.X.X.X.X.XXXXXXX.X.X.X.X.XXXXXXXXX.X.X.XXXXX.X.X.XXX.XXX.XXX.X.X.X.XXXXXXXXXXX.X.XXXXXXX.X.X.X.X.X.X.X.XXXXXXXXX.X.X.X.X.XXXXXXX.X.X.X.XXXXXXX X^.H.h.f.f.g.g.g.f.f.f.f.f.f.g.D.!.}.XXOXXX_.l.q . . . . . . . . ",
"dXdXdXdXdXdXdXdXdXdXdXdXdXdXdXdXdXdXdXdXdXdXdXdXdXdXdXdXdXdXdXdXdXdXdXdXdXdXdXdXdXdXdXdXdXdXdXdXdXdXdXdXdXdXdXdXdXdXdXdXdXdXdXdXdXdXdXdXdXdXdXdXdXdXdXdXdXdXdXdXdXdXdXdXdXdXdXdXdXdXdXdXdXdXdXdXdXdXdXdXdXdXdXdXdXdXdXdXdXdXdXdXdXdXdXdXdXdXdXdXdXdXdXdXdXdXdXdXdXdXdXdXdXdXdXdXdXdXdXdXdXdXdXdXdXdXdXdXdXdXdXdXdXdXdXdXdXdXdXdXdXrX$.s . . . $ W U..XXXXX.XXXXXXXXXXXXX.X.XXXXXXX.X.X.X.XXX.X.X.XXXXXXXXXXXXXXXXXXXXXXXXXXXXXXXXXXXXXXXXXXXXXXXXXXXXX.X.X.XXXXX.XXX.X.X.X.XXXXXXXXXXX.X.XXXXXXX.X.XXXXX.X.X.X.XXXXXXXXXXXXXXXXXXXXXXXXXXXXXXXXXXXoXoX X^.H.h.f.f.g.g.f.f.f.f.g.f.f.g.D.~. XXXOXXX_.c.u . . . . . . . . ",
"dXdXdXdXdXdXdXdXdXdXdXdXdXdXdXdXdXdXdXdXdXdXdXdXdXdXdXdXdXdXdXdXdXdXdXdXdXdXdXdXdXdXdXdXdXdXdXdXdXdXdXdXdXdXdXdXdXdXdXdXdXdXdXdXdXdXdXdXdXdXdXdXdXdXdXdXdXdXdXdXdXdXdXdXdXdXdXdXdXdXdXdXdXdXdXdXdXdXdXdXdXdXdXdXdXdXdXdXdXdXdXdXdXdXdXdXdXdXdXdXdXdXdXdXdXdXdXdXdXdXdXdXdXdXdXdXdXdXdXdXdXdXdXdXdXdXdXdXdXdXdXdXdXdXdXdXdXdXdXdXdXtX$.s . . . $ W U..XXXXXXXXXXXXXXXXXXX.X.X.XXX.X.XXXXX.XXX.X.XXXXXXXXXXXXXXXXXXXXXXXXXXXXXXXXXXXXXXXXXXXXXXXXXXXXXXXXXXXXXXXXXXXXXXXXX.XXXXXXXXXXX.X.X.X.XXXXXXXXXXXXX.X.XXXXXXXXXXXXXXXXXXXXXXXXXXXXXXXXXXXXXXXXXXX X^.H.h.f.f.f.f.f.f.f.g.g.f.f.g.D.~.}.XXOXXX_.l.q . . . . . . . . ",
"dXdXdXdXdXdXdXdXdXdXdXdXdXdXdXdXdXdXdXdXdXdXdXdXdXdXdXdXdXdXdXdXdXdXdXdXdXdXdXdXdXdXdXdXdXdXdXdXdXdXdXdXdXdXdXdXdXdXdXdXdXdXdXdXdXdXdXdXdXdXdXdXdXdXdXdXdXdXdXdXdXdXdXdXdXdXdXdXdXdXdXdXdXdXdXdXdXdXdXdXdXdXdXdXdXdXdXdXdXdXdXdXdXdXdXdXdXdXdXdXdXdXdXdXdXdXdXdXdXdXdXdXdXdXdXdXdXdXdXdXdXdXdXdXdXdXdXdXdXdXdXdXdXdXdXdXdXdXdXdXdXtX$.s . . . % W U..XXXXXXXXXXXXXXXXX.X.X.X.X.X.X.XXXXXXXXX.X.X.X.X X X}.}. X X X X X X X X X X}.}. X X X X X}. X X.X.XXXXXXXXXXXXXXXXX.XXXXXXXXXXX.X.X.X.XXXXXXXXXXXXX.X.XXXXX.X.X.X X}.}. X X X X X X X X X X X X X[.W.D.h.f.f.f.f.f.f.f.g.g.f.f.g.D.E.]. X.X X~.j.q . . . . . . . . ",
"dXdXdXdXdXdXdXdXdXdXdXdXdXdXdXdXdXdXdXdXdXdXdXdXdXdXdXdXdXdXdXdXdXdXdXdXdXdXdXdXdXdXdXdXdXdXdXdXdXdXdXdXdXdXdXdXdXdXdXdXdXdXdXdXdXdXdXdXdXdXdXdXdXdXdXdXdXdXdXdXdXdXdXdXdXdXdXdXdXdXdXdXdXdXdXdXdXdXdXdXdXdXdXdXdXdXdXdXdXdXdXdXdXdXdXdXdXdXdXdXdXdXdXdXdXdXdXdXdXdXdXdXdXdXdXdXdXdXdXdXdXdXdXdXdXdXdXdXdXdXdXdXdXdXdXdXdXdXdXdXdXtX>.s . . . % W Q..XOXXXXX.X.X.X.X.X.XXX.X.X.XXXXXXXXX.XXXXXXX.X{.).^.^.^.^.^.^.^.^.^.^.^.^.^.^.^.^.^.^.^.^.~.^.(.]. X.XXXXX.XXX.X.XXX.XXXXXXXXXXX.X.X.X.XXXXXXXXX.X.X.X.XXXXX.X}.'.^.^.^.^.^.^.^.^.^.^.^.^.^.^.^.^.W.J.C.g.f.f.f.f.f.f.g.g.g.f.f.f.C.J.W.^.).^.L.! 8 . . . . . . . . ",
"dXdXdXdXdXdXdXdXdXdXdXdXdXdXdXdXdXdXdXdXdXdXdXdXdXdXdXdXdXdXdXdXdXdXdXdXdXdXdXdXdXdXdXdXdXdXdXdXdXdXdXdXdXdXdXdXdXdXdXdXdXdXdXdXdXdXdXdXdXdXdXdXdXdXdXdXdXdXdXdXdXdXdXdXdXdXdXdXdXdXdXdXdXdXdXdXdXdXdXdXdXdXdXdXdXdXdXdXdXdXdXdXdXdXdXdXdXdXdXdXdXdXdXdXdXdXdXdXdXdXdXdXdXdXdXdXdXdXdXdXdXdXdXdXdXdXdXdXdXdXdXdXdXdXdXdXdXdXdXdXdXtXn.s . . . % W Q..XOXXXXX.X.X.X.X.X.XXX.X.X.XXXXXXXXX.XXXXXXX.X).R.H.D.D.H.H.H.H.D.D.D.D.H.H.H.H.H.H.H.H.D.D.D.J.~.[..XXXXX.XXX.X.XXX.XXXXXXXXXXX.X.X.X.XXXXXXXXX.X.X.X.XXXXX.X].W.H.D.D.H.H.H.H.D.D.D.D.H.H.H.H.H.D.C.M.f.f.f.f.f.f.f.f.f.f.f.f.f.h.C.D.H.J.D.g.J 4 . . . . . . . . ",
"dXdXdXdXdXdXdXdXdXdXdXdXdXdXdXdXdXdXdXdXdXdXdXdXdXdXdXdXdXdXdXdXdXdXdXdXdXdXdXdXdXdXdXdXdXdXdXdXdXdXdXdXdXdXdXdXdXdXdXdXdXdXdXdXdXdXdXdXdXdXdXdXdXdXdXdXdXdXdXdXdXdXdXdXdXdXdXdXdXdXdXdXdXdXdXdXdXdXdXdXdXdXdXdXdXdXdXdXdXdXdXdXdXdXdXdXdXdXdXdXdXdXdXdXdXdXdXdXdXdXdXdXdXdXdXdXdXdXdXdXdXdXdXdXdXdXdXdXdXdXdXdXdXdXdXdXdXdXdXdXdXtXn.s . . . & W Q..XOXXXXX.X.XXXXXXXXXXXXX.X.X.XXXXXXX.XXXXXXX X^.H.M.f.g.h.h.h.h.h.h.h.h.h.h.h.h.h.h.h.h.h.f.g.Z.R.]..XXXXX.X.X.X.X.XXXXXXXXX.X.X.X.X.X.X.X.XXX.X.X.XXXXXXXXX.X).J.C.f.f.h.h.h.h.h.h.h.h.h.h.h.h.h.h.g.f.f.f.f.g.f.f.f.f.f.f.f.f.f.f.f.h.h.M.f./ G % . . . . . . . . ",
"dXdXdXdXdXdXdXdXdXdXdXdXdXdXdXdXdXdXdXdXdXdXdXdXdXdXdXdXdXdXdXdXdXdXdXdXdXdXdXdXdXdXdXdXdXdXdXdXdXdXdXdXdXdXdXdXdXdXdXdXdXdXdXdXdXdXdXdXdXdXdXdXdXdXdXdXdXdXdXdXdXdXdXdXdXdXdXdXdXdXdXdXdXdXdXdXdXdXdXdXdXdXdXdXdXdXdXdXdXdXdXdXdXdXdXdXdXdXdXdXdXdXdXdXdXdXdXdXdXdXdXdXdXdXdXdXdXdXdXdXdXdXdXdXdXdXdXdXdXdXdXdXdXdXdXdXdXdXdXdXdXtXn.s . . . & W Q..XOXOXXXXXXXXXXXXXXXXXXX.X.X.XXXXXXXXXXXoXXX X^.D.f.s.s.f.f.f.f.f.f.f.f.f.f.f.f.f.f.f.f.f.s.f.M.R.]..XoXXXXXXXXXXXXXXXXXXXXXXXXXXXXXXXXXXXXXXXXXXXXXXXXXoXoX.X).J.h.s.s.f.f.f.f.f.f.f.f.f.f.f.f.f.f.f.f.f.f.g.g.f.f.f.f.f.f.f.g.f.f.f.f.f.f.f.^ C $ . . . . . . . . ",
"dXdXdXdXdXdXdXdXdXdXdXdXdXdXdXdXdXdXdXdXdXdXdXdXdXdXdXdXdXdXdXdXdXdXdXdXdXdXdXdXdXdXdXdXdXdXdXdXdXdXdXdXdXdXdXdXdXdXdXdXdXdXdXdXdXdXdXdXdXdXdXdXdXdXdXdXdXdXdXdXdXdXdXdXdXdXdXdXdXdXdXdXdXdXdXdXdXdXdXdXdXdXdXdXdXdXdXdXdXdXdXdXdXdXdXdXdXdXdXdXdXdXdXdXdXdXdXdXdXdXdXdXdXdXdXdXdXdXdXdXdXdXdXdXdXdXdXdXdXdXdXdXdXdXdXdXdXdXdXdXdXtXn.s . . . % W Q..XOXOXXXXXXXXXXXXXXX.X.X.X.X.X.XXXXXXXXXoXXX X^.H.g.f.f.f.f.f.f.f.f.f.f.f.f.f.f.f.f.f.f.f.f.f.C.R.]..XoXoXXXXXXXXXXXXXXXXXXXXXXXXXXXXXXXXXXXXXXXXXXXXXXXoXoX.X).J.h.f.f.f.f.f.f.f.f.f.f.f.f.f.f.f.f.f.f.f.f.g.f.f.f.f.f.f.g.g.g.f.f.f.f.f.h.f.^ D % . . . . . . . . ",
"dXdXdXdXdXdXdXdXdXdXdXdXdXdXdXdXdXdXdXdXdXdXdXdXdXdXdXdXdXdXdXdXdXdXdXdXdXdXdXdXdXdXdXdXdXdXdXdXdXdXdXdXdXdXdXdXdXdXdXdXdXdXdXdXdXdXdXdXdXdXdXdXdXdXdXdXdXdXdXdXdXdXdXdXdXdXdXdXdXdXdXdXdXdXdXdXdXdXdXdXdXdXdXdXdXdXdXdXdXdXdXdXdXdXdXdXdXdXdXdXdXdXdXdXdXdXdXdXdXdXdXdXdXdXdXdXdXdXdXdXdXdXdXdXdXdXdXdXdXdXdXdXdXdXdXdXdXdXdXdXdXtXn.s . . . % T L.]..X X|.|.|.|. X.X.X.X.X.X.XXXXX.X.X.X.X.X.X[.~.D.h.f.f.f.f.f.f.f.f.g.f.f.f.f.f.f.f.f.f.f.f.f.C.K.`. X.X.X.X.X.X.X.X.X.X.X.X.X.X.X.X.X.X.X.X.X.X.X.X.X.X.X.X}.(.H.M.f.f.g.g.f.f.f.f.g.f.f.f.f.f.f.f.g.g.f.f.g.f.f.f.f.f.f.g.g.g.f.f.f.f.h.M.f./ G 4 . . . . . . . . ",
"dXdXdXdXdXdXdXdXdXdXdXdXdXdXdXdXdXdXdXdXdXdXdXdXdXdXdXdXdXdXdXdXdXdXdXdXdXdXdXdXdXdXdXdXdXdXdXdXdXdXdXdXdXdXdXdXdXdXdXdXdXdXdXdXdXdXdXdXdXdXdXdXdXdXdXdXdXdXdXdXdXdXdXdXdXdXdXdXdXdXdXdXdXdXdXdXdXdXdXdXdXdXdXdXdXdXdXdXdXdXdXdXdXdXdXdXdXdXdXdXdXdXdXdXdXdXdXdXdXdXdXdXdXdXdXdXdXdXdXdXdXdXdXdXdXdXdXdXdXdXdXdXdXdXdXdXdXdXdXdXdXtX0.s . . . # Z / S.F.L.F.S.S.L.Q.'..XXXXXXXXXXXXX.X{.'.).).).^.K.A.h.f.f.f.f.f.f.f.f.g.g.f.f.f.f.f.f.f.f.f.f.f.M.H.W.(.).).).).).).).).).).).).).).).).).).).).).).).).).).).(.R.D.h.f.f.f.g.f.f.f.f.g.g.f.f.f.f.f.f.g.g.f.f.f.f.f.f.f.f.f.f.g.f.f.f.f.f.h.M.f./ G 4 . . . . . . . . ",
"dXdXdXdXdXdXdXdXdXdXdXdXdXdXdXdXdXdXdXdXdXdXdXdXdXdXdXdXdXdXdXdXdXdXdXdXdXdXdXdXdXdXdXdXdXdXdXdXdXdXdXdXdXdXdXdXdXdXdXdXdXdXdXdXdXdXdXdXdXdXdXdXdXdXdXdXdXdXdXdXdXdXdXdXdXdXdXdXdXdXdXdXdXdXdXdXdXdXdXdXdXdXdXdXdXdXdXdXdXdXdXdXdXdXdXdXdXdXdXdXdXdXdXdXdXdXdXdXdXdXdXdXdXdXdXdXdXdXdXdXdXdXdXdXdXdXdXdXdXdXdXdXdXdXdXdXdXdXdXdXdXtX&Xs . . . X 4 t F J J J F F K l.Q. XXXXXXXXXXXXX X).R.J.J.J.H.D.M.g.f.f.f.f.f.f.f.f.g.g.f.f.f.f.f.f.f.f.f.f.f.h.C.H.J.J.J.J.J.J.J.J.J.J.J.J.J.J.J.J.J.J.J.J.J.J.J.J.J.J.J.J.H.D.C.h.f.f.f.f.g.g.f.f.f.f.f.f.g.f.f.f.f.g.f.f.f.f.f.f.f.f.f.f.f.f.f.f.f.f.h.h.f.i.G 4 . . . . . . . . ",
"dXdXdXdXdXdXdXdXdXdXdXdXdXdXdXdXdXdXdXdXdXdXdXdXdXdXdXdXdXdXdXdXdXdXdXdXdXdXdXdXdXdXdXdXdXdXdXdXdXdXdXdXdXdXdXdXdXdXdXdXdXdXdXdXdXdXdXdXdXdXdXdXdXdXdXdXdXdXdXdXdXdXdXdXdXdXdXdXdXdXdXdXdXdXdXdXdXdXdXdXdXdXdXdXdXdXdXdXdXdXdXdXdXdXdXdXdXdXdXdXdXdXdXdXdXdXdXdXdXdXdXdXdXdXdXdXdXdXdXdXdXdXdXdXdXdXdXdXdXdXdXdXdXdXdXdXdXdXdXdXdXrX$.s . . . . . X X X X X . . & J S.[.XXoXXXXXXX.X{.!.D.M.h.h.M.h.g.f.f.f.f.f.g.f.f.f.g.f.f.f.f.f.f.f.f.f.g.f.f.g.h.h.M.M.M.M.M.M.M.M.M.M.M.M.M.M.M.M.M.M.M.M.M.M.M.M.M.M.M.M.M.h.h.f.f.f.f.f.g.f.f.f.f.f.f.f.g.f.f.f.f.f.f.f.f.f.f.f.f.f.f.f.f.f.f.f.f.f.f.h.f.^ G % . . . . . . . . ",
"dXdXdXdXdXdXdXdXdXdXdXdXdXdXdXdXdXdXdXdXdXdXdXdXdXdXdXdXdXdXdXdXdXdXdXdXdXdXdXdXdXdXdXdXdXdXdXdXdXdXdXdXdXdXdXdXdXdXdXdXdXdXdXdXdXdXdXdXdXdXdXdXdXdXdXdXdXdXdXdXdXdXdXdXdXdXdXdXdXdXdXdXdXdXdXdXdXdXdXdXdXdXdXdXdXdXdXdXdXdXdXdXdXdXdXdXdXdXdXdXdXdXdXdXdXdXdXdXdXdXdXdXdXdXdXdXdXdXdXdXdXdXdXdXdXdXdXdXdXdXdXdXdXdXdXdXdXdXdXdXdXrX$.s . . . . . . . . . . . . . Z B.[.oXoXXXXXXX.X[.W.Z.f.s.f.f.f.f.f.g.g.f.f.g.f.f.f.g.g.f.f.f.f.f.f.f.f.g.g.f.f.f.f.f.f.f.f.f.f.f.f.f.f.f.f.f.f.f.f.f.f.f.f.f.f.f.f.f.f.f.f.f.f.f.f.f.f.f.f.g.f.f.f.g.g.f.f.g.g.f.f.f.f.f.f.g.g.f.f.f.f.g.g.f.f.f.f.f.f.f.h.f.^ G % . . . . . . . . ",
"dXdXdXdXdXdXdXdXdXdXdXdXdXdXdXdXdXdXdXdXdXdXdXdXdXdXdXdXdXdXdXdXdXdXdXdXdXdXdXdXdXdXdXdXdXdXdXdXdXdXdXdXdXdXdXdXdXdXdXdXdXdXdXdXdXdXdXdXdXdXdXdXdXdXdXdXdXdXdXdXdXdXdXdXdXdXdXdXdXdXdXdXdXdXdXdXdXdXdXdXdXdXdXdXdXdXdXdXdXdXdXdXdXdXdXdXdXdXdXdXdXdXdXdXdXdXdXdXdXdXdXdXdXdXdXdXdXdXdXdXdXdXdXdXdXdXdXdXdXdXdXdXdXdXdXdXdXdXdXdXdXtX$.s . . . . . . . . . . . . . Z B.[.XXXX.XXXXX.X[.E.Z.f.s.f.f.f.f.f.g.g.g.f.f.f.f.f.g.g.f.f.f.g.g.g.f.f.f.g.f.f.f.f.f.f.f.f.f.f.f.f.f.f.f.f.f.f.f.f.f.f.f.f.f.f.f.f.f.f.f.f.f.f.f.f.f.f.g.g.f.f.f.f.g.g.f.f.f.f.f.f.g.g.g.f.g.g.g.f.f.f.f.g.f.f.f.f.f.g.f.h.f.^ D % . . . . . . . . ",
"dXdXdXdXdXdXdXdXdXdXdXdXdXdXdXdXdXdXdXdXdXdXdXdXdXdXdXdXdXdXdXdXdXdXdXdXdXdXdXdXdXdXdXdXdXdXdXdXdXdXdXdXdXdXdXdXdXdXdXdXdXdXdXdXdXdXdXdXdXdXdXdXdXdXdXdXdXdXdXdXdXdXdXdXdXdXdXdXdXdXdXdXdXdXdXdXdXdXdXdXdXdXdXdXdXdXdXdXdXdXdXdXdXdXdXdXdXdXdXdXdXdXdXdXdXdXdXdXdXdXdXdXdXdXdXdXdXdXdXdXdXdXdXdXdXdXdXdXdXdXdXdXdXdXdXdXdXdXdXdXdXtX$.s . . . . . . . . . . . . X A S.[.XXXXXXXXXX.X[.W.A.f.f.f.f.f.f.f.g.g.g.f.f.f.f.f.f.f.f.f.f.g.g.g.f.f.f.f.f.f.f.f.f.f.f.f.f.f.f.f.f.f.g.g.f.f.f.f.f.f.f.f.f.f.f.f.f.f.f.f.f.f.f.f.f.f.f.g.f.f.f.f.g.g.g.f.f.f.f.f.g.g.g.f.g.g.f.f.f.f.g.g.g.g.f.f.f.g.g.h.f.^ D % . . . . . . . . ",
"dXdXdXdXdXdXdXdXdXdXdXdXdXdXdXdXdXdXdXdXdXdXdXdXdXdXdXdXdXdXdXdXdXdXdXdXdXdXdXdXdXdXdXdXdXdXdXdXdXdXdXdXdXdXdXdXdXdXdXdXdXdXdXdXdXdXdXdXdXdXdXdXdXdXdXdXdXdXdXdXdXdXdXdXdXdXdXdXdXdXdXdXdXdXdXdXdXdXdXdXdXdXdXdXdXdXdXdXdXdXdXdXdXdXdXdXdXdXdXdXdXdXdXdXdXdXdXdXdXdXdXdXdXdXdXdXdXdXdXdXdXdXdXdXdXdXdXdXdXdXdXdXdXdXdXdXdXdXdXdXdXtX$.s . . . . . . . . . . . . X A S.|.XXOXXXXXoXXX{.W.A.f.f.f.f.f.f.f.f.f.f.f.f.f.f.f.f.f.f.g.f.g.g.g.f.f.f.f.f.f.g.g.g.f.f.f.g.g.g.f.f.f.f.g.g.g.f.f.f.f.g.g.f.f.f.g.g.g.g.g.g.g.g.f.f.f.g.g.f.f.f.f.f.f.f.f.f.f.g.g.g.g.f.f.g.f.f.f.f.g.g.g.g.g.f.f.f.f.h.M.f./ G % . . . . . . . . ",
"dXdXdXdXdXdXdXdXdXdXdXdXdXdXdXdXdXdXdXdXdXdXdXdXdXdXdXdXdXdXdXdXdXdXdXdXdXdXdXdXdXdXdXdXdXdXdXdXdXdXdXdXdXdXdXdXdXdXdXdXdXdXdXdXdXdXdXdXdXdXdXdXdXdXdXdXdXdXdXdXdXdXdXdXdXdXdXdXdXdXdXdXdXdXdXdXdXdXdXdXdXdXdXdXdXdXdXdXdXdXdXdXdXdXdXdXdXdXdXdXdXdXdXdXdXdXdXdXdXdXdXdXdXdXdXdXdXdXdXdXdXdXdXdXdXdXdXdXdXdXdXdXdXdXdXdXdXdXdXdXdXrX$.p . . . . . . . . . . . . X F S. XOXOXOXOXOXXX}.W.Z.f.s.f.f.f.f.f.f.f.f.f.f.f.f.f.f.f.f.f.f.g.g.g.f.f.f.f.f.f.g.g.g.f.f.f.f.f.g.g.f.f.f.f.g.g.g.f.f.f.f.g.f.f.f.f.g.g.f.f.g.g.f.f.f.f.g.f.g.g.f.f.f.f.f.f.f.f.g.g.f.f.f.f.g.f.f.f.f.g.g.g.g.g.f.f.f.f.h.M.f./ G 4 . . . . . . . . ",
"dXdXdXdXdXdXdXdXdXdXdXdXdXdXdXdXdXdXdXdXdXdXdXdXdXdXdXdXdXdXdXdXdXdXdXdXdXdXdXdXdXdXdXdXdXdXdXdXdXdXdXdXdXdXdXdXdXdXdXdXdXdXdXdXdXdXdXdXdXdXdXdXdXdXdXdXdXdXdXdXdXdXdXdXdXdXdXdXdXdXdXdXdXdXdXdXdXdXdXdXdXdXdXdXdXdXdXdXdXdXdXdXdXdXdXdXdXdXdXdXdXdXdXdXdXdXdXdXdXdXdXdXdXdXdXdXdXdXdXdXdXdXdXdXdXdXdXdXdXdXdXdXdXdXdXdXdXdXdXdXdXtX>Xf . . . . . . . . . . . . X A B.].XXXX.X.X.X.X[.W.D.g.f.f.h.h.h.g.g.g.g.g.g.g.f.f.f.f.f.f.f.f.f.g.f.f.g.f.f.f.f.g.f.f.f.f.f.f.f.f.f.f.f.f.g.g.f.f.f.f.g.g.f.f.f.f.f.f.f.f.f.g.f.f.f.f.f.f.g.g.g.f.f.g.f.g.f.f.f.f.f.f.f.f.g.g.f.f.f.f.f.f.f.f.f.f.f.f.h.M.f./ G 4 . . . . . . . . ",
"dXdXdXdXdXdXdXdXdXdXdXdXdXdXdXdXdXdXdXdXdXdXdXdXdXdXdXdXdXdXdXdXdXdXdXdXdXdXdXdXdXdXdXdXdXdXdXdXdXdXdXdXdXdXdXdXdXdXdXdXdXdXdXdXdXdXdXdXdXdXdXdXdXdXdXdXdXdXdXdXdXdXdXdXdXdXdXdXdXdXdXdXdXdXdXdXdXdXdXdXdXdXdXdXdXdXdXdXdXdXdXdXdXdXdXdXdXdXdXdXdXdXdXdXdXdXdXdXdXdXdXdXdXdXdXdXdXdXdXdXdXdXdXdXdXdXdXdXdXdXdXdXdXdXdXdXdXdXdXdXdXuX3X .f f f f - X . . . . . . X t _ P.!.!.Q.!.!.!.Q.K.H.D.D.D.D.D.D.D.D.D.D.D.D.D.Z.M.h.f.f.f.f.f.f.f.f.f.g.g.f.f.f.g.f.f.f.f.f.f.f.f.f.f.f.f.f.f.f.f.f.f.f.f.f.f.f.f.f.f.f.f.f.f.f.f.f.f.f.f.g.g.f.f.f.g.g.g.f.f.f.f.f.f.f.f.g.g.f.f.f.f.f.f.f.f.f.f.f.f.h.h.f.i.G 4 . . . . . . . . ",
"dXdXdXdXdXdXdXdXdXdXdXdXdXdXdXdXdXdXdXdXdXdXdXdXdXdXdXdXdXdXdXdXdXdXdXdXdXdXdXdXdXdXdXdXdXdXdXdXdXdXdXdXdXdXdXdXdXdXdXdXdXdXdXdXdXdXdXdXdXdXdXdXdXdXdXdXdXdXdXdXdXdXdXdXdXdXdXdXdXdXdXdXdXdXdXdXdXdXdXdXdXdXdXdXdXdXdXdXdXdXdXdXdXdXdXdXdXdXdXdXdXdXdXdXdXdXdXdXdXdXdXdXdXdXdXdXdXdXdXdXdXdXdXdXdXdXdXdXdXdXdXdXdXdXdXdXdXdXdXdXdXpXwX3X<X<X<X$.} p . . . . . . . 5 A W ~ ~ ~ ~ ~ ) j.S.K.W.~.!.!.!.!.!.!.!.!.~.~.W.K.D.h.f.f.f.f.f.f.f.f.f.f.g.g.g.f.f.f.g.g.g.f.f.f.f.f.f.f.f.f.f.f.f.f.f.f.f.f.f.f.f.f.f.f.f.f.f.f.f.f.f.f.f.f.f.f.f.f.f.f.f.g.g.f.f.f.f.f.g.f.f.f.f.f.f.f.f.f.f.f.f.f.f.f.h.f.^ G % . . . . . . . . ",
"dXdXdXdXdXdXdXdXdXdXdXdXdXdXdXdXdXdXdXdXdXdXdXdXdXdXdXdXdXdXdXdXdXdXdXdXdXdXdXdXdXdXdXdXdXdXdXdXdXdXdXdXdXdXdXdXdXdXdXdXdXdXdXdXdXdXdXdXdXdXdXdXdXdXdXdXdXdXdXdXdXdXdXdXdXdXdXdXdXdXdXdXdXdXdXdXdXdXdXdXdXdXdXdXdXdXdXdXdXdXdXdXdXdXdXdXdXdXdXdXdXdXdXdXdXdXdXdXdXdXdXdXdXdXdXdXdXdXdXdXdXdXdXdXdXdXdXdXdXdXdXdXdXdXdXdXdXdXdXdXdXdXpXiXuXuXuXwX$.f . . . . . . . X # 4 4 4 5 5 & 8 A l.!.{..X}.}.}.{.}.}.}.}.}. X[.^.J.M.f.f.f.f.f.f.f.f.f.f.g.g.g.g.f.f.g.f.g.g.g.f.f.f.f.f.f.f.f.f.f.f.f.f.f.g.f.f.f.f.f.g.g.f.f.f.f.f.f.f.f.f.f.f.g.f.f.f.f.g.g.f.f.f.f.f.g.f.f.f.f.f.f.f.f.f.f.f.f.f.f.f.h.f.^ G % . . . . . . . . ",
"dXdXdXdXdXdXdXdXdXdXdXdXdXdXdXdXdXdXdXdXdXdXdXdXdXdXdXdXdXdXdXdXdXdXdXdXdXdXdXdXdXdXdXdXdXdXdXdXdXdXdXdXdXdXdXdXdXdXdXdXdXdXdXdXdXdXdXdXdXdXdXdXdXdXdXdXdXdXdXdXdXdXdXdXdXdXdXdXdXdXdXdXdXdXdXdXdXdXdXdXdXdXdXdXdXdXdXdXdXdXdXdXdXdXdXdXdXdXdXdXdXdXdXdXdXdXdXdXdXdXdXdXdXdXdXdXdXdXdXdXdXdXdXdXdXdXdXdXdXdXdXdXdXdXdXdXdXdXdXdXdXdXdXdXdXdXdXiX2Xg . . . . . . . . . . . . . . . . 8 _ ^..XOXXXXXXXXXXXXXXXXXXXXX.X'.K.M.f.f.f.f.f.f.f.f.f.f.f.g.g.f.f.f.f.f.f.g.g.f.f.f.f.g.f.g.f.f.f.f.f.f.g.g.g.f.f.f.f.g.g.g.f.g.g.f.f.f.f.f.f.g.g.g.f.f.f.g.g.f.f.f.f.g.g.f.f.f.f.f.f.g.g.f.f.f.f.f.g.f.h.f.^ D % . . . . . . . . ",
"dXdXdXdXdXdXdXdXdXdXdXdXdXdXdXdXdXdXdXdXdXdXdXdXdXdXdXdXdXdXdXdXdXdXdXdXdXdXdXdXdXdXdXdXdXdXdXdXdXdXdXdXdXdXdXdXdXdXdXdXdXdXdXdXdXdXdXdXdXdXdXdXdXdXdXdXdXdXdXdXdXdXdXdXdXdXdXdXdXdXdXdXdXdXdXdXdXdXdXdXdXdXdXdXdXdXdXdXdXdXdXdXdXdXdXdXdXdXdXdXdXdXdXdXdXdXdXdXdXdXdXdXdXdXdXdXdXdXdXdXdXdXdXdXdXdXdXdXdXdXdXdXdXdXdXdXdXdXdXdXdXdXdXdXdXdXdXpX2Xg . . . . . . . . . . . . . . . . 8 _ _.XXOXXXXXXXXXXXXXXXXXoXoX.X'.K.M.s.s.f.f.f.f.g.f.f.f.f.f.f.f.f.f.f.f.f.g.g.g.f.f.f.g.g.g.f.f.f.f.f.f.g.g.g.f.f.f.f.f.g.g.g.g.f.f.f.f.g.f.f.g.g.g.f.f.f.f.f.f.f.f.f.g.g.f.f.f.f.f.f.g.g.g.g.f.f.f.g.g.h.f.^ D % . . . . . . . . ",
"dXdXdXdXdXdXdXdXdXdXdXdXdXdXdXdXdXdXdXdXdXdXdXdXdXdXdXdXdXdXdXdXdXdXdXdXdXdXdXdXdXdXdXdXdXdXdXdXdXdXdXdXdXdXdXdXdXdXdXdXdXdXdXdXdXdXdXdXdXdXdXdXdXdXdXdXdXdXdXdXdXdXdXdXdXdXdXdXdXdXdXdXdXdXdXdXdXdXdXdXdXdXdXdXdXdXdXdXdXdXdXdXdXdXdXdXdXdXdXdXdXdXdXdXdXdXdXdXdXdXdXdXdXdXdXdXdXdXdXdXdXdXdXdXdXdXdXdXdXdXdXdXdXdXdXdXdXdXdXdXdXdXdXdXdXdXdXiX2Xg . . . . . . . . . . . . . . . . 8 _ _.XXOXXXXXXXXXXX.XXXXXXXXX.X'.K.M.f.f.f.f.f.f.f.f.f.g.g.f.f.f.f.f.f.f.f.f.f.f.g.f.f.f.f.f.f.f.f.f.f.f.f.f.f.f.f.f.f.g.f.f.f.f.f.f.g.g.g.f.f.f.g.f.f.f.f.f.f.f.f.f.f.f.f.f.f.f.f.f.g.f.f.f.f.f.f.f.f.f.h.g.i.G 4 . . . . . . . . ",
"dXdXdXdXdXdXdXdXdXdXdXdXdXdXdXdXdXdXdXdXdXdXdXdXdXdXdXdXdXdXdXdXdXdXdXdXdXdXdXdXdXdXdXdXdXdXdXdXdXdXdXdXdXdXdXdXdXdXdXdXdXdXdXdXdXdXdXdXdXdXdXdXdXdXdXdXdXdXdXdXdXdXdXdXdXdXdXdXdXdXdXdXdXdXdXdXdXdXdXdXdXdXdXdXdXdXdXdXdXdXdXdXdXdXdXdXdXdXdXdXdXdXdXdXdXdXdXdXdXdXdXdXdXdXdXdXdXdXdXdXdXdXdXdXdXdXdXdXdXdXdXdXdXdXdXdXdXdXdXdXdXdXdXdXdXdXdXiX7X .s - p p p p p - X . . . . . . . 8 j._..XoXXX.X.X.X.X.X.X.XXXXX.X].R.D.C.C.C.C.M.h.f.f.f.f.f.f.f.g.g.f.f.f.f.f.f.g.g.f.f.f.f.f.f.f.g.f.f.f.f.f.g.f.f.f.f.g.g.f.f.f.f.f.f.g.g.f.f.g.g.f.f.f.f.f.f.f.g.f.f.f.f.f.f.f.f.g.g.f.f.f.f.g.f.f.f.h.h.h.i.G 4 . . . . . . . . ",
"dXdXdXdXdXdXdXdXdXdXdXdXdXdXdXdXdXdXdXdXdXdXdXdXdXdXdXdXdXdXdXdXdXdXdXdXdXdXdXdXdXdXdXdXdXdXdXdXdXdXdXdXdXdXdXdXdXdXdXdXdXdXdXdXdXdXdXdXdXdXdXdXdXdXdXdXdXdXdXdXdXdXdXdXdXdXdXdXdXdXdXdXdXdXdXdXdXdXdXdXdXdXdXdXdXdXdXdXdXdXdXdXdXdXdXdXdXdXdXdXdXdXdXdXdXdXdXdXdXdXdXdXdXdXdXdXdXdXdXdXdXdXdXdXdXdXdXdXdXdXdXdXdXdXdXdXdXdXdXdXdXdXdXdXdXdXdXpXwX2X$.+.#.#.#.$.+. .s X . . . . . . 8 j._..XXXXXXX.X.X.X.X.XXXXXXX.X}.(.W.R.R.R.K.D.M.f.f.f.f.f.f.f.g.f.f.f.g.f.f.f.g.g.g.f.g.g.f.g.g.g.g.g.f.f.g.g.f.f.f.f.f.g.f.f.f.f.f.f.f.f.f.f.g.g.f.f.g.g.f.g.g.g.g.g.f.f.f.f.f.f.g.f.f.f.f.f.g.g.f.f.f.h.f./ G 4 . . . . . . . . ",
"dXdXdXdXdXdXdXdXdXdXdXdXdXdXdXdXdXdXdXdXdXdXdXdXdXdXdXdXdXdXdXdXdXdXdXdXdXdXdXdXdXdXdXdXdXdXdXdXdXdXdXdXdXdXdXdXdXdXdXdXdXdXdXdXdXdXdXdXdXdXdXdXdXdXdXdXdXdXdXdXdXdXdXdXdXdXdXdXdXdXdXdXdXdXdXdXdXdXdXdXdXdXdXdXdXdXdXdXdXdXdXdXdXdXdXdXdXdXdXdXdXdXdXdXdXdXdXdXdXdXdXdXdXdXdXdXdXdXdXdXdXdXdXdXdXdXdXdXdXdXdXdXdXdXdXdXdXdXdXdXdXdXdXdXdXdXdXdXpXtXeXwXeXeXeXeXqX<X} @ . . . . . . 8 _ _..XXXXXXX.X.X.XXXXXXXXXXXXX.X}.[.[.[.[.^.K.C.f.f.f.f.f.f.f.f.f.f.g.g.f.f.f.f.g.g.g.g.f.f.f.g.g.g.f.f.f.g.g.g.f.f.f.g.g.g.f.f.f.f.f.f.f.f.f.f.f.g.g.g.f.f.g.g.g.g.f.f.f.f.f.f.g.g.g.f.f.f.g.g.g.f.f.h.h.f./ G 4 . . . . . . . . ",
"dXdXdXdXdXdXdXdXdXdXdXdXdXdXdXdXdXdXdXdXdXdXdXdXdXdXdXdXdXdXdXdXdXdXdXdXdXdXdXdXdXdXdXdXdXdXdXdXdXdXdXdXdXdXdXdXdXdXdXdXdXdXdXdXdXdXdXdXdXdXdXdXdXdXdXdXdXdXdXdXdXdXdXdXdXdXdXdXdXdXdXdXdXdXdXdXdXdXdXdXdXdXdXdXdXdXdXdXdXdXdXdXdXdXdXdXdXdXdXdXdXdXdXdXdXdXdXdXdXdXdXdXdXdXdXdXdXdXdXdXdXdXdXdXdXdXdXdXdXdXdXdXdXdXdXdXdXdXdXdXdXdXdXdXdXdXdXdXdXdXdXdXdXdXdXdXpX0X .= . . . . . . 8 _ _..XXXXXXXXX.X.X.X.XXXXX.XXX.X.X.X.XXX.X[.R.Z.f.f.f.f.f.g.f.f.f.f.g.g.g.f.f.g.g.g.f.f.f.f.f.g.g.g.f.f.f.f.f.f.f.f.f.f.f.g.g.f.f.f.f.f.f.f.f.g.g.g.f.f.f.f.f.g.g.g.f.f.f.f.g.g.g.g.g.g.g.f.f.g.g.g.g.f.h.f.^ G 4 . . . . . . . . ",
"dXdXdXdXdXdXdXdXdXdXdXdXdXdXdXdXdXdXdXdXdXdXdXdXdXdXdXdXdXdXdXdXdXdXdXdXdXdXdXdXdXdXdXdXdXdXdXdXdXdXdXdXdXdXdXdXdXdXdXdXdXdXdXdXdXdXdXdXdXdXdXdXdXdXdXdXdXdXdXdXdXdXdXdXdXdXdXdXdXdXdXdXdXdXdXdXdXdXdXdXdXdXdXdXdXdXdXdXdXdXdXdXdXdXdXdXdXdXdXdXdXdXdXdXdXdXdXdXdXdXdXdXdXdXdXdXdXdXdXdXdXdXdXdXdXdXdXdXdXdXdXdXdXdXdXdXdXdXdXdXdXdXdXdXdXdXdXdXdXdXdXdXdXdXdXdXdXqXo.= . . . . . . 8 _ _..XXXXXXXXX.X.X.X.XXXXX.XXXXXXXXXoXoXXX[.E.Z.f.f.f.g.f.f.f.f.g.f.f.g.f.f.f.g.g.f.f.f.f.f.g.g.g.g.g.f.f.f.f.f.f.f.f.f.f.g.g.f.f.f.f.f.f.f.f.g.g.f.f.f.f.f.g.g.g.g.f.f.f.f.f.g.g.f.g.g.f.f.f.g.f.f.g.f.h.f.^ G 4 . . . . . . . . ",
"dXdXdXdXdXdXdXdXdXdXdXdXdXdXdXdXdXdXdXdXdXdXdXdXdXdXdXdXdXdXdXdXdXdXdXdXdXdXdXdXdXdXdXdXdXdXdXdXdXdXdXdXdXdXdXdXdXdXdXdXdXdXdXdXdXdXdXdXdXdXdXdXdXdXdXdXdXdXdXdXdXdXdXdXdXdXdXdXdXdXdXdXdXdXdXdXdXdXdXdXdXdXdXdXdXdXdXdXdXdXdXdXdXdXdXdXdXdXdXdXdXdXdXdXdXdXdXdXdXdXdXdXdXdXdXdXdXdXdXdXdXdXdXdXdXdXdXdXdXdXdXdXdXdXdXdXdXdXdXdXdXdXdXdXdXdXdXdXdXdXdXdXdXdXdXdXsXqXo.= . . . . . . 8 / _..XOXXXXXXXXXXX.X.XXXXX.X.XXXXXXXXXXX.X[.R.Z.f.f.f.f.f.f.f.f.g.f.f.f.f.f.f.f.g.f.f.f.f.f.f.f.g.f.f.f.f.f.f.g.g.f.g.f.f.g.f.f.f.f.g.g.f.f.f.f.g.f.f.f.f.f.f.g.g.f.f.f.f.f.f.f.f.f.f.f.f.f.f.f.f.f.f.h.h.f./ G 4 . . . . . . . . ",
"dXdXdXdXdXdXdXdXdXdXdXdXdXdXdXdXdXdXdXdXdXdXdXdXdXdXdXdXdXdXdXdXdXdXdXdXdXdXdXdXdXdXdXdXdXdXdXdXdXdXdXdXdXdXdXdXdXdXdXdXdXdXdXdXdXdXdXdXdXdXdXdXdXdXdXdXdXdXdXdXdXdXdXdXdXdXdXdXdXdXdXdXdXdXdXdXdXdXdXdXdXdXdXdXdXdXdXdXdXdXdXdXdXdXdXdXdXdXdXdXdXdXdXdXdXdXdXdXdXdXdXdXdXdXdXdXdXdXdXdXdXdXdXdXdXdXdXdXdXdXdXdXdXdXdXdXdXdXdXdXdXdXdXdXdXdXdXdXdXdXdXdXdXdXdXdXsX0X .= . . . . . . 8 / _.XXoXXXXXXXXXXX.X.XXXXX.X.XXXXXXXXXXX.X[.R.Z.f.f.f.f.f.f.f.g.g.f.f.f.f.f.f.f.f.f.f.f.f.f.f.f.f.f.f.f.f.f.f.f.g.g.g.f.f.f.f.f.f.g.g.g.g.f.f.f.g.f.f.f.f.f.f.f.f.f.f.f.f.f.f.f.f.f.f.f.f.f.f.f.f.f.f.g.h.f./ G 4 . . . . . . . . ",
"dXdXdXdXdXdXdXdXdXdXdXdXdXdXdXdXdXdXdXdXdXdXdXdXdXdXdXdXdXdXdXdXdXdXdXdXdXdXdXdXdXdXdXdXdXdXdXdXdXdXdXdXdXdXdXdXdXdXdXdXdXdXdXdXdXdXdXdXdXdXdXdXdXdXdXdXdXdXdXdXdXdXdXdXdXdXdXdXdXdXdXdXdXdXdXdXdXdXdXdXdXdXdXdXdXdXdXdXdXdXdXdXdXdXdXdXdXdXdXdXdXdXdXdXdXdXdXdXdXdXdXdXdXdXdXdXdXdXdXdXdXdXdXdXdXdXdXdXdXdXdXdXdXdXdXdXdXdXdXdXdXdXdXdXdXdXdXdXdXdXdXdXdXdXdXdXsX0X .= . . . . . . 8 _ ^..XOXXXXXXXXXXX.XXXXXXX.X.XXXXX.XXXXX.X[.R.Z.f.f.f.f.f.g.g.g.f.f.f.f.f.g.g.g.g.f.f.f.f.f.f.g.f.f.f.f.f.f.f.f.f.f.f.f.f.f.f.f.f.f.f.f.f.f.g.g.g.f.f.f.f.f.f.f.f.f.f.f.f.f.f.f.g.g.g.f.f.f.f.g.f.g.f.f.h.f.^ D % . . . . . . . . ",
"dXdXdXdXdXdXdXdXdXdXdXdXdXdXdXdXdXdXdXdXdXdXdXdXdXdXdXdXdXdXdXdXdXdXdXdXdXdXdXdXdXdXdXdXdXdXdXdXdXdXdXdXdXdXdXdXdXdXdXdXdXdXdXdXdXdXdXdXdXdXdXdXdXdXdXdXdXdXdXdXdXdXdXdXdXdXdXdXdXdXdXdXdXdXdXdXdXdXdXdXdXdXdXdXdXdXdXdXdXdXdXdXdXdXdXdXdXdXdXdXdXdXdXdXdXdXdXdXdXdXdXdXdXdXdXdXdXdXdXdXdXdXdXdXdXdXdXdXdXdXdXdXdXdXdXdXdXdXdXdXdXdXdXdXdXdXdXdXdXdXdXdXdXdXdXdXsX0X .= . . . . . . 8 _ ^..XOXXXXXXXXX.X.XXX.XXXXXXXXXXX.XXXXX.X[.R.Z.f.f.f.f.f.g.g.g.f.f.f.f.f.f.g.g.f.f.f.f.g.f.f.g.g.f.f.f.f.f.f.f.f.f.f.f.g.f.f.f.f.g.f.f.f.f.g.g.f.f.f.f.g.f.f.g.g.f.f.f.f.f.f.f.f.g.g.f.f.g.f.g.f.f.f.f.h.f.^ D % . . . . . . . . ",
"dXdXdXdXdXdXdXdXdXdXdXdXdXdXdXdXdXdXdXdXdXdXdXdXdXdXdXdXdXdXdXdXdXdXdXdXdXdXdXdXdXdXdXdXdXdXdXdXdXdXdXdXdXdXdXdXdXdXdXdXdXdXdXdXdXdXdXdXdXdXdXdXdXdXdXdXdXdXdXdXdXdXdXdXdXdXdXdXdXdXdXdXdXdXdXdXdXdXdXdXdXdXdXdXdXdXdXdXdXdXdXdXdXdXdXdXdXdXdXdXdXdXdXdXdXdXdXdXdXdXdXdXdXdXdXdXdXdXdXdXdXdXdXdXdXdXdXdXdXdXdXdXdXdXdXdXdXdXdXdXdXdXdXdXdXdXdXdXdXdXdXdXdXdXdXdXsX0X .= . . . . . . 8 _ !..XXXXXXXXXXXXX.X.X.X.XXXXXXXXX.XXXXX.X[.R.Z.f.f.f.f.f.f.f.f.g.f.f.f.f.f.f.f.f.f.f.g.g.f.f.f.g.f.f.f.f.g.f.g.g.f.g.g.g.f.f.f.f.g.g.f.f.f.f.f.f.f.f.g.g.f.f.f.g.g.f.f.f.f.f.f.f.g.f.f.f.g.g.f.f.f.f.f.h.f.^ D % . . . . . . . . ",
"dXdXdXdXdXdXdXdXdXdXdXdXdXdXdXdXdXdXdXdXdXdXdXdXdXdXdXdXdXdXdXdXdXdXdXdXdXdXdXdXdXdXdXdXdXdXdXdXdXdXdXdXdXdXdXdXdXdXdXdXdXdXdXdXdXdXdXdXdXdXdXdXdXdXdXdXdXdXdXdXdXdXdXdXdXdXdXdXdXdXdXdXdXdXdXdXdXdXdXdXdXdXdXdXdXdXdXdXdXdXdXdXdXdXdXdXdXdXdXdXdXdXdXdXdXdXdXdXdXdXdXdXdXdXdXdXdXdXdXdXdXdXdXdXdXdXdXdXdXdXdXdXdXdXdXdXdXdXdXdXdXdXdXdXdXdXdXdXdXdXdXdXdXdXdXdXsX0X .- . . . . . . 8 j.~..XXXXXXX.XXX.X.XXXXXXXXXXXXXXXXXXXXX.X[.R.Z.f.f.f.f.f.f.f.f.f.f.f.f.f.f.f.f.f.f.f.g.g.f.f.g.g.g.f.f.f.g.g.g.f.f.f.g.g.f.f.f.g.g.g.f.f.f.f.f.f.f.f.g.g.f.f.g.g.g.f.f.f.f.f.f.f.f.f.f.f.f.g.f.f.f.f.h.h.f./ D % . . . . . . . . "
};
