/* XPM */
static char *palett_2[] = {
/* columns rows colors chars-per-pixel */
"300 300 245 2 ",
"   c #010101",
".  c #0D0A05",
"X  c #0A0709",
"o  c #110D07",
"O  c #161109",
"+  c #1B150B",
"@  c #0F0312",
"#  c #140519",
"$  c #131313",
"%  c #1E1E1E",
"&  c #241B0E",
"*  c #291F11",
"=  c #2E2212",
"-  c #2A251F",
";  c #322511",
":  c #372A15",
">  c #3B2C16",
",  c #1D0524",
"<  c #23092A",
"1  c #2E0E36",
"2  c #320A3D",
"3  c #282828",
"4  c #382F26",
"5  c #363636",
"6  c #3A3839",
"7  c #402F18",
"8  c #433219",
"9  c #4B381C",
"0  c #513C1E",
"q  c #540B2A",
"w  c #5A0B2D",
"e  c #571529",
"r  c #6F1037",
"t  c #553428",
"y  c #633829",
"u  c #094E16",
"i  c #0A5217",
"p  c #095618",
"a  c #125219",
"s  c #29511C",
"d  c #0C681D",
"f  c #0F6F1F",
"g  c #0F7922",
"h  c #356424",
"j  c #564021",
"k  c #5B4829",
"l  c #525230",
"z  c #654927",
"x  c #664C26",
"c  c #694E27",
"v  c #695426",
"b  c #6C5129",
"n  c #73562B",
"m  c #745A2A",
"M  c #7A5B2E",
"N  c #734732",
"B  c #7D5E30",
"V  c #6A6723",
"C  c #756B2C",
"Z  c #0A1657",
"A  c #05125B",
"S  c #0F1858",
"D  c #3B0A48",
"F  c #3A1344",
"G  c #1C2157",
"H  c #2D2C4E",
"J  c #0C1566",
"K  c #14187A",
"L  c #1F216C",
"P  c #490C5A",
"I  c #4C185B",
"U  c #4F3356",
"Y  c #580C6D",
"T  c #571569",
"R  c #5D1271",
"E  c #640D7C",
"W  c #64137A",
"Q  c #662178",
"!  c #3D6D59",
"~  c #2F796B",
"^  c #494949",
"/  c #514850",
"(  c #565655",
")  c #5F5F52",
"_  c #696969",
"`  c #7A696A",
"'  c #767676",
"]  c #88303D",
"[  c #856E24",
"{  c #88732F",
"}  c #846332",
"|  c #8C6935",
" . c #906C37",
".. c #926E38",
"X. c #96723A",
"o. c #9B743B",
"O. c #A3763D",
"+. c #A37A3E",
"@. c #8C1346",
"#. c #AE1857",
"$. c #A72C4F",
"%. c #C4385D",
"&. c #C61964",
"*. c #C91B65",
"=. c #D01C68",
"-. c #C72562",
";. c #954241",
":. c #BC5B52",
">. c #8E6E4D",
",. c #A87E41",
"<. c #BC714E",
"1. c #88676D",
"2. c #C24C58",
"3. c #C06C51",
"4. c #109028",
"5. c #328D2D",
"6. c #13A92F",
"7. c #0DB831",
"8. c #14B532",
"9. c #16B733",
"0. c #27AF34",
"q. c #3AAB37",
"w. c #5A9838",
"e. c #729C3E",
"r. c #52A63A",
"t. c #1F857E",
"y. c #2B857A",
"u. c #518C71",
"i. c #709064",
"p. c #8E8D16",
"a. c #8A8519",
"s. c #918F17",
"d. c #929116",
"f. c #9A9718",
"g. c #B1B019",
"h. c #9D8F2D",
"j. c #A98E33",
"k. c #C28C3E",
"l. c #CAAB39",
"z. c #D3B737",
"x. c #D3D21C",
"c. c #ECEB1E",
"v. c #F7F51F",
"b. c #F8F71F",
"n. c #FAF91E",
"m. c #DBCB2B",
"M. c #E0CE2E",
"N. c #E7D92A",
"B. c #EFE923",
"V. c #F6F220",
"C. c #91904C",
"Z. c #AC8242",
"A. c #AA8948",
"S. c #B28544",
"D. c #B68946",
"F. c #B98B47",
"G. c #B78549",
"H. c #B68A49",
"J. c #BC8D48",
"K. c #A49144",
"L. c #BC9245",
"P. c #BF9049",
"I. c #AC8251",
"U. c #A79758",
"Y. c #B09250",
"T. c #989C63",
"R. c #8CAA73",
"E. c #C28B47",
"W. c #C29843",
"Q. c #C1914A",
"!. c #1A1A89",
"~. c #221D9B",
"^. c #2D268F",
"/. c #271EA8",
"(. c #281DB7",
"). c #3426AD",
"_. c #2C20B4",
"`. c #2E21B8",
"'. c #6F0F8A",
"]. c #6D1586",
"[. c #73158D",
"{. c #7E0F9C",
"}. c #771691",
"|. c #7B1896",
" X c #7E189A",
".X c #543F93",
"XX c #75268B",
"oX c #4231A2",
"OX c #644E89",
"+X c #80119F",
"@X c #81199D",
"#X c #852A9D",
"$X c #8211A1",
"%X c #891AA8",
"&X c #941DB5",
"*X c #8C29A7",
"=X c #9A24BA",
"-X c #9931B6",
";X c #9F24C1",
":X c #A62AC8",
">X c #AB33CC",
",X c #B537D7",
"<X c #BD39E1",
"1X c #C43CE9",
"2X c #CC3EF2",
"3X c #C840ED",
"4X c #CE41F4",
"5X c #D745FF",
"6X c #DB46FF",
"7X c #EA4BFF",
"8X c #178986",
"9X c #158C89",
"0X c #169590",
"qX c #25948A",
"wX c #1CA39A",
"eX c #20AFA2",
"rX c #22B8A9",
"tX c #4BAC8F",
"yX c #75B989",
"uX c #29CCB8",
"iX c #5DC79E",
"pX c #64C59A",
"aX c #50D3AE",
"sX c #2CDCC3",
"dX c #2EE7CC",
"fX c #38E4C5",
"gX c #30E9CD",
"hX c #27EFD6",
"jX c #2CECD1",
"kX c #30EFD2",
"lX c #848484",
"zX c #8B8B8B",
"xX c #80B380",
"cX c #A6A6A7",
"vX c #B0B0AF",
"bX c #B2B2B2",
"nX c #BEBEBE",
"mX c #C7C7C7",
"MX c #CFCFD0",
"NX c #DADADA",
"BX c #E2E2E2",
"VX c #ECECEC",
"CX c #EFF0F0",
"ZX c #F3F3F3",
"AX c #FFFFFF",
/* pixels */
"AXAXAXAXAXAXAXAXAXAXAXAXAXAXAXAXAXAXAXAXAXAXAXAXAXAXAXAXAXAXAXAXAXAXAXAXAXAXAXAXAXAXAXAXAXAXAXAXAXAXAXAXAXAXAXAXAXAXAXAXAXAXAXAXAXAXAXAXAXAXAXAXAXAXAXAXAXAXAXAXAXAXAXAXAXAXAXAXAXAXAXAXAXAXAXAXAXAXAXAXAXAXAXAXAXAXAXAXAXAXAXAXAXAXAXAXAXAXAXAXAXAXAXAXAXAXAXAXAXAXAXAXAXAXAXAXAXAXAXAXAXAXAXAXAXAXAXAXAXAXAXAXAXAXAXAXAXAXAXAXAXAXAXAXAXAXAXAXAXAXAXAXAXAXAXAXAXAXAXAXAXAXAXAXAXAXAXAXAXAXAXAXAXAXAXAXAXAXAXAXAXAXAXAXAXAXAXAXAXAXAXAXAXAXAXAXAXAXAXAXAXAXAXAXAXAXAXAXAXAXAXAXAXAXAXAXAXAXAXAXAXAXAXAXAXAXAXAXAXAXAXAXAXAXAXAXAXAXAXAXAXAXAXAXAXAXAXAXAXAXAXAXAXAXAXAXAXAXAXAXAXAXAXAXAXAXAXAXAXAXAXAXAXAXAXAXAXAXAXAX",
"AXAXAXAXAXAXAXAXAXAXAXAXAXAXAXAXAXAXAXAXAXAXAXAXAXAXAXAXAXAXAXAXAXAXAXAXAXAXAXAXAXAXAXAXAXAXAXAXAXAXAXAXAXAXAXAXAXAXAXAXAXAXAXAXAXAXAXAXAXAXAXAXAXAXAXAXAXAXAXAXAXAXAXAXAXAXAXAXAXAXAXAXAXAXAXAXAXAXAXAXAXAXAXAXAXAXAXAXAXAXAXAXAXAXAXAXAXAXAXAXAXAXAXAXAXAXAXAXAXAXAXAXAXAXAXAXAXAXAXAXAXAXAXAXAXAXAXAXAXAXAXAXAXAXAXAXAXAXAXAXAXAXAXAXAXAXAXAXAXAXAXAXAXAXAXAXAXAXAXAXAXAXAXAXAXAXAXAXAXAXAXAXAXAXAXAXAXAXAXAXAXAXAXAXAXAXAXAXAXAXAXAXAXAXAXAXAXAXAXAXAXAXAXAXAXAXAXAXAXAXAXAXAXAXAXAXAXAXAXAXAXAXAXAXAXAXAXAXAXAXAXAXAXAXAXAXAXAXAXAXAXAXAXAXAXAXAXAXAXAXAXAXAXAXAXAXAXAXAXAXAXAXAXAXAXAXAXAXAXAXAXAXAXAXAXAXAXAXAXAX",
"AXAXAXAXAXAXAXAXAXAXAXAXAXAXAXAXAXAXAXAXAXAXAXAXAXAXAXAXAXAXAXAXAXAXAXAXAXAXAXAXAXAXAXAXAXAXAXAXAXAXAXAXAXAXAXAXAXAXAXAXAXAXAXAXAXAXAXAXAXAXAXAXAXAXAXAXAXAXAXAXAXAXAXAXAXAXAXAXAXAXAXAXAXAXAXAXAXAXAXAXAXAXAXAXAXAXAXAXAXAXAXAXAXAXAXAXAXAXAXAXAXAXAXAXAXAXAXAXAXAXAXAXAXAXAXAXAXAXAXAXAXAXAXAXAXAXAXAXAXAXAXAXAXAXAXAXAXAXAXAXAXAXAXAXAXAXAXAXAXAXAXAXAXAXAXAXAXAXAXAXAXAXAXAXAXAXAXAXAXAXAXAXAXAXAXAXAXAXAXAXAXAXAXAXAXAXAXAXAXAXAXAXAXAXAXAXAXAXAXAXAXAXAXAXAXAXAXAXAXAXAXAXAXAXAXAXAXAXAXAXAXAXAXAXAXAXAXAXAXAXAXAXAXAXAXAXAXAXAXAXAXAXAXAXAXAXAXAXAXAXAXAXAXAXAXAXAXAXAXAXAXAXAXAXAXAXAXAXAXAXAXAXAXAXAXAXAXAXAXAX",
"AXAXAXAXAXAXAXAXAXAXAXAXAXAXAXAXAXAXAXAXAXAXAXAXAXAXAXAXAXAXAXAXAXAXAXAXAXAXAXAXAXAXAXAXAXAXAXAXAXAXAXAXAXAXAXAXAXAXAXAXAXAXAXAXAXAXAXAXAXAXAXAXAXAXAXAXAXAXAXAXAXAXAXAXAXAXAXAXAXAXAXAXAXAXAXAXAXAXAXAXAXAXAXAXAXAXAXAXAXAXAXAXAXAXAXAXAXAXAXAXAXAXAXAXAXAXAXAXAXAXAXAXAXAXAXAXAXAXAXAXAXAXAXAXAXAXAXAXAXAXAXAXAXAXAXAXAXAXAXAXAXAXAXAXAXAXAXAXAXAXAXAXAXAXAXAXAXAXAXAXAXAXAXAXAXAXAXAXAXAXAXAXAXAXAXAXAXAXAXAXAXAXAXAXAXAXAXAXAXAXAXAXAXAXAXAXAXAXAXAXAXAXAXAXAXAXAXAXAXAXAXAXAXAXAXAXAXAXAXAXAXAXAXAXAXAXAXAXAXAXAXAXAXAXAXAXAXAXAXAXAXAXAXAXAXAXAXAXAXAXAXAXAXAXAXAXAXAXAXAXAXAXAXAXAXAXAXAXAXAXAXAXAXAXAXAXAXAXAXAX",
"AXAXAXAXAXAXAXAXAXAXAXAXAXAXAXAXAXAXAXAXAXAXAXAXAXAXAXAXAXAXAXAXAXAXAXAXAXAXAXAXAXAXAXAXAXAXAXAXAXAXAXAXAXAXAXAXAXAXAXAXAXAXAXAXAXAXAXAXAXAXAXAXAXAXAXAXAXAXAXAXAXAXAXAXAXAXAXAXAXAXAXAXAXAXAXAXAXAXAXAXAXAXAXAXAXAXAXAXAXAXAXAXAXAXAXAXAXAXAXAXAXAXAXAXAXAXAXAXAXAXAXAXAXAXAXAXAXAXAXAXAXAXAXAXAXAXAXAXAXAXAXAXAXAXAXAXAXAXAXAXAXAXAXAXAXAXAXAXAXAXAXAXAXAXAXAXAXAXAXAXAXAXAXAXAXAXAXAXAXAXAXAXAXAXAXAXAXAXAXAXAXAXAXAXAXAXAXAXAXAXAXAXAXAXAXAXAXAXAXAXAXAXAXAXAXAXAXAXAXAXAXAXAXAXAXAXAXAXAXAXAXAXAXAXAXAXAXAXAXAXAXAXAXAXAXAXAXAXAXAXAXAXAXAXAXAXAXAXAXAXAXAXAXAXAXAXAXAXAXAXAXAXAXAXAXAXAXAXAXAXAXAXAXAXAXAXAXAXAXAX",
"AXAXAXAXAXAXAXAXAXAXAXAXAXAXAXAXAXAXAXAXAXAXAXAXAXAXAXAXAXAXAXAXAXAXAXAXAXAXAXAXAXAXAXAXAXAXAXAXAXAXAXAXAXAXAXAXAXAXAXAXAXAXAXAXAXAXAXAXAXAXAXAXAXAXAXAXAXAXAXAXAXAXAXAXAXAXAXAXAXAXAXAXAXAXAXAXAXAXAXAXAXAXAXAXAXAXAXAXAXAXAXAXAXAXAXAXAXAXAXAXAXAXAXAXAXAXAXAXAXAXAXAXAXAXAXAXAXAXAXAXAXAXAXAXAXAXAXAXAXAXAXAXAXAXAXAXAXAXAXAXAXAXAXAXAXAXAXAXAXAXAXAXAXAXAXAXAXAXAXAXAXAXAXAXAXAXAXAXAXAXAXAXAXAXAXAXAXAXAXAXAXAXAXAXAXAXAXAXAXAXAXAXAXAXAXAXAXAXAXAXAXAXAXAXAXAXAXAXAXAXAXAXAXAXAXAXAXAXAXAXAXAXAXAXAXAXAXAXAXAXAXAXAXAXAXAXAXAXAXAXAXAXAXAXAXAXAXAXAXAXAXAXAXAXAXAXAXAXAXAXAXAXAXAXAXAXAXAXAXAXAXAXAXAXAXAXAXAXAXAX",
"AXAXAXAXAXAXAXAXAXAXAXAXAXAXAXAXAXAXAXAXAXAXAXAXAXAXAXAXAXAXAXAXAXAXAXAXAXAXAXAXAXAXAXAXAXAXAXAXAXAXAXAXAXAXAXAXAXAXAXAXAXAXAXAXAXAXAXAXAXAXAXAXAXAXAXAXAXAXAXAXAXAXAXAXAXAXAXAXAXAXAXAXAXAXAXAXAXAXAXAXAXAXAXAXAXAXAXAXAXAXAXAXAXAXAXAXAXAXAXAXAXAXAXAXAXAXAXAXAXAXAXAXAXAXAXAXAXAXAXAXAXAXAXAXAXAXAXAXAXAXAXAXAXAXAXAXAXAXAXAXAXAXAXAXAXAXAXAXAXAXAXAXAXAXAXAXAXAXAXAXAXAXAXAXAXAXAXAXAXAXAXAXAXAXAXAXAXAXAXAXAXAXAXAXAXAXAXAXAXAXAXAXAXAXAXAXAXAXAXAXAXAXAXAXAXAXAXAXAXAXAXAXAXAXAXAXAXAXAXAXAXAXAXAXAXAXAXAXAXAXAXAXAXAXAXAXAXAXAXAXAXAXAXAXAXAXAXAXAXAXAXAXAXAXAXAXAXAXAXAXAXAXAXAXAXAXAXAXAXAXAXAXAXAXAXAXAXAXAXAX",
"AXAXAXAXAXAXAXAXAXAXAXAXAXAXAXAXAXAXAXAXAXAXAXAXAXAXAXAXAXAXAXAXAXAXAXAXAXAXAXAXAXAXAXAXAXAXAXAXAXAXAXAXAXAXAXAXAXAXAXAXAXAXAXAXAXAXAXAXAXAXAXAXAXAXAXAXAXAXAXAXAXAXAXAXAXAXAXAXAXAXAXAXAXAXAXAXAXAXAXAXAXAXAXAXAXAXAXAXAXAXAXAXAXAXAXAXAXAXAXAXAXAXAXAXAXAXAXAXAXAXAXAXAXAXAXAXAXAXAXAXAXAXAXAXAXAXAXAXAXAXAXAXAXAXAXAXAXAXAXAXAXAXAXAXAXAXAXAXAXAXAXAXAXAXAXAXAXAXAXAXAXAXAXAXAXAXAXAXAXAXAXAXAXAXAXAXAXAXAXAXAXAXAXAXAXAXAXAXAXAXAXAXAXAXAXAXAXAXAXAXAXAXAXAXAXAXAXAXAXAXAXAXAXAXAXAXAXAXAXAXAXAXAXAXAXAXAXAXAXAXAXAXAXAXAXAXAXAXAXAXAXAXAXAXAXAXAXAXAXAXAXAXAXAXAXAXAXAXAXAXAXAXAXAXAXAXAXAXAXAXAXAXAXAXAXAXAXAXAXAX",
"AXAXAXAXAXAXAXAXAXAXAXAXAXAXAXAXAXAXAXAXAXAXAXAXAXAXAXAXAXAXAXAXAXAXAXAXAXAXAXAXAXAXAXAXAXAXAXAXAXAXAXAXAXAXAXAXAXAXAXAXAXAXAXAXAXAXAXAXAXAXAXAXAXAXAXAXAXAXAXAXAXAXAXAXAXAXAXAXAXAXAXAXAXAXAXAXAXAXAXAXAXAXAXAXAXAXAXAXAXAXAXAXAXAXAXAXAXAXAXAXAXAXAXAXAXAXAXAXAXAXAXAXAXAXAXAXZXBXNXmXmXmXmXmXmXmXmXmXmXmXmXmXmXmXmXmXmXmXmXmXmXmXmXmXmXmXmXmXmXmXmXmXmXmXmXmXmXmXmXmXmXmXmXmXmXmXmXmXmXmXmXmXmXmXmXmXmXmXmXmXmXmXNXVXAXAXAXAXAXAXAXAXAXAXAXAXAXAXAXAXAXAXAXAXAXAXAXAXAXAXAXAXAXAXAXAXAXAXAXAXAXAXAXAXAXAXAXAXAXAXAXAXAXAXAXAXAXAXAXAXAXAXAXAXAXAXAXAXAXAXAXAXAXAXAXAXAXAXAXAXAXAXAXAXAXAXAXAXAXAXAXAXAXAXAXAXAXAXAXAX",
"AXAXAXAXAXAXAXAXAXAXAXAXAXAXAXAXAXAXAXAXAXAXAXAXAXAXAXAXAXAXAXAXAXAXAXAXAXAXAXAXAXAXAXAXAXAXAXAXAXAXAXAXAXAXAXAXAXAXAXAXAXAXAXAXAXAXAXAXAXAXAXAXAXAXAXAXAXAXAXAXAXAXAXAXAXAXAXAXAXAXAXAXAXAXAXAXAXAXAXAXAXAXAXAXAXAXAXAXAXAXAXAXAXAXAXAXAXAXAXAXAXAXAXAXAXAXAXAXAXAXAXAXAXAXAXAXBXnXzX' ' ' ' ' ' ' ' ' ' ' ' ' ' ' ' ' ' ' ' ' ' ' ' ' ' ' ' ' ' ' ' ' ' ' ' ' ' ' ' ' ' ' ' ' ' ' ' ' ' ' ' ' ' ' ' ' ' ' ' ' ' ' cXmXZXAXAXAXAXAXAXAXAXAXAXAXAXAXAXAXAXAXAXAXAXAXAXAXAXAXAXAXAXAXAXAXAXAXAXAXAXAXAXAXAXAXAXAXAXAXAXAXAXAXAXAXAXAXAXAXAXAXAXAXAXAXAXAXAXAXAXAXAXAXAXAXAXAXAXAXAXAXAXAXAXAXAXAXAXAXAXAXAXAXAXAXAXAXAXAX",
"AXAXAXAXAXAXAXAXAXAXAXAXAXAXAXAXAXAXAXAXAXAXAXAXAXAXAXAXAXAXAXAXAXAXAXAXAXAXAXAXAXAXAXAXAXAXAXAXAXAXAXAXAXAXAXAXAXAXAXAXAXAXAXAXAXAXAXAXAXAXAXAXAXAXAXAXAXAXAXAXAXAXAXAXAXAXAXAXAXAXAXAXAXAXAXAXAXAXAXAXAXAXAXAXAXAXAXAXAXAXAXAXAXAXAXAXAXAXAXAXAXAXAXAXAXAXAXAXAXAXAXAXAXAXAXAXNXzX/ 3 % 3 3 3 3 3 3 3 3 3 3 3 3 3 3 3 3 3 3 3 3 3 3 3 3 3 3 3 3 3 3 3 3 3 3 3 3 3 3 3 3 3 3 3 3 3 3 3 3 3 3 3 3 3 3 3 3 3 3 3 % 5 _ vXVXAXAXAXAXAXAXAXAXAXAXAXAXAXAXAXAXAXAXAXAXAXAXAXAXAXAXAXAXAXAXAXAXAXAXAXAXAXAXAXAXAXAXAXAXAXAXAXAXAXAXAXAXAXAXAXAXAXAXAXAXAXAXAXAXAXAXAXAXAXAXAXAXAXAXAXAXAXAXAXAXAXAXAXAXAXAXAXAXAXAXAXAXAXAXAX",
"AXAXAXAXAXAXAXAXAXAXAXAXAXAXAXAXAXAXAXAXAXAXAXAXAXAXAXAXAXAXAXAXAXAXAXAXAXAXAXAXAXAXAXAXAXAXAXAXAXAXAXAXAXAXAXAXAXAXAXAXAXAXAXAXAXAXAXAXAXAXAXAXAXAXAXAXAXAXAXAXAXAXAXAXAXAXAXAXAXAXAXAXAXAXAXAXAXAXAXAXAXAXAXAXAXAXAXAXAXAXAXAXAXAXAXAXAXAXAXAXAXAXAXAXAXAXAXAXAXAXAXAXAXAXAXAXNXOX5                                                                                                                             $ / cXVXAXAXAXAXAXAXAXAXAXAXAXAXAXAXAXAXAXAXAXAXAXAXAXAXAXAXAXAXAXAXAXAXAXAXAXAXAXAXAXAXAXAXAXAXAXAXAXAXAXAXAXAXAXAXAXAXAXAXAXAXAXAXAXAXAXAXAXAXAXAXAXAXAXAXAXAXAXAXAXAXAXAXAXAXAXAXAXAXAXAXAXAXAXAXAX",
"AXAXAXAXAXAXAXAXAXAXAXAXAXAXAXAXAXAXAXAXAXAXAXAXAXAXAXAXAXAXAXAXAXAXAXAXAXAXAXAXAXAXAXAXAXAXAXAXAXAXAXAXAXAXAXAXAXAXAXAXAXAXAXAXAXAXAXAXAXAXAXAXAXAXAXAXAXAXAXAXAXAXAXAXAXAXAXAXAXAXAXAXAXAXAXAXAXAXAXAXAXAXAXAXAXAXAXAXAXAXAXAXAXAXAXAXAXAXAXAXAXAXAXAXAXAXAXAXAXAXAXAXAXAXAXAXNX' 3                                                                                                                               ^ cXVXAXAXAXAXAXAXAXAXAXAXAXAXAXAXAXAXAXAXAXAXAXAXAXAXAXAXAXAXAXAXAXAXAXAXAXAXAXAXAXAXAXAXAXAXAXAXAXAXAXAXAXAXAXAXAXAXAXAXAXAXAXAXAXAXAXAXAXAXAXAXAXAXAXAXAXAXAXAXAXAXAXAXAXAXAXAXAXAXAXAXAXAXAXAXAX",
"AXAXAXAXAXAXAXAXAXAXAXAXAXAXAXAXAXAXAXAXAXAXAXAXAXAXAXAXAXAXAXAXAXAXAXAXAXAXAXAXAXAXAXAXAXAXAXAXAXAXAXAXAXAXAXAXAXAXAXAXAXAXAXAXAXAXAXAXAXAXAXAXAXAXAXAXAXAXAXAXAXAXAXAXAXAXAXAXAXAXAXAXAXAXAXAXAXAXAXAXAXAXAXAXAXAXAXAXAXAXAXAXAXAXAXAXAXAXAXAXAXAXAXAXAXAXAXAXAXAXAXAXAXAXAXAXNXi.5                                                                                                                             $ / cXVXAXAXAXAXAXAXAXAXAXAXAXAXAXAXAXAXAXAXAXAXAXAXAXAXAXAXAXAXAXAXAXAXAXAXAXAXAXAXAXAXAXAXAXAXAXAXAXAXAXAXAXAXAXAXAXAXAXAXAXAXAXAXAXAXAXAXAXAXAXAXAXAXAXAXAXAXAXAXAXAXAXAXAXAXAXAXAXAXAXAXAXAXAXAXAX",
"AXAXAXAXAXAXAXAXAXAXAXAXAXAXAXAXAXAXAXAXAXAXAXAXAXAXAXAXAXAXAXAXAXAXAXAXAXAXAXAXAXAXAXAXAXAXAXAXAXAXAXAXAXAXAXAXAXAXAXAXAXAXAXAXAXAXAXAXAXAXAXAXAXAXAXAXAXAXAXAXAXAXAXAXAXAXAXAXAXAXAXAXAXAXAXAXAXAXAXAXAXAXAXAXAXAXAXAXAXAXAXAXVXBXNXNXNXNXNXNXNXNXNXNXNXNXNXNXNXNXNXNXNXNXBXNXbX' 6 O O O O O O O O O O O O O O O O O O O O O O O O O O O O O O O O O O O O O O O O O O O O O O O O O O O O O O O O O O O O + o * ^ zXmXNXBXNXNXNXNXNXNXNXNXNXNXNXNXNXNXNXNXNXNXNXNXNXNXNXNXNXNXBXVXAXAXAXAXAXAXAXAXAXAXAXAXAXAXAXAXAXAXAXAXAXAXAXAXAXAXAXAXAXAXAXAXAXAXAXAXAXAXAXAXAXAXAXAXAXAXAXAXAXAXAXAXAXAXAXAXAXAXAXAXAXAXAXAXAX",
"AXAXAXAXAXAXAXAXAXAXAXAXAXAXAXAXAXAXAXAXAXAXAXAXAXAXAXAXAXAXAXAXAXAXAXAXAXAXAXAXAXAXAXAXAXAXAXAXAXAXAXAXAXAXAXAXAXAXAXAXAXAXAXAXAXAXAXAXAXAXAXAXAXAXAXAXAXAXAXAXAXAXAXAXAXAXAXAXAXAXAXAXAXAXAXAXAXAXAXAXAXAXAXAXAXAXAXAXAXAXAXVXmXcXzXlXzXzXzXzXzXzXzXzXzXzXzXzXzXzXzXzXzXzXzXzX1.) k j j j j j j j j j j j j j j j j j j j j j j j j j j j j j j j j j j j j j j j j j j j j j j j j j j j j j j j j j 0 0 j 0 0 j ) ` lXzXzXzXzXzXzXzXzXzXzXzXzXzXzXzXzXzXzXzXzXzXzXzXzXzXzXlXzXcXmXVXAXAXAXAXAXAXAXAXAXAXAXAXAXAXAXAXAXAXAXAXAXAXAXAXAXAXAXAXAXAXAXAXAXAXAXAXAXAXAXAXAXAXAXAXAXAXAXAXAXAXAXAXAXAXAXAXAXAXAXAXAXAXAXAX",
"AXAXAXAXAXAXAXAXAXAXAXAXAXAXAXAXAXAXAXAXAXAXAXAXAXAXAXAXAXAXAXAXAXAXAXAXAXAXAXAXAXAXAXAXAXAXAXAXAXAXAXAXAXAXAXAXAXAXAXAXAXAXAXAXAXAXAXAXAXAXAXAXAXAXAXAXAXAXAXAXAXAXAXAXAXAXAXAXAXAXAXAXAXAXAXAXAXAXAXAXAXAXAXAXAXAXAXAXAXAXAXNXcX( 5 5 5 5 5 5 5 5 5 5 5 5 6 6 6 6 5 5 5 5 5 5 l b } ............................................................................................................................ .B l t 5 5 5 5 5 5 6 6 5 5 5 5 5 5 5 5 5 6 6 6 6 5 5 5 5 5 5 6 _ cXBXAXAXAXAXAXAXAXAXAXAXAXAXAXAXAXAXAXAXAXAXAXAXAXAXAXAXAXAXAXAXAXAXAXAXAXAXAXAXAXAXAXAXAXAXAXAXAXAXAXAXAXAXAXAXAXAXAXAXAXAXAXAXAXAX",
"AXAXAXAXAXAXAXAXAXAXAXAXAXAXAXAXAXAXAXAXAXAXAXAXAXAXAXAXAXAXAXAXAXAXAXAXAXAXAXAXAXAXAXAXAXAXAXAXAXAXAXAXAXAXAXAXAXAXAXAXAXAXAXAXAXAXAXAXAXAXAXAXAXAXAXAXAXAXAXAXAXAXAXAXAXAXAXAXAXAXAXAXAXAXAXAXAXAXAXAXAXAXAXAXAXAXAXAXAXAXAXNXlX5                                             * j X.D.J.F.D.D.D.D.D.D.D.D.D.D.D.D.D.D.D.D.D.D.D.D.D.D.D.D.D.D.D.D.D.D.D.D.D.D.D.D.D.D.D.D.D.D.D.D.D.D.D.D.D.D.D.D.D.D.D.D.D.J.J.Z.} 8 O                                                       $ 6 zXNXAXAXAXAXAXAXAXAXAXAXAXAXAXAXAXAXAXAXAXAXAXAXAXAXAXAXAXAXAXAXAXAXAXAXAXAXAXAXAXAXAXAXAXAXAXAXAXAXAXAXAXAXAXAXAXAXAXAXAXAXAXAXAXAX",
"AXAXAXAXAXAXAXAXAXAXAXAXAXAXAXAXAXAXAXAXAXAXAXAXAXAXAXAXAXAXAXAXAXAXAXAXAXAXAXAXAXAXAXAXAXAXAXAXAXAXAXAXAXAXAXAXAXAXAXAXAXAXAXAXAXAXAXAXAXAXAXAXAXAXAXAXAXAXAXAXAXAXAXAXAXAXAXAXAXAXAXAXAXAXAXAXAXAXAXAXAXAXAXAXAXAXAXAXAXAXAXNX' 3                                             + j X.Q.Q.Q.P.P.Q.Q.Q.Q.Q.Q.Q.Q.P.Q.Q.Q.Q.Q.P.Q.Q.Q.Q.Q.P.Q.Q.Q.Q.Q.P.Q.Q.Q.Q.Q.Q.Q.P.P.Q.P.Q.Q.P.Q.P.P.Q.Q.Q.Q.Q.Q.Q.Q.Q.Q.Q.Q.Q.D.} 7 .                                                         5 lXNXAXAXAXAXAXAXAXAXAXAXAXAXAXAXAXAXAXAXAXAXAXAXAXAXAXAXAXAXAXAXAXAXAXAXAXAXAXAXAXAXAXAXAXAXAXAXAXAXAXAXAXAXAXAXAXAXAXAXAXAXAXAXAXAX",
"AXAXAXAXAXAXAXAXAXAXAXAXAXAXAXAXAXAXAXAXAXAXAXAXAXAXAXAXAXAXAXAXAXAXAXAXAXAXAXAXAXAXAXAXAXAXAXAXAXAXAXAXAXAXAXAXAXAXAXAXAXAXAXAXAXAXAXAXAXAXAXAXAXAXAXAXAXAXAXAXAXAXAXAXAXAXAXAXAXAXAXAXAXAXAXAXAXAXAXAXAXAXAXAXAXAXAXAXAXAXAXNX' 5                                             O j X.J.Q.J.J.J.J.J.J.J.J.J.J.J.J.J.J.J.J.J.J.J.J.J.J.J.J.J.J.J.J.J.J.J.J.J.J.J.J.J.J.J.J.J.J.J.J.J.J.J.J.J.J.J.J.J.J.J.J.J.J.Q.Q.S.} 8 .                                                         5 zXNXAXAXAXAXAXAXAXAXAXAXAXAXAXAXAXAXAXAXAXAXAXAXAXAXAXAXAXAXAXAXAXAXAXAXAXAXAXAXAXAXAXAXAXAXAXAXAXAXAXAXAXAXAXAXAXAXAXAXAXAXAXAXAXAX",
"AXAXAXAXAXAXAXAXAXAXAXAXAXAXAXAXAXAXAXAXAXAXAXAXAXAXAXAXAXAXAXAXAXAXAXAXAXAXAXAXAXAXAXAXAXAXAXAXAXAXAXAXAXAXAXAXAXAXAXAXAXAXAXAXAXAXAXAXAXAXAXAXAXAXAXAXAXAXAXAXAXAXAXAXAXAXAXAXAXAXAXAXAXAXAXAXAXAXAXAXAXAXAXAXAXAXAXAXAXAXAXNXlX5                                             & j X.J.Q.J.F.F.F.F.F.F.F.F.F.F.F.F.F.F.F.F.F.F.F.F.F.F.F.F.F.F.F.F.F.F.F.F.F.F.F.F.F.F.F.F.F.F.F.F.F.F.F.F.F.F.F.F.F.F.F.F.F.J.P.S.} 8 o                                                         5 zXNXAXAXAXAXAXAXAXAXAXAXAXAXAXAXAXAXAXAXAXAXAXAXAXAXAXAXAXAXAXAXAXAXAXAXAXAXAXAXAXAXAXAXAXAXAXAXAXAXAXAXAXAXAXAXAXAXAXAXAXAXAXAXAXAX",
"AXAXAXAXAXAXAXAXAXAXAXAXAXAXAXAXAXAXAXAXAXAXAXAXAXAXAXAXAXAXAXAXAXAXAXAXAXAXAXAXAXAXAXAXAXAXAXAXAXAXAXAXAXAXAXAXAXAXAXAXAXAXAXAXAXAXAXAXAXAXAXAXAXAXAXAXAXAXAXAXAXAXAXAXAXAXAXAXAXAXAXAXAXAXAXAXAXAXAXAXAXAXAXAXAXAXAXAXAXAXAXNXlX5                                             O j X.J.Q.J.F.F.F.F.F.F.F.F.F.F.F.F.F.F.F.F.F.F.F.F.F.F.F.F.F.F.F.F.F.F.F.F.F.F.F.F.F.F.F.F.F.F.F.F.F.F.F.F.F.F.F.F.F.F.F.F.F.J.P.S.} 8 .                                                         6 zXNXAXAXAXAXAXAXAXAXAXAXAXAXAXAXAXAXAXAXAXAXAXAXAXAXAXAXAXAXAXAXAXAXAXAXAXAXAXAXAXAXAXAXAXAXAXAXAXAXAXAXAXAXAXAXAXAXAXAXAXAXAXAXAXAX",
"AXAXAXAXAXAXAXAXAXAXAXAXAXAXAXAXAXAXAXAXAXAXAXAXAXAXAXAXAXAXAXAXAXAXAXAXAXAXAXAXAXAXAXAXAXAXAXAXAXAXAXAXAXAXAXAXAXAXAXAXAXAXAXAXAXAXAXAXAXAXAXAXAXAXAXAXAXAXAXAXAXAXAXAXAXAXAXAXAXAXAXAXAXAXAXAXAXAXAXAXAXAXAXAXAXAXAXAXAXAXAXNXlX5                                             O j X.J.Q.J.F.F.F.F.F.F.F.F.F.F.F.F.F.F.F.F.F.F.F.F.F.F.F.F.F.F.F.F.F.F.F.F.F.F.F.F.F.F.F.F.F.F.F.F.F.F.F.F.F.F.F.F.F.F.F.F.F.J.P.S.} 8 .                                                         6 zXNXAXAXAXAXAXAXAXAXAXAXAXAXAXAXAXAXAXAXAXAXAXAXAXAXAXAXAXAXAXAXAXAXAXAXAXAXAXAXAXAXAXAXAXAXAXAXAXAXAXAXAXAXAXAXAXAXAXAXAXAXAXAXAXAX",
"AXAXAXAXAXAXAXAXAXAXAXAXAXAXAXAXAXAXAXAXAXAXAXAXAXAXAXAXAXAXAXAXAXAXAXAXAXAXAXAXAXAXAXAXAXAXAXAXAXAXAXAXAXAXAXAXAXAXAXAXAXAXAXAXAXAXAXAXAXAXAXAXAXAXAXAXAXAXAXAXAXAXAXAXAXAXAXAXAXAXAXAXAXAXAXAXAXZXVXVXVXVXVXVXVXVXVXVXZXZXVXmX' 5                 . . . . . . . . . . . .   . = z X.J.P.J.F.F.F.F.F.F.F.F.F.F.F.F.F.F.F.F.F.F.F.F.F.F.F.F.F.F.F.F.F.F.F.F.F.F.F.F.F.F.F.F.F.F.F.F.F.F.F.F.F.F.F.F.F.F.F.F.F.J.J.S.} 9 O . . . . . . . . . . . . . . . . . . . . . . .           5 lXmXZXZXZXVXVXVXZXZXAXAXAXAXAXAXAXAXAXAXAXAXAXAXAXAXAXAXAXAXAXAXAXAXAXAXAXAXAXAXAXAXAXAXAXAXAXAXAXAXAXAXAXAXAXAXAXAXAXAXAXAXAXAXAXAX",
"AXAXAXAXAXAXAXAXAXAXAXAXAXAXAXAXAXAXAXAXAXAXAXAXAXAXAXAXAXAXAXAXAXAXAXAXAXAXAXAXAXAXAXAXAXAXAXAXAXAXAXAXAXAXAXAXAXAXAXAXAXAXAXAXAXAXAXAXAXAXAXAXAXAXAXAXAXAXAXAXAXAXAXAXAXAXAXAXAXAXAXAXAXAXAXZXBXmXvXvXvXvXvXvXvXvXvXvXvXbXvXzX( %               O = > 8 > > > > > > > > > > > 0 B +.F.J.J.F.F.F.F.F.F.F.F.F.F.F.F.F.F.F.F.F.F.F.F.F.F.F.F.F.F.F.F.F.F.F.F.F.F.F.F.F.F.F.F.F.F.F.F.F.F.F.F.F.F.F.F.F.F.F.F.F.J.J.S.X.b 9 > > > > > > > > > > > > > > > > > > > > 8 > = O         3 ( zXvXbXvXvXcXvXbXmXVXAXAXAXAXAXAXAXAXAXAXAXAXAXAXAXAXAXAXAXAXAXAXAXAXAXAXAXAXAXAXAXAXAXAXAXAXAXAXAXAXAXAXAXAXAXAXAXAXAXAXAXAXAXAXAX",
"AXAXAXAXAXAXAXAXAXAXAXAXAXAXAXAXAXAXAXAXAXAXAXAXAXAXAXAXAXAXAXAXAXAXAXAXAXAXAXAXAXAXAXAXAXAXAXAXAXAXAXAXAXAXAXAXAXAXAXAXAXAXAXAXAXAXAXAXAXAXAXAXAXAXAXAXAXAXAXAXAXAXAXAXAXAXAXAXAXAXAXAXAXAXAXZXmXlX( / ( ( ( ( ( ( ( ( ( ( ( ^ 5 $             . = j M } B B B B B B B B B M B } X.Z.F.J.J.F.F.F.F.F.F.F.F.F.F.F.F.F.F.F.F.F.F.F.F.F.F.F.F.F.F.F.F.F.F.F.F.F.F.F.F.F.F.F.F.F.F.F.F.F.F.F.F.F.F.F.F.F.F.F.F.F.J.J.D.,...} M M B B B B B B B B B B B B B B B B B B } M j = .       $ 5 / ( ( ( ( / ( _ cXNXAXAXAXAXAXAXAXAXAXAXAXAXAXAXAXAXAXAXAXAXAXAXAXAXAXAXAXAXAXAXAXAXAXAXAXAXAXAXAXAXAXAXAXAXAXAXAXAXAXAXAXAXAXAXAX",
"AXAXAXAXAXAXAXAXAXAXAXAXAXAXAXAXAXAXAXAXAXAXAXAXAXAXAXAXAXAXAXAXAXAXAXAXAXAXAXAXAXAXAXAXAXAXAXAXAXAXAXAXAXAXAXAXAXAXAXAXAXAXAXAXAXAXAXAXAXAXAXAXAXAXAXAXAXAXAXAXAXAXAXAXAXAXAXAXAXAXAXAXAXAXAXVXcX( % $ $ $ $ $ $ $ $ $ $ $ $ $ $               o 8 M +.S.S.Z.Z.Z.Z.Z.Z.Z.Z.Z.Z.Z.S.D.F.F.F.F.F.F.F.F.F.F.F.F.F.F.F.F.F.F.F.F.F.F.F.F.F.F.F.F.F.F.F.F.F.F.F.F.F.F.F.F.F.F.F.F.F.F.F.F.F.F.F.F.F.F.F.F.F.F.F.F.F.F.F.D.S.Z.Z.Z.Z.Z.Z.Z.Z.Z.Z.Z.Z.Z.Z.Z.Z.Z.Z.Z.Z.S.S.+.B 8 o         $ $ $ $ $ $ $ $ 5 ' mXAXAXAXAXAXAXAXAXAXAXAXAXAXAXAXAXAXAXAXAXAXAXAXAXAXAXAXAXAXAXAXAXAXAXAXAXAXAXAXAXAXAXAXAXAXAXAXAXAXAXAXAXAXAXAX",
"AXAXAXAXAXAXAXAXAXAXAXAXAXAXAXAXAXAXAXAXAXAXAXAXAXAXAXAXAXAXAXAXAXAXAXAXAXAXAXAXAXAXAXAXAXAXAXAXAXAXAXAXAXAXAXAXAXAXAXAXAXAXAXAXAXAXAXAXAXAXAXAXAXAXAXAXAXAXAXAXAXAXAXAXAXAXAXAXAXAXAXAXAXAXAXVXcX^                                             . 8 } D.Q.Q.J.J.J.J.J.J.P.P.P.P.J.J.F.F.F.F.F.F.F.F.F.F.F.F.F.F.F.F.F.F.F.F.F.F.F.F.F.F.F.F.F.F.F.F.F.F.F.F.F.F.F.F.F.F.F.F.F.F.F.F.F.F.F.F.F.F.F.F.F.F.F.F.F.F.F.F.J.J.J.J.J.J.J.J.J.J.J.J.J.J.P.P.P.P.J.J.J.J.Q.Q.D.} 8 o                         $ _ mXAXAXAXAXAXAXAXAXAXAXAXAXAXAXAXAXAXAXAXAXAXAXAXAXAXAXAXAXAXAXAXAXAXAXAXAXAXAXAXAXAXAXAXAXAXAXAXAXAXAXAXAXAXAXAX",
"AXAXAXAXAXAXAXAXAXAXAXAXAXAXAXAXAXAXAXAXAXAXAXAXAXAXAXAXAXAXAXAXAXAXAXAXAXAXAXAXAXAXAXAXAXAXAXAXAXAXAXAXAXAXAXAXAXAXAXAXAXAXAXAXAXAXAXAXAXAXAXAXAXAXAXAXAXAXAXAXAXAXAXAXAXAXAXAXAXAXAXAXAXAXAXZXcX^                                             . 8 } D.Q.Q.J.J.J.J.J.J.J.J.J.J.J.J.F.F.F.F.F.F.F.F.F.F.F.F.F.F.F.F.F.F.F.F.F.F.F.F.F.F.F.F.F.F.F.F.F.F.F.F.F.F.F.F.F.F.F.F.F.F.F.F.F.F.F.F.J.J.F.F.F.F.F.F.F.F.F.F.J.J.J.J.J.J.J.J.J.J.J.J.J.J.J.J.J.J.J.J.J.J.Q.Q.D.} 8 .                         $ _ mXAXAXAXAXAXAXAXAXAXAXAXAXAXAXAXAXAXAXAXAXAXAXAXAXAXAXAXAXAXAXAXAXAXAXAXAXAXAXAXAXAXAXAXAXAXAXAXAXAXAXAXAXAXAXAX",
"AXAXAXAXAXAXAXAXAXAXAXAXAXAXAXAXAXAXAXAXAXAXAXAXAXAXAXAXAXAXAXAXAXAXAXAXAXAXAXAXAXAXAXAXAXAXAXAXAXAXAXAXAXAXAXAXAXAXAXAXAXAXAXAXAXAXAXAXAXAXAXAXAXAXAXAXAXAXAXAXAXAXAXAXAXAXAXAXAXAXAXAXAXAXAXBXcX/ $                                           O 9 } S.P.J.F.F.F.F.F.F.F.F.F.F.F.F.F.F.F.F.F.F.F.F.F.F.F.F.F.F.F.F.F.F.F.F.F.F.F.F.F.F.F.F.F.F.F.F.F.F.F.F.F.F.F.F.J.H.H.H.H.H.H.H.H.J.F.F.F.J.F.F.F.F.F.F.F.F.F.F.F.F.F.F.F.F.F.F.F.F.F.F.F.F.J.F.F.F.F.F.F.F.J.P.S.} 8 o                         % _ nXZXAXAXAXAXZXZXAXAXAXAXZXAXAXAXAXAXAXAXAXAXAXAXAXAXAXAXAXAXAXAXAXAXAXAXAXAXAXAXAXAXAXAXAXAXAXAXAXAXAXAXAXAXAXAX",
"AXAXAXAXAXAXAXAXAXAXAXAXAXAXAXAXAXAXAXAXAXAXAXAXAXAXAXAXAXAXAXAXAXAXAXAXAXAXAXAXAXAXAXAXAXAXAXAXAXAXAXAXAXAXAXAXAXAXAXAXAXAXAXAXAXAXAXAXAXAXAXAXAXAXAXAXAXAXAXAXAXAXAXAXAXAXAXAXAXZXBXmXmXmXmXvX' 6 $             . O * ; ; ; ; = = = = ; = = = > z ..S.J.J.F.F.F.F.F.F.F.F.F.F.F.F.F.F.F.F.F.F.F.F.F.F.F.F.F.F.F.F.F.F.F.F.F.F.F.F.F.F.F.F.F.F.F.F.F.F.F.F.F.F.F.Y.U.T.R.R.R.R.R.R.T.U.H.F.F.F.F.F.F.F.F.F.F.F.F.F.F.F.F.F.F.F.F.F.F.F.F.F.F.F.F.F.F.F.F.F.F.F.J.J.S.| j * O O O O O O O O O O o O - ( zXnXmXmXnXnXnXnXnXnXnXnXnXmXmXBXZXAXAXAXAXAXAXAXAXAXAXAXAXAXAXAXAXAXAXAXAXAXAXAXAXAXAXAXAXAXAXAXAXAXAXAXAXAXAXAX",
"AXAXAXAXAXAXAXAXAXAXAXAXAXAXAXAXAXAXAXAXAXAXAXAXAXAXAXAXAXAXAXAXAXAXAXAXAXAXAXAXAXAXAXAXAXAXAXAXAXAXAXAXAXAXAXAXAXAXAXAXAXAXAXAXAXAXAXAXAXAXAXAXAXAXAXAXAXAXAXAXAXAXAXAXAXAXAXAXAXVXnXzX_ _ _ _ ^ %               O 8 z b n b b b b b b b b b b n | +.D.J.J.F.F.F.F.F.F.F.F.F.F.F.F.F.F.F.F.F.F.F.F.F.F.F.F.F.F.F.F.F.F.F.F.F.F.F.F.F.F.F.F.F.F.F.F.F.F.F.F.F.F.H.U.R.yXpXpXpXpXpXpXyXR.U.F.F.F.F.F.F.F.F.F.F.F.F.F.F.F.F.F.F.F.F.F.F.F.F.F.F.F.F.F.F.F.F.F.F.F.J.J.S.X.b 8 > > > > > > > > > > > > 8 l ( _ _ _ _ _ _ _ _ _ _ _ _ _ zXnXVXAXAXAXAXAXAXAXAXAXAXAXAXAXAXAXAXAXAXAXAXAXAXAXAXAXAXAXAXAXAXAXAXAXAXAXAXAXAXAX",
"AXAXAXAXAXAXAXAXAXAXAXAXAXAXAXAXAXAXAXAXAXAXAXAXAXAXAXAXAXAXAXAXAXAXAXAXAXAXAXAXAXAXAXAXAXAXAXAXAXAXAXAXAXAXAXAXAXAXAXAXAXAXAXAXAXAXAXAXAXAXAXAXAXAXAXAXAXAXAXAXAXAXAXAXAXAXAXAXAXNXcX/ 3 $ % % $ $               = z ..,.,.+.+.+.+.+.+.+.+.+.+.,.Z.S.F.F.F.F.F.F.F.F.F.F.F.F.F.F.F.F.F.F.F.F.F.F.F.F.F.F.F.F.F.F.F.F.F.F.F.F.F.F.F.F.F.F.F.F.F.F.F.F.F.F.F.F.F.H.R.yXaXfXfXaXuXfXaXaXyXU.F.F.F.F.F.F.F.F.F.F.F.F.F.F.F.F.F.F.F.F.F.F.F.F.F.F.F.F.F.F.F.F.F.F.F.J.J.D.X.B z j j j j j j j j j j j j j 8 - - % % % % % % % % % % $ 3 / cXNXAXAXAXAXAXAXAXAXAXAXAXAXAXAXAXAXAXAXAXAXAXAXAXAXAXAXAXAXAXAXAXAXAXAXAXAXAXAXAX",
"AXAXAXAXAXAXAXAXAXAXAXAXAXAXAXAXAXAXAXAXAXAXAXAXAXAXAXAXAXAXAXAXAXAXAXAXAXAXAXAXAXAXAXAXAXAXAXAXAXAXAXAXAXAXAXAXAXAXAXAXAXAXAXAXAXAXAXAXAXAXAXAXAXAXAXAXAXAXAXAXAXAXAXAXAXAXAXAXAXNXzX5                           ; b ,.Q.Q.J.J.J.J.J.J.J.J.J.J.J.J.F.F.F.F.F.F.F.F.F.F.F.F.F.F.F.F.F.F.F.F.F.F.F.F.F.F.F.F.F.F.F.F.F.F.F.F.F.F.F.F.F.F.F.F.F.F.F.F.F.F.F.F.F.F.H.R.pXfXjXjXjXjXjXjXaXyXU.F.F.F.F.F.F.F.F.F.F.F.F.F.F.F.F.F.F.F.F.F.F.F.F.F.F.F.F.F.F.F.F.F.F.F.J.J.D.+.} b z z z c c c c c c c b c j > O                           5 zXNXAXAXAXAXAXAXAXAXAXAXAXAXAXAXAXAXAXAXAXAXAXAXAXAXAXAXAXAXAXAXAXAXAXAXAXAXAXAXAX",
"AXAXAXAXAXAXAXAXAXAXAXAXAXAXAXAXAXAXAXAXAXAXAXAXAXAXAXAXAXAXAXAXAXAXAXAXAXAXAXAXAXAXAXAXAXAXAXAXAXAXAXAXAXAXAXAXAXAXAXAXAXAXAXAXAXAXAXAXAXAXAXAXAXAXAXAXAXAXAXAXAXAXAXAXAXAXAXAXAXNXlX5                           ; n ,.Q.Q.Q.P.P.P.P.P.P.P.P.P.J.J.J.F.F.F.F.F.F.F.F.F.F.F.F.F.F.F.F.F.F.F.F.F.F.F.F.F.F.F.F.F.F.F.F.F.F.F.F.F.F.F.F.F.F.F.F.F.F.F.F.F.F.F.F.F.H.R.iXfXjXjXjXjXhXjXaXyXU.F.F.F.F.F.F.F.F.F.F.F.F.F.F.F.F.F.F.F.F.F.F.F.F.F.F.F.F.F.F.F.F.F.F.F.J.J.D.+.} n z z c c c c c c c b b b j > o                           5 lXNXAXAXAXAXAXAXAXAXAXAXAXAXAXAXAXAXAXAXAXAXAXAXAXAXAXAXAXAXAXAXAXAXAXAXAXAXAXAXAX",
"AXAXAXAXAXAXAXAXAXAXAXAXAXAXAXAXAXAXAXAXAXAXAXAXAXAXAXAXAXAXAXAXAXAXAXAXAXAXAXAXAXAXAXAXAXAXAXAXAXAXAXAXAXAXAXAXAXAXAXAXAXAXAXAXAXAXAXAXAXAXAXAXAXAXAXAXAXAXAXAXAXAXAXAXAXAXAXAXAXNXzX5                           = b +.J.Q.J.F.J.J.F.F.F.F.F.F.F.F.F.F.F.F.F.F.F.F.F.F.F.F.F.F.F.F.F.F.F.F.F.F.F.F.F.F.F.F.F.F.F.F.F.F.F.F.F.F.F.F.F.F.F.F.F.F.F.F.F.F.F.F.F.F.H.R.pXfXjXjXjXjXjXjXaXyXU.F.F.F.F.F.F.F.F.F.F.F.F.F.F.F.F.F.F.F.F.F.F.F.F.F.F.F.F.F.F.F.F.F.F.F.J.J.D.+.} b z z z z z z z z z c b c j > O                           5 zXNXAXAXAXAXAXAXAXAXAXAXAXAXAXAXAXAXAXAXAXAXAXAXAXAXAXAXAXAXAXAXAXAXAXAXAXAXAXAXAX",
"AXAXAXAXAXAXAXAXAXAXAXAXAXAXAXAXAXAXAXAXAXAXAXAXAXAXAXAXAXAXAXAXAXAXAXAXAXAXAXAXAXAXAXAXAXAXAXAXAXAXAXAXAXAXAXAXAXAXAXAXAXAXAXAXAXAXAXAXAXAXAXAXAXAXAXAXAXAXAXAXAXAXAXAXAXAXAXAXAXNXzX6                           = b +.J.P.F.F.F.F.F.F.F.F.F.F.F.F.F.F.F.F.F.F.F.F.F.F.F.F.F.F.F.F.F.F.F.F.F.F.F.F.F.F.F.F.F.F.F.F.F.F.F.F.F.F.F.F.F.F.F.F.F.F.F.F.F.F.F.F.F.E.H.R.pXfXjXjXgXjXjXjXaXyXU.F.F.F.F.F.F.F.F.F.F.F.F.F.F.F.F.F.F.F.F.F.F.F.F.F.F.F.F.F.F.F.F.F.F.F.F.J.D.+.} b z z z z z z z z z z c c j > O                           6 zXNXAXAXAXAXAXAXAXAXAXAXAXAXAXAXAXAXAXAXAXAXAXAXAXAXAXAXAXAXAXAXAXAXAXAXAXAXAXAXAX",
"AXAXAXAXAXAXAXAXAXAXAXAXAXAXAXAXAXAXAXAXAXAXAXAXAXAXAXAXAXAXAXAXAXAXAXAXAXAXAXAXAXAXAXAXAXAXAXAXAXAXAXAXAXAXAXAXAXAXAXAXAXAXAXAXAXAXAXAXAXAXAXAXAXAXAXAXAXAXAXAXAXAXAXAXAXAXAXAXAXBXzX6                           = b +.J.P.F.F.F.F.F.F.F.F.F.F.F.F.F.F.F.F.F.F.F.F.F.F.F.F.F.F.F.F.F.F.F.F.F.F.F.F.F.F.F.F.F.F.F.F.F.F.F.F.F.F.F.F.F.F.F.F.F.F.F.F.F.F.F.F.k.k.J.R.pXfXjXjXgXjXjXjXaXyXT.F.F.F.F.F.F.F.F.F.F.F.F.F.F.F.F.F.F.F.F.F.F.F.F.F.F.F.F.F.F.F.F.F.F.F.J.J.D.o.} b z z z z z z z z z z c c j > O                           6 zXBXAXAXAXAXAXAXAXAXAXAXAXAXAXAXAXAXAXAXAXAXAXAXAXAXAXAXAXAXAXAXAXAXAXAXAXAXAXAXAX",
"AXAXAXAXAXAXAXAXAXAXAXAXAXAXAXAXAXAXAXAXAXAXAXAXAXAXAXAXAXAXAXAXAXAXAXAXAXAXAXAXAXAXAXAXAXAXAXAXAXAXAXAXAXAXAXAXAXAXAXAXAXAXAXAXAXAXAXAXAXAXAXAXAXAXAXAXAXAXAXAXAXAXAXAXAXAXAXAXAXNXzX6                           = b +.J.P.F.F.F.F.F.F.F.F.F.F.F.F.F.F.F.F.F.F.F.F.F.F.F.F.F.F.F.F.F.F.F.F.F.F.F.F.F.F.F.F.F.F.F.F.F.F.F.F.F.F.F.F.F.F.F.F.F.F.F.F.F.F.F.F.F.E.H.R.pXfXjXjXgXjXjXjXaXyXT.J.F.F.F.F.F.F.F.F.F.F.F.F.F.F.F.F.F.F.F.F.F.F.F.F.F.F.F.F.F.F.F.F.F.F.J.J.D.+.} b z z z z z z z z z z c c j > O                           6 zXNXAXAXAXAXAXAXAXAXAXAXAXAXAXAXAXAXAXAXAXAXAXAXAXAXAXAXAXAXAXAXAXAXAXAXAXAXAXAXAX",
"AXAXAXAXAXAXAXAXAXAXAXAXAXAXAXAXAXAXAXAXAXAXAXAXAXAXAXAXAXAXAXAXAXAXAXAXAXAXAXAXAXAXAXAXAXAXAXAXAXAXAXAXAXAXAXAXAXAXAXAXAXAXAXAXAXAXAXAXAXAXAXAXAXAXAXAXAXAXAXAXZXVXNXNXNXNXNXBXNXnX' 5         . o O O O O O O & 8 M ,.J.J.F.F.F.F.F.F.F.F.F.F.F.F.F.F.F.F.F.F.F.F.F.F.F.F.F.F.F.F.F.F.F.F.F.F.F.F.F.F.F.F.F.F.F.F.F.F.F.F.F.F.F.F.F.F.F.F.F.H.Y.U.U.U.U.U.U.U.U.R.iXfXjXjXgXjXjXjXaXyXT.J.F.F.F.F.F.F.F.F.F.F.F.F.F.F.F.F.F.F.F.F.F.F.F.F.F.F.F.F.F.F.F.F.F.F.F.J.D.+.| M n n n n b c z z z z c c j 8 & o . . . .                 5 ' nXNXBXNXNXNXNXNXVXZXAXAXAXAXAXAXAXAXAXAXAXAXAXAXAXAXAXAXAXAXAXAXAXAXAXAXAXAXAXAX",
"AXAXAXAXAXAXAXAXAXAXAXAXAXAXAXAXAXAXAXAXAXAXAXAXAXAXAXAXAXAXAXAXAXAXAXAXAXAXAXAXAXAXAXAXAXAXAXAXAXAXAXAXAXAXAXAXAXAXAXAXAXAXAXAXAXAXAXAXAXAXAXAXAXAXAXAXAXAXAXAXBXnXcXzXlXzXzXzXzX' / %       . & > 0 j j j 0 0 j b  .Z.J.J.F.F.F.F.F.F.F.F.F.F.F.F.F.F.F.F.F.F.F.F.F.F.F.F.F.F.F.F.F.F.F.F.F.F.F.F.F.F.F.F.F.F.F.F.F.F.F.F.F.F.F.F.F.F.F.F.F.H.T.R.yXyXyXyXyXyXyXpXaXfXjXjXgXjXjXjXaXyXU.F.F.F.F.F.F.F.F.F.F.F.F.F.F.F.F.F.F.F.F.F.F.F.F.F.F.F.F.F.F.F.F.F.F.F.F.F.D.Z.X. .| | | } M b z z z z c z z 9 > ; = ; = & o               % / ' zXzXzXzXlXzXcXnXBXAXAXAXAXAXAXAXAXAXAXAXAXAXAXAXAXAXAXAXAXAXAXAXAXAXAXAXAXAXAX",
"AXAXAXAXAXAXAXAXAXAXAXAXAXAXAXAXAXAXAXAXAXAXAXAXAXAXAXAXAXAXAXAXAXAXAXAXAXAXAXAXAXAXAXAXAXAXAXAXAXAXAXAXAXAXAXAXAXAXAXAXAXAXAXAXAXAXAXAXAXAXAXAXAXAXAXAXAXAXAXAXmXzX/ 5 5 5 6 6 6 5 % $       . : c | X.X.........X.,.D.F.J.F.F.F.F.F.F.F.F.F.F.F.F.F.F.F.F.F.F.F.F.F.F.F.F.F.F.F.F.F.F.F.F.F.F.F.F.F.F.F.F.F.F.F.F.F.F.F.F.F.F.F.F.F.F.F.F.F.U.R.pXaXaXaXaXaXaXaXaXfXgXjXjXgXjXjXjXaXyXU.F.F.F.F.F.F.F.F.F.F.F.F.F.F.F.F.F.F.F.F.F.F.F.F.F.F.F.F.F.F.F.F.F.F.F.F.F.F.S.Z.,.,.,.,.X.} n z z z z z z z j j 0 0 0 9 : O               $ % 5 6 6 5 5 5 5 / zXmXAXAXAXAXAXAXAXAXAXAXAXAXAXAXAXAXAXAXAXAXAXAXAXAXAXAXAXAXAXAX",
"AXAXAXAXAXAXAXAXAXAXAXAXAXAXAXAXAXAXAXAXAXAXAXAXAXAXAXAXAXAXAXAXAXAXAXAXAXAXAXAXAXAXAXAXAXAXAXAXAXAXAXAXAXAXAXAXAXAXAXAXAXAXAXAXAXAXAXAXAXAXAXAXAXAXAXAXAXAXAXAXmX_ 3                         o 8 } Z.J.J.D.D.D.D.D.F.F.F.F.F.F.F.F.F.F.F.F.F.F.F.F.F.F.F.F.F.F.F.F.F.F.F.F.F.F.F.F.F.F.F.F.F.F.F.F.F.F.F.F.F.F.F.F.F.F.F.F.F.F.F.F.F.F.F.F.F.U.R.aXfXjXgXgXgXgXgXgXgXgXgXgXjXjXjXjXaXyXU.F.F.F.F.F.F.F.F.F.F.F.F.F.F.F.F.F.F.F.F.F.F.F.F.F.F.F.F.F.F.F.F.F.F.F.F.F.F.F.F.F.F.J.D.+.| n z z z z z z z z z z z c j 8 &                                 3 _ mXZXAXAXAXAXAXAXAXAXAXAXAXAXAXAXAXAXAXAXAXAXAXAXAXAXAXAXAXAXAX",
"AXAXAXAXAXAXAXAXAXAXAXAXAXAXAXAXAXAXAXAXAXAXAXAXAXAXAXAXAXAXAXAXAXAXAXAXAXAXAXAXAXAXAXAXAXAXAXAXAXAXAXAXAXAXAXAXAXAXAXAXAXAXAXAXAXAXAXAXAXAXAXAXAXAXAXAXAXAXAXAXnX_ $                         o 9 | D.Q.Q.Q.Q.Q.P.J.J.F.F.F.F.F.F.F.F.F.F.F.F.F.F.F.F.F.F.F.F.F.F.F.F.F.F.F.F.F.F.F.F.F.F.F.F.F.F.F.F.F.F.F.F.F.F.F.F.F.F.F.F.F.F.F.F.F.F.F.F.U.yXaXgXhXjXjXjXjXjXjXjXgXgXgXgXjXjXjXaXyXU.F.F.F.F.F.F.F.F.F.F.F.F.F.F.F.F.F.F.F.F.F.F.F.F.F.F.F.F.F.F.F.F.F.F.F.F.F.F.F.J.J.J.P.J.,.| n z z z z z z z c c c b b z 8 & .                               $ _ nXZXAXAXAXAXAXAXAXAXAXAXAXAXAXAXAXAXAXAXAXAXAXAXAXAXAXAXAXAXAX",
"AXAXAXAXAXAXAXAXAXAXAXAXAXAXAXAXAXAXAXAXAXAXAXAXAXAXAXAXAXAXAXAXAXAXAXAXAXAXAXAXAXAXAXAXAXAXAXAXAXAXAXAXAXAXAXAXAXAXAXAXAXAXAXAXAXAXAXAXAXAXAXAXAXAXAXAXAXAXAXAXnX_ %                         o 8 } S.Q.Q.J.J.J.J.J.J.F.F.F.F.F.F.F.F.F.F.F.F.F.F.F.F.F.F.F.F.F.F.F.F.F.F.F.F.F.F.F.F.F.F.F.F.F.F.F.F.F.F.F.F.F.F.F.F.F.F.F.F.F.F.F.F.F.F.F.F.U.R.aXgXjXjXjXjXjXjXjXjXgXgXgXjXjXjXgXaXyXU.F.F.F.F.F.F.F.F.F.F.F.F.F.F.F.F.F.F.F.F.F.F.F.F.F.F.F.F.F.F.F.F.F.F.F.F.F.F.F.F.J.J.J.F.,.| n z z z z z z z z c c b b z 8 & .                               % _ nXAXAXAXAXAXAXAXAXAXAXAXAXAXAXAXAXAXAXAXAXAXAXAXAXAXAXAXAXAXAX",
"AXAXAXAXAXAXAXAXAXAXAXAXAXAXAXAXAXAXAXAXAXAXAXAXAXAXAXAXAXAXAXAXAXAXAXAXAXAXAXAXAXAXAXAXAXAXAXAXAXAXAXAXAXAXAXAXAXAXAXAXAXAXAXAXAXAXAXAXAXAXAXAXAXAXAXAXAXAXAXAXnX_ %                         o 8 } S.P.J.F.F.F.F.F.F.F.F.F.F.F.F.F.F.F.F.F.F.F.F.F.F.F.F.F.F.F.F.F.F.F.F.F.F.F.F.F.F.F.F.F.F.F.F.F.F.F.F.F.F.F.F.F.F.F.F.F.F.F.F.F.F.F.F.F.F.U.R.aXgXjXjXgXgXgXgXgXgXgXgXjXjXjXjXjXaXyXU.F.F.F.F.F.F.F.F.F.F.F.F.F.F.F.F.F.F.F.F.F.F.F.F.F.F.F.F.F.F.F.F.F.F.F.F.F.F.F.F.F.J.J.F.,.| n z z z z z z z z z z c c j 8 & .                               % _ nXAXAXAXAXAXAXAXAXAXAXAXAXAXAXAXAXAXAXAXAXAXAXAXAXAXAXAXAXAXAX",
"AXAXAXAXAXAXAXAXAXAXAXAXAXAXAXAXAXAXAXAXAXAXAXAXAXAXAXAXAXAXAXAXAXAXAXAXAXAXAXAXAXAXAXAXAXAXAXAXAXAXAXAXAXAXAXAXAXAXAXAXAXAXAXAXAXAXAXAXAXAXAXAXAXAXAXAXAXAXAXZXnX_ %                         . 8 } S.P.J.F.F.F.F.F.F.F.F.F.F.F.F.F.F.F.F.F.F.F.F.F.F.F.F.F.F.F.F.F.F.F.F.F.F.F.F.F.F.F.F.F.F.F.F.F.F.F.F.F.F.F.F.F.F.F.F.F.F.F.F.F.F.F.F.k.F.U.R.aXgXjXjXgXgXgXgXgXgXgXgXgXjXjXjXgXaXyXU.F.F.F.F.F.F.F.F.F.F.F.F.F.F.F.F.F.F.F.F.F.F.F.F.F.F.F.F.F.F.F.F.F.F.F.F.F.F.F.F.F.J.J.F.,.| n z z z z z z z z z z c c j 8 &                                 % _ mXAXAXAXAXAXAXAXAXAXAXAXAXAXAXAXAXAXAXAXAXAXAXAXAXAXAXAXAXAXAX",
"AXAXAXAXAXAXAXAXAXAXAXAXAXAXAXAXAXAXAXAXAXAXAXAXAXAXAXAXAXAXAXAXAXAXAXAXAXAXAXAXAXAXAXAXAXAXAXAXAXAXAXAXAXAXAXAXAXAXAXAXAXAXAXAXAXAXAXAXAXAXAXAXAXAXAXAXAXAXAXZXnX_ %                         . 8 } S.P.J.F.F.F.F.F.F.F.F.F.F.F.F.F.F.F.F.F.F.F.F.F.F.F.F.F.F.F.F.F.F.F.F.F.F.F.F.F.F.F.F.F.F.F.F.F.F.F.F.F.F.F.F.F.F.F.F.F.F.F.F.F.F.F.F.k.F.U.R.aXgXjXjXgXgXgXgXgXgXgXgXgXjXjXjXgXaXyXU.J.F.F.F.F.F.F.F.F.F.F.F.F.F.F.F.F.F.F.F.F.F.F.F.F.F.F.F.F.F.F.F.F.F.F.F.F.F.F.F.F.J.J.F.,.| n z z z z z z z z z z c c j 8 &                                 % _ mXAXAXAXAXAXAXAXAXAXAXAXAXAXAXAXAXAXAXAXAXAXAXAXAXAXAXAXAXAXAX",
"AXAXAXAXAXAXAXAXAXAXAXAXAXAXAXAXAXAXAXAXAXAXAXAXAXAXAXAXAXAXAXAXAXAXAXAXAXAXAXAXAXAXAXAXAXAXAXAXAXAXAXAXAXAXAXAXAXAXAXAXAXAXAXAXAXAXAXAXAXAXAXAXAXAXAXAXAXAXAXZXnX_ %                 . . . . O 9 } S.P.J.F.F.F.F.F.F.F.F.F.F.F.F.F.F.F.F.F.F.F.F.F.F.F.F.F.F.F.F.F.F.F.F.F.F.F.F.F.F.F.F.F.F.F.F.F.H.H.A.A.A.A.A.A.Y.Y.Y.Y.Y.Y.Y.Y.Y.Y.Y.H.Y.U.yXaXgXjXjXgXgXgXgXgXgXgXgXgXgXjXjXjXaXyXT.J.F.F.F.F.F.F.F.F.F.F.F.F.F.F.F.F.F.F.F.F.F.F.F.F.F.F.F.F.F.F.F.F.F.F.F.F.F.F.F.F.J.J.F.,.| M b c b b b b c c z z z c z 8 & .       . . .                   % _ bXBXZXZXVXZXAXAXAXAXAXAXAXAXAXAXAXAXAXAXAXAXAXAXAXAXAXAXAXAXAX",
"AXAXAXAXAXAXAXAXAXAXAXAXAXAXAXAXAXAXAXAXAXAXAXAXAXAXAXAXAXAXAXAXAXAXAXAXAXAXAXAXAXAXAXAXAXAXAXAXAXAXAXAXAXAXAXAXAXAXAXAXAXAXAXAXAXAXAXAXAXAXAXAXAXAXAXAXAXAXAXZXnX_ %             . O ; > > > 9 b X.S.J.J.F.F.F.F.F.F.F.F.F.F.F.F.F.F.F.F.F.F.F.F.F.F.F.F.F.F.F.F.F.F.F.F.F.F.F.F.F.F.F.F.F.F.F.F.H.A.C.C.C.C.C.T.R.R.R.R.R.R.R.R.R.R.R.R.R.R.R.pXaXgXjXjXgXgXgXgXgXgXgXgXgXgXjXjXjXaXyXT.J.F.F.F.F.F.F.F.F.F.F.F.F.F.F.F.F.F.F.F.F.F.F.F.F.F.F.F.F.F.F.F.F.F.F.F.F.F.F.F.F.F.J.F.Z.X.| } B } } } } M M b z z z z 0 > & & & & & & & O o               $ ^ lXcXvXvXbXmXBXAXAXAXAXAXAXAXAXAXAXAXAXAXAXAXAXAXAXAXAXAXAXAXAX",
"AXAXAXAXAXAXAXAXAXAXAXAXAXAXAXAXAXAXAXAXAXAXAXAXAXAXAXAXAXAXAXAXAXAXAXAXAXAXAXAXAXAXAXAXAXAXAXAXAXAXAXAXAXAXAXAXAXAXAXAXAXAXAXAXAXAXAXAXAXAXAXAXAXAXAXAXAXAXAXAXnX_ %             o > z M B B } ..,.D.J.J.F.F.F.F.F.F.F.F.F.F.F.F.F.F.F.F.F.F.F.F.F.F.F.F.F.F.F.F.F.F.F.F.F.F.F.F.F.J.J.F.F.F.F.F.A.C.i.u.u.u.u.tXtXiXiXiXiXiXiXiXiXiXiXiXiXiXiXaXfXgXjXjXgXgXgXgXgXgXgXgXgXgXjXjXgXaXyXU.F.F.F.F.F.F.F.F.F.F.F.F.F.F.F.F.F.F.F.F.F.F.F.F.F.F.F.F.F.F.F.F.F.F.F.F.F.F.F.F.F.F.F.F.S.Z.+.X.X.X.X.o.X.X.} n z z z z j 0 8 8 8 8 8 8 8 : & .             $ 3 ^ ( ( ( _ zXmXZXAXAXAXAXAXAXAXAXAXAXAXAXAXAXAXAXAXAXAXAXAXAXAX",
"AXAXAXAXAXAXAXAXAXAXAXAXAXAXAXAXAXAXAXAXAXAXAXAXAXAXAXAXAXAXAXAXAXAXAXAXAXAXAXAXAXAXAXAXAXAXAXAXAXAXAXAXAXAXAXAXAXAXAXAXAXAXAXAXAXAXAXAXAXAXAXAXAXAXAXAXAXAXAXAXnX_ %             O 0 | Z.S.Z.Z.S.D.F.F.F.F.F.F.F.F.F.F.F.F.F.F.F.F.F.F.F.F.F.F.F.F.F.F.F.F.F.F.F.F.F.F.F.F.F.F.F.F.J.J.F.F.F.F.F.A.C.u.qX8X8XqXwXuXuXfXfXfXfXfXfXfXfXfXfXfXfXfXfXgXgXgXgXgXgXgXgXgXgXgXgXgXgXjXjXgXaXyXU.F.F.F.F.F.F.F.F.F.F.F.F.F.F.F.F.F.F.F.F.F.F.F.F.F.F.F.F.F.F.F.F.F.F.F.F.F.F.F.F.F.F.F.F.F.D.D.S.S.S.S.D.D.Z. .M c z z z z z z j j z z z j 9 = .               $ $ $ $ $ 3 _ bXVXAXAXAXAXAXAXAXAXAXAXAXAXAXAXAXAXAXAXAXAXAXAXAX",
"AXAXAXAXAXAXAXAXAXAXAXAXAXAXAXAXAXAXAXAXAXAXAXAXAXAXAXAXAXAXAXAXAXAXAXAXAXAXAXAXAXAXAXAXAXAXAXAXAXAXAXAXAXAXAXAXAXAXAXAXAXAXAXAXAXAXAXAXAXAXAXAXAXAXAXAXAXAXAXAXmX_ %             O j X.J.Q.Q.J.J.J.F.F.F.F.F.F.F.F.F.F.F.F.F.F.F.F.F.F.F.F.F.F.F.F.F.F.F.F.F.F.F.F.F.F.F.F.F.F.F.F.F.J.F.F.F.E.E.A.i.u.8X9X9X0XeXuXdXkXkXjXjXjXjXjXjXjXjXjXjXjXjXjXgXgXgXgXgXgXgXgXgXgXgXgXgXjXjXgXaXyXU.F.E.F.F.F.F.F.F.F.F.F.F.F.F.F.F.F.F.F.F.F.F.F.F.F.F.F.F.F.F.F.F.F.F.F.F.F.F.F.F.F.F.F.F.F.F.J.J.J.J.J.J.J.S.X.M z z z z z c c c c c c b c 0 ; .                         $ / vXVXAXAXAXAXAXAXAXAXAXAXAXAXAXAXAXAXAXAXAXAXAXAXAX",
"AXAXAXAXAXAXAXAXAXAXAXAXAXAXAXAXAXAXAXAXAXAXAXAXAXAXAXAXAXAXAXAXAXAXAXAXAXAXAXAXAXAXAXAXAXAXAXAXAXAXAXAXAXAXAXAXAXAXAXAXAXAXAXAXAXAXAXAXAXAXAXAXAXAXAXAXAXAXAXAXmX_ 3             O j X.J.Q.Q.J.J.J.F.F.F.F.F.F.F.F.F.F.F.F.F.F.F.F.F.F.F.F.F.F.F.F.F.F.F.F.F.F.F.F.F.F.F.F.F.F.F.F.F.F.E.E.E.E.E.A.i.u.9X9X9X0XeXuXdXkXkXjXjXjXkXkXkXkXjXkXjXjXjXjXgXgXgXgXgXgXgXgXgXgXgXgXgXjXjXgXaXyXU.F.E.E.F.F.F.F.J.F.F.F.F.F.F.F.F.F.F.F.F.F.F.F.F.F.F.F.F.F.F.F.F.F.F.F.F.F.F.F.F.F.F.F.F.F.J.J.J.J.J.J.J.J.S.X.M z z z z z z c c c c c b c 0 = .                         $ / vXVXAXAXAXAXAXAXAXAXAXAXAXAXAXAXAXAXAXAXAXAXAXAXAX",
"AXAXAXAXAXAXAXAXAXAXAXAXAXAXAXAXAXAXAXAXAXAXAXAXAXAXAXAXAXAXAXAXAXAXAXAXAXAXAXAXAXAXAXAXAXAXAXAXAXAXAXAXAXAXAXAXAXAXAXAXAXAXAXAXAXAXAXAXAXAXAXAXAXAXZXZXZXAXAXZXnX_ %             O j ..D.Q.J.F.F.F.F.F.F.F.F.F.F.F.F.F.F.F.F.F.F.F.F.F.F.F.F.F.F.F.F.F.F.F.F.F.F.F.F.F.F.F.F.F.F.H.H.H.H.H.H.F.J.A.i.u.8X9X9X9XwXuXsXgXgXdXdXdXdXdXdXdXdXdXdXdXdXgXgXgXgXgXgXgXgXgXgXgXgXgXgXjXjXgXaXyXT.H.S.D.H.H.J.F.J.F.F.F.F.F.F.F.F.F.F.F.F.F.F.F.F.F.F.F.F.F.F.F.F.F.F.F.F.F.F.F.F.F.F.F.F.F.F.F.F.F.F.F.J.J.S.X.M b z z c c z z z z z c c z 0 ; o                         $ ( vXVXAXAXAXAXAXAXAXAXAXAXAXAXAXAXAXAXAXAXAXAXAXAXAX",
"AXAXAXAXAXAXAXAXAXAXAXAXAXAXAXAXAXAXAXAXAXAXAXAXAXAXAXAXAXAXAXAXAXAXAXAXAXAXAXAXAXAXAXAXAXAXAXAXAXAXAXAXAXAXAXAXAXAXAXAXAXAXAXAXAXAXAXAXAXAXAXBXNXmXnXnXnXmXmXnXzX( $             O j ..D.Q.J.F.F.F.F.F.F.F.F.F.F.F.F.F.F.F.F.F.F.F.F.F.F.F.F.F.F.F.F.F.F.F.F.F.F.F.F.F.F.F.F.F.H.A.C.C.C.C.C.C.C.C.i.y.8X9X9X9XwXrXuXuXuXuXuXuXuXuXuXuXuXuXuXuXsXdXgXgXgXgXgXgXgXgXgXgXgXgXgXjXjXgXaXyXi.C.C.C.C.A.A.J.J.F.F.F.F.F.F.F.F.F.F.F.F.F.F.F.F.F.F.F.F.F.F.F.F.F.F.F.F.F.F.F.F.F.F.F.F.F.F.F.F.F.F.F.J.F.S.+.| M M M M n b c z z z z c z j > & O O O O O O O o .       $ ( vXVXAXAXAXAXAXAXAXAXAXAXAXAXAXAXAXAXAXAXAXAXAXAXAX",
"AXAXAXAXAXAXAXAXAXAXAXAXAXAXAXAXAXAXAXAXAXAXAXAXAXAXAXAXAXAXAXAXAXAXAXAXAXAXAXAXAXAXAXAXAXAXAXAXAXAXAXAXAXAXAXAXAXAXAXAXAXAXAXAXAXAXAXAXAXAXZXmXzX' _ _ _ _ _ _ ( 5 $             O j ..D.Q.J.F.F.F.F.F.F.F.F.F.F.F.F.F.F.F.F.F.F.F.F.F.F.F.F.F.F.F.F.F.F.F.F.F.F.F.F.F.F.F.F.F.A.C.i.u.u.u.u.u.u.u.u.qX8X9X9X9X0XwXeXrXrXrXrXrXrXrXrXrXrXrXrXrXuXsXdXgXgXgXgXgXgXgXgXgXgXgXgXgXjXgXuXtXu.u.u.u.i.C.A.H.F.F.F.F.F.F.F.F.F.F.F.F.F.F.F.F.F.F.F.F.F.F.F.F.F.F.F.F.F.F.F.F.F.F.F.F.F.F.F.F.F.F.F.F.J.F.D.Z.o.X.X.X...} M c z z z z c z j 0 8 > > > > > > : & o       $ ( vXVXAXAXAXAXAXAXAXAXAXAXAXAXAXAXAXAXAXAXAXAXAXAXAX",
"AXAXAXAXAXAXAXAXAXAXAXAXAXAXAXAXAXAXAXAXAXAXAXAXAXAXAXAXAXAXAXAXAXAXAXAXAXAXAXAXAXAXAXAXAXAXAXAXAXAXAXAXAXAXAXAXAXAXAXAXAXAXAXAXAXAXAXAXAXAXVXvX( 5 $ % % % 3 % $ $               O j ..D.Q.J.F.F.F.F.F.F.F.F.F.F.F.F.F.F.F.F.F.F.F.F.F.F.F.F.F.F.F.F.F.F.F.F.F.F.F.F.F.F.F.F.F.A.i.u.qXqXqXqXqXqXqXqX8X9X9X9X9X9X0X0X0X0X0X0X0X0X0X0X0X0X0X0XwXrXuXdXgXgXgXgXgXgXgXgXgXgXgXgXgXkXgXuXrXqXqXqXqXy.i.C.H.F.F.F.F.F.F.F.F.F.F.F.F.F.F.F.F.F.F.F.F.F.F.F.F.F.F.F.F.F.F.F.F.F.F.F.F.F.F.F.F.F.F.F.F.F.F.F.D.S.S.S.S.Z.X.B b z z z z z z z z j j j j j j j 0 : O       $ ( vXVXAXAXAXAXAXAXAXAXAXAXAXAXAXAXAXAXAXAXAXAXAXAXAX",
"AXAXAXAXAXAXAXAXAXAXAXAXAXAXAXAXAXAXAXAXAXAXAXAXAXAXAXAXAXAXAXAXAXAXAXAXAXAXAXAXAXAXAXAXAXAXAXAXAXAXAXAXAXAXAXAXAXAXAXAXAXAXAXAXAXAXAXAXAXAXVXcX^ $                               O j ..D.Q.J.F.F.F.F.F.F.F.F.F.F.F.F.F.F.F.F.F.F.F.F.F.F.F.F.F.F.F.F.F.F.F.F.F.F.F.F.F.F.F.F.F.C.i.y.9X9X9X9X9X9X9X9X9X9X9X9X9X9X9X9X9X9X9X8X8X9X9X9X9X8X8X8X0XrXuXdXgXgXgXgXgXgXgXgXgXgXgXgXgXkXgXsXrXwX9X9X9XqXu.C.H.F.F.F.F.F.F.F.F.F.F.F.F.F.F.F.F.F.F.F.F.F.F.F.F.F.F.F.F.F.F.F.F.F.F.F.F.F.F.F.F.F.F.F.F.F.F.F.F.F.J.J.J.D.o.} b z z z z z z z z c c c c c b c j > O       $ ( vXVXAXAXAXAXAXAXAXAXAXAXAXAXAXAXAXAXAXAXAXAXAXAXAX",
"AXAXAXAXAXAXAXAXAXAXAXAXAXAXAXAXAXAXAXAXAXAXAXAXAXAXAXAXAXAXAXAXAXAXAXAXAXAXAXAXAXAXAXAXAXAXAXAXAXAXAXAXAXAXAXAXAXAXAXAXAXAXAXAXAXAXAXAXAXAXBXcX^                                 O j ..D.Q.J.F.F.F.F.F.F.F.F.F.F.F.F.F.F.F.F.F.F.F.F.F.F.F.F.F.F.F.F.F.F.F.F.F.F.F.F.F.F.F.F.F.C.i.y.9X9X9X9X9X9X9X9X9X9X9X9X9X9X8X8X8X8X8X8X8X8X8X8X8X8X8X8X0XrXuXdXgXgXgXgXgXgXgXgXgXgXgXgXgXkXgXsXrXwX9X9X9XqXu.C.H.F.F.F.F.F.F.F.F.F.F.F.F.F.F.F.F.F.F.F.F.F.F.F.F.F.F.F.F.F.F.F.F.F.F.F.F.F.F.F.F.F.F.F.F.F.F.F.J.J.J.J.J.D.o.} b z z z z z z z c c c c c b b b j > O       $ ( vXVXAXAXAXAXAXAXAXAXAXAXAXAXAXAXAXAXAXAXAXAXAXAXAX",
"AXAXAXAXAXAXAXAXAXAXAXAXAXAXAXAXAXAXAXAXAXAXAXAXAXAXAXAXAXAXAXAXAXAXAXAXAXAXAXAXAXAXAXAXAXAXAXAXAXAXAXAXAXAXAXAXAXAXAXAXAXAXAXAXAXAXAXAXAXAXVXcX/ $                               O j ..D.Q.J.F.F.F.F.F.F.F.F.F.F.F.F.F.F.F.F.F.F.F.F.F.F.F.F.F.F.F.F.F.F.F.F.F.F.F.F.F.F.F.F.F.C.i.qX9X9X9X9X9X9X9X9X9X9X9X9X9X9X9X9X9X9X9X9X9X9X9X9X9X9X8X8X0XrXuXdXgXgXgXgXgXgXgXgXgXgXgXgXgXkXgXsXrX0X9X9X9XqXu.C.H.F.F.F.F.F.F.F.F.F.F.F.F.F.F.F.F.F.F.F.F.F.F.F.F.F.F.F.F.F.F.F.F.F.F.F.F.F.F.F.F.F.F.F.F.F.F.F.F.F.F.J.J.D.X.} b z z z z z z z z z z z c c b c j > O       $ ( vXVXAXAXAXAXAXAXAXAXAXAXAXAXAXAXAXAXAXAXAXAXAXAXAX",
"AXAXAXAXAXAXAXAXAXAXAXAXAXAXAXAXAXAXAXAXAXAXAXAXAXAXAXAXAXAXAXAXAXAXAXAXAXAXAXAXAXAXAXAXAXAXAXAXAXAXAXAXAXAXAXAXAXAXAXAXAXAXAXAXAXAXAXAXAXAXVXcX/ $                               O 0 ..D.Q.J.F.F.F.F.F.F.F.F.F.F.F.F.F.F.F.F.F.F.F.F.F.F.F.F.F.F.F.F.F.F.F.F.F.F.F.F.F.F.F.F.F.C.i.qX9X9X9X9X9X9X9X9X9X9X9X9X9X9X9X9X9X9X9X9X9X9X9X9X9X9X8X8X0XrXuXdXkXgXgXgXgXgXgXgXgXgXgXgXgXkXgXsXrX0X9X9X9XqXu.C.H.E.F.F.F.F.F.F.F.F.F.F.F.F.F.F.F.F.F.F.F.F.F.F.F.F.F.F.F.F.F.F.F.F.F.F.F.F.F.F.F.F.F.F.F.F.F.F.F.F.F.J.J.S.X.} b z z z z z z z z z z z z z c c j > O       $ ( vXZXAXAXAXAXAXAXAXAXAXAXAXAXAXAXAXAXAXAXAXAXAXAXAX",
"AXAXAXAXAXAXAXAXAXAXAXAXAXAXAXAXAXAXAXAXAXAXAXAXAXAXAXAXAXAXAXAXAXAXAXAXAXAXAXAXAXAXAXAXAXAXAXAXAXAXAXAXAXAXAXAXAXAXAXAXAXAXAXAXAXAXAXAXAXAXVXcX/ $                               O 0 ..D.Q.J.F.F.F.F.F.F.F.F.F.F.F.F.F.F.F.F.F.F.F.F.F.F.F.F.F.F.F.F.F.F.F.F.F.F.F.F.F.F.F.F.F.C.i.y.9X9X9X9X9X9X9X9X9X8X8X8X8X8X8X8X8X8X8X8X8X8X8X8X8X8X8X8X0XrXuXgXkXkXkXgXgXgXgXgXgXkXkXkXkXkXkXsXrX0X9X9X9XqXu.C.H.E.F.J.J.J.J.J.F.F.F.F.F.F.F.F.F.F.F.F.F.F.F.F.F.F.F.F.F.F.F.F.F.F.F.F.F.F.F.F.F.F.F.F.F.F.F.F.F.F.F.J.J.S.X.} b z z z z z z z z z z z z z c c j > O       $ ( bXZXAXAXAXAXAXAXAXAXAXAXAXAXAXAXAXAXAXAXAXAXAXAXAX",
"AXAXAXAXAXAXAXAXAXAXAXAXAXAXAXAXAXAXAXAXAXAXAXAXAXAXAXAXAXAXAXAXAXAXAXAXAXAXAXAXAXAXAXAXAXAXAXAXAXAXAXAXAXAXAXAXAXAXAXAXAXAXAXAXAXAXAXAXAXAXVXcX/ $                               O 0 ..D.Q.J.F.F.F.F.F.F.F.F.F.F.F.F.F.F.F.F.F.F.F.F.F.F.F.F.F.F.F.F.F.F.F.F.F.F.F.F.F.F.F.F.F.C.i.y.9X9X9X9X9X9X9X9X9X9X9X9X9X9X9X9X9X9X9X9X9X9X9X9X9X9X8X8X0XrXuXgXkXgXgXgXgXgXgXgXgXgXgXgXgXkXgXsXrX0X9X9X9XqXu.C.H.E.F.F.F.F.F.F.F.F.F.F.F.F.F.F.F.F.F.F.F.F.F.F.F.F.F.F.F.F.F.F.F.F.F.F.F.F.F.F.F.F.F.F.F.F.F.F.F.F.F.J.J.S.X.} c z z z z z z z z z z z z z c c j > O       $ ( vXZXAXAXAXAXAXAXAXAXAXAXAXAXAXAXAXAXAXAXAXAXAXAXAX",
"AXAXAXAXAXAXAXAXAXAXAXAXAXAXAXAXAXAXAXAXAXAXAXAXAXAXAXAXAXAXAXAXAXAXAXAXAXAXAXAXAXAXAXAXAXAXAXAXAXAXAXAXAXAXAXAXAXAXAXAXAXAXAXAXAXVXBXNXNXNXmXzX^ $             . o O O O O O O O ; z X.D.J.J.F.F.F.F.F.F.F.F.F.F.F.F.F.F.F.F.F.F.F.F.F.F.F.F.F.F.F.F.F.F.F.F.F.F.F.F.F.F.F.F.F.C.i.y.9X9X9X9X9X9X9X0X0X0X0X0X0X0X0X0X0X0X0X0X0X0X0X0X0X0X0X0XwXrXuXsXsXsXsXsXsXsXsXsXsXsXsXsXsXsXsXuXrX0X9X9X9XqXu.C.Z.j.Z.Z.Z.Z.Z.S.D.F.F.F.F.F.F.F.F.F.F.F.F.F.F.F.F.F.F.F.F.F.F.F.F.F.F.F.F.F.F.F.F.F.F.F.F.F.F.F.F.F.F.J.J.S.X.} b z z z z z z z z z z z z z c c j > O       $ / zXmXBXBXNXNXNXNXBXVXAXAXAXAXAXAXAXAXAXAXAXAXAXAXAX",
"AXAXAXAXAXAXAXAXAXAXAXAXAXAXAXAXAXAXAXAXAXAXAXAXAXAXAXAXAXAXAXAXAXAXAXAXAXAXAXAXAXAXAXAXAXAXAXAXAXAXAXAXAXAXAXAXAXAXAXAXAXAXAXAXVXmXcXzXzXzX' ( 5               O ; 9 j j j 0 0 j z } +.F.J.J.F.F.F.F.F.F.F.F.F.F.F.F.F.F.F.F.F.F.F.F.F.F.F.F.F.F.F.F.F.F.F.F.F.F.F.F.F.F.F.F.F.C.i.y.9X9X9X9X9X9X9X0XwXrXrXrXrXrXrXrXrXrXrXrXrXrXrXrXrXrXrXrXrXrXrXrXuXrXrXrXrXrXrXrXrXrXrXrXrXuXrXrXwX0X9X9X9X8X! ) .. . . . . ...X.Z.D.F.F.F.F.F.F.F.F.F.F.F.F.F.F.F.F.F.F.F.F.F.F.F.F.F.F.F.F.F.F.F.F.F.F.F.F.F.F.F.F.F.J.J.S.X.} b z z z z z z z z z z z z z c c j > O       $ 5 ( lXzXzXzXzXlXzXcXmXVXAXAXAXAXAXAXAXAXAXAXAXAXAXAX",
"AXAXAXAXAXAXAXAXAXAXAXAXAXAXAXAXAXAXAXAXAXAXAXAXAXAXAXAXAXAXAXAXAXAXAXAXAXAXAXAXAXAXAXAXAXAXAXAXAXAXAXAXAXAXAXAXAXAXAXAXAXAXAXAXBXcX_ 6 5 5 5 3 $               & j } X.X.........X.+.S.F.J.F.F.F.F.F.F.F.F.F.F.F.F.F.F.F.F.F.F.F.F.F.F.F.F.F.F.F.F.F.F.F.F.F.F.F.F.F.F.F.F.E.F.C.i.y.9X9X9X9X8X9X0XwXuXuXsXsXuXsXuXuXuXuXuXuXuXuXuXuXuXuXsXuXuXuXeXwX0X0XwXwXwXwXwXwXwXwXwXwXwXwXwX0X0X9X9X9X9Xt.! ) M M M M M n M | +.S.J.J.F.F.F.F.F.F.F.F.F.F.F.F.F.F.F.F.F.F.F.F.F.F.F.F.F.F.F.F.F.F.F.F.F.F.F.F.F.F.F.J.J.S.X.} b z z z z z z z z z z z z z c c j > O         $ 3 5 6 6 6 5 5 6 _ cXBXAXAXAXAXAXAXAXAXAXAXAXAXAXAX",
"AXAXAXAXAXAXAXAXAXAXAXAXAXAXAXAXAXAXAXAXAXAXAXAXAXAXAXAXAXAXAXAXAXAXAXAXAXAXAXAXAXAXAXAXAXAXAXAXAXAXAXAXAXAXAXAXAXAXAXAXAXAXAXAXNXzX6 $                         = b +.J.J.D.D.D.D.D.F.J.F.F.F.F.F.F.F.F.F.F.F.F.F.F.F.F.F.F.F.F.F.F.F.F.F.F.F.F.F.F.F.F.F.F.F.F.F.F.F.F.F.F.F.F.C.i.y.9X9X9X9X8X8X0XeXuXdXgXgXgXgXgXgXgXgXgXgXgXgXgXgXgXgXgXgXsXuXwX9X9X9X9X9X9X9X9X9X9X9X9X9X9X9X9X9X9X9X9X9X9Xt.! l c c c z z z c } X.S.J.J.F.F.F.F.F.F.F.F.F.F.F.F.F.F.F.F.F.F.F.F.F.F.F.F.F.F.F.F.F.F.F.F.F.F.F.F.F.F.F.J.J.S.X.} b z z z z z z z z z z z z z c c j > O                         $ 6 zXNXAXAXAXAXAXAXAXAXAXAXAXAXAXAX",
"AXAXAXAXAXAXAXAXAXAXAXAXAXAXAXAXAXAXAXAXAXAXAXAXAXAXAXAXAXAXAXAXAXAXAXAXAXAXAXAXAXAXAXAXAXAXAXAXAXAXAXAXAXAXAXAXAXAXAXAXAXAXAXAXNXlX5                           ; n Z.Q.Q.Q.Q.Q.Q.J.J.J.F.F.F.F.F.J.H.G.G.G.G.H.H.H.G.G.G.G.H.H.G.G.G.G.H.H.H.H.H.J.F.F.F.F.F.F.F.F.F.F.J.J.F.F.C.i.qX9X9X9X9X9X9X0XeXuXgXkXkXgXkXkXkXkXkXkXkXgXkXkXkXkXkXkXkXdXuXwX9X8X8X8X8X8X8X8X8X8X8X8X8X8X8X8X9X9X9X9X9X9X8X! l c z z z z z z M X.S.J.J.F.F.F.F.F.F.F.F.F.F.F.F.F.F.F.F.F.F.F.F.F.F.J.J.J.J.F.F.F.F.F.F.F.F.F.F.F.F.F.J.J.D.X.} b z z z z z z z z z z z z z c c j > O                           5 lXNXAXAXAXAXAXAXAXAXAXAXAXAXAXAX",
"AXAXAXAXAXAXAXAXAXAXAXAXAXAXAXAXAXAXAXAXAXAXAXAXAXAXAXAXAXAXAXAXAXAXAXAXAXAXAXAXAXAXAXAXAXAXAXAXAXAXAXAXAXAXAXAXAXAXAXAXAXAXAXAXNXzX5                           ; b ,.P.Q.J.J.J.J.J.J.F.F.F.F.F.F.J.H.G.H.H.H.H.H.H.J.H.H.J.H.H.H.J.J.J.H.H.H.H.H.J.F.F.F.F.F.F.F.F.F.F.J.F.E.J.C.i.qX9X9X9X9X9X9X0XeXuXdXkXkXgXgXgXgXgXgXgXgXgXgXgXgXkXkXkXkXdXuXwX9X8X8X9X9X9X9X9X9X9X8X8X9X9X9X9X9X9X9X9X9X9X8X! ^ c c z z z z c M X.S.J.J.F.F.F.F.F.F.F.F.F.F.F.F.F.F.F.F.F.F.F.F.F.F.J.J.J.J.F.F.F.F.F.F.F.F.F.F.F.F.F.J.J.S.X.} b z z z z z z z z z z z z z c c j > O                           5 zXNXAXAXAXAXAXAXAXAXAXAXAXAXAXAX",
"AXAXAXAXAXAXAXAXAXAXAXAXAXAXAXAXAXAXAXAXAXAXAXAXAXAXAXAXAXAXAXAXAXAXAXAXAXAXAXAXAXAXAXAXAXAXAXAXAXAXAXAXAXAXAXAXAXAXAXAXAXAXAXAXNXzX5                           = b +.J.P.J.F.F.F.F.F.F.F.F.F.F.F.L.L.L.L.L.L.L.L.L.L.L.L.L.L.L.L.L.L.L.L.L.L.L.L.L.F.F.F.F.F.F.F.F.F.F.F.F.F.J.C.i.y.qXqXqXqXqXqXqXeXuXgXgXgXgXgXgXgXgXgXgXgXgXgXgXdXdXdXdXdXuXrXwX9X8X9X9X9X9X9X9X9X9X9X9X9X9X9X9X9X8X8Xt.8X8Xy.! l c c z z z z c B X.S.J.J.F.F.F.F.F.F.F.F.F.F.F.F.F.F.F.F.F.F.F.F.D.D.K.K.K.K.K.D.D.F.F.F.F.F.F.F.F.F.F.J.J.S.X.} b z z z z z z z z z z z z z c c j 8 & . . . .                   5 zXNXAXAXAXAXAXAXAXAXAXAXAXAXAXAX",
"AXAXAXAXAXAXAXAXAXAXAXAXAXAXAXAXAXAXAXAXAXAXAXAXAXAXAXAXAXAXAXAXAXAXAXAXAXAXAXAXAXAXAXAXAXAXAXAXAXAXAXAXAXAXAXAXAXAXAXAXAXAXAXAXNXzX5                           = b +.J.P.J.F.F.F.F.F.F.F.F.F.F.W.l.z.z.z.z.z.z.z.z.z.z.z.z.z.z.z.z.z.z.z.z.z.z.l.l.W.F.F.F.F.F.F.F.F.F.F.F.F.J.A.C.i.u.u.u.u.u.u.u.tXuXgXjXgXgXgXgXgXgXgXgXgXgXgXdXsXuXuXuXuXrXeX0X9X8X9X9X9X9X9X9X9X9X9X9X9X9X9X9X8Xy.~ ! ! ! ! ! l c c c z z z c B X.S.J.J.F.F.F.F.F.F.F.F.F.F.F.F.F.F.F.F.F.F.F.D.K.C.C.e.e.e.C.K.D.F.F.F.F.F.F.F.F.F.F.J.J.S.X.} c z z z z z z z z z z z z z c c k 9 : * & & & O .               5 zXNXAXAXAXAXAXAXAXAXAXAXAXAXAXAX",
"AXAXAXAXAXAXAXAXAXAXAXAXAXAXAXAXAXAXAXAXAXAXAXAXAXAXAXAXAXAXAXAXAXAXAXAXAXAXAXAXAXAXAXAXAXAXAXAXAXAXAXAXAXAXAXAXAXAXAXAXAXAXAXAXNXzX5                           = b +.J.P.F.F.F.F.F.F.F.F.J.J.L.l.m.N.N.N.N.N.N.N.N.N.N.N.N.N.N.N.N.N.N.N.N.N.N.N.z.l.F.H.J.F.F.F.F.F.F.F.F.F.F.H.A.C.C.C.C.C.C.C.T.yXaXgXjXjXjXgXgXgXgXgXgXgXgXgXsXuXrXwXwXwXwX0X0X9X9X9X9X9X9X9X9X9X9X9X9X9X9X9X9Xt.! ! ( ^ ( l l z z z z z z z c M X.S.J.J.F.F.F.F.F.F.F.F.F.F.F.F.F.F.F.F.F.F.F.D.C.e.r.q.q.r.r.C.K.F.J.F.F.F.F.F.F.F.F.J.J.S.X.} b z z z z z z z z z z z z z z z z j 0 9 9 9 8 ; O               6 zXNXAXAXAXAXAXAXAXAXAXAXAXAXAXAX",
"AXAXAXAXAXAXAXAXAXAXAXAXAXAXAXAXAXAXAXAXAXAXAXAXAXAXAXAXAXAXAXAXAXAXAXAXAXAXAXAXAXAXAXAXAXAXAXAXAXAXAXAXAXAXAXAXAXAXAXAXAXAXAXAXNXzX5                           = b +.J.P.J.F.F.F.F.F.F.F.H.H.L.z.N.B.V.V.B.V.V.V.V.V.B.V.V.V.V.V.V.B.V.V.V.v.V.B.M.l.F.G.J.F.F.F.F.F.F.F.F.F.F.F.H.H.H.H.H.H.H.D.U.R.aXfXjXjXjXgXgXgXgXgXgXgXgXgXsXrXwX9X9X9X9X9X9X9X9X9X9X9X9X9X9X9X9X9X9X9X9X9X9Xt.! l c z c z c z z z z z z z c M X.S.J.J.F.F.F.F.F.F.F.F.F.F.F.F.F.F.F.F.F.F.J.D.C.r.0.9.9.9.q.e.K.F.J.F.F.F.F.F.F.F.F.J.J.S.X.} b z z z z z z z z z z z z z z z z z z z z z j 8 &               5 zXNXAXAXAXAXAXAXAXAXAXAXAXAXAXAX",
"AXAXAXAXAXAXAXAXAXAXAXAXAXAXAXAXAXAXAXAXAXAXAXAXAXAXAXAXAXAXAXAXAXAXAXAXAXAXAXAXAXAXAXAXAXAXAXAXAXAXAXAXAXAXAXAXAXAXAXAXAXAXAXAXNXzX5                           = b +.J.P.F.F.F.F.F.F.F.F.G.H.L.z.N.V.n.n.b.b.n.n.n.n.n.n.n.n.n.b.n.n.n.n.n.n.n.B.M.l.F.G.H.F.F.F.F.F.F.F.F.F.F.F.F.F.F.F.F.F.E.E.Y.R.iXfXjXjXjXgXgXgXgXgXgXgXgXgXsXrX0X8X8X8X8X8X9X9X9X9X9X9X9X9X9X9X9X9X9X9X9X9X9Xy.! l c c c c c z z z z z z z c M X.S.J.J.F.F.F.F.F.F.F.F.F.F.F.F.F.F.F.F.F.F.F.D.C.r.9.7.7.9.q.e.K.F.J.F.F.F.F.F.F.F.F.J.J.S.X.} b z z z z z z z z z z z z z z z z z c c b b z 8 & .             6 zXNXAXAXAXAXAXAXAXAXAXAXAXAXAXAX",
"AXAXAXAXAXAXAXAXAXAXAXAXAXAXAXAXAXAXAXAXAXAXAXAXAXAXAXAXAXAXAXAXAXAXAXAXAXAXAXAXAXAXAXAXAXAXAXAXAXAXAXAXAXAXAXAXAXAXAXAXAXAXAXAXNXzX5                           = b +.J.P.F.F.F.F.F.F.F.F.H.H.L.z.N.V.n.n.b.b.b.b.b.b.b.b.b.n.n.b.b.b.b.b.n.n.n.B.M.l.F.G.H.F.F.F.F.F.F.F.F.F.F.F.F.F.F.F.F.F.E.E.Y.R.iXfXjXjXjXgXgXgXgXgXgXgXgXgXsXrX0X9X8X8X9X9X9X9X9X9X9X9X9X9X9X9X9X9X9X9X9X9X9Xy.! l c c c c z z z z z z z z c M X.S.J.J.F.F.F.F.F.F.F.F.F.F.F.F.F.F.F.F.F.F.F.D.C.r.9.7.7.9.q.e.K.F.J.F.F.F.F.F.F.F.F.J.J.S.X.} b z z z z z z z z z z z z z z z z z c c b b z 8 &               6 zXNXAXAXAXAXAXAXAXAXAXAXAXAXAXAX",
"AXAXAXAXAXAXAXAXAXAXAXAXAXAXAXAXAXAXAXAXAXAXAXAXAXAXAXAXAXAXAXAXAXAXAXAXAXAXAXAXAXAXAXAXAXAXAXAXAXAXAXAXAXAXAXAXAXAXAXAXAXAXAXAXNXzX6                           = b +.J.J.F.F.F.F.F.F.F.F.G.J.L.z.N.V.n.b.v.v.v.v.v.v.v.v.v.v.v.v.v.v.v.v.v.n.n.B.M.l.L.H.J.F.F.F.F.F.F.F.F.F.F.F.F.F.F.F.F.F.F.F.U.R.iXfXjXjXgXgXgXgXgXgXgXgXgXgXsXrX0X9X8X9X9X9X9X9X9X9X9X9X9X9X9X9X9X9X9X9X9X9X9Xt.! l z c c z z z z z z z z z c B X.S.J.J.F.F.F.F.F.F.F.F.F.F.F.F.F.F.F.F.F.F.F.D.C.r.0.7.7.9.q.e.K.F.J.F.F.F.F.F.F.F.F.J.J.S.X.} c z z z z z z z z z z z z z z z z z z z c c z 8 & .             5 zXNXAXAXAXAXAXAXAXAXAXAXAXAXAXAX",
"AXAXAXAXAXAXAXAXAXAXAXAXAXAXAXAXAXAXAXAXAXAXAXAXAXAXAXAXAXAXAXAXAXAXAXAXAXAXAXAXAXAXAXAXAXAXAXAXAXAXAXAXAXAXAXAXAXAXAXAXAXAXAXAXNXzX6                           = b +.J.P.F.F.F.F.F.F.F.F.G.J.L.z.N.V.n.b.v.v.v.v.v.v.v.v.v.v.v.v.v.v.v.v.v.n.n.B.M.l.L.H.J.F.F.F.F.F.F.F.F.F.F.F.F.F.F.F.F.F.F.F.U.R.iXfXjXjXgXgXgXgXgXgXgXgXgXgXsXrX0X9X8X8X9X9X9X9X9X9X9X9X9X9X9X9X9X9X9X9X9X9X9Xy.! l z c c z z z z z z z z z c M X.S.J.J.F.F.F.F.F.F.F.F.F.F.F.F.F.F.F.F.F.E.E.D.C.r.0.7.7.9.q.e.K.F.J.F.F.F.F.F.F.F.F.J.J.S.X.} c z z z z z z z z z z z z z z z z z z z c c z 8 & .             6 zXNXAXAXAXAXAXAXAXAXAXAXAXAXAXAX",
"AXAXAXAXAXAXAXAXAXAXAXAXAXAXAXAXAXAXAXAXAXAXAXAXAXAXAXAXAXAXAXAXAXAXAXAXAXAXAXAXAXAXAXAXAXAXAXAXAXAXAXAXAXAXAXAXAXAXAXAXAXAXAXAXBXzX6                           = b +.J.P.F.F.F.F.F.F.F.F.H.J.L.z.N.V.n.b.v.v.v.v.v.v.v.v.v.v.v.v.v.v.v.v.v.n.n.B.M.l.L.H.J.F.F.F.F.F.F.F.F.F.F.F.F.F.F.F.F.J.F.F.U.R.iXfXjXjXgXgXgXgXgXgXgXgXgXgXsXrX0X8X8X8X8X8X9X9X9X9X9X9X9X9X9X9X9X9X9X9X9X9X9Xy.! l z c c z z z z z z z z z z M X.S.J.J.F.F.F.F.F.F.F.F.F.F.F.F.J.F.F.E.E.E.E.D.C.r.0.7.7.9.q.e.K.F.J.F.F.F.F.F.F.F.F.J.J.S.X.B c z z z z z z z z z z z z z z z z z z z c c j 8 & .             6 zXBXAXAXAXAXAXAXAXAXAXAXAXAXAXAX",
"AXAXAXAXAXAXAXAXAXAXAXAXAXAXAXAXAXAXAXAXAXAXAXAXAXAXAXAXAXAXAXAXAXAXAXAXAXAXAXAXAXAXAXAXAXAXAXAXAXAXAXAXAXAXAXAXAXAXAXZXZXAXAXAXNXzX5                         . ; b +.J.J.F.F.F.F.F.F.F.F.H.H.L.z.N.V.n.b.v.v.v.v.v.v.v.v.v.v.v.v.v.v.v.v.v.n.n.B.M.l.L.G.J.F.F.F.F.F.F.F.F.F.F.F.F.F.F.F.F.J.F.F.U.R.iXfXjXjXgXgXgXgXgXgXgXgXgXgXsXrX0X9X9X9X9X9X9X9X9X9X9X9X9X9X9X9X9X9X9X9X9X9X9Xy.! l z c c z z c c c c c z z b } X.S.J.J.F.F.F.F.F.F.F.F.F.F.F.D.D.D.D.D.D.F.F.K.C.r.0.7.7.9.q.e.K.F.J.F.F.F.F.F.F.F.F.J.J.D.X.} b z z c c c c c c c c c c c c c c z z z c c j 8 & .             5 lXNXAXAXAXAXAXAXAXAXAXAXAXAXAXAX",
"AXAXAXAXAXAXAXAXAXAXAXAXAXAXAXAXAXAXAXAXAXAXAXAXAXAXAXAXAXAXAXAXAXAXAXAXAXAXAXAXAXAXAXAXAXAXAXAXAXAXAXAXAXAXAXVXNXmXnXnXnXmXmXmXcX_ 5         o & = ; ; = = = ; 0 } ,.J.J.F.F.F.F.F.F.F.F.H.H.L.z.N.V.n.b.v.v.v.v.v.v.v.v.v.v.v.v.v.v.v.v.v.n.n.B.M.l.L.G.H.F.F.F.F.F.F.F.F.F.F.F.F.F.F.F.F.F.F.F.U.R.iXfXjXjXgXgXgXgXgXgXgXgXgXgXsXuXrXwXwXwXwX0X0X9X9X9X9X9X9X9X9X9X9X9X9X9X9X9X9Xy.! l z c z c b M M M M M M M M | +.S.J.J.F.F.F.F.F.F.F.F.F.F.D.K.K.C.C.C.C.C.C.C.e.r.9.7.7.9.q.e.K.F.J.F.F.F.F.F.F.F.F.J.J.D.+.| B M M M M M M M M M M M M M M M M n b z c c j 8 &               5 _ cXmXmXmXmXNXZXAXAXAXAXAXAXAXAX",
"AXAXAXAXAXAXAXAXAXAXAXAXAXAXAXAXAXAXAXAXAXAXAXAXAXAXAXAXAXAXAXAXAXAXAXAXAXAXAXAXAXAXAXAXAXAXAXAXAXAXAXAXAXAXAXNXvX' _ _ _ _ _ _ ( 6 $       . * 9 c n b b b b b } X.S.J.J.F.F.F.F.F.F.F.F.H.H.L.z.N.V.n.b.v.v.v.v.v.v.v.v.v.v.v.v.v.v.v.v.v.n.n.B.M.l.L.G.H.F.F.F.F.F.F.F.F.F.F.F.F.F.F.F.F.F.F.F.U.R.iXfXjXjXjXgXgXgXgXgXgXgXgXgXdXuXuXuXuXuXrXeX0X9X8X9X9X9X9X9X9X9X9X9X9X9X9X9X9Xy.! l z c z b M | X.X.X.X.X.X.X.+.Z.D.F.F.F.F.F.F.F.F.F.F.F.F.K.C.e.r.r.r.r.r.r.r.r.0.9.7.7.9.q.e.K.F.J.F.F.F.F.F.F.F.F.F.F.D.Z.+.X.X.X.X.X.X.X.X.X.X.X.X.X.X.X.X. .} n c z z j 8 & .             $ 6 ( _ _ _ lXvXNXAXAXAXAXAXAXAXAX",
"AXAXAXAXAXAXAXAXAXAXAXAXAXAXAXAXAXAXAXAXAXAXAXAXAXAXAXAXAXAXAXAXAXAXAXAXAXAXAXAXAXAXAXAXAXAXAXAXAXAXAXAXAXAXAXmX' 6 % $ % % 3 % % $ $       . > M X.,.,.+.+.+.+.,.S.D.F.F.F.F.F.F.F.F.F.F.H.H.L.z.N.B.n.b.v.v.v.v.v.v.v.v.v.v.v.v.v.v.v.v.v.n.n.B.M.l.L.G.H.F.F.F.F.F.F.F.F.F.F.F.F.F.F.F.F.F.F.F.U.R.aXfXjXjXgXgXgXgXgXgXgXgXgXgXdXdXdXsXdXdXuXrX0X9X8X9X9X9X9X9X9X9X9X9X9X9X9X9X9Xy.! l z z z b } X.Z.S.S.S.Z.Z.S.S.D.F.F.F.F.F.F.F.F.F.F.F.J.F.K.e.r.0.0.0.0.0.0.0.0.9.9.9.7.9.q.e.K.F.J.F.F.F.F.F.F.F.F.F.F.F.D.S.S.Z.Z.Z.Z.Z.Z.S.S.S.S.Z.Z.S.S.S.,. .M c z z j 8 & .               $ % % % % 6 lXmXAXAXAXAXAXAXAXAX",
"AXAXAXAXAXAXAXAXAXAXAXAXAXAXAXAXAXAXAXAXAXAXAXAXAXAXAXAXAXAXAXAXAXAXAXAXAXAXAXAXAXAXAXAXAXAXAXAXAXAXAXAXAXAXZXnX_ %                         o 8 } S.Q.Q.J.J.J.J.J.J.F.F.F.F.F.F.F.F.F.F.F.H.J.L.z.N.B.n.b.v.v.v.v.v.v.v.v.v.v.v.v.v.v.v.v.v.n.b.B.M.l.L.G.H.F.F.F.F.F.F.F.F.F.F.F.F.F.F.F.F.F.F.F.U.R.aXfXjXjXgXgXgXgXgXgXgXgXgXgXgXgXgXgXkXkXdXuXwX9X8X8X9X9X9X9X9X9X9X9X9X9X9X9X9Xy.! l z z z n | +.F.J.J.F.F.J.J.F.F.F.F.F.F.F.F.F.F.F.F.F.J.F.K.e.q.9.7.7.9.9.9.9.9.9.9.9.7.9.q.e.K.F.J.F.F.F.F.F.F.F.F.F.F.F.F.F.J.J.J.J.J.J.J.J.J.J.J.J.J.J.J.J.S.X.M c z z j 8 & .                         3 ' mXAXAXAXAXAXAXAXAX",
"AXAXAXAXAXAXAXAXAXAXAXAXAXAXAXAXAXAXAXAXAXAXAXAXAXAXAXAXAXAXAXAXAXAXAXAXAXAXAXAXAXAXAXAXAXAXAXAXAXAXAXAXAXAXZXnX_ $                         o 8 | D.Q.Q.P.P.P.J.J.J.F.F.F.F.F.F.F.F.F.F.F.J.J.L.z.N.V.n.v.v.v.v.v.v.v.v.v.v.v.v.v.v.v.v.v.v.n.n.B.M.l.L.G.J.F.F.F.F.F.F.F.F.F.F.F.F.F.F.F.F.F.F.F.U.R.aXfXjXjXgXgXgXgXgXgXgXgXgXgXgXgXgXgXkXkXdXuXwX9X8X8X9X9X9X9X9X9X9X9X9X9X9X9X9Xt.! l z z z n | ,.F.P.J.J.J.J.J.J.F.F.F.F.F.F.F.F.F.F.F.F.J.F.K.e.q.9.7.7.7.7.7.7.9.9.9.9.7.9.q.e.K.F.J.F.F.F.F.F.F.F.F.F.F.F.F.J.J.J.J.J.J.J.J.J.J.J.J.J.J.J.J.J.S.X.M c z c z 8 & .                         % ' mXAXAXAXAXAXAXAXAX",
"AXAXAXAXAXAXAXAXAXAXAXAXAXAXAXAXAXAXAXAXAXAXAXAXAXAXAXAXAXAXAXAXAXAXAXAXAXAXAXAXAXAXAXAXAXAXAXAXAXAXAXAXAXAXAXnX_ %                         o 8 } S.Q.J.F.F.F.F.F.F.F.F.F.F.F.F.F.F.F.F.F.J.J.L.z.N.V.n.v.v.v.v.v.v.v.v.v.v.v.v.v.v.v.v.v.v.n.n.B.M.l.L.H.J.F.F.F.F.F.F.F.F.F.F.F.F.F.F.F.F.F.F.F.U.R.aXfXjXjXgXgXgXgXgXgXgXgXgXgXgXgXgXgXgXgXsXuXwX9X8X8X9X9X9X9X9X9X9X9X9X9X9X9X9Xt.! l z z z n | +.D.J.J.F.F.F.F.F.F.F.F.F.F.F.F.F.F.F.F.F.J.F.K.e.q.9.7.9.9.9.9.9.9.9.9.9.7.9.q.e.K.F.J.F.F.F.F.F.F.F.F.F.F.F.F.F.F.F.F.F.F.F.F.F.F.F.F.F.F.F.J.J.S.X.M c z c z 8 & .                         3 ' mXAXAXAXAXAXAXAXAX",
"AXAXAXAXAXAXAXAXAXAXAXAXAXAXAXAXAXAXAXAXAXAXAXAXAXAXAXAXAXAXAXAXAXAXAXAXAXAXAXAXAXAXAXAXAXAXAXAXAXAXAXAXAXAXAXnX_ %                         o 8 } S.P.J.F.F.F.F.F.F.F.F.F.F.F.F.F.F.F.F.F.G.J.L.z.N.V.n.b.v.v.v.b.b.v.v.v.v.v.v.v.v.v.v.v.v.n.n.B.M.l.F.G.H.F.F.F.F.F.F.F.F.F.F.F.F.F.F.F.F.F.F.F.U.R.iXfXjXjXgXgXgXgXgXgXgXgXgXgXgXgXgXgXgXgXsXuXwX9X8X9X9X9X9X9X9X9X9X9X9X9X9X9X9Xt.! l z z z n | +.D.J.J.F.F.F.F.F.F.F.F.F.F.F.F.F.F.F.F.F.J.F.K.e.q.9.7.9.9.9.9.9.9.9.9.9.7.9.q.e.K.F.E.F.F.F.F.F.F.F.F.F.F.F.F.F.F.F.F.F.F.F.F.F.F.F.F.F.F.F.J.J.Z.X.M c z c z 8 &                           3 ' mXAXAXAXAXAXAXAXAX",
"AXAXAXAXAXAXAXAXAXAXAXAXAXAXAXAXAXAXAXAXAXAXAXAXAXAXAXAXAXAXAXAXAXAXAXAXAXAXAXAXAXAXAXAXAXAXAXAXAXAXAXAXAXAXAXnX_ %                         . 8 } S.Q.J.F.F.F.F.F.F.F.F.F.F.F.F.F.F.F.F.F.G.H.L.z.N.V.n.n.n.b.b.n.n.b.v.v.v.v.v.v.v.v.v.v.v.n.n.B.M.l.F.G.G.H.H.G.G.H.J.F.F.F.F.F.F.F.F.F.F.F.F.F.U.R.iXfXjXjXgXgXgXgXgXgXgXgXgXgXgXgXgXgXgXgXsXuXwX9X8X9X9X9X9X9X9X9X9X9X9X9X9X0X9Xt.! l z z z n | +.D.J.J.F.F.F.F.F.F.F.F.F.F.F.F.F.F.F.F.F.J.F.K.e.q.9.7.9.9.9.9.9.9.9.9.9.7.9.q.e.K.E.E.E.J.J.J.J.J.J.J.J.J.J.J.J.J.J.J.J.J.J.J.J.F.F.F.F.F.F.J.J.Z.X.M c z z z 8 &                           3 ' mXAXAXAXAXAXAXAXAX",
"AXAXAXAXAXAXAXAXAXAXAXAXAXAXAXAXAXAXAXAXAXAXAXAXAXAXAXAXAXAXAXAXAXAXAXAXAXAXAXAXAXAXAXAXAXAXAXAXAXAXAXAXAXAXAXnX_ %                         o 8 } S.P.J.F.F.F.F.F.F.F.F.F.F.F.F.F.F.F.F.F.H.H.L.z.N.V.n.n.v.v.v.b.b.v.v.v.v.v.v.v.v.v.v.v.v.n.n.B.M.l.F.G.H.F.F.F.F.F.F.F.F.F.F.F.F.F.F.F.F.F.F.F.U.R.iXgXjXjXgXgXgXgXgXgXgXgXgXgXgXgXgXgXgXgXsXuXwX9X8X8X9X9X9X9X9X9X9X9X9X9X9X9X9Xy.! l z z z n | +.D.J.J.F.F.F.F.F.F.F.F.F.F.F.F.F.F.F.F.F.J.F.K.e.q.9.7.9.9.9.9.9.9.9.9.9.7.9.q.e.K.J.E.F.F.F.F.F.F.F.F.J.J.F.F.F.F.F.F.F.F.F.F.F.F.F.F.F.F.F.J.J.S.X.M c z z j 8 &                           3 ' mXAXAXAXAXAXAXAXAX",
"AXAXAXAXAXAXAXAXAXAXAXAXAXAXAXAXAXAXAXAXAXAXAXAXAXAXAXAXAXAXAXAXAXAXAXAXAXAXAXAXAXAXAXAXAXAXAXAXAXAXAXAXAXAXAXnX_ %               . O O O O = j | S.J.J.F.F.F.F.F.F.F.F.F.F.F.F.F.F.F.F.F.H.J.L.l.M.c.c.c.c.c.c.c.c.c.v.v.b.v.v.v.v.v.v.v.v.n.b.B.N.z.W.W.W.W.W.W.W.W.L.F.F.F.F.F.F.F.F.F.F.F.F.F.U.R.iXfXjXjXjXgXgXgXgXgXgXgXgXgXgXgXgXgXgXgXsXuXwX9X8X8X9X9X9X8X8Xt.t.t.t.t.t.t.t.~ ! l z z z n | +.D.J.J.F.F.F.F.F.F.F.F.F.F.F.F.F.F.F.F.F.J.F.K.e.q.9.7.9.9.9.9.9.9.9.9.9.7.9.q.w.C.K.K.K.K.K.K.K.K.K.K.K.K.K.K.K.K.K.K.K.K.K.K.K.K.D.F.F.F.F.J.J.Z.X.M c z z z 9 = O . . o o o o . .         3 ' mXAXAXAXAXAXAXAXAX",
"AXAXAXAXAXAXAXAXAXAXAXAXAXAXAXAXAXAXAXAXAXAXAXAXAXAXAXAXAXAXAXAXAXAXAXAXAXAXAXAXAXAXAXAXAXAXAXAXAXAXAXAXAXAXAXnX_ %             . * 8 0 j 0 j M X.D.J.J.F.F.F.F.F.F.F.F.F.F.F.F.F.F.F.F.F.J.J.L.W.l.x.x.x.x.x.x.x.x.c.v.b.b.v.v.v.v.v.v.v.v.b.b.V.B.M.z.z.z.z.z.z.z.l.W.L.F.D.F.F.F.F.F.F.F.F.F.F.U.R.iXfXjXjXgXgXgXgXgXgXgXgXgXgXgXgXgXgXkXgXsXuXwX9X8X9X9X9X9X8Xt.~ ! ! ! ! ! ! ! ! ^ l z z z b } +.D.J.J.F.F.F.F.F.F.F.F.F.F.F.F.F.F.F.F.F.J.F.K.e.q.9.7.9.9.9.9.9.9.9.9.9.9.9.0.r.w.e.e.e.e.e.e.e.e.e.e.e.e.e.e.e.e.e.e.e.e.e.e.e.C.K.F.F.F.F.J.F.Z.X.M c z z z 0 8 ; = = ; ; ; = & O .       3 ' mXAXAXAXAXAXAXAXAX",
"AXAXAXAXAXAXAXAXAXAXAXAXAXAXAXAXAXAXAXAXAXAXAXAXAXAXAXAXAXAXAXAXAXAXAXAXAXAXAXAXAXAXAXAXAXAXAXAXAXAXAXAXAXAXAXnX_ %             O 8 n | X...X.+.Z.D.J.F.F.F.F.F.F.F.F.F.F.F.F.F.F.F.F.F.F.J.J.D.j.j.f.g.g.g.g.g.g.g.x.c.b.n.v.v.v.v.v.v.v.v.v.v.V.B.B.N.N.N.N.B.B.N.M.l.L.J.H.F.F.F.F.F.F.F.F.F.F.U.R.iXfXjXjXgXgXgXgXgXgXgXgXgXgXgXgXgXgXkXgXsXuXwX9X8X9X9X9X9X8X~ ! ( l l l l l l l l c z z z b } +.D.J.J.F.F.F.F.F.F.F.F.F.F.F.F.F.F.F.F.F.J.F.K.e.q.9.7.9.9.9.9.9.9.9.9.9.9.9.9.0.q.q.q.q.q.q.q.q.q.q.q.q.q.q.q.q.q.q.q.q.q.q.q.r.e.K.F.J.F.F.J.F.Z.X.M c z z z j j 0 0 0 0 0 0 9 > & .       3 ' mXAXAXAXAXAXAXAXAX",
"AXAXAXAXAXAXAXAXAXAXAXAXAXAXAXAXAXAXAXAXAXAXAXAXAXAXAXAXAXAXAXAXAXAXAXAXAXAXAXAXAXAXAXAXAXAXAXAXAXAXAXAXAXAXAXnX_ %             O 0  .S.J.F.D.F.F.F.F.F.F.F.F.F.F.F.F.F.F.F.F.F.J.F.F.F.F.J.J.D.j.h.d.d.d.d.p.p.d.g.x.c.b.n.b.v.v.v.v.v.v.v.v.v.v.v.v.v.v.V.V.v.n.V.N.z.W.J.G.F.F.F.F.F.F.F.F.F.F.U.R.aXfXjXjXgXgXgXgXgXgXgXgXgXgXgXgXgXgXgXgXsXuXwX9X8X9X9X9X9X8X~ ! l c c z z z z z z z z z z b | +.D.J.F.F.F.F.F.F.F.F.F.F.F.F.F.F.F.F.F.F.J.J.K.e.q.9.7.9.9.9.9.9.9.9.9.9.9.9.9.9.9.9.9.9.9.9.9.9.9.9.9.9.9.9.9.9.9.9.9.9.9.9.9.q.e.K.F.E.F.F.J.J.S.X.M c z z z z z z z z z z c z 9 = .       3 ' mXAXAXAXAXAXAXAXAX",
"AXAXAXAXAXAXAXAXAXAXAXAXAXAXAXAXAXAXAXAXAXAXAXAXAXAXAXAXAXAXAXAXAXAXAXAXAXAXAXAXAXAXAXAXAXAXAXAXAXAXAXAXAXAXAXmX_ %             O j X.J.Q.Q.P.J.J.F.F.F.F.F.F.F.F.F.F.F.F.F.F.F.F.J.J.H.G.G.G.D.j.h.p.p.p.p.p.a.s.f.x.c.b.n.b.v.v.v.v.v.v.v.v.v.v.b.n.n.n.n.n.n.n.b.N.z.W.J.G.F.F.F.F.F.F.F.F.F.F.U.R.aXgXjXjXjXjXjXjXjXjXjXjXjXjXjXjXjXgXgXgXsXuXwX9X8X9X9X9X9X8X~ ( c z z z c c c c c z z z z n | +.F.J.J.J.J.J.J.J.F.F.F.F.F.F.F.F.F.F.F.F.J.J.K.e.q.9.7.9.9.9.9.9.9.9.7.7.7.7.9.9.7.7.7.7.7.7.7.7.7.7.7.7.7.7.7.7.7.7.7.7.7.7.7.q.e.K.E.E.E.J.E.E.S.X.M c z z z c c c c c c b b c 0 ; o       3 ' mXAXAXAXAXAXAXAXAX",
"AXAXAXAXAXAXAXAXAXAXAXAXAXAXAXAXAXAXAXAXAXAXAXAXAXAXAXAXAXAXAXAXAXAXAXAXAXAXAXAXAXAXAXAXAXAXAXAXAXAXAXAXAXAXAXmX_ %             O j ..F.Q.P.J.J.F.F.F.F.F.F.F.F.F.F.F.F.F.F.F.F.F.F.F.J.H.J.J.D.j.h.s.p.p.p.p.p.d.g.x.c.b.n.b.v.v.v.v.v.v.v.v.v.v.v.b.b.b.b.b.n.n.v.N.z.W.J.G.F.F.F.F.F.F.F.F.F.F.U.R.aXgXjXjXjXjXjXjXjXjXjXjXjXjXjXjXjXgXgXgXsXuXwX9X8X8X9X9X9X8X~ ( c z z c c c c c c z z z z n | +.F.J.J.J.J.J.J.J.F.F.F.F.F.F.F.F.F.F.F.F.J.J.K.e.q.9.9.9.9.9.9.9.9.9.9.7.7.9.9.9.9.9.9.9.9.9.9.9.9.7.7.7.7.7.7.7.7.7.7.7.7.7.9.q.e.K.J.E.J.J.E.J.S.X.M c z z z z z c c z z c b z 0 ; o       3 ' mXAXAXAXAXAXAXAXAX",
"AXAXAXAXAXAXAXAXAXAXAXAXAXAXAXAXAXAXAXAXAXAXAXAXAXAXAXAXAXAXAXAXAXAXAXAXAXAXAXAXAXAXAXAXAXAXAXAXAXAXVXVXVXZXBXvX_ %             O j ..D.Q.J.F.F.F.F.F.F.F.F.F.F.F.F.F.F.F.F.F.F.F.F.F.L.L.W.L.j.j.h.d.s.d.d.p.p.d.g.x.c.b.n.b.v.v.v.v.v.v.v.v.v.v.v.v.v.v.v.v.b.n.V.N.z.W.J.G.F.F.F.F.F.F.F.F.F.F.U.R.pXaXfXfXfXfXfXfXfXfXfXfXfXfXfXfXgXgXkXgXsXuXwX9X8X9X9X9X9X8X~ ! l z z z l l l z z z z z z b } X.S.D.S.S.S.S.S.S.D.F.F.F.F.F.F.F.F.F.F.F.J.J.K.e.q.9.7.9.9.9.9.9.9.9.6.6.6.6.6.9.9.9.9.9.9.9.9.9.9.6.6.6.6.6.6.6.6.6.6.6.6.6.6.q.e.C.K.D.K.K.K.K.A...M c z z z z z z z z z z c z 0 = o       3 ' mXAXAXAXAXAXAXAXAX",
"AXAXAXAXAXAXAXAXAXAXAXAXAXAXAXAXAXAXAXAXAXAXAXAXAXAXAXAXAXAXAXAXAXAXAXAXAXAXAXAXAXAXAXAXAXAXAXAXAXNXnXcXcXcXcX' ^ $             O j ..D.Q.J.F.F.F.F.F.F.F.F.F.F.F.F.F.F.F.F.F.J.F.L.W.l.z.z.z.l.g.f.d.p.p.d.p.p.d.g.x.c.b.n.v.v.v.v.v.v.v.v.v.v.v.v.v.v.v.v.v.b.n.V.N.z.W.J.H.F.F.F.F.F.F.F.F.F.F.Y.T.yXpXiXpXpXpXpXpXpXpXpXpXpXpXiXaXfXjXjXjXsXuXwX9X8X9X9X9X9X8Xy.! ! ! ! ! ! ! ! ( l z z z z b M | X.X.X.X.X.X.X.+.Z.D.F.F.F.F.F.F.F.F.F.F.J.F.K.e.q.9.7.9.9.9.9.9.6.4.4.4.4.4.4.6.6.9.9.9.9.9.9.9.6.4.4.4.4.4.4.4.4.4.4.4.4.4.4.5.w.e.e.e.e.e.e.e.e.C v z z z z z z z z z z z c z 0 = o       3 ' mXAXAXAXAXAXAXAXAX",
"AXAXAXAXAXAXAXAXAXAXAXAXAXAXAXAXAXAXAXAXAXAXAXAXAXAXAXAXAXAXAXAXAXAXAXAXAXAXAXAXAXAXAXAXAXAXAXAXZXmXlX( ^ / / 6 % $             O j ..D.Q.J.F.F.F.F.F.F.F.F.F.F.F.F.F.F.F.F.F.H.F.L.l.m.N.N.N.m.z.g.d.p.p.d.p.p.d.g.x.c.b.b.v.v.v.v.v.v.v.v.v.v.v.v.v.v.v.v.v.b.n.V.N.z.W.J.H.F.F.F.F.F.F.F.F.F.F.H.U.T.R.R.R.R.R.R.R.R.R.R.R.R.R.R.iXaXgXjXjXsXuXwX9X8X9X9X9X9X8X8Xy.~ ~ ~ ~ ~ ~ ~ ! ! l z c z c n M M B M M M M } | +.S.J.J.F.F.F.F.F.F.F.F.J.F.K.e.q.9.7.9.9.9.9.9.6.4.g d d d g 4.6.9.9.9.9.7.9.6.4.4.d d d d d d d d d d d d d g 5.q.r.r.r.r.r.r.r.w.V z z z z z z z z z z z c z 0 = o       3 ' mXAXAXAXAXAXAXAXAX",
"AXAXAXAXAXAXAXAXAXAXAXAXAXAXAXAXAXAXAXAXAXAXAXAXAXAXAXAXAXAXAXAXAXAXAXAXAXAXAXAXAXAXAXAXAXAXAXAXVXvX( %     $ $                 O j ..F.Q.J.F.F.F.F.F.F.F.F.F.F.F.F.F.F.F.F.F.G.F.W.z.N.V.V.V.c.x.g.d.p.p.d.p.p.d.g.x.c.b.b.v.v.v.v.v.v.v.v.v.v.v.v.v.v.b.v.b.n.n.V.N.z.W.J.H.F.F.F.F.F.F.F.F.F.F.F.H.H.H.H.H.H.H.H.H.H.H.H.H.F.Y.T.yXaXgXkXjXdXuXwX9X8X9X9X9X9X9X8X8X8X8X8X8X8X9X8X~ ! l z c c z z c b c c c c z b } X.S.J.J.F.F.F.F.F.F.F.F.J.F.K.e.q.9.7.9.9.9.7.9.4.g p i i p d 4.6.9.7.9.9.7.9.6.4.d p p p p p p p p p p p i p d 4.6.9.9.9.9.9.9.0.5.l v c z z z z z z z z c c z 0 = o       3 ' mXAXAXAXAXAXAXAXAX",
"AXAXAXAXAXAXAXAXAXAXAXAXAXAXAXAXAXAXAXAXAXAXAXAXAXAXAXAXAXAXAXAXAXAXAXAXAXAXAXAXAXAXAXAXAXAXAXAXVXvX/ $                         O j ..F.Q.J.F.F.F.F.F.F.F.F.F.F.F.F.F.F.F.F.F.G.F.W.z.B.n.n.n.v.x.g.d.p.p.d.p.p.d.g.x.c.b.b.v.v.v.v.v.v.v.v.v.v.v.v.v.v.b.b.b.b.n.V.N.z.W.J.G.F.F.F.F.F.F.F.F.F.F.F.F.F.F.F.F.F.F.F.F.F.F.F.E.k.F.U.yXaXgXkXjXsXuXwX9X8X9X9X9X9X9X9X9X9X9X9X9X9X0X9Xt.! l z c c z z z z z z z z z z M X.S.J.J.F.F.F.F.F.F.F.F.J.J.K.e.q.9.7.9.9.9.7.9.4.g p u u u d 4.6.9.7.9.9.7.9.6.4.d i u u u u u i u u u u u i d 4.6.7.7.7.7.7.7.6.5.V v c z z z z z z z z z c z 0 = o       3 ' mXAXAXAXAXAXAXAXAX",
"AXAXAXAXAXAXAXAXAXAXAXAXAXAXAXAXAXAXAXAXAXAXAXAXAXAXAXAXAXAXAXAXAXAXAXAXAXAXAXAXAXAXAXAXAXAXAXAXVXvX( $                         O j ..D.Q.J.F.F.F.F.F.F.F.F.F.F.F.F.F.F.F.F.F.G.F.W.z.B.b.n.n.c.x.g.d.p.p.s.p.p.d.g.x.c.b.n.v.v.v.v.v.v.v.v.b.b.v.v.v.v.v.v.v.b.n.V.N.z.W.H.G.F.F.F.F.F.F.F.F.F.F.F.F.F.F.F.F.F.F.F.F.F.F.F.F.k.F.U.yXaXgXkXkXsXuXwX9X8X8X9X9X9X9X9X9X9X9X9X9X9X0X9Xt.! l z c z z z z z z z z z z c M X.S.J.J.F.F.F.F.F.F.F.F.J.J.K.e.q.9.7.9.9.7.7.9.4.g p u u i d 4.6.9.7.7.7.7.9.6.4.d p u u i i i i i i i u u i d 4.6.9.7.9.7.7.7.6.5.l v c c z z z z z z z c c z 0 = o       3 ' mXAXAXAXAXAXAXAXAX",
"AXAXAXAXAXAXAXAXAXAXAXAXAXAXAXAXAXAXAXAXAXAXAXAXAXAXAXAXAXAXAXAXAXAXAXAXAXAXAXAXAXAXAXAXAXAXAXAXVXvX( $                         O j ..D.Q.J.F.F.F.F.F.F.F.F.F.F.F.F.F.F.F.F.F.G.J.W.z.N.v.n.n.c.x.g.d.p.p.d.p.p.d.g.x.c.b.n.v.v.v.v.v.v.v.v.b.n.v.v.v.v.v.v.v.b.n.V.N.z.W.H.G.F.F.F.F.F.F.F.F.F.F.F.F.F.F.F.F.F.F.F.F.F.F.F.F.F.J.T.yXaXgXkXkXsXuXwX9X8X8X9X9X9X9X9X9X9X9X8X9X9X9X9Xy.! l z c z z z z z z z z z z c B X.S.J.J.F.F.F.F.F.F.F.F.J.J.K.e.q.9.7.9.9.7.7.9.4.g p u u p d 4.6.9.7.7.7.7.9.6.4.d p u i i i i i i i i i u i d 4.6.9.7.9.9.7.9.6.5.l v c c z z z z z z z c c z 0 = o       3 ' mXAXAXAXAXAXAXAXAX",
"AXAXAXAXAXAXAXAXAXAXAXAXAXAXAXAXAXAXAXAXAXAXAXAXAXAXAXAXAXAXAXAXAXAXAXAXAXAXAXAXAXAXAXAXAXAXAXAXVXvX( $                         O 0 ..D.Q.J.F.F.F.F.F.F.F.F.F.F.F.F.F.F.F.F.F.G.J.W.z.N.v.n.n.c.x.g.d.p.p.d.p.p.d.g.x.c.V.V.b.b.b.b.b.b.v.b.n.n.b.b.b.b.b.b.b.n.n.V.N.z.W.J.G.J.J.J.F.F.F.F.F.F.F.F.F.F.F.F.F.F.F.F.F.F.F.F.F.F.F.T.yXaXjXkXjXdXuXwX9X8X9X9X9X9X9X9X9X9X9X9X9X9X9X9Xt.! l z c z z z z z z z z z z c M X.S.J.J.F.F.F.F.F.J.J.J.E.E.K.e.q.9.7.7.7.7.7.9.4.g p u u p d 4.6.7.7.7.7.7.7.6.4.d p u i i i i i i i i i u i d 4.6.9.7.9.9.7.9.6.5.l z c z z z z z z z z c c z 0 = .       3 ' mXAXAXAXAXAXAXAXAX",
"AXAXAXAXAXAXAXAXAXAXAXAXAXAXAXAXAXAXAXAXAXAXAXAXAXAXAXAXAXAXAXAXAXAXAXAXAXAXAXAXAXAXAXAXAXAXAXAXVXvX( $                         O 0 ..D.Q.J.F.F.F.F.F.F.F.F.F.F.F.F.F.F.F.F.F.G.J.W.z.N.v.n.n.c.x.g.d.p.p.d.p.p.d.g.x.c.V.V.V.n.n.n.n.n.n.n.n.n.n.n.n.n.V.V.V.n.n.V.N.z.W.J.G.J.J.J.F.F.F.F.F.F.F.F.F.F.F.F.F.F.F.F.F.F.F.F.F.F.J.T.yXaXjXhXkXdXuXwX9X9X9X9X9X9X9X9X9X9X9X9X9X9X0X9Xt.! l z c z z z z z z z z z z c M X.S.J.J.F.F.F.J.J.E.E.E.E.E.K.e.r.9.7.7.7.7.7.9.4.g p u u p d 4.6.7.7.7.7.7.7.6.4.d p u i i i i i i i i i u i d 4.6.7.7.7.7.7.7.6.5.l z z z z z z z z z z c c z 9 = .       3 ' mXAXAXAXAXAXAXAXAX",
"AXAXAXAXAXAXAXAXAXAXAXAXAXAXAXAXAXAXAXAXAXAXAXAXAXAXAXAXAXAXAXAXAXAXAXAXAXAXAXAXAXAXAXAXAXAXAXAXVXvX( $                         & j ..D.P.J.F.F.F.F.F.F.F.F.F.F.F.F.F.F.F.F.F.G.F.W.z.N.V.n.n.c.x.g.d.p.p.d.p.p.d.g.x.c.v.v.v.v.v.v.v.v.v.v.v.v.v.v.v.v.v.v.v.v.v.B.N.z.L.D.D.F.F.F.F.F.F.F.F.F.F.F.F.F.F.F.F.F.F.F.F.F.F.F.F.F.F.U.yXaXgXkXgXsXuXwX8X8X8X8X8X8X8X8X8X8X8X8X8X8X8X8X~ ! l z c z z z z z z z z z z c B X.S.J.J.F.F.D.D.D.D.D.D.F.D.K.e.q.9.7.9.9.9.9.6.4.g p u u i d 4.6.9.9.9.9.9.9.6.4.d i u i i i i i i i i i u p d 4.6.9.9.9.9.7.9.0.5.l v c c c c z z z z z z c z 0 ; o       3 ' mXZXAXAXAXAXAXAXAX",
"AXAXAXAXAXAXAXAXAXAXAXAXAXAXAXAXAXAXAXAXAXAXAXAXAXAXAXAXAXAXAXAXAXAXAXAXAXAXAXAXAXAXAXAXAXAXAXAXVXvX( $       . O = ; ; ; = = = 8 b X.D.J.J.F.F.F.F.F.F.F.F.F.F.F.F.F.F.F.F.F.G.F.W.z.N.V.n.n.c.x.g.d.p.p.d.p.p.d.f.g.x.N.N.N.N.N.N.N.N.N.N.N.N.N.N.N.N.N.N.N.N.N.N.m.l.j.j.j.j.j.D.F.F.J.F.F.F.F.F.F.F.F.F.F.F.F.F.F.F.F.F.F.F.F.U.R.pXaXaXaXaXtXtXy.y.y.u.u.u.y.y.y.~ ~ ~ ~ ~ ~ ~ ! ! l z c z z z z z z z z z z c B X.S.J.J.F.D.K.C.C.C.C.C.C.C.C.w.5.4.4.4.4.4.6.4.4.d p u u i d g 4.4.4.4.4.4.4.4.g d i u i i a a s s s s s s s h 5.q.q.q.q.q.q.q.r.w.C M M M M n b z z z z z c z j > & O o O 4 ) cXnXmXmXnXnXnXnXnX",
"AXAXAXAXAXAXAXAXAXAXAXAXAXAXAXAXAXAXAXAXAXAXAXAXAXAXAXAXAXAXAXAXAXAXAXAXAXAXAXAXAXAXAXAXAXAXAXAXVXvX( $       O 8 z b n b b b b M  .,.F.J.F.F.F.F.F.F.F.F.F.F.F.F.F.F.F.F.F.F.G.F.W.z.N.V.n.n.c.x.g.d.p.p.d.s.p.d.f.g.g.g.g.g.g.g.g.g.g.g.g.g.g.g.g.g.g.g.g.g.g.g.g.g.g.h.h.h.h.j.j.D.F.J.J.J.J.F.F.F.F.F.F.F.F.F.F.F.F.F.F.F.F.F.U.T.R.R.yXxXi.i.i.i.i.i.i.i.i.i.i.) ! ! ! ! ! ! ! ! l z z z z z z z z z z z z z c M X.S.J.J.F.K.C.w.r.r.r.r.r.r.r.5.5.g g g g g g g g d p i u i p d g g g g g g g g d p i i i p a s s l l s s s l l V e.e.e.e.e.e.e.e.C.{ X.X.X...} M c z z z z c z j 0 8 > > > 8 l ) _ _ _ _ _ _ _ _ ",
"AXAXAXAXAXAXAXAXAXAXAXAXAXAXAXAXAXAXAXAXAXAXAXAXAXAXAXAXAXAXAXAXAXAXAXAXAXAXAXAXAXAXAXAXAXAXAXAXVXvX( $       * z ..,.,.+.+.+.+.,.Z.D.F.F.F.F.F.F.F.F.F.F.F.F.F.F.F.F.F.F.F.F.G.F.W.z.N.V.n.n.c.x.g.d.p.p.d.d.s.s.d.f.f.f.f.f.f.f.f.f.f.f.f.f.f.f.f.f.f.f.f.f.f.f.f.f.f.d.s.s.s.h.j.D.F.J.J.J.J.F.F.F.F.F.F.F.F.F.F.F.F.F.F.F.F.F.H.Y.U.U.U.U.U.U.A.A.A.A.A.A.A.A.>.C b l l l l l l l z c z z z z z z z z z z z z c M X.S.J.E.F.K.e.q.0.0.0.0.0.0.0.4.d d p p p p p p p p i i i i p p p p p p p p p p p p i i i p s l k k k k k k k v { K.K.K.K.K.K.K.K.K.Z.Z.S.S.Z.X.M b z z z z z z z z j j j j 0 8 3 % % % % % % % % ",
"AXAXAXAXAXAXAXAXAXAXAXAXAXAXAXAXAXAXAXAXAXAXAXAXAXAXAXAXAXAXAXAXAXAXAXAXAXAXAXAXAXAXAXAXAXAXAXAXZXvX( $     . ; n ,.Q.Q.Q.P.P.P.J.J.J.F.F.F.F.F.F.F.F.F.F.F.F.F.F.F.F.F.F.F.F.G.F.W.z.B.V.n.n.c.x.g.d.p.p.d.d.d.d.d.s.p.p.p.p.s.p.p.p.p.p.p.p.p.d.s.s.s.s.d.s.s.s.s.d.d.d.d.s.d.f.h.j.J.J.J.J.J.F.F.F.F.F.F.F.F.F.F.F.F.F.F.F.F.F.F.F.F.F.F.F.F.F.F.F.F.F.F.F.F.F.+.} c z z z z z z z z z z z z z z z z z z z z z c M X.S.E.E.F.C.r.0.7.7.7.7.7.7.6.4.d i u u i i i i i i i i i i i i i i i i i i i i i i i i i a s l z c c c z z c M ..S.J.J.J.F.F.F.F.J.J.J.J.J.D.X.} b z z z z z z z z z c b c j : o                 ",
"AXAXAXAXAXAXAXAXAXAXAXAXAXAXAXAXAXAXAXAXAXAXAXAXAXAXAXAXAXAXAXAXAXAXAXAXAXAXAXAXAXAXAXAXAXAXAXAXZXbX( $       ; M Z.Q.Q.Q.Q.Q.Q.Q.Q.J.F.F.F.F.F.F.F.F.F.F.F.F.F.F.F.F.F.F.F.F.H.F.W.z.B.V.n.n.c.x.g.d.p.p.d.d.d.d.s.p.p.p.p.p.p.p.p.p.p.p.p.p.p.p.p.s.s.d.d.p.s.p.p.d.d.s.s.s.s.f.h.j.J.J.J.J.J.J.J.J.F.F.F.F.F.F.F.F.F.F.F.F.F.F.F.F.F.F.F.F.F.F.E.E.E.F.F.E.E.F.+.} c z z z z z z z z z z z z z z z z z z z z z z M X.S.E.E.F.C.r.0.7.7.7.7.7.7.6.4.d i u u u i u i i u u u u u u u u u u u u i u i i i i i i a s l z c c c c z c M X.S.E.E.E.J.F.E.J.J.J.J.J.P.D.X.} c z z z z z z z z c c b c j ; o                 ",
"AXAXAXAXAXAXAXAXAXAXAXAXAXAXAXAXAXAXAXAXAXAXAXAXAXAXAXAXAXAXAXAXAXAXAXAXAXAXAXAXAXAXAXAXAXAXAXAXVXvX( $       ; b +.J.Q.J.F.F.J.F.F.F.F.F.F.F.F.F.F.F.F.F.F.F.F.F.F.F.F.F.F.F.H.F.W.z.N.V.n.n.c.x.g.d.p.p.d.d.d.d.d.d.d.d.d.d.d.s.s.s.s.s.s.d.d.d.d.d.d.d.d.d.d.s.s.s.d.d.d.s.d.f.h.j.F.J.J.J.J.F.F.F.F.F.F.F.F.F.F.F.F.F.F.F.F.F.F.F.F.F.F.F.F.F.F.F.F.F.F.F.J.D.+.} b z z z z z c c c z z z z z z z z z z z z z c B X.S.J.E.F.C.r.0.9.7.9.9.7.9.6.4.d p u i i i i i i i i i i i i i i i i i i i i i i i i i i i s l z c c c z z c M ..Z.J.J.F.F.F.F.F.F.F.F.J.J.S.X.} b z z z z z z z z z z c c j : O                 ",
"AXAXAXAXAXAXAXAXAXAXAXAXAXAXAXAXAXAXAXAXAXAXAXAXAXAXAXAXAXAXAXAXAXAXAXAXAXAXAXZXVXNXNXNXNXNXNXNXmXzX^ $       * j } X.X.X.X.X.X.X.,.S.F.J.F.F.F.F.F.F.F.F.F.F.F.F.F.F.F.F.F.F.H.F.W.z.N.V.n.n.c.x.g.d.p.p.d.d.d.d.d.d.d.d.d.d.d.d.d.d.d.d.d.d.d.s.s.p.a.a.a.a.a.a.a.a.p.s.d.d.d.s.h.j.,.,.,.,.,.Z.Z.S.D.F.F.F.F.F.F.F.F.F.F.F.F.F.F.F.F.F.F.F.F.F.J.J.J.F.F.J.J.D.,.| M n n n n n n M n n n n n n n M M M M M n n M | +.S.J.E.F.C.w.0.6.6.6.6.6.6.4.4.d p u i i i i p p p d d d d d p p i i i i i i p i i i i i i s l z c z z z z z M ..Z.F.J.F.F.F.F.F.F.F.F.J.J.D.+.| M n n n M M M n b c z c z j > O                 ",
"AXAXAXAXAXAXAXAXAXAXAXAXAXAXAXAXAXAXAXAXAXAXAXAXAXAXAXAXAXAXAXAXAXAXAXAXAXAXAXVXmXcXlX' ' ' lXlX' ( 5 $       O : 0 j z j j j j b } ,.F.J.J.F.F.F.F.F.F.F.F.F.F.F.F.F.F.F.F.F.G.F.W.z.B.v.n.n.c.x.g.d.p.p.d.d.d.d.d.d.d.d.s.d.d.d.d.d.d.d.d.d.d.p.a.[ C C C C C C C [ a.p.d.d.d.s.{ {  .| | | | | ..X.Z.D.F.F.F.F.F.F.F.F.F.F.F.F.F.F.F.F.F.F.F.F.F.F.F.F.F.F.J.D.Z.X...| | | | | | |  . . .| | | | | | | | | | |  .X.Z.D.J.E.D.C.w.5.4.4.4.4.4.4.g d p i i i i i u i p g 4.4.4.4.g d p i i i i i i i i i i i i p s l z c c z z z z M ..Z.F.J.F.F.F.F.F.F.F.F.F.F.D.Z.X...| | |  . .| } M b z c z j > O                 ",
"AXAXAXAXAXAXAXAXAXAXAXAXAXAXAXAXAXAXAXAXAXAXAXAXAXAXAXAXAXAXAXAXAXAXAXAXAXAXAXBXcX( 5 3 5 5 5 5 5 % $         . o O & & & & O & > c X.D.J.J.F.F.F.F.F.F.F.F.F.F.F.F.F.F.F.F.F.G.F.W.z.B.v.n.n.c.x.g.d.p.p.s.d.d.d.d.d.d.d.d.d.d.s.s.d.d.d.d.d.d.p.[ V v v v m v c v V [ p.d.d.d.a.[ B M n n n n n M | +.D.J.J.F.F.F.F.F.F.F.F.F.F.F.F.F.F.F.F.F.F.F.F.F.F.F.F.F.F.D.S.Z.Z.,.Z.Z.Z.Z.,.Z.Z.Z.Z.Z.Z.Z.Z.Z.Z.Z.Z.,.,.Z.Z.S.F.J.E.D.C.V h d d d d d d d p p i i i i i u p d 4.4.6.6.6.4.g p i u i i i i i i i i i i p s l k c c z z z z M ..Z.F.J.F.F.F.F.F.F.F.F.F.F.F.S.Z.Z.Z.Z.Z.Z.Z.,.X.} n z z z j > O                 ",
"AXAXAXAXAXAXAXAXAXAXAXAXAXAXAXAXAXAXAXAXAXAXAXAXAXAXAXAXAXAXAXAXAXAXAXAXAXAXAXNXzX5                                             O j ..D.Q.J.F.F.F.F.F.F.F.F.F.F.F.F.F.F.F.F.F.G.F.W.z.N.v.n.n.c.x.g.d.p.p.d.d.d.d.d.d.d.d.d.d.d.d.d.d.d.d.d.d.d.p.[ V v z z z z z c m C p.d.d.d.a.C v z z z z z z b } +.D.J.J.F.F.F.F.F.F.F.F.F.F.F.F.F.F.F.F.F.F.F.F.F.F.F.F.F.F.F.F.F.F.F.F.F.F.F.F.F.F.F.F.F.F.F.F.F.F.F.F.F.F.F.F.F.F.J.J.D.C.V s p u i i i i i i i i i i i i u p d 4.6.7.7.9.4.g d i u i i i i i i i i i i a s l k c z z z z z M ..Z.F.J.F.F.F.F.F.F.F.F.F.F.F.F.F.F.F.F.F.F.J.F.,.| n z z z j > O                 ",
"AXAXAXAXAXAXAXAXAXAXAXAXAXAXAXAXAXAXAXAXAXAXAXAXAXAXAXAXAXAXAXAXAXAXAXAXAXAXAXNXlX5                                             O 0 ..D.Q.J.F.F.F.F.F.F.F.F.F.F.F.F.F.F.F.F.F.G.F.W.z.N.v.n.n.c.x.g.d.p.p.d.d.d.d.d.d.d.d.d.d.d.d.d.d.d.d.d.d.d.p.[ m z z z z z z z m C p.d.d.d.a.C c z z z z k z b } +.D.J.J.F.F.F.F.F.F.F.F.F.F.F.F.F.F.F.F.F.F.F.F.F.F.F.F.F.F.F.J.J.J.J.J.J.J.J.J.J.J.J.J.J.J.J.J.J.J.J.J.J.J.J.J.J.F.J.E.D.C.V s i u u u u u u u u i i i i i u p d 4.9.7.9.9.6.4.d i u i i i i i i i i i i a s l k c z z z z z M ..Z.F.J.F.F.F.F.F.F.F.F.F.F.F.F.J.J.J.J.J.J.P.F.Z.| n z z z j > O                 ",
"AXAXAXAXAXAXAXAXAXAXAXAXAXAXAXAXAXAXAXAXAXAXAXAXAXAXAXAXAXAXAXAXAXAXAXAXAXAXAXNXzX5                                             O 0 ..D.Q.J.F.F.F.F.F.F.F.F.F.F.F.F.F.F.F.F.F.H.F.W.z.N.V.n.n.c.x.g.d.p.p.d.d.d.d.d.d.d.d.d.d.d.d.d.d.d.d.d.d.d.p.[ m v z z z z z c m [ p.d.d.d.a.C v z z z z z z b } +.D.J.F.F.F.F.F.F.F.F.F.F.F.F.F.F.F.F.F.F.F.F.F.F.F.F.F.F.F.F.F.F.F.F.F.F.F.F.F.F.F.F.F.F.F.F.F.F.F.F.J.J.F.F.J.F.F.J.J.D.o.V s i i i i i i i i i i i i i i u p d 4.6.7.7.9.6.4.d i u i i i i i i i i i i i s l z c c z z z z M ..Z.F.J.F.F.F.F.F.F.F.F.F.F.F.F.F.F.F.F.F.J.J.F.,.| n z z z j > O                 ",
"AXAXAXAXAXAXAXAXAXAXAXAXAXAXAXAXAXAXAXAXAXAXAXAXAXAXAXAXAXAXAXAXAXAXAXAXAXAXAXNXzX5                                             O j ..D.Q.J.F.F.F.F.F.F.F.F.F.F.F.F.F.F.F.F.F.G.F.W.z.N.V.n.n.c.x.g.d.p.p.d.d.d.d.d.d.d.d.d.d.d.d.d.d.d.d.d.d.d.p.[ m c z z z z z c m [ p.d.d.d.a.C v z z z z z z b } +.D.J.J.F.F.F.F.F.F.F.F.F.F.F.F.F.F.F.F.F.F.F.F.F.F.F.F.F.F.F.F.F.F.F.F.F.F.F.F.F.F.F.F.F.F.F.F.F.F.F.F.F.F.F.F.F.F.J.J.D.o.V s i i i i i i i i i i i i i i u p d 4.6.7.7.9.6.g d i u i i i i i i i i i i i s l z c c z z z z M ..Z.F.J.F.F.F.F.F.F.F.F.F.F.F.F.F.F.F.F.F.J.J.F.,.| n z z z j > O                 ",
"AXAXAXAXAXAXAXAXAXAXAXAXAXAXAXAXAXAXAXAXAXAXAXAXAXAXAXAXAXAXAXAXAXAXAXAXAXAXAXNXzX5                                             O 0 ..D.Q.J.F.F.F.F.F.F.F.F.F.F.F.F.F.F.F.F.F.G.F.W.z.B.b.n.n.c.x.g.d.p.p.d.d.d.d.d.d.d.d.s.d.d.d.d.d.d.d.d.d.d.p.[ m c z z z z z z m [ p.d.f.d.a.C v z z z z z z b } +.D.J.F.F.F.F.F.F.F.F.F.F.F.F.F.F.F.F.F.F.F.F.F.F.F.F.F.F.F.F.F.F.F.F.F.F.F.F.F.F.F.F.F.F.F.F.F.F.F.F.F.F.F.F.F.F.F.J.E.D.o.V s u u u i i i i i i i i i i i u p d 4.6.7.7.7.6.g d i u i i i i i i i i i i i s l z c c z z z z M ..Z.F.J.F.F.F.F.F.F.F.F.F.F.F.F.F.F.F.F.F.F.J.F.,.| n z z z j > O                 ",
"AXAXAXAXAXAXAXAXAXAXAXAXAXAXAXAXAXAXAXAXAXAXAXAXAXAXAXAXAXAXAXAXAXAXAXAXAXAXAXNXzX5                                             O 0 ..D.Q.J.F.F.F.F.F.F.F.F.F.F.F.F.F.F.F.F.F.G.F.W.z.B.b.n.n.c.x.g.d.p.p.d.d.d.d.d.d.d.d.s.s.s.d.d.d.d.d.d.d.d.p.[ m c z z z z z z m [ p.d.f.d.a.C v z z z z z z b } +.D.J.F.F.F.F.F.F.F.F.F.F.F.F.F.F.F.F.F.F.F.F.F.F.F.F.F.F.F.F.F.F.F.F.F.F.F.F.F.F.F.F.F.F.F.F.F.F.F.F.F.F.F.F.F.F.F.J.J.D.o.V s u u i i i i i i i i i i i i u p d 4.6.7.7.9.6.g p i u i i i i i i i i i i i s l z c c z z z z M ..Z.F.J.F.F.F.F.F.F.F.F.F.F.F.F.F.F.F.F.F.F.J.F.,.| n z z z j > O                 ",
"AXAXAXAXAXAXAXAXAXAXAXAXAXAXAXAXAXAXAXAXAXAXAXAXAXAXAXAXAXAXAXAXAXAXAXAXAXAXAXNXzX5                 . o o o o o o o o o o o . o = j X.D.P.J.F.F.F.F.F.F.F.F.F.F.F.F.F.F.F.F.F.H.F.W.z.N.B.V.B.B.x.g.f.s.s.s.s.s.s.s.s.s.s.s.s.s.s.p.p.p.p.p.p.p.a.C m v z z z z z z m C a.p.s.p.a.C m b c b b b b n | +.D.J.J.F.F.F.F.F.F.F.F.F.F.F.F.F.F.F.F.F.F.F.F.F.F.F.F.F.F.F.F.F.F.F.F.F.F.F.F.F.F.F.F.F.F.F.F.F.F.F.F.F.F.F.F.F.F.J.J.D.C.V h p p p p p p p p p i i i i i u p d 4.0.0.0.0.6.g d a a a a a a a a a a a a a s l z c c z z z z M ..Z.F.J.F.F.F.F.F.F.F.F.F.F.F.F.F.F.F.F.F.F.J.F.,.| n z z z j > O                 ",
"AXAXAXAXAXAXAXAXAXAXAXAXAXAXAXAXAXAXAXAXAXAXAXAXAXAXAXAXAXAXAXAXAXAXAXAXAXAXAXNXzX5               O = 8 8 8 8 8 8 8 8 8 8 8 8 8 j M +.F.J.J.F.F.F.F.F.F.F.F.F.F.F.F.F.F.F.F.F.H.F.L.l.z.M.N.N.m.z.g.h.h.h.h.h.h.h.h.h.h.h.h.h.h.a.[ [ [ [ [ [ [ C V v v z z z z z z v V C [ [ [ [ [ } } } } } } } | X.,.D.J.J.F.F.F.F.F.F.F.F.F.F.F.F.F.F.F.F.F.F.F.F.F.F.F.F.F.F.F.F.F.F.F.F.F.F.F.F.F.F.F.F.F.F.F.F.F.F.F.F.F.F.F.F.F.F.J.J.D.C.w.g g d g g g g g d p i i i i i i p d 5.r.r.r.r.w.h h s s s s s s s s s s s s s s k z c c z z z z M ..Z.F.J.F.F.F.F.F.F.F.F.F.F.F.F.F.F.F.F.F.F.J.F.,.| n z z z j > O                 ",
"AXAXAXAXAXAXAXAXAXAXAXAXAXAXAXAXAXAXAXAXAXAXAXAXAXAXAXAXAXAXAXAXAXAXAXAXAXAXAXNXzX5             . = j M | } } } } } } } } } } } | X.Z.F.J.F.F.F.F.F.F.F.F.F.F.F.F.F.F.F.F.F.F.F.F.F.W.l.l.l.l.l.j.j.j.j.j.j.j.j.j.j.j.j.j.j.j.j.{ C m m m m m m V v c z z z z z z z c v V V V m C { X.+.+.+.+.+.+.+.,.S.F.F.F.F.F.F.F.F.F.F.F.F.F.F.F.F.F.F.F.F.F.F.F.F.F.F.F.F.F.F.F.F.F.F.F.F.F.F.F.F.F.F.F.F.F.F.F.F.F.F.F.F.F.F.F.F.F.J.J.D.C.w.5.4.4.4.4.4.4.4.g d p u i i i i a h V e.C.C.C.e.C l l l l l j l j l l l l l l k k z z z z z z z M ..Z.F.J.F.F.F.F.F.F.F.F.F.F.F.F.F.F.F.F.F.F.J.F.,.| n z z z j > O                 ",
"AXAXAXAXAXAXAXAXAXAXAXAXAXAXAXAXAXAXAXAXAXAXAXAXAXAXAXAXAXAXAXAXAXAXAXAXAXAXAXNXzX5             . > M +.D.D.S.S.S.S.S.S.S.S.S.S.S.D.F.F.F.F.F.F.F.F.F.F.F.F.F.F.F.F.F.F.F.F.F.F.F.F.F.F.L.L.L.L.F.F.D.D.D.D.D.D.F.F.F.F.F.F.D.j. .M c z z c c c c v z z z z z z z z z v c c z c M | ,.D.F.D.D.D.D.D.D.F.F.F.F.F.F.F.F.F.F.F.F.F.F.F.F.F.F.F.F.F.F.F.F.F.F.F.F.F.F.F.F.F.F.F.F.F.F.F.F.F.F.F.F.F.F.F.F.F.F.F.F.F.F.F.F.F.F.F.J.D.K.w.0.9.7.6.9.9.9.6.4.d p u i i i i a h C A.J.P.D.+.| b z k z z z z z z z z z z z z z z z z z z z z M ..Z.F.J.F.F.F.F.F.F.F.F.F.F.F.F.F.F.F.F.F.F.J.F.,.| n z z z j > O                 ",
"AXAXAXAXAXAXAXAXAXAXAXAXAXAXAXAXAXAXAXAXAXAXAXAXAXAXAXAXAXAXAXAXAXAXAXAXAXAXAXNXzX5             . > } S.Q.Q.Q.Q.Q.Q.P.P.P.P.P.P.J.J.J.F.F.F.F.F.F.F.F.F.F.F.F.F.F.F.F.F.F.F.F.F.F.F.J.H.G.G.G.H.G.J.J.J.J.J.J.J.J.J.J.J.J.J.J.,. .n z z z z z z z z z z z z z z z z z z z z z z n  .Z.J.J.J.J.J.J.J.J.F.F.F.F.F.F.F.F.F.F.F.F.F.F.F.F.F.F.F.F.F.F.F.F.F.F.F.F.F.F.F.F.F.F.F.F.F.F.F.F.F.F.F.F.F.F.F.F.F.F.F.F.F.F.F.F.F.F.F.E.D.C.w.0.7.7.7.7.7.7.6.4.d p u i i i i a h C Z.E.Q.F.,. .n c z c c c c c c c c c c c c z z z z z z z z M ..Z.F.J.F.F.F.F.F.F.F.F.F.F.F.F.F.F.F.F.F.F.J.F.,.| n z z z j > O                 ",
"AXAXAXAXAXAXAXAXAXAXAXAXAXAXAXAXAXAXAXAXAXAXAXAXAXAXAXAXAXAXAXAXAXAXAXAXAXAXAXNXzX5             . > B S.Q.Q.J.J.J.J.J.J.J.J.J.J.J.J.J.F.F.F.F.F.F.F.F.F.F.F.F.F.F.F.F.F.F.F.F.F.F.F.F.J.H.H.H.H.J.J.J.J.J.J.J.J.J.J.J.J.J.J.J.,.| n z z z z z z z z z z z z z z z z z z z z z z n  .Z.J.J.J.J.J.J.J.F.F.F.F.F.F.F.F.F.F.F.F.F.F.F.F.F.F.F.F.F.F.F.F.F.F.F.F.F.F.F.F.F.F.F.F.F.F.F.F.F.F.F.F.F.F.F.F.F.F.F.F.F.F.F.F.F.F.F.F.E.D.C.w.0.7.7.7.7.7.7.6.4.d p u i i i i a h C Z.E.Q.F.,.| n z z z c z z c c c c c c c z z z z z z z z z M ..Z.F.J.F.F.F.F.F.F.F.F.F.F.F.F.F.F.F.F.F.F.J.F.,.| n z z z j > O                 ",
"AXAXAXAXAXAXAXAXAXAXAXAXAXAXAXAXAXAXAXAXAXAXAXAXAXAXAXAXAXAXAXAXAXAXAXAXAXAXAXNXzX5             . > B Z.J.J.F.F.F.F.F.F.F.F.F.F.F.F.F.F.F.F.F.F.F.F.F.F.F.F.F.F.F.F.F.F.F.F.F.F.F.F.F.F.F.F.F.F.F.F.J.F.F.F.F.F.F.F.J.F.J.J.F.,.| M z z z z z z z z z z z z z z z z z z z z z z n  .Z.F.J.F.F.F.F.F.F.F.F.F.F.F.F.F.F.F.F.F.F.F.F.F.F.F.F.F.F.F.F.F.F.F.F.F.F.F.F.F.F.F.F.F.F.F.F.F.F.F.F.F.F.F.F.F.F.F.F.F.F.F.F.F.F.F.F.F.J.D.C.w.0.9.7.9.9.7.9.6.4.d p u i i i i a h C K.P.Q.F.+.| n z z z z z z z z z z z z z z z z z z z z z z M ..Z.F.J.F.F.F.F.F.F.F.F.F.F.F.F.F.F.F.F.F.F.J.F.,.| n z z z j > O                 ",
"AXAXAXAXAXAXAXAXAXAXAXAXAXAXAXAXAXAXAXAXAXAXAXAXAXAXAXAXAXAXAXAXAXAXAXAXAXAXAXNXzX5             . > B Z.J.J.F.F.F.F.F.F.F.F.F.F.F.F.F.F.F.F.F.F.F.F.F.F.F.F.F.F.F.F.F.F.F.F.F.F.F.F.F.F.F.F.F.F.F.F.J.F.F.F.F.F.F.F.F.F.J.J.F.,.| M z z z z z z z z z z z z z z z z z z z z z z n | Z.F.J.F.F.F.F.F.F.F.F.F.F.F.F.F.F.F.F.F.F.F.F.F.F.F.F.F.F.F.F.F.F.F.F.F.F.F.F.F.F.F.F.F.F.F.F.F.F.F.F.F.F.F.F.F.F.F.F.F.F.F.F.F.F.F.F.F.J.D.C.r.0.9.7.9.9.7.7.6.4.d i u u i i i a h C Z.J.Q.F.+.| n z z z z z z z z z z z z z z z z z z z z z z M ..Z.F.J.F.F.F.F.F.F.F.F.F.F.F.F.F.F.F.F.F.F.J.F.,.| n z z z j > O                 ",
"AXAXAXAXAXAXAXAXAXAXAXAXAXAXAXAXAXAXAXAXAXAXAXAXAXAXAXAXAXAXAXAXAXAXAXAXAXAXAXNXzX5             . > B Z.P.J.F.F.F.F.F.F.F.F.F.F.F.F.F.F.F.F.F.F.F.F.F.F.F.F.F.F.F.F.F.F.F.F.F.F.F.F.F.F.F.F.F.F.F.F.F.F.F.F.F.F.F.F.F.F.F.J.F.,.| n z z z z z z z z z z z z z z z z z z z z z z n | ,.F.J.J.F.F.F.F.F.F.F.F.F.F.F.F.F.F.F.F.F.F.F.F.F.F.F.F.F.F.F.F.F.F.F.F.F.F.F.F.F.F.F.F.F.F.F.F.F.F.F.F.F.F.F.F.F.F.F.F.F.F.F.F.F.F.F.F.J.D.C.r.0.7.7.7.7.7.7.6.4.d i u u i u u p h C Z.J.Q.F.,.| n z z z z z z z z z z z z z z z z z z z z z z M  .Z.F.J.F.F.F.F.F.F.F.F.F.F.F.F.F.F.F.F.F.F.J.F.,.| n z z z j > O                 ",
"AXAXAXAXAXAXAXAXAXAXAXAXAXAXAXAXAXAXAXAXAXAXAXAXAXAXAXAXAXAXAXAXAXAXAXAXAXAXAXNXzX5             . > B Z.J.J.F.F.F.F.F.F.F.F.F.F.F.F.F.F.F.F.F.F.F.F.F.F.F.F.F.F.F.F.F.F.F.F.F.F.F.F.F.F.F.F.F.F.F.F.F.F.F.F.F.F.F.F.F.F.F.J.F.Z. .M c z c c c c c c c c c c c c c c c c c z z c M  .Z.F.J.J.F.F.F.F.F.F.F.F.F.F.F.F.F.F.F.F.F.F.F.F.F.F.F.F.F.F.F.F.F.F.F.F.F.F.F.F.F.F.F.F.F.F.F.F.F.F.F.F.F.F.F.F.F.F.F.F.F.F.F.F.F.F.F.F.J.D.K.w.q.9.9.9.9.9.9.6.4.d p i p p p p a h C Z.J.Q.F.,.| n z z z c c c c c c c c c c c c c c c c z z c M ..Z.F.J.F.F.F.F.F.F.F.F.F.F.F.F.F.F.F.F.F.F.J.F.,.| n z z z j > O                 ",
"AXAXAXAXAXAXAXAXAXAXAXAXAXAXAXAXAXAXAXAXAXAXAXAXAXAXAXAXAXAXAXAXAXAXAXAXAXAXAXNXzX5             . > B Z.J.J.F.F.F.F.F.F.F.F.F.F.F.F.F.F.F.F.F.F.F.F.F.F.F.F.F.F.F.F.F.F.F.F.F.F.F.F.F.F.F.F.F.F.F.F.F.F.F.F.F.F.F.F.F.F.F.J.F.Z.X.} M M M M M M M M M M M M M M M M M M M M M M } X.Z.F.J.F.F.F.F.F.F.F.F.F.F.F.F.F.F.F.F.F.F.F.F.F.F.F.F.F.F.F.F.F.F.F.F.F.F.F.F.F.F.F.F.F.F.F.F.F.F.F.F.F.F.F.F.F.F.F.F.F.F.F.F.F.F.F.F.F.J.D.K.e.r.q.q.q.q.q.q.q.5.h h h h h h h h V { K.J.P.F.Z.X.} M M M M M M M M M M M M M M M M M M M M M M | X.S.F.J.F.F.F.F.F.F.F.F.F.F.F.F.F.F.F.F.F.F.J.F.,.| n z z z j > O                 ",
"AXAXAXAXAXAXAXAXAXAXAXAXAXAXAXAXAXAXAXAXAXAXAXAXAXAXAXAXAXAXAXAXAXAXAXAXAXAXAXNXzX5             . > B Z.J.J.F.F.F.F.F.F.F.F.F.F.F.F.F.F.F.F.F.F.F.F.F.F.F.F.F.F.F.F.F.F.F.F.F.F.F.F.F.F.F.F.F.F.F.F.F.F.F.F.F.F.F.F.F.F.F.J.F.S.,.X.X.X.X.X.X.X.X.X.X.X.X.X.X.X.X.X.X.X.X.X.X.X.X.,.S.F.J.F.F.F.F.F.F.F.F.F.F.F.F.F.F.F.F.F.F.F.F.F.F.F.F.F.F.F.F.F.F.F.F.F.F.F.F.F.F.F.F.F.F.F.F.F.F.F.F.F.F.F.F.F.F.F.F.F.F.F.F.F.F.F.F.F.F.F.K.C.e.e.e.e.e.e.e.e.e.C C C C C C C C { Z.D.J.J.F.S.,.X.X.X.X.X.X.X.X.X.X.X.X.X.X.X.X.X.X.X.X.X.X.X.X.,.S.F.F.F.F.F.F.F.F.F.F.F.F.F.F.F.F.F.F.F.F.J.F.,.| n z z z j > O                 ",
"AXAXAXAXAXAXAXAXAXAXAXAXAXAXAXAXAXAXAXAXAXAXAXAXAXAXAXAXAXAXAXAXAXAXAXAXAXAXAXNXzX5             . > B Z.J.J.F.F.F.F.F.F.F.F.F.F.F.F.F.F.F.F.F.F.F.F.F.F.F.F.F.F.F.F.F.F.F.F.F.F.F.F.F.F.F.F.F.F.F.F.F.F.F.F.F.F.F.F.F.F.F.F.F.D.S.S.Z.Z.Z.Z.Z.Z.Z.Z.Z.Z.Z.Z.Z.Z.Z.Z.Z.S.Z.Z.Z.Z.S.S.D.F.F.F.F.F.F.F.F.F.F.F.F.F.F.F.F.F.F.F.F.F.F.F.F.F.F.F.F.F.F.F.F.F.F.F.F.F.F.F.F.F.F.F.F.F.F.F.F.F.F.F.F.F.F.F.F.F.F.F.F.F.F.F.F.F.F.F.F.F.D.K.K.K.K.K.K.K.K.K.K.A.A.A.A.A.A.A.A.Z.D.D.J.J.F.D.S.S.Z.Z.Z.Z.Z.Z.S.S.S.S.Z.Z.Z.Z.Z.Z.Z.Z.Z.Z.Z.Z.S.D.D.F.F.F.F.F.F.F.F.F.F.F.F.F.F.F.F.F.F.F.F.J.F.,.| n z z z j > O                 ",
"AXAXAXAXAXAXAXAXAXAXAXAXAXAXAXAXAXAXAXAXAXAXAXAXAXAXAXAXAXAXAXAXAXAXAXAXAXAXAXNXzX5             . > B Z.J.J.F.F.F.F.F.F.F.F.F.F.F.F.F.F.F.F.F.F.F.F.F.F.F.F.F.F.F.F.F.F.F.F.F.F.F.F.F.F.F.F.F.F.F.F.F.F.F.F.F.F.F.F.F.F.F.F.F.F.F.F.J.F.J.J.J.J.F.F.F.F.J.J.J.J.J.J.J.J.F.F.F.F.J.F.F.F.F.F.F.F.F.F.F.F.F.F.F.F.F.F.F.F.F.F.F.F.F.F.F.F.F.F.F.F.F.F.F.F.F.F.F.J.F.F.F.F.F.F.F.F.F.F.F.F.F.F.F.F.F.F.F.F.F.F.F.J.F.F.F.F.F.J.F.F.F.F.F.F.F.F.F.F.F.J.J.J.J.J.F.F.J.J.J.J.J.J.J.F.F.F.F.J.J.J.J.J.F.F.J.J.J.J.F.F.J.J.J.J.F.F.J.J.J.J.J.F.F.F.F.F.F.F.F.F.F.F.F.F.F.F.F.F.F.F.F.F.F.J.F.,.| n z z z j > O                 ",
"AXAXAXAXAXAXAXAXAXAXAXAXAXAXAXAXAXAXAXAXAXAXAXAXAXAXAXAXAXAXAXAXAXAXAXAXAXAXAXNXzX5             . > B Z.J.J.F.F.F.F.F.F.F.F.F.F.F.F.F.F.F.F.F.F.F.F.F.F.F.F.F.F.F.F.F.F.F.F.F.F.F.F.F.F.F.F.F.F.F.F.F.F.F.F.F.F.F.F.F.F.F.F.F.F.J.J.J.J.J.J.J.J.J.J.J.J.J.J.J.J.J.J.J.J.J.J.J.J.J.J.F.F.F.F.F.F.F.F.F.F.F.F.F.F.F.J.J.J.J.J.J.J.J.J.J.J.J.J.J.J.J.J.J.J.J.J.J.J.J.J.J.J.J.J.J.J.J.J.J.J.J.J.J.J.J.J.J.J.J.J.J.J.J.J.J.J.J.J.J.J.J.J.J.J.J.J.J.J.J.E.E.J.J.J.J.J.J.J.J.J.J.J.J.F.F.F.J.J.J.J.J.J.J.J.J.J.J.J.J.J.J.J.J.J.J.J.J.J.J.J.J.J.F.F.F.F.F.F.F.F.F.F.F.F.F.F.F.F.F.F.F.F.F.J.F.,.| n z z z j : O                 ",
"AXAXAXAXAXAXAXAXAXAXAXAXAXAXAXAXAXAXAXAXAXAXAXAXAXAXAXAXAXAXAXAXAXAXAXAXAXAXAXNXzX5             . > B Z.J.J.F.F.F.F.F.F.F.F.F.F.F.F.F.F.F.F.F.F.F.F.F.F.F.F.F.F.F.F.F.F.F.F.F.F.F.F.F.F.F.F.F.F.F.F.F.F.F.F.F.F.F.F.F.F.F.F.F.F.F.F.F.F.F.F.F.F.F.F.F.F.F.F.F.F.F.F.F.F.F.F.F.F.F.F.F.F.F.F.F.F.F.F.F.F.F.F.F.F.F.F.F.F.F.F.F.F.F.F.F.F.F.F.F.F.F.F.F.F.F.F.F.F.F.F.F.F.F.F.F.F.F.F.F.F.F.F.F.F.F.F.F.F.F.F.F.F.F.F.F.F.F.F.F.F.F.F.F.F.F.F.F.F.F.J.J.J.F.F.F.F.F.F.F.F.F.J.F.J.F.F.F.F.F.F.F.F.F.F.F.F.F.F.F.F.F.F.F.F.F.F.F.F.F.F.F.F.F.F.F.F.F.F.F.F.F.F.F.F.F.F.F.F.F.F.F.F.F.J.F.,.| n z z z j : O                 ",
"AXAXAXAXAXAXAXAXAXAXAXAXAXAXAXAXAXAXAXAXAXAXAXAXAXAXAXAXAXAXAXAXAXAXAXAXAXAXAXNXzX5             . > B Z.J.J.F.F.F.F.F.F.F.F.F.F.F.F.F.F.F.F.F.F.F.F.F.F.F.F.F.F.F.F.F.F.F.F.F.F.F.F.F.F.F.F.F.F.F.F.F.F.F.F.F.F.F.F.F.F.F.F.F.F.F.F.F.F.F.F.F.F.F.F.F.F.F.F.F.F.F.F.F.F.F.F.F.F.F.F.F.F.F.F.F.F.F.F.F.F.F.F.F.F.D.S.Z.Z.Z.Z.Z.Z.Z.Z.Z.Z.Z.Z.Z.Z.Z.Z.Z.Z.Z.Z.Z.Z.Z.Z.Z.Z.Z.Z.Z.Z.Z.Z.Z.Z.Z.Z.Z.Z.Z.Z.Z.Z.Z.Z.Z.Z.Z.Z.Z.Z.Z.Z.Z.Z.Z.S.D.F.F.F.F.F.F.F.F.F.F.F.F.F.F.F.F.F.F.F.F.F.F.F.F.F.F.F.F.F.F.F.F.F.F.F.F.F.F.F.F.F.F.F.F.F.F.F.F.F.F.F.F.F.F.F.F.F.G.<.<.<.<.<.<.G.F.F.F.F.F.J.F.,.| n z z z j : O                 ",
"AXAXAXAXAXAXAXAXAXAXAXAXAXAXAXAXAXAXAXAXAXAXAXAXAXAXAXAXAXAXAXAXAXAXAXAXAXAXAXNXzX5             . > B Z.J.J.F.F.F.F.F.F.F.F.F.F.F.F.F.F.F.F.F.F.F.F.F.F.F.F.F.F.F.F.F.F.F.F.F.F.F.F.F.F.F.F.F.F.F.F.F.F.F.F.F.F.F.F.F.F.F.F.F.F.F.F.F.F.F.F.F.F.F.F.F.F.F.F.F.F.F.F.F.F.F.F.F.F.F.F.F.F.F.F.F.F.F.F.F.F.F.F.J.D.Z.X...| |  . . .| | | | | |  .| | |  .| | | |  .|  . . .| | | | | | | | | | | | | |  .| | | | |  . .| |  .| |  .X.+.S.F.J.F.F.F.F.F.F.F.F.F.F.F.F.F.F.F.F.F.F.F.F.F.F.F.F.F.F.F.F.F.F.F.F.F.F.F.F.F.F.F.F.F.F.F.F.F.F.F.F.F.F.F.F.F.F.G.<.:.2.2.2.2.:.<.J.F.F.F.F.J.F.,.| n z z z j : O                 ",
"AXAXAXAXAXAXAXAXAXAXAXAXAXAXAXAXAXAXAXAXAXAXAXAXAXAXAXAXAXAXAXAXAXAXAXAXAXAXAXNXzX5             . > B Z.J.J.F.F.F.F.F.F.F.F.F.F.F.F.F.F.F.F.F.F.F.F.F.F.F.F.F.F.F.F.F.F.F.F.F.F.F.F.F.F.F.F.F.F.F.F.F.F.F.F.F.F.F.F.F.F.F.F.F.F.F.F.F.F.F.F.F.F.F.F.F.F.F.F.F.F.F.F.F.F.F.F.F.F.F.F.F.F.F.F.F.F.F.F.F.F.F.J.J.D.+.| M n n n n n M M M M M n M n n M n n M M M M n n n n M M M M n M M n M M M M n M n n M M M M n n n n n n n M } X.Z.F.J.F.F.F.F.F.F.F.F.F.F.F.F.F.F.F.F.F.F.F.F.F.F.F.F.F.F.F.F.F.F.F.F.F.F.F.F.F.F.F.F.F.F.F.F.F.F.F.F.F.F.F.F.F.F.G.:.2.%.-.-.%.2.<.G.F.F.F.F.J.F.,.| n z z z j : O                 ",
"AXAXAXAXAXAXAXAXAXAXAXAXAXAXAXAXAXAXAXAXAXAXAXAXAXAXAXAXAXAXAXAXAXAXAXAXAXAXAXNXzX5             . > B Z.P.J.F.F.F.F.F.F.F.F.F.F.F.F.F.F.F.F.F.F.F.F.F.F.F.F.F.F.F.F.F.F.F.F.F.F.F.F.F.F.F.F.F.F.F.F.F.F.F.F.F.F.F.F.F.F.F.F.F.F.F.F.F.F.F.F.F.F.F.F.F.F.F.F.F.F.F.F.F.F.F.F.F.F.F.F.F.F.F.F.F.F.F.F.F.F.F.J.J.D.+.} b z z z z z z z z z z z z z z z z z z z z z z z z z z z z z z z z z z z z z z z z z z z z z z z z z z z z z M ..Z.F.J.F.F.F.F.F.F.F.F.F.F.F.F.F.F.F.F.F.F.F.F.F.F.F.F.F.F.F.F.F.F.F.F.F.F.F.F.F.F.F.F.F.F.F.F.F.F.F.F.F.F.F.F.L.F.<.2.%.*.&.*.-.2.<.G.F.F.F.F.J.F.,.| n z z z j : O                 ",
"AXAXAXAXAXAXAXAXAXAXAXAXAXAXAXAXAXAXAXAXAXAXAXAXAXAXAXAXAXAXAXAXAXAXAXAXAXAXAXNXzX5             . > B Z.P.J.F.F.F.F.F.F.F.F.F.F.F.F.F.F.F.F.F.F.F.F.F.F.F.F.F.F.F.F.F.F.F.F.F.F.F.F.F.F.F.F.F.F.F.F.F.F.F.F.F.F.F.F.F.F.F.F.F.F.F.F.F.F.F.F.F.F.F.F.F.F.F.F.F.F.F.F.F.F.F.F.F.F.F.F.F.F.F.F.F.F.F.F.F.F.F.F.J.D.+.} c z z z z z z z z z z z z z z z z z z z z z z z z z z z z z z z z z z z z z z z z z z z z z z z z z z z z z M  .Z.F.J.F.F.F.F.F.F.F.F.F.F.F.F.F.F.F.F.F.F.F.F.F.F.F.F.F.F.F.F.F.F.F.F.F.F.F.F.F.F.F.F.F.F.F.F.F.F.F.F.F.F.F.F.F.F.<.2.%.*.&.&.-.%.:.G.F.F.F.F.J.F.,.| n z z z j : O                 ",
"AXAXAXAXAXAXAXAXAXAXAXAXAXAXAXAXAXAXAXAXAXAXAXAXAXAXAXAXAXAXAXAXAXAXAXAXAXAXAXNXzX5             . > B Z.P.J.F.F.F.F.F.F.F.F.F.F.F.F.F.F.F.F.F.F.F.F.F.F.F.F.F.F.F.F.F.F.F.F.F.F.F.F.F.F.F.F.F.F.F.F.F.F.F.F.F.F.F.F.F.F.F.F.F.F.F.F.F.F.F.F.F.F.F.F.F.F.F.F.F.F.F.F.F.F.F.F.F.F.F.F.F.F.F.F.F.F.F.F.F.F.F.F.J.D.+.} b z z z z z z z z z z z z z z z z z z z z z z z z z z z z z z z z z z z z z z z z z z z z z z z z z z z z z M ..Z.F.J.F.F.F.F.F.F.F.F.F.F.F.F.F.F.F.F.F.F.F.F.F.F.F.F.F.F.F.F.F.F.F.F.F.F.F.F.F.F.F.F.F.F.F.F.F.F.F.F.F.F.F.F.F.F.<.:.%.*.&.&.-.2.:.G.F.F.F.F.J.F.,.| n z z z j > O                 ",
"AXAXAXAXAXAXAXAXAXAXAXAXAXAXAXAXAXAXAXAXAXAXAXAXAXAXAXAXAXAXAXAXAXAXAXAXAXAXAXNXzX5             . > B Z.J.J.F.F.F.F.F.F.F.F.F.F.F.F.F.F.F.F.F.F.F.F.F.F.F.F.F.F.F.F.F.F.F.F.F.F.F.F.F.F.F.F.F.F.F.F.F.F.F.F.F.F.F.F.F.F.F.F.F.F.F.F.F.F.F.F.F.F.F.F.F.F.F.F.F.F.F.F.F.F.F.F.F.F.F.F.F.F.F.F.F.F.F.F.F.F.F.F.J.D.+.} b z z z z z z z z z z z z z z z z z z z z z z z z z z z z z z z z z z z z z z z z z z z z z z z z z z z z z M ..Z.F.J.F.F.F.F.F.F.F.F.F.F.F.F.F.F.F.F.F.F.F.F.F.F.F.F.F.F.F.F.F.F.F.F.F.F.F.F.F.F.F.F.F.F.F.F.F.F.F.F.F.F.F.F.L.F.<.:.%.-.&.*.-.2.:.G.F.F.F.F.J.F.,.| n z z z j > O                 ",
"AXAXAXAXAXAXAXAXAXAXAXAXAXAXAXAXAXAXAXAXAXAXAXAXAXAXAXAXAXAXAXAXAXAXAXAXAXAXAXNXzX5             . > B Z.J.J.F.F.F.F.F.F.F.F.F.F.F.F.F.F.F.F.F.F.F.F.F.F.F.F.F.F.F.F.F.F.F.F.F.F.F.F.F.F.F.F.F.F.F.F.F.F.F.F.F.F.F.F.F.F.F.F.F.F.F.F.F.F.F.F.F.F.F.F.F.F.F.F.F.F.F.F.F.F.F.F.F.F.F.F.F.F.F.F.F.F.F.F.F.F.F.F.F.D.+.} b z z z z z z z z c c c c c c c c c c c c c c c c c c c c c c c c c c c c c c z z z z z z z z z z z z z z z M ..Z.F.J.F.F.F.F.F.F.F.F.F.F.F.F.F.F.F.F.F.F.F.F.F.F.F.F.F.F.F.F.F.F.F.F.F.F.F.F.F.F.F.F.F.F.F.F.F.F.F.F.F.L.L.L.L.L.G.:.%.-.&.&.-.%.:.G.F.L.F.F.J.F.,.| n z z z j > O                 ",
"AXAXAXAXAXAXAXAXAXAXAXAXAXAXAXAXAXAXAXAXAXAXAXAXAXAXAXAXAXAXAXAXAXAXAXAXAXAXAXNXzX5             . > B Z.J.J.F.F.F.F.F.F.F.F.F.F.F.F.F.F.F.F.F.F.F.F.F.F.F.F.F.F.F.F.F.F.F.F.F.F.F.F.F.F.F.F.F.F.F.F.F.F.F.F.F.F.F.F.F.F.F.F.F.F.F.F.F.F.F.F.F.F.F.F.F.F.F.F.F.F.F.F.F.F.F.F.F.F.F.F.F.F.F.F.F.F.F.F.F.F.F.J.J.D.+.} b z z z z z z z z c c c c c c c c c c c c c c c c c c c c c c c c c c c c c c z z z z z z z z z z z z z z z M  .Z.F.J.F.F.F.F.F.F.F.F.F.F.F.F.F.F.F.F.F.F.F.F.F.F.F.F.F.F.F.F.F.F.F.F.F.F.F.F.F.F.F.F.F.F.F.F.F.F.F.F.F.F.F.F.L.L.G.:.%.*.&.&.-.2.:.G.F.F.F.F.J.F.,.| n z z z j > O                 ",
"AXAXAXAXAXAXAXAXAXAXAXAXAXAXAXAXAXAXAXAXAXAXAXAXAXAXAXAXAXAXAXAXAXAXAXAXAXAXAXNXzX5             . > B Z.J.J.F.F.F.F.F.F.F.F.F.F.F.F.F.F.F.F.F.F.F.F.F.F.F.F.F.F.J.G.I.I.I.I.I.I.I.I.I.I.I.I.I.I.I.I.I.I.I.I.I.I.I.I.I.I.I.I.I.I.I.I.I.I.I.I.I.I.I.G.H.J.F.F.F.F.F.F.F.F.F.F.F.F.F.F.F.F.F.F.F.F.F.F.F.F.F.J.J.D.+.} b z z z z z z z z j j j j j j j j j j j j j j j j j j j j j j j j j j j j j j z z z z z z z z z z z z z z z M  .Z.F.J.F.F.F.F.F.F.F.F.F.F.F.F.F.F.F.F.F.F.F.F.F.F.F.F.F.F.F.F.F.F.G.G.G.G.G.G.G.G.G.G.G.G.G.G.G.G.G.G.G.G.G.G.G.G.<.2.%.*.&.&.-.2.:.G.F.F.F.F.J.F.,.| n z z z j > O                 ",
"AXAXAXAXAXAXAXAXAXAXAXAXAXAXAXAXAXAXAXAXAXAXAXAXAXAXAXAXAXAXAXAXAXAXAXAXAXAXAXNXzX5             . > B Z.J.J.F.F.F.F.F.F.F.F.F.F.F.F.F.F.F.F.F.F.F.F.F.F.F.F.F.H.I.>.1.1.1.1.1.1.1.1.1.1.1.1.1.1.1.1.1.1.1.1.1.1.1.1.1.1.1.1.1.1.1.1.1.1.1.1.1.1.1.>.,.H.F.F.F.F.F.F.F.F.F.F.F.F.F.F.F.F.F.F.F.F.F.F.F.F.F.J.J.D.+.} b z z z z z z z 0 8 8 > 7 8 8 8 8 8 8 8 8 8 8 8 8 8 8 8 8 8 8 8 8 8 8 8 > > 8 0 j z c z z z z z z z z z z z M  .Z.F.J.F.F.F.F.F.F.F.F.F.F.F.F.F.F.F.F.F.F.F.F.F.F.F.F.F.F.F.F.F.G.<.<.:.:.:.:.:.:.:.:.:.:.:.:.:.:.:.:.:.:.:.:.:.:.2.2.-.*.&.*.-.2.:.G.F.F.F.F.J.F.,.| n z z z j : O                 ",
"AXAXAXAXAXAXAXAXAXAXAXAXAXAXAXAXAXAXAXAXAXAXAXAXAXAXAXAXAXAXAXAXAXAXAXAXAXAXAXNXzX5             . > B Z.J.J.F.F.F.F.F.F.F.F.F.F.F.F.F.F.F.F.F.F.F.F.F.F.F.F.F.H.>.1.OX.X.X.X.X.X.X.X.X.X.X.X.X.X.X.X.X.X.X.X.X.X.X.X.X.X.X.X.X.X.X.X.X.X.X.X.X.XOX` >.G.F.F.F.F.F.F.F.F.F.F.F.F.F.F.F.F.F.F.F.F.F.F.F.F.F.J.J.D.+.} b z z z z c z j 8 = O O O O O O O O O O O O O O O O O O O O O O O O O O O O & > j z c c z z z z z z z z z z M  .Z.F.J.F.F.F.F.F.F.F.F.F.F.F.F.F.F.F.F.F.F.F.F.F.F.F.F.F.F.F.F.F.G.<.2.%.%.%.%.%.%.%.%.%.%.%.%.%.%.%.%.%.%.%.%.%.%.%.-.-.*.*.*.-.2.:.G.F.F.F.F.J.F.,.| n z z z j : O                 ",
"AXAXAXAXAXAXAXAXAXAXAXAXAXAXAXAXAXAXAXAXAXAXAXAXAXAXAXAXAXAXAXAXAXAXAXAXAXAXAXNXzX5             . > B Z.J.J.F.F.F.F.F.F.F.F.F.F.F.F.F.F.F.F.F.F.J.F.F.F.F.F.F.H.1.OXoX)._.).).).).).).).).).).).).).).).).).).).).).).).).).).).).).).).).)._._.).OX1.G.F.F.F.F.F.F.F.F.F.F.F.F.F.F.F.F.F.F.F.F.F.F.F.F.F.J.J.D.+.} b z z z z c z 0 : O                                                         o = 9 z c c z z z z z z z z z c M ..Z.F.J.F.F.F.F.F.F.F.F.F.F.F.F.F.F.F.F.F.F.F.F.F.F.F.F.F.F.F.F.F.<.:.%.-.*.*.-.-.-.-.-.-.-.-.-.-.-.-.-.-.-.-.-.-.-.-.*.*.*.*.*.-.2.:.G.F.F.F.F.J.F.,.| n z z z j : O                 ",
"AXAXAXAXAXAXAXAXAXAXAXAXAXAXAXAXAXAXAXAXAXAXAXAXAXAXAXAXAXAXAXAXAXAXAXAXAXAXAXNXzX5             . > B S.Q.Q.J.J.J.F.F.F.F.F.F.F.F.F.F.F.F.F.F.F.F.F.F.F.F.L.W.J.1.OX).(.(.(.(.(.(.(.(.(.(.(.(.(.(.(.(.(.(.(.(.(.(.(.(.(.(.(.(.(.(.(.(.(.(.(.(.(.)..X1.G.F.F.F.F.F.F.F.F.F.F.F.F.F.F.F.F.F.F.F.F.F.F.F.F.F.J.J.D.+.} n z z c c b c 0 ; o                                                         . * 9 z b c c c c c z z z z z c M ..Z.F.J.F.F.F.F.F.F.F.F.F.F.F.F.F.F.F.F.F.F.F.F.F.F.F.F.F.F.F.L.L.G.:.%.*.&.&.*.*.*.*.*.*.*.*.*.&.*.*.*.*.*.*.*.*.*.*.*.*.*.*.&.-.%.3.G.L.L.J.J.J.F.,.| n z z z j : O                 ",
"AXAXAXAXAXAXAXAXAXAXAXAXAXAXAXAXAXAXAXAXAXAXAXAXAXAXAXAXAXAXAXAXAXAXAXAXAXAXAXNXzX5             . 8 } S.Q.Q.P.J.J.F.F.F.F.F.F.F.F.F.F.F.F.F.F.F.F.F.F.F.F.W.W.F.>.OX).(.(.(.(.(.(.(.(.(.(.(.(.(.(.(.(.(.(.(.(.(.(.(.(.(.(.(.(.(.(.(.(.(.(.(.(.(.).OX1.G.F.F.F.F.F.F.F.F.F.F.F.F.F.F.F.F.F.F.F.F.F.F.F.F.F.J.J.D.+.| n c z c c b c j ; o                                                         . * 9 z b b c c c c c z z z z c M ..Z.F.J.F.F.F.F.F.F.F.F.F.F.F.F.F.F.F.F.F.F.F.F.F.F.F.F.F.F.F.L.L.G.:.%.*.&.*.*.*.*.*.*.*.*.*.*.*.*.*.*.*.*.*.*.*.*.*.*.*.*.&.&.-.2.3.G.L.L.J.J.P.J.,.| n z z z j : O                 ",
"AXAXAXAXAXAXAXAXAXAXAXAXAXAXAXAXAXAXAXAXAXAXAXAXAXAXAXAXAXAXAXAXAXAXAXAXAXAXAXNXzX5             . > M +.D.D.S.S.D.F.F.F.F.F.F.F.F.F.F.F.F.F.F.H.H.G.G.G.G.H.J.Z.1.OX).(.(._._._._.(.(._._._._._._._._._._._._._._._._.(._._._._._._._._._._.(.(.).OX1.G.F.F.F.F.F.F.F.F.F.F.F.F.F.F.F.F.F.F.F.F.F.F.F.F.F.J.J.D.+.} c k j z z z z 0 ; o                                                         . * 9 j z z z z z z z z z z z c M ..Z.F.J.F.F.F.F.F.F.F.F.F.F.F.F.F.F.F.F.F.F.F.F.F.J.G.G.G.G.G.F.J.<.2.%.-.*.*.*.*.*.*.*.*.*.*.*.*.*.*.*.*.*.*.*.*.*.*.*.*.*.*.*.-.:.:.S.D.D.D.D.F.D.+.| n z z z j : O                 ",
"AXAXAXAXAXAXAXAXAXAXAXAXAXAXAXAXAXAXAXAXAXAXAXAXAXAXAXAXAXAXAXAXAXAXAXAXAXAXAXNXzX5             . = j M } } } ..+.S.F.J.F.F.F.F.F.F.F.F.F.F.H.I.>.1.1.1.1.1.1.1.` .X^.~.~.~.~.~.~.~./._._._._._._._._._._._._._._._./.~.~.~.~.~.~.~.~.~.~.~.~.~.^.Q 1.G.F.F.F.F.F.F.F.F.F.F.F.F.F.F.F.F.F.F.F.F.F.F.F.F.F.J.J.S.X.n 0 8 8 9 9 9 9 > & .                                                         . O : 8 9 9 9 9 8 9 0 j z z z c M ..Z.F.J.F.F.F.F.F.F.F.F.F.F.F.F.F.F.F.F.F.F.F.F.G.<.<.<.<.<.<.<.<.:.2.%.*.*.*.*.*.*.*.*.*.*.*.*.*.*.#.#.#.#.#.#.#.#.#.#.$.$.$.$.$.;.;.O.+.+.+.+.+.+.X.} b z c z j : O                 ",
"AXAXAXAXAXAXAXAXAXAXAXAXAXAXAXAXAXAXAXAXAXAXAXAXAXAXAXAXAXAXAXAXAXAXAXAXAXAXAXNXzX5               O = 8 8 8 9 z | Z.J.J.F.F.F.F.F.F.F.J.F.F.G.>.` OXOXOXOXOXOXOX.X^.K K K K K K K !.~./._._._._._._._._._._._._._./.!.!.K K K K K K K K K K K K L / >.G.F.F.F.F.F.F.F.F.F.F.F.F.F.F.F.F.F.F.F.F.F.F.F.F.F.J.J.S.| j ; & & & & & & O o                                                             o O & & & & & & * > 9 z z z c M ..Z.F.J.F.F.F.F.F.F.F.F.F.F.F.F.F.F.F.F.F.F.F.F.<.:.2.2.2.2.2.2.2.2.%.-.*.*.*.*.*.*.*.*.*.*.*.*.*.#.#.@.r r r @.r @.@.] ] ] ] ] ] ;.} } } } } } } } M n c z c z j > O                 ",
"AXAXAXAXAXAXAXAXAXAXAXAXAXAXAXAXAXAXAXAXAXAXAXAXAXAXAXAXAXAXAXAXAXAXAXAXAXAXAXNXzX5                 . o . . O > n ,.J.J.F.F.F.F.F.F.J.J.F.F.Z.1.OX).).).).).).).^.!.J J J J J Z J J !./._._._._._._._._._._._._.(.~.!.J J J J J J J J J J J J J G / >.G.F.F.F.F.F.F.F.F.F.F.F.F.F.F.F.F.F.F.F.F.F.F.F.F.F.J.P.S.} 9 O     . . . .                                                                     . . . .     . & 8 j z z c M ..Z.F.J.F.F.F.F.F.F.F.F.F.F.F.F.F.F.F.F.F.F.F.F.<.2.%.-.-.-.-.-.-.-.-.*.*.*.*.*.*.*.*.*.*.*.*.*.*.#.@.r w w w w w w e y y c N N z c c n b b b b b b b c z z c z j > O                 ",
"AXAXAXAXAXAXAXAXAXAXAXAXAXAXAXAXAXAXAXAXAXAXAXAXAXAXAXAXAXAXAXAXAXAXAXAXAXAXAXNXzX5                           = b +.J.P.F.F.F.F.F.F.J.J.F.F.I.1..X_.(.(.(.(.(.(.~.!.J Z Z A Z Z Z J !./._._._._._._._._._._._._.(.~.K J Z Z A A A A A A A A A A G / >.G.F.F.F.F.F.F.F.F.F.F.F.F.F.F.F.F.F.F.F.F.F.F.F.F.F.J.Q.S.} 8 .                                                                                               O > j c z c M ..Z.F.J.F.F.F.F.F.F.F.F.F.F.F.F.F.F.F.F.F.F.F.F.<.2.-.*.&.*.*.*.*.*.*.*.*.*.*.*.*.*.*.*.*.*.*.*.*.#.@.r q q q q q q e t y z v z z z z z z z z z z z z z z z c z j > O                 ",
"AXAXAXAXAXAXAXAXAXAXAXAXAXAXAXAXAXAXAXAXAXAXAXAXAXAXAXAXAXAXAXAXAXAXAXAXAXAXAXNXzX5                           = b +.J.P.F.F.F.F.F.F.F.F.F.F.I.1..X_.(.(.(.(.(.(.~.K J Z Z Z Z Z Z J !.~._._._._._._._._._._._._.(.~.K J Z Z Z A A A A A A A A A S / >.G.F.F.F.F.F.F.F.F.F.F.F.F.F.F.F.F.F.F.F.F.F.F.F.F.F.J.Q.S.} 8 .                                                                                               O > j c z c M ..Z.F.J.F.F.F.F.F.F.F.F.F.F.F.F.F.F.F.F.F.F.L.F.<.2.-.&.&.*.*.*.*.*.*.*.*.*.*.*.*.*.*.*.*.*.*.*.*.#.@.r q q q q q q e t y z v v z z z z z z z z z z z z z z c z j > O                 ",
"AXAXAXAXAXAXAXAXAXAXAXAXAXAXAXAXAXAXAXAXAXAXAXAXAXAXAXAXAXAXAXAXAXAXAXAXAXAXAXNXzX5                           = b +.J.P.F.F.F.F.F.F.F.F.F.F.I.1..X).(.(.(._._.(.~.K J Z A A A Z A J !.~._._._._._._._._._._._._._.~.K J A Z A Z Z Z Z Z A A A A G / >.G.F.F.F.F.F.F.F.F.F.F.F.F.F.F.F.F.F.F.F.F.F.F.F.F.F.J.Q.S.} 8 o                                                                                               O 8 j c c c M ..Z.F.J.F.F.F.F.F.F.F.F.F.F.F.F.F.F.F.F.F.F.L.F.<.2.-.*.*.*.*.*.*.*.*.*.*.*.*.*.*.*.*.*.*.*.*.*.*.#.@.r q q q q q q e t y z z z z z z z z z z z z z z z z z c z j > O                 ",
"AXAXAXAXAXAXAXAXAXAXAXAXAXAXAXAXAXAXAXAXAXAXAXAXAXAXAXAXAXAXAXAXAXAXAXAXAXAXAXNXzX5                           = b +.J.P.F.F.F.F.F.F.F.F.F.F.I.1..X).(.(._._._._.~.K J A A Z Z Z A J !./._.`._._._._._._._._._._._.~.!.J A Z A Z A Z A A A A A A G / >.G.F.F.F.F.F.F.F.F.F.F.F.F.F.F.F.F.F.F.F.F.F.F.F.J.J.Q.Q.S.} 8 o                                                                                               O 8 j c z c M ..Z.F.J.F.F.F.F.F.F.F.F.F.F.F.F.F.F.F.F.F.F.L.F.<.2.-.*.*.*.*.*.*.*.*.*.*.*.*.*.*.*.*.*.*.*.*.*.*.#.@.r q q q q q q e e y z v z z z z z z z z z z z z z z c b c j : o                 ",
"AXAXAXAXAXAXAXAXAXAXAXAXAXAXAXAXAXAXAXAXAXAXAXAXAXAXAXAXAXAXAXAXAXAXAXAXAXAXAXNXzX5                           = b +.J.J.F.F.F.F.F.F.F.F.F.F.I.1..X).(.(._._._._.~.K J A A A Z Z A J !./._.`.`._._._._._._._.`.`._.~.!.J A Z A Z A A A A A A A A G / >.G.F.F.F.F.F.F.F.F.F.F.F.F.F.F.F.F.F.F.F.F.F.F.J.J.P.Q.Q.D.| 8 o                                                                                               O 8 j c z c M ..Z.F.J.F.F.F.F.F.F.F.F.F.F.F.F.F.F.F.F.F.F.F.F.<.2.-.*.*.*.*.*.*.*.*.*.*.*.*.*.*.*.*.*.*.*.*.*.*.#.@.r q q q q q q e e y z v z z z z z z z z z z z z c c b b c j ; o                 ",
"AXAXAXAXAXAXAXAXAXAXAXAXAXAXAXAXAXAXAXAXAXAXAXAXAXAXAXAXAXAXAXAXAXAXAXAXAXAXAXNXzX5                           = b +.J.P.J.F.F.F.F.F.F.F.F.F.I.1..X).(.(._._._._.~.K J A A A A A Z J !./._._._._._._._._._._._._._.~.!.J Z A Z Z A A Z Z Z A A A G / >.Z.J.J.J.F.F.F.F.F.F.F.F.F.F.F.F.F.F.F.F.F.F.F.F.F.F.J.P.S.} 8 o                                                                                               O 8 j c z c M ..Z.F.J.F.F.F.F.F.F.F.F.F.F.F.F.F.F.F.F.F.F.F.F.<.2.-.*.*.*.*.*.*.*.*.*.*.*.*.*.*.*.*.*.*.*.*.*.*.#.@.r q q q q q q e e y z z z z z z z z z z z z z z z z z c z j : O                 ",
"AXAXAXAXAXAXAXAXAXAXAXAXAXAXAXAXAXAXAXAXAXAXAXAXAXAXAXAXAXAXAXAXAXAXAXAXAXAXAXNXzX5                           = b +.J.P.J.F.F.F.F.F.F.F.F.F.I.1..X).(.(._._._._.~.!.J A A A A A Z J K !./././././././././././././.!.K J Z Z Z Z Z Z Z Z Z A A A G / >.Z.F.F.J.J.F.F.F.F.F.F.F.F.F.F.F.F.F.F.F.F.F.D.Z.+.X.X.X...b > .               X # # # # # # # # # # # # # # # # # # # # # # # # X                             O 8 j c z c M ..Z.F.J.F.F.F.F.F.F.F.F.F.F.F.F.F.F.F.F.F.F.F.F.<.2.-.*.*.*.*.*.*.*.*.*.*.*.*.*.*.#.#.#.#.#.#.#.#.@.@.r q q q q q q e e y z z z z z z z z z z z z z z j j 0 0 0 9 8 5 5 5 5 5 5 5 5 5 ",
"AXAXAXAXAXAXAXAXAXAXAXAXAXAXAXAXAXAXAXAXAXAXAXAXAXAXAXAXAXAXAXAXAXAXAXAXAXAXAXNXzX5                           = b +.J.J.J.F.F.F.F.F.F.F.F.F.I.1..X).(.(._._._._.~.K J A A A Z A Z J J K !.!.!.!.!.!.!.!.!.!.!.!.!.K J J Z Z Z Z A A Z Z A A A A G / >.Z.J.J.H.J.F.F.F.F.F.F.F.F.F.F.F.F.F.F.F.J.J.S.X.M z j j j 8 & .             X , 2 D P D D D D D D D D D D D D D D D D D D D D 2 , X                           O 8 j z z c M ..Z.F.J.F.F.F.F.F.F.F.F.F.F.F.F.F.F.F.F.F.F.F.F.<.2.-.*.*.*.*.*.*.*.*.*.*.*.*.*.#.#.@.@.@.@.@.@.@.@.r w q q q q q q e e y z v z z z z z z z z z c z j 9 > ; * ; 4 ^ _ ' lXlX' ' ' ' ' ",
"AXAXAXAXAXAXAXAXAXAXAXAXAXAXAXAXAXAXAXAXAXAXAXAXAXAXAXAXAXAXAXAXAXAXAXAXAXAXAXNXzX5                           = b +.J.P.J.F.F.F.F.F.F.F.F.F.I.1..X).(.(._._._._.~.K J A A Z Z Z Z Z J J J J J J J J J J J J J J J J J Z Z Z Z Z Z A Z Z Z A A A G / >.Z.F.J.H.H.F.F.F.F.F.F.F.F.F.F.F.F.F.F.F.J.J.Z.} 9 * O O & O .               # 2 T W ].W W W W W W W W W W W W W W W W W W W W T 2 #                           O 8 j z z c M ..Z.F.J.F.F.F.F.F.F.F.F.F.F.F.F.F.F.F.F.F.F.F.J.<.2.-.*.*.*.*.*.*.*.*.*.*.*.*.*.#.@.r r r r r r r r w w q q q q q q e t y z v z z z z z z z z z c z 0 > + o . o 3 _ cXmXNXNXNXNXNXNXNX",
"AXAXAXAXAXAXAXAXAXAXAXAXAXAXAXAXAXAXAXAXAXAXAXAXAXAXAXAXAXAXAXAXAXAXAXAXAXAXAXNXzX6                           = b +.J.P.F.F.F.F.F.F.F.F.F.F.I.1..X).(.(._._._._.~.K J Z A Z Z Z Z Z Z Z Z Z Z Z Z Z Z Z A A A A A Z Z Z Z Z A A A A A A A A A A G / >.G.F.F.F.F.F.F.F.F.F.F.F.F.F.F.F.F.F.F.F.J.J.,.M : .                         # D W }. X|.}.}.}.}.}.}.}.}.}.}.}.}.}.}.}.}. X X}.W D #                           O 8 j c z c M ..Z.F.J.F.F.F.F.F.F.F.F.F.F.F.F.F.F.F.F.F.F.L.J.<.2.-.*.*.*.*.*.*.*.*.*.*.*.*.*.#.r w q q q q q q q q q q q q q q q e e y z v z z z z z z z z c c z 0 = .       3 ' mXAXAXAXAXAXAXAXAX",
"AXAXAXAXAXAXAXAXAXAXAXAXAXAXAXAXAXAXAXAXAXAXAXAXAXAXAXAXAXAXAXAXAXAXAXAXAXAXAXNXzX6                           = b +.J.P.F.F.F.F.F.F.F.F.F.F.I.1..X_.(.(._._.`._.~.!.J Z A Z Z Z Z A A A A A A A A A A A A A A A A A A A A A A A A A A A A A A A G / >.G.F.F.F.F.F.F.F.F.F.F.F.F.F.F.F.F.F.F.F.J.J.,.n ;                           # D W  X$X@X X X@X X X X X X X X X X@X X X X@X$X X].P #                           O 8 j c z c M ..Z.F.J.F.F.F.F.F.F.F.F.F.L.L.F.F.F.F.F.P.L.L.J.<.2.-.=.=.*.*.*.*.*.*.*.*.=.=.*.#.r w q q q q q q q q q q q q q q q e e y z z z z z z z z z z c c z 9 = .       3 ' MXAXAXAXAXAXAXAXAX",
"AXAXAXAXAXAXAXAXAXAXAXAXAXAXAXAXAXAXAXAXAXAXAXAXAXAXAXAXAXAXAXAXAXAXAXAXAXAXAXNXzX6                           = b +.J.P.F.F.F.F.F.F.F.F.F.F.I.1..X_.(.(._._.`._.~.!.J Z A A Z Z Z Z Z A A Z Z Z A A A A A A A A A A A A A A A A A A A A A A A A G / >.G.F.F.F.F.F.F.F.F.F.F.F.F.F.F.F.F.F.F.F.J.J.,.n ;                           # D W }.@X X}.}.}. X X X X}.}. X X}.}.}. X X X@X}.W D #                           O 8 j c z c M ..Z.F.J.F.F.F.F.F.F.F.F.F.F.F.F.F.F.F.F.J.L.L.J.<.2.-.*.*.*.*.*.*.*.*.*.*.*.*.*.#.r w q q q q q q q q q q q q q q q e e y z z z z z z z z z z c c z 0 = .       3 ' mXAXAXAXAXAXAXAXAX",
"AXAXAXAXAXAXAXAXAXAXAXAXAXAXAXAXAXAXAXAXAXAXAXAXAXAXAXAXAXAXAXAXAXAXAXAXAXAXAXNXzX6               . o O o o O 8 M ,.J.J.F.F.F.F.F.F.F.F.F.F.Z.1..X/././._._._./.~.K J Z A Z Z Z Z Z Z Z Z Z Z Z Z S S S S S S S S S S S S S S S S G G G G G G G H / >.G.F.F.F.F.F.F.F.F.F.F.F.F.F.F.F.F.F.F.F.J.J.,.n : .         X @ @ @ @ @ X @ < P W }. X}.}.}.}.}.}.}.}.}.}.}.}.}.}.}.}.}. X X}.W D #                           O 8 j c z c M ..Z.F.J.F.F.F.F.F.G.G.<.<.<.G.G.G.<.<.,.,.,.Z.,.<.:.-.#.#.#.#.#.#.#.#.#.#.&.#.#.@.r w q q q q q q q q q q q q q q q e e y z z z z z z z z z z c c z 0 = .       3 ' mXAXAXAXAXAXAXAXAX",
"AXAXAXAXAXAXAXAXAXAXAXAXAXAXAXAXAXAXAXAXAXAXAXAXAXAXAXAXAXAXAXAXAXAXAXAXAXAXAXNXzX5               O ; 9 9 9 0 c | Z.J.J.F.F.F.F.F.F.F.F.E.E.Z.1.Q ^.!.!.!.!.!.!.!.K J Z A A A A Z Z A A A A A Z S G H H H H H H H H H H H H H H U / / / / / / / / ) >.G.F.F.F.F.F.F.F.F.F.F.F.F.F.F.F.F.F.F.F.J.J.,.n : .       @ < 1 2 F 2 2 2 2 P Y ].}. X}.}.}.}.}.}.}.}.}.}.|.|.|.}.}.}.}. X X}.W D #                           O 8 j c z c M ..Z.F.J.F.F.F.F.G.<.<.2.2.:.:.2.2.:.:.;.;.} } ;.;.;.@.@.@.@.@.@.@.@.@.@.@.@.@.@.@.r w q q q q q q q q q q q q q q q e e y z v z z z z z z z z c c z 0 = .       3 ' mXAXAXAXAXAXAXAXAX",
"AXAXAXAXAXAXAXAXAXAXAXAXAXAXAXAXAXAXAXAXAXAXAXAXAXAXAXAXAXAXAXAXAXAXAXAXAXAXAXNXzX5             . = j } | | | X.,.S.J.J.F.F.F.F.F.F.F.F.E.E.Z.` U L K K K K K K J J Z Z A A A A Z Z A A A A A S G 6 t k k t t t t t k t t t t k N >.>.>.>.>.>.>.>.,.Z.D.F.F.F.F.F.F.F.F.F.F.F.F.F.F.F.F.F.F.F.J.J.,.n : .       , D T R R R R R R W ].}.}.}.}.}.}.}.|.|.}.}.}.}.|.}.|.|.}.}.}. X X}.W D #                           O 8 j c z c M ..Z.F.J.F.F.F.F.G.<.2.%.%.%.%.%.%.%.$.] y y y y r r r r r r r r r r r r r r r r r w q q q q q q q q q q q q q q q q e e y z v z z z z z z z z c c z 0 = .       3 ' mXAXAXAXAXAXAXAXAX",
"AXAXAXAXAXAXAXAXAXAXAXAXAXAXAXAXAXAXAXAXAXAXAXAXAXAXAXAXAXAXAXAXAXAXAXAXAXAXAXNXzX6             . > M ,.F.F.D.D.D.F.F.F.F.F.F.F.F.F.F.F.E.E.Z.) H S A A Z Z Z Z Z Z Z Z Z Z Z A Z Z A A Z A A S H t k z z c z z z z c c z z z n  .,.G.H.H.H.H.H.H.H.F.F.F.F.F.F.F.F.F.F.F.F.F.F.F.F.F.F.F.F.F.J.J.,.n : .       < P ].}.}.}.}.}.}.}.}.}.}.|.}.}.}.}.}.}.|.}.}.}.}.}.}.}.}.}.}. X X}.W D #                           O 8 j c z c M ..Z.F.J.F.F.F.F.G.:.%.-.*.*.-.-.-.*.#.@.w q q w w w w w w w w w w w w w w w w w q q q q q q q q q q q q q q q q q q e e y z v z z z z z z z z c c z 0 = .       3 ' mXAXAXAXAXAXAXAXAX",
"AXAXAXAXAXAXAXAXAXAXAXAXAXAXAXAXAXAXAXAXAXAXAXAXAXAXAXAXAXAXAXAXAXAXAXAXAXAXAXNXzX6             . 8 } S.Q.Q.Q.J.J.J.F.F.F.F.F.F.F.F.F.F.E.E.Z.) H S A A A A A A A A Z Z Z Z Z Z Z Z A A Z A A S H t z c c c c c c c c c c z c M  .Z.F.Q.W.F.F.W.E.F.F.J.F.F.F.F.F.F.F.F.F.F.F.F.F.F.F.F.F.F.F.J.J.,.n : .       < P [.@X@X X X X X X X X|.|.}.}.}.}.}.}.|.}.}.}.}.}.}.}.}.}.}. X X}.W D #                           O 8 j c z c M ..Z.F.J.F.F.F.F.G.:.%.*.&.&.*.*.*.*.#.r w q q q q q q q q q q q q q q q q q q q q q q q q q q q q q q q q q q q q q e e y z v z z z z z z z z c c z 0 = .       3 ' mXAXAXAXAXAXAXAXAX",
"AXAXAXAXAXAXAXAXAXAXAXAXAXAXAXAXAXAXAXAXAXAXAXAXAXAXAXAXAXAXAXAXAXAXAXAXAXAXAXNXzX5             . > B S.Q.Q.J.J.J.F.F.F.F.F.F.F.F.F.F.F.F.F.Z.) H S A A Z Z A A A A Z Z Z Z Z Z Z Z Z Z Z A A S H t z c c c c c z z z z z z z M  .Z.F.Q.F.F.F.F.F.F.F.F.F.F.F.F.F.F.F.F.F.F.F.F.F.F.F.F.F.F.F.P.J.,.n : .     X < P [. X@X X|. X X|.}.}.|.|.|.}.}.}.|.|.|.|.|.}.}.}.}.}.}.}.}. X X}.W D #                           O 8 j z z z M ..Z.F.J.F.F.F.F.<.:.%.*.&.*.*.*.*.*.#.r w q q q q q q q q q q q q q q q q q q q q q q q q q q q q q q q q q q q q q e e y z v z z z z z z z z c c z 0 = .       3 ' mXAXAXAXAXAXAXAXAX",
"AXAXAXAXAXAXAXAXAXAXAXAXAXAXAXAXAXAXAXAXAXAXAXAXAXAXAXAXAXAXAXAXAXAXAXAXAXAXAXNXzX6             . > B Z.J.J.F.F.F.F.F.F.F.F.F.F.F.F.F.F.F.F.Z.) H S A A Z Z A A A Z Z Z Z Z Z Z Z Z Z Z Z A A S H t c c c z z z z z z z z z z n | ,.F.J.J.F.F.F.F.F.F.F.F.F.F.F.F.F.F.F.F.F.F.F.F.F.F.F.F.F.F.P.J.,.n : .       < P ]. X X}.}.}.}.}.}.}.|.|.}.}.}.}.|.}.|.|.}.}.}.|.}.}.}.}.}.}. X}.W D #                           O 8 j z z z M ..Z.F.J.F.F.F.F.<.:.%.*.*.*.*.*.*.*.#.r w q q q q q q q q q q q q q q q q q q q q q q q q q q q q q q q q q q q q q e e y z v z z z z z z z z c c z 0 = .       3 ' mXAXAXAXAXAXAXAXAX",
"AXAXAXAXAXAXAXAXAXAXAXAXAXAXAXAXAXAXAXAXAXAXAXAXAXAXAXAXAXAXAXAXAXAXAXAXAXAXAXNXzX5             . > B Z.J.J.F.F.F.F.F.F.F.F.F.F.F.F.F.F.F.F.Z.) H Z A A A A A A A A A Z Z Z A A Z Z Z Z A A A S H t z c c c c c c z z z z z z M | Z.F.J.F.F.F.F.F.F.F.F.F.F.F.F.F.F.F.J.J.J.J.J.J.J.J.J.J.J.J.Q.Q.Z.M : .       < P ].}.}.}.}.}.}.}.}.}.}.}.}.}.}.}.}.}.}.}.}.}.|.|.}.}.}.}.}. X X}.W D #                           O 7 j c z z M ..Z.F.J.F.F.F.F.<.:.%.*.*.*.*.*.*.*.#.r w q q q q q q q q q q q q q q q q q q q q q q q q q q q q q q q q q q q q q e e y z z z z z c c c c c c b z 0 * .       % ' mXAXAXAXAXAXAXAXAX",
"AXAXAXAXAXAXAXAXAXAXAXAXAXAXAXAXAXAXAXAXAXAXAXAXAXAXAXAXAXAXAXAXAXAXAXAXAXAXAXNXzX5             . > B Z.P.J.F.F.F.F.F.F.F.F.F.F.F.F.F.F.F.F.Z.) H Z A A A A A A A A A Z Z Z A A A Z Z Z Z A A S H t z c c c c c c c z z z z z M | Z.F.J.F.F.F.F.F.F.F.F.F.F.F.F.F.F.J.J.J.P.Q.P.P.P.P.P.P.P.Q.Q.Q.Z.M > .       < P ].}.}.}.}.}.}.}.}.}.}.}.}.}.}.}.}.}.}.}.}.}.}.}.}.}.}.}.}. X X}.W D #                           O > j c z c M ..Z.F.J.F.F.F.F.<.:.%.*.*.*.*.*.*.*.#.r w q q q q q q q q q q q q q q q q q q q q q q q q q q q q q q q q q q q q q e e y z z z z z c c c c c b b c 0 * .       % ' mXAXAXAXAXAXAXAXAX",
"AXAXAXAXAXAXAXAXAXAXAXAXAXAXAXAXAXAXAXAXAXAXAXAXAXAXAXAXAXAXAXAXAXAXAXAXAXAXAXNXzX5             . > B Z.J.J.F.F.F.F.F.F.F.F.F.F.F.F.J.F.F.F.Z.) / G Z Z G G G G S Z Z A A A Z Z Z Z A A A A A G H t k z z z c c c c z z z z z n  .Z.F.J.F.F.F.F.F.F.F.F.F.F.F.F.F.F.D.S.S.S.S.S.S.S.S.S.S.S.S.D.D.+.b ; .       < P [.@X@X X X X X X|.|.}.}.}.}.}.}.}.}.}.}.}.}.}.}.|.}.}.}.}. X X}.W D #                         . & 8 j c z c M ..Z.F.J.F.F.F.F.<.:.%.*.*.*.*.*.*.*.#.r w q q q q q q q q q q q q q q q q q q q q q q q q q q q q q q q q q q q q q e t y z z z z z z z z z z z z j 9 : + $   $ 5 ' mXAXAXAXAXAXAXAXAX",
"AXAXAXAXAXAXAXAXAXAXAXAXAXAXAXAXAXAXAXAXAXAXAXAXAXAXAXAXAXAXAXAXAXAXAXAXAXAXAXNXzX5             . > B Z.J.J.F.F.F.F.F.F.F.F.F.F.F.F.F.F.F.F.Z.>.( / H H H H H H H G S A A A Z Z Z Z A A A A A Z G H t t t t t t t k k c z z z M  .Z.F.J.F.F.F.F.F.F.F.F.F.F.F.F.J.D.Z.X.| } } } } } } } } } } } } M 0 &       X 1 R %X=X=X=X=X=X=X&X%X X}.}.}.}.}.}.}.}.}.}.}.}.}.}.|.|.}.}.}. X X}.W D #         . O O + O O O O & ; 9 z z z c M ..Z.F.J.F.F.F.F.<.:.%.*.*.*.*.*.*.*.#.r w q q q q q q q q q q q q q q q q q q q q q q q q q q q q q e e e e e e e e e y z z z z z j 0 9 9 9 9 8 8 8 9 k ^ / ^ ^ _ cXNXAXAXAXAXAXAXAXAX",
"AXAXAXAXAXAXAXAXAXAXAXAXAXAXAXAXAXAXAXAXAXAXAXAXAXAXAXAXAXAXAXAXAXAXAXAXAXAXAXNXzX5             . > B Z.J.J.F.F.F.F.F.F.F.F.F.F.F.F.J.J.F.F.G.,.>.` ) ) ) ) ) ) / H G A A A A Z Z Z Z Z Z A A Z S G H H H H H H H H t k z z z M | Z.F.J.F.F.F.F.F.F.F.F.F.F.F.J.J.D.X.M 0 8 8 8 8 8 8 8 8 8 8 8 8 > = o       X F XX:X,X,X,X,X,X,X>X=X$X}.}.|.|.}.}.|.}.}.|.|.}.}.}.}.|.}.}.}. X X}.W D #       . O ; > 8 8 8 > 8 8 9 j z z z z M ..Z.F.J.F.F.F.F.<.:.%.*.*.*.*.*.*.*.#.r w q q q q q q q q q q q q q q q q q q q q q q q q q q q q e e t y y y y y y y y z z c c z 0 > * & & & & & & 4 _ zXcXcXcXvXmXVXAXAXAXAXAXAXAXAX",
"AXAXAXAXAXAXAXAXAXAXAXAXAXAXAXAXAXAXAXAXAXAXAXAXAXAXAXAXAXAXAXAXAXAXAXAXAXAXAXNXzX5             . > B Z.J.J.F.F.F.F.F.F.F.F.F.F.F.F.F.F.F.F.F.G.G.Z.Z.Z.Z.Z.Z.,.>./ G A A A A Z Z Z Z Z Z Z Z Z Z S S S S S S S S G t k z z z M | Z.F.J.F.F.F.F.F.F.F.F.F.F.F.J.P.S.| j & . . o o o o o o o o o o . .         X F #X<X5X5X4X4X5X4X1X:X%X}.}.|.|.|.|.|.}.}.|.|.|.}.}.}.}.}.}.}. X X}.W D #       . & 8 j z j j j j j z z z z z z M ..Z.F.J.F.F.F.F.<.:.%.*.*.*.*.*.*.*.#.r w q q q q q q q q q q q q q q q q q q q q q q q q q q q q e t y z z z z z z z z z z c c z 8 * .     .     . 5 R.mXVXVXVXVXZXAXAXAXAXAXAXAXAXAX",
"AXAXAXAXAXAXAXAXAXAXAXAXAXAXAXAXAXAXAXAXAXAXAXAXAXAXAXAXAXAXAXAXAXAXAXAXAXAXAXNXzX6             . > B Z.J.J.F.F.F.F.F.F.F.F.F.F.F.F.F.F.F.F.F.F.J.E.J.J.F.W.W.F.>./ G A A A Z Z Z Z A Z Z Z Z A A A A A A A A A A G 6 k z z z M | Z.F.J.F.F.F.F.F.F.F.F.F.F.F.J.Q.S.| 9 o                                     X F #X3X6X7X6X6X6X6X2X>X%X}.}.}.}.}.}.}.}.}.}.}.}.}.}.}.}.}.}.}.}. X}.W D #       . = 9 z b c c c c c c z z z z z M ..Z.F.J.F.F.F.F.G.:.%.-.*.*.*.*.*.*.#.@.w q q q q q q q q q q q q q q q q q q q q q q q q q q q q e t z z v z z z z z z z z c c j 8 &               5 zXNXAXAXAXAXAXAXAXAXAXAXAXAXAXAX",
"AXAXAXAXAXAXAXAXAXAXAXAXAXAXAXAXAXAXAXAXAXAXAXAXAXAXAXAXAXAXAXAXAXAXAXAXAXAXAXNXzX6             . > B Z.J.J.F.F.F.F.F.F.F.F.F.F.F.F.F.F.F.F.F.F.E.E.F.F.F.W.W.F.>./ G A A A Z Z Z Z Z Z Z Z Z Z A A A A A A A A A G 6 k z z z n | Z.F.J.F.F.F.F.F.F.F.F.J.J.F.J.Q.S.| 9 o                                     X F #X3X7X7X6X6X6X6X2X>X%X}.}.}.}.}.}.}.}.}.}.}.}.}.}.}.}.}.}.}. X X}.W D #       . = 9 z b b c c c c c z z z z z M ..Z.F.J.F.F.F.F.G.:.%.-.*.*.*.*.*.*.#.@.w q q q q q q q q q q q q q q q q q q q q q q q q q q q q e y z v v z z z z z z z z c c j 8 &               5 zXBXAXAXAXAXAXAXAXAXAXAXAXAXAXAX",
"AXAXAXAXAXAXAXAXAXAXAXAXAXAXAXAXAXAXAXAXAXAXAXAXAXAXAXAXAXAXAXAXAXAXAXAXAXAXAXNXzX6             . > B Z.J.J.F.F.F.F.F.F.F.F.F.F.F.F.F.F.F.F.F.F.J.F.F.F.F.F.W.D.>./ G A A A Z Z Z Z A Z A Z Z Z Z A A A Z Z A A Z G 6 k z z z n  .Z.F.J.F.F.F.F.F.F.F.F.J.F.F.J.P.S.| 9 O                                     X F #X1X6X6X6X6X6X6X1X>X%X}.}.}.}.}.}.}.|.|.|.}.}.}.}.}.}.}.}.}. X X}.W D #       . = 9 z c c z z z z z z z z z z M ..Z.F.J.F.F.F.F.<.2.%.-.*.*.*.*.*.*.#.@.w q q q q q q q q q q q q q q q q q q q q q q q q q q q q e y z z z z z z z z z z z c c j 8 &               5 zXNXAXAXAXAXAXAXAXAXAXAXAXAXAXAX",
"AXAXAXAXAXAXAXAXAXAXAXAXAXAXAXAXAXAXAXAXAXAXAXAXAXAXAXAXAXAXAXAXAXAXAXAXAXAXAXNXzX6             . > B Z.Q.Q.J.J.F.F.F.F.F.F.F.F.F.F.F.F.F.F.F.F.F.F.F.F.F.F.E.H.>./ G A A A A A A A A A A Z Z Z Z A A Z Z Z A A Z G 6 k z z z n  .Z.F.J.F.F.F.F.F.F.J.J.J.J.J.P.Q.D.| 9 O                                     X F #X1X6X6X5X6X6X5X1X>X%X}.}.}.}.}.}.}.|.|.|.}.}.}.}.|. X X X X X@X}.W D #       . = 9 z c c z z z z z z z z z z M ..Z.J.J.J.F.L.F.G.2.%.-.*.*.*.*.*.*.#.@.w q q q q q q q q q q q q q q q q q q q q q q q q q q q q e y z z z z z z z z z z c c b z 8 &               5 zXNXAXAXAXAXAXAXAXAXAXAXAXAXAXAX",
"AXAXAXAXAXAXAXAXAXAXAXAXAXAXAXAXAXAXAXAXAXAXAXAXAXAXAXAXAXAXAXAXAXAXAXAXAXAXAXNXzX5             . 8 } S.Q.Q.Q.J.J.F.F.F.F.F.F.F.F.F.F.F.F.F.F.F.F.F.F.F.F.F.W.H.>./ G A A A A A A A A A Z Z Z Z Z Z Z Z Z Z A A Z G 6 k z z z M  .Z.F.J.F.F.F.F.F.J.J.P.Q.Q.Q.Q.Q.F.| 9 O                                       F #X1X6X6X5X6X6X5X1X>X%X}.}.}.}.}.}.}.}.}.|.}.}.}. X X X X X X@X$X XW P #       . = 9 z c c z z z z z z z z z z M X.Z.J.P.J.J.L.L.G.2.%.*.&.*.*.*.=.*.#.@.w q q q q q q q q q q q q q q q q q q q q q q q q q q q q e t z z z z z z z z c c c b b z 7 +               5 lXNXAXAXAXAXAXAXAXAXAXAXAXAXAXAX",
"AXAXAXAXAXAXAXAXAXAXAXAXAXAXAXAXAXAXAXAXAXAXAXAXAXAXAXAXAXAXAXAXAXAXAXAXAXAXAXNXzX5             . > B Z.J.J.J.F.F.F.F.F.F.F.F.F.F.F.F.F.F.F.F.F.F.F.F.F.F.F.F.H.>./ G A A Z Z Z Z Z Z Z Z Z Z Z Z Z Z Z A A A A Z G 6 k z z z M | ,.F.J.F.F.F.F.F.F.F.F.F.F.F.J.P.S.| 9 O                                     X F #X1X6X6X5X6X6X5X1X>X%X}.}.}.}.}.}.}.}.}.}.}.}.}.|.}.}.}.}.}.}. X}.W D #       . = 9 z c c z z z z z z z z z z M  .Z.F.J.F.F.F.F.<.:.%.*.*.*.*.*.*.*.#.@.w q q q q q q q q q q q q q q q q q q q q q q q q q q q q e y z z z z z z z z z z z c c z 8 &               5 zXNXAXAXAXAXAXAXAXAXAXAXAXAXAXAX",
"AXAXAXAXAXAXAXAXAXAXAXAXAXAXAXAXAXAXAXAXAXAXAXAXAXAXAXAXAXAXAXAXAXAXAXAXAXAXAXNXzX6             . ; c | X.X.X.+.Z.D.F.J.F.F.F.F.F.F.F.F.F.F.F.F.F.F.F.F.F.F.F.H.>.( H G G H H H H G G S Z A A Z Z Z Z A A Z A A Z G 6 k z z z M | Z.F.J.F.F.F.F.D.Z.+.X.X.X.X.X.X...n > o       X # , < < < < < < < < < < < < 1 T -X3X6X6X5X6X6X5X1X>X%X}.}.}.}.|.|.}.}.}.}.}.}.}.[.].W W W W W W W T 2 #       . * 9 z c c z z z z z z z z z z M | +.Z.Z.Z.Z.Z.Z.,.:.%.#.-.#.#.#.-.#.$.r e e e e e e e e e e e e e e e q q q q q q e e e e e e e e e y z z z z z z z z j j 0 0 0 0 9 4 4 5 3 5 5 3 5 ( cXBXAXAXAXAXAXAXAXAXAXAXAXAXAXAX",
"AXAXAXAXAXAXAXAXAXAXAXAXAXAXAXAXAXAXAXAXAXAXAXAXAXAXAXAXAXAXAXAXAXAXAXAXAXAXAXNXzX6               & > j j j z M ..Z.J.J.F.F.F.F.F.F.F.F.F.F.F.F.F.F.F.F.F.F.F.D.,.>.) ( / ( ( ( ( / H G Z A A Z Z Z Z A A A A A Z G 6 k z z z M | Z.F.J.F.F.J.J.S.X.M z j j j j z j 8 & .       # F T Q XXXXQ Q XXQ Q Q Q Q Q XX#X>X4X6X6X5X6X6X5X1X>X%X}.}.}.}.|.}.}.}.}.}.}. X}.].Y P D D D D D D 2 , X       . * 9 z c c z z z z z z z z z z b M | |  .| | | | | ;.;.;.;.;.;.;.;.;.] y y y y y y y y t t t t t t t e e q q q q e e t t t t t t t y y z z z z z c c z 0 7 ; * * > k ) ' lXlXlX' ' lXcXmXVXAXAXAXAXAXAXAXAXAXAXAXAXAXAX",
"AXAXAXAXAXAXAXAXAXAXAXAXAXAXAXAXAXAXAXAXAXAXAXAXAXAXAXAXAXAXAXAXAXAXAXAXAXAXAXNXzX5               . O & & O & 9 M ,.J.J.F.F.F.F.F.F.F.F.F.F.F.F.F.F.F.F.F.F.F.F.G.,.>.>.>.>.>.,.>.>./ H Z A A Z A A A A Z Z A A Z G t k z z z M  .Z.F.J.F.F.J.J.Z.} 9 * O O & & & & O .         < T *X,X,X,X,X,X,X,X,X,X,X>X>X,X,X3X5X6X6X5X6X6X5X1X>X%X}.}.}.}.|.}.}.}.}.}. X X}.R D , # # # # # # # X         . * 9 z c c z z z z z z z z z z c b n M M M M M M n n N N N N N N N N N z z y y z z z z z z y y z z y t e q q q q e y y z z z y z z z z z z z z z c c j 8 & o . . % / zXmXNXNXNXNXNXNXNXVXAXAXAXAXAXAXAXAXAXAXAXAXAXAXAX",
"AXAXAXAXAXAXAXAXAXAXAXAXAXAXAXAXAXAXAXAXAXAXAXAXAXAXAXAXAXAXAXAXAXAXAXAXAXAXAXNXzX6                           = b +.J.P.F.F.F.F.F.F.F.F.F.F.F.F.F.F.F.F.F.F.F.F.J.J.J.J.J.J.J.F.J.,.( H Z A A A A A A A A A A A Z G 6 k z z z n | Z.F.J.F.F.J.J.,.M : .                         < Q ,X5X6X6X5X5X5X5X5X5X5X5X5X5X5X5X5X6X5X5X6X6X5X1X>X%X}.}.}.}.|.|.}.}.}.}. X@X[.Y 1 X                         . * 9 z c c z z z z z z z z z z z z z z z z z z z z z z z z z z z z z z z z z z z z z z z z z z z z z y e q q q q e y z z z z z z z z z z z z z z c c j > O       $ ( vXVXAXAXAXAXAXAXAXAXAXAXAXAXAXAXAXAXAXAXAXAXAXAXAX",
"AXAXAXAXAXAXAXAXAXAXAXAXAXAXAXAXAXAXAXAXAXAXAXAXAXAXAXAXAXAXAXAXAXAXAXAXAXAXAXNXzX5                           = b +.J.P.F.F.F.F.F.F.F.F.F.F.F.F.F.F.F.F.F.F.F.F.F.F.F.E.E.E.E.W.E.,.) H A A A A A A A A A A A A A G 6 k z z z n | ,.F.J.J.F.J.J.,.n ;                           < XX,X6X7X7X6X6X6X6X7X6X6X6X6X6X6X6X6X5X5X5X6X6X5X1X>X%X}.}.}.}. X X X X X X@X$X}.Y 1                           . * 9 z c c z z z z z z z z z z z z z z z z z z z z z z z z z z z z z z z c z z z z z z z z z z c c z y e q q q q e y z c c c c v v z z z z z z z c c j > O       $ ( vXZXAXAXAXAXAXAXAXAXAXAXAXAXAXAXAXAXAXAXAXAXAXAXAX",
"AXAXAXAXAXAXAXAXAXAXAXAXAXAXAXAXAXAXAXAXAXAXAXAXAXAXAXAXAXAXAXAXAXAXAXAXAXAXAXNXzX5                           = b +.J.P.F.F.F.F.F.F.F.F.F.F.F.F.F.F.F.F.F.F.F.F.J.F.F.F.J.J.J.Q.J.,.( H A A A A A A A A A A A A Z G 6 k z z z n | Z.F.J.J.F.J.J.,.n :                           < Q ,X6X7X6X6X6X6X6X6X6X6X6X6X6X6X6X6X5X5X5X6X6X5X1X>X%X}.}.}.|. X X X X X X@X@X}.R 1 X                         . * 9 z c c z z z z z z z z z z z z z z z z z z z z z z z z z z z z z z z z z z z z z z z z z z z z z y e q q q q e y z z c c c z z z z z z z z z c c j > O       $ ( vXZXAXAXAXAXAXAXAXAXAXAXAXAXAXAXAXAXAXAXAXAXAXAXAX",
"AXAXAXAXAXAXAXAXAXAXAXAXAXAXAXAXAXAXAXAXAXAXAXAXAXAXAXAXAXAXAXAXAXAXAXAXAXAXAXNXzX6                           ; b +.J.P.J.F.F.F.F.F.F.F.F.F.F.F.F.F.F.F.F.F.F.F.F.F.F.F.F.F.F.F.F.,.) H G G G G G G G G G G G G G H t c n b b B ..Z.F.J.F.F.J.J.,.M : .             X # # # # # F XX,X5X6X6X5X5X5X5X5X5X5X5X5X5X5X5X5X5X5X5X6X6X6X1X>X%X}.}.}.}.[.].].].].].].].W I 1 o . . . . . . . . . . . . O ; 9 z c c z z z z z z z z z z z z z z z z z z z z z z z z z z z z z z z z z z z z z z z z z z z z z y e e e e e e y z z z z z z z z z z z z z z c c j > O       $ ( vXVXAXAXAXAXAXAXAXAXAXAXAXAXAXAXAXAXAXAXAXAXAXAXAX",
"AXAXAXAXAXAXAXAXAXAXAXAXAXAXAXAXAXAXAXAXAXAXAXAXAXAXAXAXAXAXAXAXAXAXAXAXAXAXAXNXzX6                           ; b +.J.Q.J.F.F.F.F.F.F.F.F.F.F.F.F.F.F.F.F.F.F.F.F.F.F.F.F.F.F.F.F.Z.>.) / / / / / / / / / / / / / / M } | | | ..+.S.F.J.F.F.J.J.,.M : .             # 1 I T T T XX-X1X5X6X6X5X5X5X5X5X5X5X5X5X5X5X5X5X5X5X5X6X6X6X1X>X%X}.}.}.[.W T P P P P P P P F 1 * * * * = * * * * = * * * ; 8 j z c z z z z z z z z z z z z z z z z z z z z z z z z z z z z z z z z z z z z z z z z z z z z z z y y t e e t y z z z z z z z z z z z z z z z c c j > O       $ ( vXVXAXAXAXAXAXAXAXAXAXAXAXAXAXAXAXAXAXAXAXAXAXAXAX",
"AXAXAXAXAXAXAXAXAXAXAXAXAXAXAXAXAXAXAXAXAXAXAXAXAXAXAXAXAXAXAXAXAXAXAXAXAXAXAXNXzX6                           = b +.J.Q.F.F.F.F.F.F.F.F.F.F.F.F.F.F.F.F.F.F.F.F.F.F.F.F.F.F.F.F.F.G.,.>.>.>.>.>.>.>.>.>.>.>.>.>.>.>.,.,.,.,.,.,.Z.D.F.F.F.F.J.J.,.M : .             1 Q *X:X:X:X>X,X4X5X6X6X5X5X5X5X5X5X5X5X5X5X5X5X5X5X5X5X6X6X6X1X>X%X}.}.}.[.T F < , , , , , < < > 9 9 9 9 9 9 9 9 9 9 9 9 9 9 j j z z z z z z z z z z z z z z z z z z z z z z z z z z z z z z z z z z z z z z z z z z z z z z z z z z y y y y z z z z z z z z z z z z z z z z c c j > O       $ ( vXVXAXAXAXAXAXAXAXAXAXAXAXAXAXAXAXAXAXAXAXAXAXAXAX",
"AXAXAXAXAXAXAXAXAXAXAXAXAXAXAXAXAXAXAXAXAXAXAXAXAXAXAXAXAXAXAXAXAXAXAXAXAXAXAXNXzX6                           = b +.J.P.F.F.F.F.F.F.F.F.F.F.F.F.F.F.F.F.F.F.F.F.F.F.F.F.F.F.F.F.F.F.D.D.H.G.G.G.G.G.G.G.H.H.H.G.G.H.D.D.D.H.H.H.F.F.F.F.F.F.J.J.,.M : .           X 1 XX,X5X6X5X5X5X5X5X5X5X5X5X5X5X5X5X5X5X5X5X5X5X5X5X5X5X6X6X5X1X>X%X}.}. X].P < X           . & > j z z z z z z z z z z z z z z z z z z z z z z z z z z z z z z z z z z z z z z z z z z z z z z z z z z z z z z z z z z z z z z z z z z z z z z z z z z z z z z z z z z z z z c c j > O       $ ( vXVXAXAXAXAXAXAXAXAXAXAXAXAXAXAXAXAXAXAXAXAXAXAXAX",
"AXAXAXAXAXAXAXAXAXAXAXAXAXAXAXAXAXAXAXAXAXAXAXAXAXAXAXAXAXAXAXAXAXAXAXAXAXAXAXNXzX5                           = b +.J.P.F.F.F.F.F.F.F.F.F.F.F.F.F.F.F.F.F.F.F.F.F.F.F.F.F.F.F.F.F.F.F.F.F.E.F.F.F.F.W.W.W.W.F.F.F.F.F.J.J.J.J.J.J.F.F.F.F.J.P.J.,.n : .           X F #X1X7X7X7X6X6X6X5X5X5X5X5X5X5X5X5X5X5X5X5X5X5X5X5X5X5X6X6X5X1X>X%X}.}.}.].P ,               O 7 z b b c c c c c c c c c c c c z z z z z z z z z z z z z z z z z z z z z z z z z z z z z z z z z z z z z z z z z z z z z z z z z z z v v v v z z z z z z z z z z z z z z z z c c j > O       $ ( vXVXAXAXAXAXAXAXAXAXAXAXAXAXAXAXAXAXAXAXAXAXAXAXAX",
"AXAXAXAXAXAXAXAXAXAXAXAXAXAXAXAXAXAXAXAXAXAXAXAXAXAXAXAXAXAXAXAXAXAXAXAXAXAXAXNXzX5                           = b +.J.P.F.F.F.F.F.F.F.F.F.F.F.F.F.F.F.F.F.F.F.F.F.F.F.F.F.F.F.F.F.F.F.F.F.F.F.F.F.F.F.F.F.F.F.F.F.F.F.J.F.F.F.F.F.F.F.F.F.J.P.J.,.n : .           X F #X1X6X7X6X6X6X6X5X5X5X5X5X5X5X5X5X5X5X5X5X5X5X5X5X5X5X6X6X5X1X>X%X}.}.}.].P ,               O 7 j c b c c c c c c c c c c c z z z z z z z z z z z z z z z z z z z z z z z z z z z z z z z z z z z z z z z z z z z z z z z z z z z z z z z z z z z z z z z z z z z z z z z z c c j > O       $ ( vXVXAXAXAXAXAXAXAXAXAXAXAXAXAXAXAXAXAXAXAXAXAXAXAX",
"AXAXAXAXAXAXAXAXAXAXAXAXAXAXAXAXAXAXAXAXAXAXAXAXAXAXAXAXAXAXAXAXAXAXAXAXAXAXAXNXzX5                           = b +.J.J.J.F.F.F.F.F.F.F.F.F.F.F.F.F.F.F.F.F.F.F.F.F.F.F.F.F.F.F.F.F.F.F.F.F.F.F.F.F.F.F.F.F.F.F.F.F.F.F.F.F.F.F.F.F.F.F.F.F.P.J.,.M : .           X F XX<X6X6X6X5X5X5X5X5X5X5X5X5X5X5X5X5X5X5X5X5X5X5X5X5X5X6X6X5X1X>X%X}.}.}.].P ,               O 7 j c c z z z z z z z z z z z z z z z z z z z z z z z z z z z z z z z z z z z z z z z z z z z z z z z z z z z z z z z z z z z z z z z z z z z z z z z z z z z z z z z z z z z c c j > O       $ ( vXVXAXAXAXAXAXAXAXAXAXAXAXAXAXAXAXAXAXAXAXAXAXAXAX",
"AXAXAXAXAXAXAXAXAXAXAXAXAXAXAXAXAXAXAXAXAXAXAXAXAXAXAXAXAXAXAXAXAXAXAXAXAXAXAXNXzX5                           = b +.J.P.F.F.F.F.F.F.F.F.F.F.F.F.F.F.F.F.F.F.F.F.F.F.F.F.F.F.F.F.F.F.F.F.F.F.F.F.F.F.F.F.F.F.F.F.F.F.J.J.J.J.J.J.J.J.J.J.J.J.Q.Q.Z.M : .           X F XX<X6X6X6X5X5X5X5X5X5X5X5X5X5X5X5X5X5X5X5X5X5X5X5X5X5X6X6X5X1X>X%X}.}.}.].P ,               O 7 j c c z z z z z z z z z z z z z z z z z z z z z z z z z z z z z z z z z z z z z z z z z z z z z z z z z z z z z z z z z z z z z z z z z z z z z z z z z z z z z z c c c c c b b j > O       $ ( vXVXAXAXAXAXAXAXAXAXAXAXAXAXAXAXAXAXAXAXAXAXAXAXAX",
"AXAXAXAXAXAXAXAXAXAXAXAXAXAXAXAXAXAXAXAXAXAXAXAXAXAXAXAXAXAXAXAXAXAXAXAXAXAXAXNXzX5                           = b +.J.P.J.F.F.F.F.F.F.F.F.F.F.F.F.F.F.F.F.F.F.F.F.F.F.F.F.F.F.F.F.F.F.F.F.F.F.F.F.F.F.F.F.F.F.F.F.J.J.J.P.Q.Q.Q.P.P.P.P.Q.Q.Q.Q.Z.M > .           X F XX<X6X6X6X5X5X5X5X5X5X5X5X5X5X5X5X5X5X5X5X5X5X5X5X5X5X6X6X5X1X>X%X}.}.}.].P ,               O 8 j c b c c z z z z z z z z z z z z z z z z z z z z z z z z z z z z z z z z z z z z z z z z z z z z z z z z z z z z z z z z z z z z z z z z z z z z z z z z z z z c c c c c b b b j > o       $ / cXVXAXAXAXAXAXAXAXAXAXAXAXAXAXAXAXAXAXAXAXAXAXAXAX",
"AXAXAXAXAXAXAXAXAXAXAXAXAXAXAXAXAXAXAXAXAXAXAXAXAXAXAXAXAXAXAXAXAXAXAXAXAXAXAXNXzX5                           = b +.J.P.J.F.F.F.F.F.F.F.F.F.F.F.F.F.F.F.F.F.F.F.F.F.F.F.F.F.F.F.F.F.F.F.F.F.F.F.F.F.F.F.F.F.F.F.F.D.S.S.S.S.S.S.S.S.S.S.S.S.D.D.+.b ; .           X F XX<X6X6X6X5X5X5X5X5X5X5X5X5X5X5X5X5X5X5X5X5X5X5X5X5X5X6X6X5X1X>X%X}.}.}.].P ,               O 8 j c b c c z z z z z z z z z z z z z z z z z z z z z z z z z z z z z z z z z z z z z z z z z z z z z z z z z z z z z z z z z z z z z z z z z z z z z z z z z z z z z z z z z z z j > * $     % ( vXVXAXAXAXAXAXAXAXAXAXAXAXAXAXAXAXAXAXAXAXAXAXAXAX",
"AXAXAXAXAXAXAXAXAXAXAXAXAXAXAXAXAXAXAXAXAXAXAXAXAXAXAXAXAXAXAXAXAXAXAXAXAXAXAXNXzX5                           = b +.J.P.F.F.F.F.F.F.F.F.F.F.F.F.F.F.F.F.F.F.F.F.F.F.F.F.F.F.F.F.F.F.F.F.F.F.F.F.F.F.F.F.F.F.F.J.F.Z.X.| } } } } } } } } } } } } M 0 &             X F XX<X6X6X6X5X5X5X5X5X5X5X5X5X5X5X5X5X5X5X5X5X5X5X5X5X5X6X6X5X1X>X%X}.}.}.].P ,               O 8 j c c z z z z z z z z z z z z z z z z z z z z z z z z z z z z z z z z z z z z z z z z z z z z z z z z z z z z z z z z z z z z z z z z z z z z z z z z z z z z z j 9 9 9 9 8 8 9 9 t l ^ ^ ^ ( lXmXZXAXAXAXAXAXAXAXAXAXAXAXAXAXAXAXAXAXAXAXAXAXAXAX",
"AXAXAXAXAXAXAXAXAXAXAXAXAXAXAXAXAXAXAXAXAXAXAXAXAXAXAXAXAXAXAXAXAXAXAXAXAXAXAXNXzX5                           ; b +.J.P.F.F.F.F.F.F.F.F.F.F.F.F.F.F.F.F.F.F.F.F.F.F.F.F.F.F.F.F.F.F.F.F.F.F.F.F.F.F.F.F.F.F.J.J.D.X.M 0 8 8 8 8 8 8 8 8 8 8 8 8 > = O             X F XX<X6X6X6X5X5X5X5X5X5X5X5X5X5X5X5X5X5X5X5X5X5X5X5X5X5X6X6X5X1X>X%X|.}.}.].P ,               O 8 j c c c c z z z z z z z z z z z z z z z z z z z z z z z z z z z z z z z z z z z z z z z z z z z z z z z z z z z z z z z z z z z z z z z z z z z z z z z z c z j 8 = & & & & & & : ( 1.cXcXcXcXnXNXAXAXAXAXAXAXAXAXAXAXAXAXAXAXAXAXAXAXAXAXAXAXAXAX",
"AXAXAXAXAXAXAXAXAXAXAXAXAXAXAXAXAXAXAXAXAXAXAXAXAXAXAXAXAXAXAXAXAXAXAXAXAXAXAXNXzX6                           ; b +.J.J.F.F.F.F.F.F.F.F.F.F.F.F.F.F.F.F.F.F.F.F.F.F.F.F.F.F.F.F.F.F.F.F.F.F.F.F.F.F.F.F.F.F.J.P.S.| j & . . o o o o o o o o o o o .               X F XX<X6X6X6X5X5X5X5X5X5X5X5X5X5X5X5X5X5X5X5X5X5X5X5X5X5X6X6X5X1X>X%X}.}.}.].P ,               O 8 j c c z z z z z z z z z z z z z z z z z z z z z z z z z z z z z z z z z z z z z z z z z z z z z z z z z z z z z z z z z z z z z z z z z z z z z z z z z c c z 0 ; O .           - _ vXBXVXVXVXVXZXAXAXAXAXAXAXAXAXAXAXAXAXAXAXAXAXAXAXAXAXAXAXAXAX",
"AXAXAXAXAXAXAXAXAXAXAXAXAXAXAXAXAXAXAXAXAXAXAXAXAXAXAXAXAXAXAXAXAXAXAXAXAXAXAXNXzX5                           ; b ,.P.Q.J.J.J.J.J.J.J.J.J.J.J.J.F.F.F.F.F.F.F.F.F.F.F.F.F.F.F.F.F.F.J.J.J.J.J.J.J.J.J.J.J.J.Q.Q.D.| 9 o                                             1 XX<X6X6X6X5X5X5X5X5X5X5X5X5X5X5X5X5X5X5X5X5X5X5X5X5X5X6X6X5X1X>X%X X X X].P ,               O 8 j c c c c c c c c c c c c c z z z z z z z z z z z z z z z z z z z z z z z z z z z z z z z z z z z z z z z z z z z z z z z z z z z z c c c c c c c c c c c b z 0 * .             % _ mXAXAXAXAXAXAXAXAXAXAXAXAXAXAXAXAXAXAXAXAXAXAXAXAXAXAXAXAXAXAX",
"AXAXAXAXAXAXAXAXAXAXAXAXAXAXAXAXAXAXAXAXAXAXAXAXAXAXAXAXAXAXAXAXAXAXAXAXAXAXAXNXlX5                           ; n ,.Q.Q.Q.Q.Q.Q.Q.Q.Q.Q.Q.Q.P.J.J.F.F.F.F.F.F.F.F.F.F.F.F.F.F.F.F.F.J.J.P.Q.Q.Q.Q.Q.Q.Q.Q.Q.Q.Q.F.| 9 o                                             1 XX<X6X6X6X5X5X5X5X5X5X5X5X5X5X5X5X5X5X5X5X5X5X5X5X5X5X6X6X5X1X>X%X@X+X@X[.P <               O 8 z b b c c c c c c c c c c c c z z z z z z z z z z z z z z z z z z z z z z z z z z z z z z z z z z z z z z z z z z z z z z z z z c c c c c c c c c c c c b b c 0 *               $ _ mXAXAXAXAXAXAXAXAXAXAXAXAXAXAXAXAXAXAXAXAXAXAXAXAXAXAXAXAXAXAX",
"AXAXAXAXAXAXAXAXAXAXAXAXAXAXAXAXAXAXAXAXAXAXAXAXAXAXAXAXAXAXAXAXAXAXAXAXAXAXAXNXzX6 $                         = b +.F.J.F.D.D.D.D.D.D.D.D.D.D.D.F.F.F.F.F.F.F.F.F.F.F.F.F.F.F.F.F.F.F.D.D.D.D.D.D.D.D.D.D.D.J.J.S.| 9 O                                           X F #X<X6X6X6X5X5X5X5X5X5X5X5X5X5X5X5X5X5X5X5X5X5X5X5X5X5X6X6X5X1X>X%X}.}.}.].P ,               O 8 j z c z z z z z z z z z z z z z z z z z z z z z z z z z z z z z z z z z z z z z z z z z z z z z z z z z z z z z z z z z z z z z z z z z z z z z z z z z z c z 0 ; o             3 _ mXAXAXAXAXAXAXAXAXAXAXAXAXAXAXAXAXAXAXAXAXAXAXAXAXAXAXAXAXAXAX",
"AXAXAXAXAXAXAXAXAXAXAXAXAXAXAXAXAXAXAXAXAXAXAXAXAXAXAXAXAXAXAXAXAXAXAXAXAXAXAXBXcX_ 6 5 5 5 6 6 5 3 $         & j } X.X.....................X.+.Z.D.J.F.F.F.F.F.F.F.F.F.F.F.F.J.F.S.,.X.....................X.X.| b > o       X # < 1 1 1 1 1 1 1 1 1 1 1 1 1 1 1 1 T *X1X6X6X6X5X5X5X5X5X5X5X5X5X5X5X5X5X5X5X5X5X5X5X5X5X5X6X6X5X1X-X[.W R W T D #               O ; 9 0 0 0 0 0 0 0 0 0 0 9 0 0 j z z z z z z z z z z z z z z z z z z z z z z z z z z z z z z z z z z z z z z z z z z z z z z z z z j j 0 9 0 0 0 0 0 0 0 0 0 0 0 9 9 6 5 5 5 5 5 5 / zXmXAXAXAXAXAXAXAXAXAXAXAXAXAXAXAXAXAXAXAXAXAXAXAXAXAXAXAXAXAXAX",
"AXAXAXAXAXAXAXAXAXAXAXAXAXAXAXAXAXAXAXAXAXAXAXAXAXAXAXAXAXAXAXAXAXAXAXAXAXAXAXVXmXcXzXlXzXzXzXzXlX( 5 $       O ; 9 j j j j j j j j j j 0 0 j M X.D.J.J.F.F.F.F.F.F.F.F.F.F.F.J.J.Z.| b j 0 0 j j j j j j j j j 0 8 & .       # F W XXXXXXXXXXXXXXXXXXXXXXXXXXXXXXXX*X>X4X6X6X5X5X5X5X5X5X5X5X5X5X5X5X5X5X5X5X5X5X5X5X5X5X5X6X6X5X,X#XT D 2 F 2 < @               . O * ; ; = = = = = = = = = = : 8 j z c z z z z z z z z z z z z z z z z z z z z z z z z z z z z z z z z z z z z z z z z z z z c z z 9 > ; = = = = = = = = = * * ; 9 ) ' zXzXzXzXlXzXcXnXBXAXAXAXAXAXAXAXAXAXAXAXAXAXAXAXAXAXAXAXAXAXAXAXAXAXAXAXAXAXAX",
"AXAXAXAXAXAXAXAXAXAXAXAXAXAXAXAXAXAXAXAXAXAXAXAXAXAXAXAXAXAXAXAXAXAXAXAXAXAXAXAXVXBXNXNXNXNXBXBXmXzX/ $       . o O O O O O O O O O O O O O = j | S.J.J.F.F.F.F.F.F.F.F.F.F.J.J.J.+.n > O O O O O O O O O O O O O O .         < T -X,X<X,X,X,X,X,X,X,X,X,X,X,X,X,X,X1X4X5X6X6X5X5X5X5X5X5X5X5X5X5X5X5X5X5X5X5X5X5X5X5X5X5X5X6X6X5X,XXXF # X # # X                   . . o o . . . . . . . . . . O ; 0 z c c z z z z z z z z z z z z z z z z z z z z z z z z z z z z z z z z z z z z z z z z z z c c j 8 & o . . . . . . . . . . . o 5 ' nXNXBXNXNXNXNXNXVXZXAXAXAXAXAXAXAXAXAXAXAXAXAXAXAXAXAXAXAXAXAXAXAXAXAXAXAXAXAXAX",
"AXAXAXAXAXAXAXAXAXAXAXAXAXAXAXAXAXAXAXAXAXAXAXAXAXAXAXAXAXAXAXAXAXAXAXAXAXAXAXAXAXAXAXAXAXAXAXAXZXvX( $                                     o 8 } S.Q.J.F.F.F.F.F.F.F.F.F.F.J.Q.J.X.z *                                       < XX,X6X7X6X6X6X6X6X6X6X6X6X6X6X6X6X6X6X6X5X5X5X5X5X5X5X5X5X5X5X5X5X5X5X5X5X5X5X5X5X5X5X5X5X5X6X6X5X,XQ <                                                         . * 9 z c c z z z z z z z z z z z z z z z z z z z z z z z z z z z z z z z z z z z z z z z z z z c c j > O                           5 zXNXAXAXAXAXAXAXAXAXAXAXAXAXAXAXAXAXAXAXAXAXAXAXAXAXAXAXAXAXAXAXAXAXAXAXAXAXAXAXAX",
"AXAXAXAXAXAXAXAXAXAXAXAXAXAXAXAXAXAXAXAXAXAXAXAXAXAXAXAXAXAXAXAXAXAXAXAXAXAXAXAXAXAXAXAXAXAXAXAXZXbX( $                                     . 8 } S.P.J.F.F.F.F.F.F.F.F.F.F.J.Q.J.X.z &                                       < XX,X6X7X7X6X6X6X6X6X6X6X6X6X6X6X6X6X6X6X6X5X5X5X5X5X5X5X5X5X5X5X5X5X5X5X5X5X5X5X5X5X5X5X5X5X6X6X5X,XQ <                                                         . * 9 z c c z z z z z z z z z z z z z z z z z z z z z z z z z z z z z z z z z z z z z z z z z z c c j > O                           5 zXBXAXAXAXAXAXAXAXAXAXAXAXAXAXAXAXAXAXAXAXAXAXAXAXAXAXAXAXAXAXAXAXAXAXAXAXAXAXAXAX",
"AXAXAXAXAXAXAXAXAXAXAXAXAXAXAXAXAXAXAXAXAXAXAXAXAXAXAXAXAXAXAXAXAXAXAXAXAXAXAXAXAXAXAXAXAXAXAXAXZXvX( $                                     o 8 } S.P.J.F.F.F.F.F.F.F.F.F.F.J.Q.J.X.z *                                       < XX,X6X7X6X6X6X6X6X6X6X6X6X6X6X6X6X6X6X6X5X5X5X5X5X5X5X5X5X5X5X5X5X5X5X5X5X5X5X5X5X5X5X5X5X5X6X6X5X,XQ <                                                         . * 9 z c c z z z z z z z z z z z z z z z z z z z z z z z z z z z z z z z z z z z z z z z z z z c c j > O                           5 zXNXAXAXAXAXAXAXAXAXAXAXAXAXAXAXAXAXAXAXAXAXAXAXAXAXAXAXAXAXAXAXAXAXAXAXAXAXAXAXAX",
"AXAXAXAXAXAXAXAXAXAXAXAXAXAXAXAXAXAXAXAXAXAXAXAXAXAXAXAXAXAXAXAXAXAXAXAXAXAXAXAXAXAXAXAXAXAXAXAXVXvX( $                                     o 8 } S.Q.J.J.J.J.F.F.F.F.F.F.F.J.Q.J.o.z *                                       < Q ,X5X6X6X5X5X5X5X5X5X5X5X5X5X5X6X5X5X5X5X5X5X5X5X5X5X5X5X5X5X5X5X5X5X5X5X5X5X5X5X6X6X6X6X6X6X7X6X,XXX<                                                         . = 9 z c c z z z z z z z z z z z z z z z z z z z z z z z z z z z z z z z z z z z z z z z z c c c c j > O                           5 zXNXAXAXAXAXAXAXAXAXAXAXAXAXAXAXAXAXAXAXAXAXAXAXAXAXAXAXAXAXAXAXAXAXAXAXAXAXAXAXAX",
"AXAXAXAXAXAXAXAXAXAXAXAXAXAXAXAXAXAXAXAXAXAXAXAXAXAXAXAXAXAXAXAXAXAXAXAXAXAXAXAXAXAXAXAXAXAXAXAXVXvX( $                                     . 7 } D.Q.Q.P.P.Q.P.P.P.J.J.P.P.Q.Q.Q.+.c =                                       < Q ,X5X6X6X5X5X5X6X5X5X5X5X5X5X5X5X5X5X5X5X5X5X5X5X5X5X5X5X5X5X5X5X5X5X5X5X5X5X5X6X6X6X6X6X6X7X7X6X,XXX<                                                         . = 9 z b b c c c c c c c c c c c c c c c c c c c c c c c c c c c c c c c c c c c c c c c c c b b b j > o                           5 lXNXAXAXAXAXAXAXAXAXAXAXAXAXAXAXAXAXAXAXAXAXAXAXAXAXAXAXAXAXAXAXAXAXAXAXAXAXAXAXAX",
"AXAXAXAXAXAXAXAXAXAXAXAXAXAXAXAXAXAXAXAXAXAXAXAXAXAXAXAXAXAXAXAXAXAXAXAXAXAXAXAXAXAXAXAXAXAXAXAXVXvX( $                                     . 8 } D.Q.Q.J.J.J.J.J.J.J.J.J.J.J.Q.P.+.c *                                       < Q ,X5X6X6X5X5X5X5X5X5X5X5X5X5X5X5X5X5X5X5X5X5X5X5X5X5X5X5X5X5X5X5X5X5X5X5X5X5X5X6X6X6X6X6X6X6X7X6X,XXX<                                                         . * 9 z b c c c c c c c c c c c c c c c c c c c c c c c c c c c c c c c c c c c c c c c c c c c b c j > o                           5 zXNXAXAXAXAXAXAXAXAXAXAXAXAXAXAXAXAXAXAXAXAXAXAXAXAXAXAXAXAXAXAXAXAXAXAXAXAXAXAXAX",
"AXAXAXAXAXAXAXAXAXAXAXAXAXAXAXAXAXAXAXAXAXAXAXAXAXAXAXAXAXAXAXAXAXAXAXAXAXAXAXAXAXAXAXAXAXAXAXAXVXvX( $                           X # # # # % t B X.,.,.+.+.+.+.+.+.+.+.+.+.,.,.,.| j &           X @ @ @ @ @ # @ X X         < Q ,X5X6X6X5X5X5X5X5X5X5X5X5X5X5X5X5X5X5X5X5X5X5X5X5X5X5X5X5X5X5X5X5X5X5X5X6X6X5X4X3X1X<X<X<X1X1X<X-XR <           X @ @ @ @ @ @ @ @ @ @ @ @ @ @ @ @ X X         . & 8 j j j j j j j j j j j j j j j j j j j j j j j j j j j j j j j j j j j j j j j j j j j j j j j 0 8 - % % % % % % % % % % % $ 3 / cXNXAXAXAXAXAXAXAXAXAXAXAXAXAXAXAXAXAXAXAXAXAXAXAXAXAXAXAXAXAXAXAXAXAXAXAXAXAXAXAX",
"AXAXAXAXAXAXAXAXAXAXAXAXAXAXAXAXAXAXAXAXAXAXAXAXAXAXAXAXAXAXAXAXAXAXAXAXAXAXAXAXAXAXAXAXAXAXAXAXVXvX( $                         @ 1 I T R T T U N b b b b b b b b b b b b b b n b j > O         # < 2 F F 2 F F 2 < #         < XX,X5X6X6X5X5X5X5X5X5X5X5X5X5X5X5X5X5X5X5X5X5X5X5X5X5X5X5X5X5X5X5X5X5X5X5X6X6X5X<X-X#XXXXXXX#X#XXXQ P #         # < 2 F 2 2 2 2 2 2 F D D D D D D D 1 , X         O = > > > > > > > > > > > > > > > > > > > > > > > > > > > > > > > > > > > > > > > > > > > > > > > 8 l ( _ _ _ _ _ _ _ _ _ _ _ _ _ zXnXVXAXAXAXAXAXAXAXAXAXAXAXAXAXAXAXAXAXAXAXAXAXAXAXAXAXAXAXAXAXAXAXAXAXAXAXAXAXAXAX",
"AXAXAXAXAXAXAXAXAXAXAXAXAXAXAXAXAXAXAXAXAXAXAXAXAXAXAXAXAXAXAXAXAXAXAXAXAXAXAXAXAXAXAXAXAXAXAXAXVXvX( $                         # I XX-X>X:X-XQ U : * * ; ; = = = = ; ; = = ; ; ; * O .       X < P Y R R R R R R P < X       < XX,X5X6X6X5X5X5X5X5X5X5X5X5X5X5X5X5X5X5X5X5X5X5X5X5X5X5X5X5X5X5X5X5X5X5X5X6X6X4X>XXXP 1 1 F F F F 1 , X       X < P R R R R R R R R R E E E E E E E P 2 #         . o O O O O O O O O O O O O O O O O O O O O O O O O O O O O O O O O O O O O O O O O O O O O O o O - ( zXnXmXmXnXnXnXnXnXnXnXnXnXmXmXBXZXAXAXAXAXAXAXAXAXAXAXAXAXAXAXAXAXAXAXAXAXAXAXAXAXAXAXAXAXAXAXAXAXAXAXAXAXAXAXAX",
"AXAXAXAXAXAXAXAXAXAXAXAXAXAXAXAXAXAXAXAXAXAXAXAXAXAXAXAXAXAXAXAXAXAXAXAXAXAXAXAXAXAXAXAXAXAXAXAXVXvX( $                         , R :X4X6X6X<X#XI o                                           X 1 Y [.}.}.}.}.}.[.R 2 @       < XX,X5X6X6X5X5X5X5X5X5X5X5X5X5X5X5X5X5X5X5X5X5X5X5X5X5X5X5X5X5X5X5X5X5X5X5X6X6X4X-XT #     X X X X             @ 2 R [.}.}.}.}.}.}.}. X X{.{.{.{.$X X].D #                                                                                                           % _ nXZXAXAXAXAXAXAXAXZXAXZXZXAXAXAXAXAXAXAXAXAXAXAXAXAXAXAXAXAXAXAXAXAXAXAXAXAXAXAXAXAXAXAXAXAXAXAXAXAXAXAXAXAXAXAX",
"AXAXAXAXAXAXAXAXAXAXAXAXAXAXAXAXAXAXAXAXAXAXAXAXAXAXAXAXAXAXAXAXAXAXAXAXAXAXAXAXAXAXAXAXAXAXAXAXVXvX( $                         < Q >X6X7X7X4X#XF X                                           X 1 R }.@X@X X@X$X}.R F @       < Q ,X5X6X6X5X5X5X5X5X5X5X5X5X5X5X5X5X5X5X5X5X5X5X5X5X5X5X5X5X5X5X5X5X5X5X5X6X6X4X-XI X                         @ F R }.$X@X X X X X+X$X$X$X$X$X$X%X$X'.P #                                                                                                           % _ mXAXAXAXAXAXAXAXAXAXAXAXAXAXAXAXAXAXAXAXAXAXAXAXAXAXAXAXAXAXAXAXAXAXAXAXAXAXAXAXAXAXAXAXAXAXAXAXAXAXAXAXAXAXAXAX",
"AXAXAXAXAXAXAXAXAXAXAXAXAXAXAXAXAXAXAXAXAXAXAXAXAXAXAXAXAXAXAXAXAXAXAXAXAXAXAXAXAXAXAXAXAXAXAXAXVXvX( $                         < Q >X6X7X7X1X#XF X                                           X 1 R }.@X X X X@X}.R 2 @       < Q ,X5X6X6X5X5X5X5X5X5X5X5X5X5X5X5X5X5X5X5X5X5X5X5X5X5X5X5X5X5X5X6X5X5X6X6X6X6X4X-XI #                         # F R }.@X X X X}. X X$X$X$X$X$X$X%X$X].P #                                                                                                           % _ mXAXAXAXAXAXAXAXAXAXAXAXAXAXAXAXAXAXAXAXAXAXAXAXAXAXAXAXAXAXAXAXAXAXAXAXAXAXAXAXAXAXAXAXAXAXAXAXAXAXAXAXAXAXAXAX",
"AXAXAXAXAXAXAXAXAXAXAXAXAXAXAXAXAXAXAXAXAXAXAXAXAXAXAXAXAXAXAXAXAXAXAXAXAXAXAXAXAXAXAXAXAXAXAXAXVXvX( $                         < Q >X5X7X7X1X#XF X                                           X 1 Y [. X X}. X X}.R 2 @       < Q ,X5X6X6X5X5X5X5X5X5X5X5X5X5X5X5X5X5X5X5X5X5X5X5X5X5X5X5X5X5X5X5X5X5X6X5X6X6X4X-XI #                         @ 2 R }. X X}.}.}.}. X X$X$X$X$X$X$X+X].P #                                                                                                           % _ nXZXAXAXAXAXAXAXAXAXAXAXAXAXAXAXAXAXAXAXAXAXAXAXAXAXAXAXAXAXAXAXAXAXAXAXAXAXAXAXAXAXAXAXAXAXAXAXAXAXAXAXAXAXAXAX",
"AXAXAXAXAXAXAXAXAXAXAXAXAXAXAXAXAXAXAXAXAXAXAXAXAXAXAXAXAXAXAXAXAXAXAXAXAXAXAXAXAXAXAXAXAXAXAXAXVXvX( $                         , Q >X5X7X6X1X#XF                                             X 1 Y [. X X}. X X}.R 2 @       < Q ,X5X6X6X5X5X5X5X5X5X5X5X5X5X5X5X5X5X5X5X5X5X5X5X5X5X5X5X5X5X5X5X5X6X6X6X6X7X4X-XI #                         @ 2 R }. X X}.|.|.}. X X$X$X$X$X$X$X$X].D #                                                                                                           $ _ nXZXAXAXAXAXAXAXAXAXAXAXAXAXAXAXAXAXAXAXAXAXAXAXAXAXAXAXAXAXAXAXAXAXAXAXAXAXAXAXAXAXAXAXAXAXAXAXAXAXAXAXAXAXAXAX",
"AXAXAXAXAXAXAXAXAXAXAXAXAXAXAXAXAXAXAXAXAXAXAXAXAXAXAXAXAXAXAXAXAXAXAXAXAXAXAXAXAXAXAXAXAXAXAXAXVXvX/ $                         , Q >X5X7X6X1X#XF                                             X 1 Y [. X X}. X X}.R 2 @       < Q ,X5X6X6X5X5X5X5X5X5X5X5X5X5X5X5X5X5X5X5X5X5X5X5X5X5X5X5X5X5X5X5X5X6X6X6X7X7X4X-XI #                         @ 2 R }. X X|.|.|.}. X X+X$X$X$X$X$X$X].D #                                                                                                           $ _ nXZXAXAXAXAXAXAXAXAXAXAXAXAXAXAXAXAXAXAXAXAXAXAXAXAXAXAXAXAXAXAXAXAXAXAXAXAXAXAXAXAXAXAXAXAXAXAXAXAXAXAXAXAXAXAX",
"AXAXAXAXAXAXAXAXAXAXAXAXAXAXAXAXAXAXAXAXAXAXAXAXAXAXAXAXAXAXAXAXAXAXAXAXAXAXAXAXAXAXAXAXAXAXAXAXVXvX( %     $ $                 , Q >X5X7X6X3X#XP #   X X X X X X X X X X X X X X X X X X     # 2 R [. X X}. X X}.R 2 @       < XX,X5X6X6X5X5X5X5X5X5X5X5X5X5X5X5X5X5X5X5X5X5X5X5X5X5X5X5X5X5X5X5X5X5X5X5X6X6X4X-XT #       X X X             @ 2 R }. X X}.}.}.}. X X$X$X$X$X$X$X$X].P ,                               $ $ $ $ $ $ $ $ $ $ $ $ $ $ $ $ $ $ $ $ $ $ $ $ $ $ $ $ $ $ $ $ $ $ $ $     3 _ mXAXAXAXAXAXAXAXAXAXAXAXAXAXAXAXAXAXAXAXAXAXAXAXAXAXAXAXAXAXAXAXAXAXAXAXAXAXAXAXAXAXAXAXAXAXAXAXAXAXAXAXAXAXAXAX",
"AXAXAXAXAXAXAXAXAXAXAXAXAXAXAXAXAXAXAXAXAXAXAXAXAXAXAXAXAXAXAXAXAXAXAXAXAXAXAXAXAXAXAXAXAXAXAXAXZXmXlX( ^ / / 5 3 $             , Q >X5X7X6X3X-XQ P F F P P P P F F F F F F F P F F 2 1 < < < 1 P W }. X X}. X X}.R 2 @       < Q ,X5X6X6X5X5X5X5X5X5X5X5X5X5X5X5X5X5X5X5X5X5X5X5X5X5X5X5X5X5X6X5X5X4X1X<X<X1X,X*XT 2 < , < < < < , # X       @ 2 R }. X X}.}.}.}. X X+X$X$X$X$X$X$X'.T F < < < , # X               $ 5 ^ / / / / / / / / / / / / / / / / / / / / / / / / / / / / / / / / / / / ^ ^ ( zXNXAXAXAXAXAXAXAXAXAXAXAXAXAXAXAXAXAXAXAXAXAXAXAXAXAXAXAXAXAXAXAXAXAXAXAXAXAXAXAXAXAXAXAXAXAXAXAXAXAXAXAXAXAXAXAX",
"AXAXAXAXAXAXAXAXAXAXAXAXAXAXAXAXAXAXAXAXAXAXAXAXAXAXAXAXAXAXAXAXAXAXAXAXAXAXAXAXAXAXAXAXAXAXAXAXAXNXmXcXcXcXcX' ^ $             < Q >X5X7X6X4X,X-X#X#X#X#X#X#X#X#X#X#X#X#X#X#X#X#XXX].R P P P T R ].}.}.}.}. X X}.R 2 @       < Q ,X5X6X6X5X5X5X5X5X5X5X5X5X5X5X5X5X5X5X5X5X5X5X5X5X5X5X5X5X5X6X6X5X1X>X-X=X-X=X%X].T P P P P T P P < @       @ 2 R }. X X}.}.}.}. X X+X$X$X$X$X$X$X}.W Y P P P P 1 #             $ 5 _ zXcXcXcXcXcXcXcXcXcXcXcXcXcXcXcXcXcXcXcXcXcXcXcXcXcXcXcXcXcXcXcXcXcXcXcXcXcXvXmXBXAXAXAXAXAXAXAXAXAXAXAXAXAXAXAXAXAXAXAXAXAXAXAXAXAXAXAXAXAXAXAXAXAXAXAXAXAXAXAXAXAXAXAXAXAXAXAXAXAXAXAXAXAXAXAX",
"AXAXAXAXAXAXAXAXAXAXAXAXAXAXAXAXAXAXAXAXAXAXAXAXAXAXAXAXAXAXAXAXAXAXAXAXAXAXAXAXAXAXAXAXAXAXAXAXAXZXZXVXVXZXBXvX_ %             < Q >X5X6X6X5X4X3X3X3X3X1X1X1X1X1X1X1X1X1X1X1X3X1X,X-X@X[.].].[.[.}.}.}.}.}. X X}.R 2 @       < Q ,X5X6X6X5X5X5X5X5X5X5X5X5X5X5X5X5X5X5X5X5X5X5X5X5X5X5X5X5X5X6X6X4X,X=X$X@X@X@X X}.[.].].].[.[.].R D #       @ 2 R }. X X}.}.}.}. X X+X$X$X$X$X$X$X X}.[.[.[.[.W P ,             $ ^ zXNXVXVXVXBXBXVXVXVXVXVXVXBXBXVXVXVXVXVXVXVXVXVXVXVXVXBXBXBXBXVXVXVXVXVXVXVXVXVXZXAXAXAXAXAXAXAXAXAXAXAXAXAXAXAXAXAXAXAXAXAXAXAXAXAXAXAXAXAXAXAXAXAXAXAXAXAXAXAXAXAXAXAXAXAXAXAXAXAXAXAXAXAXAXAXAX",
"AXAXAXAXAXAXAXAXAXAXAXAXAXAXAXAXAXAXAXAXAXAXAXAXAXAXAXAXAXAXAXAXAXAXAXAXAXAXAXAXAXAXAXAXAXAXAXAXAXAXAXAXAXAXAXmX_ %             < Q >X5X6X6X6X6X6X6X6X6X6X6X6X6X6X6X6X6X6X6X6X7X6X4X,X=X X}. X X X}.}.}.}.}. X@X}.R 2 X       < Q ,X5X6X6X5X5X5X5X5X5X5X5X5X5X5X5X5X5X5X5X5X5X5X5X5X5X5X5X5X5X6X6X4X,X=X|.[.[.}.}.}.}.}.}. X X+X}.W D #       @ 2 R }. X X}.}.}.}. X X+X$X$X$X$X$X$X+X X X X@X@X].P ,             $ / cXVXAXAXAXAXAXAXAXAXAXAXAXAXAXAXAXAXAXAXAXAXAXAXAXAXAXAXAXAXAXAXAXAXAXAXAXAXAXAXAXAXAXAXAXAXAXAXAXAXAXAXAXAXAXAXAXAXAXAXAXAXAXAXAXAXAXAXAXAXAXAXAXAXAXAXAXAXAXAXAXAXAXAXAXAXAXAXAXAXAXAXAXAXAXAXAX",
"AXAXAXAXAXAXAXAXAXAXAXAXAXAXAXAXAXAXAXAXAXAXAXAXAXAXAXAXAXAXAXAXAXAXAXAXAXAXAXAXAXAXAXAXAXAXAXAXAXAXAXAXAXAXAXmX_ %             < Q >X5X6X6X6X6X6X6X6X6X6X6X6X6X6X6X7X7X7X7X7X7X7X5X,X=X X}. X X X X X X X X@X$X}.R 2 X       < Q >X5X6X6X5X5X5X5X5X5X5X5X5X5X5X5X5X5X5X5X5X5X5X5X5X5X5X5X5X5X6X6X4X,X=X}.[.[.}.}.}.}.}.}.}. X X}.W D #       @ 2 R }. X X}.}.}.}. X X+X$X$X$X$X$X$X+X+X X X@X@X].P <             $ / cXVXAXAXAXAXAXAXAXAXAXAXAXAXAXAXAXAXAXAXAXAXAXAXAXAXAXAXAXAXAXAXAXAXAXAXAXAXAXAXAXAXAXAXAXAXAXAXAXAXAXAXAXAXAXAXAXAXAXAXAXAXAXAXAXAXAXAXAXAXAXAXAXAXAXAXAXAXAXAXAXAXAXAXAXAXAXAXAXAXAXAXAXAXAXAXAX",
"AXAXAXAXAXAXAXAXAXAXAXAXAXAXAXAXAXAXAXAXAXAXAXAXAXAXAXAXAXAXAXAXAXAXAXAXAXAXAXAXAXAXAXAXAXAXAXAXAXAXAXAXAXAXAXmX_ %             , Q >X5X6X6X5X5X5X6X6X6X5X5X5X5X5X5X5X5X5X5X5X6X5X2X>X%X|.}.}.}.}.}.}.}.}.}.}. X[.R 2 #       1 XX,X5X6X6X5X5X5X5X5X5X5X5X5X5X5X5X5X5X5X5X5X5X5X5X5X5X5X5X5X5X6X6X4X,X=X X}.}.}.}.|.|.|.|.|. X@X|.W D #       @ 2 R }. X X}.}.}.}. X X+X$X$X$X$X$X$X+X X}.}. X X].P ,             $ ^ cXBXAXAXAXAXAXAXAXAXAXAXAXAXAXAXAXAXAXAXAXAXAXAXAXAXAXAXAXAXAXAXAXAXAXAXAXAXAXAXAXAXAXAXAXAXAXAXAXAXAXAXAXAXAXAXAXAXAXAXAXAXAXAXAXAXAXAXAXAXAXAXAXAXAXAXAXAXAXAXAXAXAXAXAXAXAXAXAXAXAXAXAXAXAXAXAX",
"AXAXAXAXAXAXAXAXAXAXAXAXAXAXAXAXAXAXAXAXAXAXAXAXAXAXAXAXAXAXAXAXAXAXAXAXAXAXAXAXAXAXAXAXAXAXAXAXAXAXAXAXAXAXZXnX_ %             , Q >X5X6X6X5X5X5X5X5X5X5X5X5X5X5X4X1X1X1X1X1X1X1X,X:X%X|.}.}.}.[.W W R W W W W R T P 1 1 < 1 I #X,X5X6X6X5X5X5X5X5X5X5X5X5X5X5X5X5X5X5X5X5X5X5X5X5X5X5X5X5X5X6X6X4X,X=X X}.}.}.@X$X%X%X%X%X&X=X%X[.P ,       @ 2 R }. X X}.}.}.}. X X$X$X$X$X$X$X$X+X X}.}. X X].P ,             $ ^ cXBXAXAXAXAXAXAXAXAXAXAXAXAXAXAXAXAXAXAXAXAXAXAXAXAXAXAXAXAXAXAXAXAXAXAXAXAXAXAXAXAXAXAXAXAXAXAXAXAXAXAXAXAXAXAXAXAXAXAXAXAXAXAXAXAXAXAXAXAXAXAXAXAXAXAXAXAXAXAXAXAXAXAXAXAXAXAXAXAXAXAXAXAXAXAXAX",
"AXAXAXAXAXAXAXAXAXAXAXAXAXAXAXAXAXAXAXAXAXAXAXAXAXAXAXAXAXAXAXAXAXAXAXAXAXAXAXAXAXAXAXAXAXAXAXAXAXAXAXAXAXAXZXnX_ %             , Q >X5X6X6X5X5X5X5X5X5X5X5X6X5X2X,X>X:X:X:X:X:X:X-X&X@X}.}.}.[.W P D F F D F F D P T XXXXXXXX#X:X3X5X6X6X5X5X5X5X5X5X5X5X5X5X5X5X5X5X5X5X5X5X5X5X5X5X5X5X5X5X6X6X4X,X=X X}.}. X%X=X>X>X>X>X>X,X>X*XT ,       @ 2 R }. X X}.}.|.}. X X$X$X$X$X$X$X$X+X X}.}. X X].P ,             $ / cXBXAXAXAXAXAXAXAXAXAXAXAXAXAXAXAXAXAXAXAXAXAXAXAXAXAXAXAXAXAXAXAXAXAXAXAXAXAXAXAXAXAXAXAXAXAXAXAXAXAXAXAXAXAXAXAXAXAXAXAXAXAXAXAXAXAXAXAXAXAXAXAXAXAXAXAXAXAXAXAXAXAXAXAXAXAXAXAXAXAXAXAXAXAXAXAX",
"AXAXAXAXAXAXAXAXAXAXAXAXAXAXAXAXAXAXAXAXAXAXAXAXAXAXAXAXAXAXAXAXAXAXAXAXAXAXAXAXAXAXAXAXAXAXAXAXAXAXAXAXAXAXZXnX_ %             , Q >X5X6X6X5X5X5X5X5X5X5X6X6X5X1X>X&X$X$X$X%X%X%X$X@X X}. X X[.T 2 # @ @ # @ X # F XX:X,X,X,X<X3X5X5X6X5X5X5X5X5X5X5X5X5X5X5X5X5X5X5X5X5X5X5X5X5X5X5X5X5X5X5X6X6X4X,X=X X[.}. X&X>X1X4X4X4X4X5X2X:XQ <       @ 2 R }. X X}.}.}.}. X X$X$X$X$X$X$X$X+X X X}. X X].P ,             $ / cXBXAXAXAXAXAXAXAXAXAXAXAXAXAXAXAXAXAXAXAXAXAXAXAXAXAXAXAXAXAXAXAXAXAXAXAXAXAXAXAXAXAXAXAXAXAXAXAXAXAXAXAXAXAXAXAXAXAXAXAXAXAXAXAXAXAXAXAXAXAXAXAXAXAXAXAXAXAXAXAXAXAXAXAXAXAXAXAXAXAXAXAXAXAXAXAX",
"AXAXAXAXAXAXAXAXAXAXAXAXAXAXAXAXAXAXAXAXAXAXAXAXAXAXAXAXAXAXAXAXAXAXAXAXAXAXAXAXAXAXAXAXAXAXAXAXAXAXAXAXAXAXAXnX_ %             < Q >X5X6X6X5X5X5X5X5X5X5X6X6X5X<X:X$X}.}.}.}.}.}.}.}.}.}. X X[.P <               F XX1X6X7X6X6X6X5X5X5X5X5X5X5X5X5X5X5X5X5X5X5X5X5X5X5X5X5X5X5X5X5X5X5X5X5X5X6X6X4X,X=X X[.[. X=X,X4X6X6X6X6X6X6X,XXX<       @ 2 R }. X X}.}.}.}. X X$X$X$X$X$X$X$X+X X}.}. X X].P ,             $ / cXVXAXAXAXAXAXAXAXAXAXAXAXAXAXAXAXAXAXAXAXAXAXAXAXAXAXAXAXAXAXAXAXAXAXAXAXAXAXAXAXAXAXAXAXAXAXAXAXAXAXAXAXAXAXAXAXAXAXAXAXAXAXAXAXAXAXAXAXAXAXAXAXAXAXAXAXAXAXAXAXAXAXAXAXAXAXAXAXAXAXAXAXAXAXAXAX",
"AXAXAXAXAXAXAXAXAXAXAXAXAXAXAXAXAXAXAXAXAXAXAXAXAXAXAXAXAXAXAXAXAXAXAXAXAXAXAXAXAXAXAXAXAXAXAXAXAXAXAXAXAXAXAXnX_ %             < Q >X5X6X6X5X5X5X5X5X5X5X6X6X5X<X-X@X[.[.}.}.}.}.}.}.}.}. X X].P <               1 #X3X7X7X6X6X6X6X5X5X5X5X5X5X5X5X5X5X5X5X5X5X5X5X5X5X5X5X5X5X5X5X5X5X5X5X5X6X6X4X,X=X X[.[. X=X,X5X6X6X6X6X7X6X,XXX<       @ 2 R }. X X}.}.}.}. X X$X$X$X$X$X$X$X+X X}.}. X X].P ,             $ / cXVXAXAXAXAXAXAXAXAXAXAXAXAXAXAXAXAXAXAXAXAXAXAXAXAXAXAXAXAXAXAXAXAXAXAXAXAXAXAXAXAXAXAXAXAXAXAXAXAXAXAXAXAXAXAXAXAXAXAXAXAXAXAXAXAXAXAXAXAXAXAXAXAXAXAXAXAXAXAXAXAXAXAXAXAXAXAXAXAXAXAXAXAXAXAXAX",
"AXAXAXAXAXAXAXAXAXAXAXAXAXAXAXAXAXAXAXAXAXAXAXAXAXAXAXAXAXAXAXAXAXAXAXAXAXAXAXAXAXAXAXAXAXAXAXAXAXAXAXAXAXAXAXnX_ %             < Q >X5X6X6X5X5X5X5X5X5X5X6X6X5X<X:X$X}.}.|.|.}.|.}.|.|.}. X X[.P <               F XX<X6X7X6X6X6X5X5X5X5X5X5X5X5X5X5X5X5X5X5X5X5X5X5X5X5X5X5X5X5X5X5X5X5X5X5X6X6X4X,X=X X[.[. X=X,X4X6X6X6X6X6X5X,XXX<       @ 2 R }. X X}.}.|.}. X X$X$X$X$X$X$X$X+X X}.}. X X].P ,             $ / cXVXAXAXAXAXAXAXAXAXAXAXAXAXAXAXAXAXAXAXAXAXAXAXAXAXAXAXAXAXAXAXAXAXAXAXAXAXAXAXAXAXAXAXAXAXAXAXAXAXAXAXAXAXAXAXAXAXAXAXAXAXAXAXAXAXAXAXAXAXAXAXAXAXAXAXAXAXAXAXAXAXAXAXAXAXAXAXAXAXAXAXAXAXAXAXAX",
"AXAXAXAXAXAXAXAXAXAXAXAXAXAXAXAXAXAXAXAXAXAXAXAXAXAXAXAXAXAXAXAXAXAXAXAXAXAXAXAXAXAXAXAXAXAXAXAXAXAXAXAXAXAXAXnX_ %             < Q >X5X6X6X5X5X5X5X5X5X5X6X6X5X1X:X$X}.}.|.|.}.|.|.|.|.}. X X[.P <               F XX<X6X6X6X5X5X5X5X5X5X5X5X5X5X5X5X5X5X5X5X5X5X5X5X5X5X5X5X5X5X5X5X5X5X5X5X6X6X4X,X=X X[.[. X=X,X4X6X6X5X6X6X5X,XXX<       @ 2 R }. X X}.}.|.}. X X$X$X$X$X$X$X$X+X X}.}. X X].P ,             $ / cXVXAXAXAXAXAXAXAXAXAXAXAXAXAXAXAXAXAXAXAXAXAXAXAXAXAXAXAXAXAXAXAXAXAXAXAXAXAXAXAXAXAXAXAXAXAXAXAXAXAXAXAXAXAXAXAXAXAXAXAXAXAXAXAXAXAXAXAXAXAXAXAXAXAXAXAXAXAXAXAXAXAXAXAXAXAXAXAXAXAXAXAXAXAXAXAX",
"AXAXAXAXAXAXAXAXAXAXAXAXAXAXAXAXAXAXAXAXAXAXAXAXAXAXAXAXAXAXAXAXAXAXAXAXAXAXAXAXAXAXAXAXAXAXAXAXAXAXAXAXAXAXZXmX_ %             , Q >X5X6X6X5X5X5X6X5X5X5X6X6X5X1X:X$X}.}.}.}.}.}.}.}.}.}. X X[.P <               F XX<X6X6X6X6X5X5X5X5X5X5X5X5X5X5X5X5X5X5X5X5X5X5X5X5X5X5X5X5X5X5X5X5X5X5X5X6X6X4X,X=X}.[.[.}.=X,X4X6X6X5X6X6X5X,XQ <       @ 2 R }. X X}.|.|.}. X X$X$X$X$X$X$X$X+X X}.|. X|.].P ,             $ / cXBXAXAXAXAXAXAXAXAXAXAXAXAXAXAXAXAXAXAXAXAXAXAXAXAXAXAXAXAXAXAXAXAXAXAXAXAXAXAXAXAXAXAXAXAXAXAXAXAXAXAXAXAXAXAXAXAXAXAXAXAXAXAXAXAXAXAXAXAXAXAXAXAXAXAXAXAXAXAXAXAXAXAXAXAXAXAXAXAXAXAXAXAXAXAXAX",
"AXAXAXAXAXAXAXAXAXAXAXAXAXAXAXAXAXAXAXAXAXAXAXAXAXAXAXAXAXAXAXAXAXAXAXAXAXAXAXAXAXAXAXAXAXAXAXAXAXAXAXAXAXAXZXnX_ %             , Q >X5X6X6X5X5X5X5X5X5X5X6X6X5X1X:X$X}.}.}.}.}.}.}.}.}.}. X X].P <               F XX<X6X6X6X6X5X5X5X5X5X5X5X5X5X5X5X5X5X5X5X5X5X5X5X5X5X5X5X5X5X5X5X5X5X5X5X6X6X4X,X=X X[.[. X=X,X4X6X6X5X6X6X5X,XXX<       @ 2 R }. X X}.|.|.}. X X+X$X$X$X$X$X$X+X X}.|. X X].P ,             $ / cXBXAXAXAXAXAXAXAXAXAXAXAXAXAXAXAXAXAXAXAXAXAXAXAXAXAXAXAXAXAXAXAXAXAXAXAXAXAXAXAXAXAXAXAXAXAXAXAXAXAXAXAXAXAXAXAXAXAXAXAXAXAXAXAXAXAXAXAXAXAXAXAXAXAXAXAXAXAXAXAXAXAXAXAXAXAXAXAXAXAXAXAXAXAXAXAX",
"AXAXAXAXAXAXAXAXAXAXAXAXAXAXAXAXAXAXAXAXAXAXAXAXAXAXAXAXAXAXAXAXAXAXAXAXAXAXAXAXAXAXAXAXAXAXAXAXAXAXAXAXAXAXZXnX_ %             , Q >X5X6X6X5X5X5X5X5X5X5X6X6X5X1X:X$X}.}.}.}.}.}.}.}.}.}. X X].P <               F XX<X6X6X6X6X5X5X5X5X5X5X5X5X5X5X5X5X5X5X5X5X5X5X5X5X5X5X5X5X5X5X5X5X5X5X5X6X6X4X,X-X%X@X X%X-X,X4X6X6X5X6X6X5X,XQ <       @ 2 R }. X X}.}.}.}. X X+X$X$X$X$X+X+X X X X X X X].P ,             $ / cXVXAXAXAXAXAXAXAXAXAXAXAXAXAXAXAXAXAXAXAXAXAXAXAXAXAXAXAXAXAXAXAXAXAXAXAXAXAXAXAXAXAXAXAXAXAXAXAXAXAXAXAXAXAXAXAXAXAXAXAXAXAXAXAXAXAXAXAXAXAXAXAXAXAXAXAXAXAXAXAXAXAXAXAXAXAXAXAXAXAXAXAXAXAXAXAX",
"AXAXAXAXAXAXAXAXAXAXAXAXAXAXAXAXAXAXAXAXAXAXAXAXAXAXAXAXAXAXAXAXAXAXAXAXAXAXAXAXAXAXAXAXAXAXAXAXAXAXAXAXAXAXZXnX_ %             , Q >X5X6X6X5X5X5X5X5X5X5X6X6X5X1X:X$X}.}.}.}.}.}.}.}.}.}. X X].P < X             F XX<X6X6X6X6X5X5X5X5X5X5X5X5X5X5X5X5X5X5X5X5X5X5X5X5X5X5X5X5X5X5X5X5X5X5X5X6X6X5X1X,X:X-X-X:X,X1X5X6X6X5X6X6X5X,XQ <       @ 2 R }. X X}.}.}.}.}. X X X X X X X X X X X X+X+X].P ,             $ / cXVXAXAXAXAXAXAXAXAXAXAXAXAXAXAXAXAXAXAXAXAXAXAXAXAXAXAXAXAXAXAXAXAXAXAXAXAXAXAXAXAXAXAXAXAXAXAXAXAXAXAXAXAXAXAXAXAXAXAXAXAXAXAXAXAXAXAXAXAXAXAXAXAXAXAXAXAXAXAXAXAXAXAXAXAXAXAXAXAXAXAXAXAXAXAXAX",
"AXAXAXAXAXAXAXAXAXAXAXAXAXAXAXAXAXAXAXAXAXAXAXAXAXAXAXAXAXAXAXAXAXAXAXAXAXAXAXAXAXAXAXAXAXAXAXAXAXAXAXAXAXAXAXnX_ %             < Q >X5X6X6X5X5X5X5X5X5X5X6X6X5X1X:X$X}.}.}.|.}.}.}.}.|.}. X X].P < X           X F XX<X6X6X6X5X5X5X5X5X5X5X5X5X5X5X5X5X5X5X5X5X5X5X5X5X5X5X5X5X5X5X5X5X5X5X5X6X5X5X4X1X1X<X<X1X1X4X5X5X6X5X6X6X5X,XXX<       @ 2 R }. X X}.}.}.}.}.}. X X X X X X X X X+X+X$X$X[.P <             $ / cXVXAXAXAXAXAXAXAXAXAXAXAXAXAXAXAXAXAXAXAXAXAXAXAXAXAXAXAXAXAXAXAXAXAXAXAXAXAXAXAXAXAXAXAXAXAXAXAXAXAXAXAXAXAXAXAXAXAXAXAXAXAXAXAXAXAXAXAXAXAXAXAXAXAXAXAXAXAXAXAXAXAXAXAXAXAXAXAXAXAXAXAXAXAXAXAX",
"AXAXAXAXAXAXAXAXAXAXAXAXAXAXAXAXAXAXAXAXAXAXAXAXAXAXAXAXAXAXAXAXAXAXAXAXAXAXAXAXAXAXAXAXAXAXAXAXAXAXAXAXAXAXAXnX_ %             < Q >X5X6X6X5X5X5X5X5X5X5X6X6X5X1X:X$X|.}.}.}.}.}.}.|.|.}. X X].P < X           X F XX<X6X6X6X5X5X5X5X5X5X5X5X5X5X5X5X5X5X5X5X5X5X5X5X5X5X5X5X5X5X5X5X5X5X5X5X5X5X5X5X5X5X5X5X5X5X5X5X5X5X5X6X6X5X,XXX<       @ 2 R }. X X}.}.}.}.}.}.}.}.}.}.}.}.}.}. X+X$X$X$X'.P <             $ / cXVXAXAXAXAXAXAXAXAXAXAXAXAXAXAXAXAXAXAXAXAXAXAXAXAXAXAXAXAXAXAXAXAXAXAXAXAXAXAXAXAXAXAXAXAXAXAXAXAXAXAXAXAXAXAXAXAXAXAXAXAXAXAXAXAXAXAXAXAXAXAXAXAXAXAXAXAXAXAXAXAXAXAXAXAXAXAXAXAXAXAXAXAXAXAXAX",
"AXAXAXAXAXAXAXAXAXAXAXAXAXAXAXAXAXAXAXAXAXAXAXAXAXAXAXAXAXAXAXAXAXAXAXAXAXAXAXAXAXAXAXAXAXAXAXAXAXAXAXAXAXAXAXnX_ %             < Q >X6X7X7X6X6X6X5X5X5X5X6X6X5X<X;X$X}.}.}.}.}.}.}.|.|.}. X X[.P < X           X F XX<X6X6X6X5X5X5X5X5X5X5X5X5X5X5X5X5X5X5X5X5X5X5X5X5X5X5X5X5X5X5X5X5X5X5X5X5X5X5X6X6X6X6X6X6X6X6X6X6X6X6X7X7X6X,XXX<       X 2 R }. X X}.}.}.}.}.}.}.}.}.}.}.}.}.}. X$X$X$X$X'.P <             $ / cXVXAXAXAXAXAXAXAXAXAXAXAXAXAXAXAXAXAXAXAXAXAXAXAXAXAXAXAXAXAXAXAXAXAXAXAXAXAXAXAXAXAXAXAXAXAXAXAXAXAXAXAXAXAXAXAXAXAXAXAXAXAXAXAXAXAXAXAXAXAXAXAXAXAXAXAXAXAXAXAXAXAXAXAXAXAXAXAXAXAXAXAXAXAXAXAX",
"AXAXAXAXAXAXAXAXAXAXAXAXAXAXAXAXAXAXAXAXAXAXAXAXAXAXAXAXAXAXAXAXAXAXAXAXAXAXAXAXAXAXAXAXAXAXAXAXAXAXAXAXAXAXAXnX_ %             < Q >X6X7X7X6X6X6X5X5X5X5X6X6X5X<X-X$X}.}.}.}.}.}.}.}.}.}. X X[.P <             X F XX<X6X6X6X5X5X5X5X5X5X5X5X5X5X5X5X5X5X5X5X5X5X5X5X5X5X5X5X5X5X5X5X5X5X5X5X5X5X5X5X6X6X6X6X6X6X6X6X6X6X6X7X7X6X,XXX<       X 2 R }. X X}.}.}.}.}.}.}.}.}.}.}.}.}.}. X+X$X$X$X'.P <             $ / cXVXAXAXAXAXAXAXAXAXAXAXAXAXAXAXAXAXAXAXAXAXAXAXAXAXAXAXAXAXAXAXAXAXAXAXAXAXAXAXAXAXAXAXAXAXAXAXAXAXAXAXAXAXAXAXAXAXAXAXAXAXAXAXAXAXAXAXAXAXAXAXAXAXAXAXAXAXAXAXAXAXAXAXAXAXAXAXAXAXAXAXAXAXAXAXAX",
"AXAXAXAXAXAXAXAXAXAXAXAXAXAXAXAXAXAXAXAXAXAXAXAXAXAXAXAXAXAXAXAXAXAXAXAXAXAXAXAXAXAXAXAXAXAXAXAXAXAXAXAXAXAXAXmX_ %             , T -X3X4X4X4X4X5X5X5X5X5X6X6X5X<X:X$X}.}.|.|.|.|.|.}.}.|. X X[.P <             X F XX<X6X6X6X5X5X5X5X5X5X5X5X5X5X5X5X5X5X5X5X5X5X5X5X5X5X5X5X5X5X5X5X5X5X5X5X5X5X5X5X5X6X6X6X5X5X4X4X3X3X3X4X4X3X:XQ 1 X     # D R }. X X}.}.|.}.}.}.}.}.|.|.|.}.}. X X+X$X$X$X'.P <             $ ^ zXNXZXZXVXZXZXAXAXAXAXAXAXAXAXAXAXAXAXAXAXAXAXAXAXAXAXAXAXAXAXAXAXAXAXAXAXAXAXAXAXAXAXAXAXAXAXAXAXAXAXAXAXAXAXAXAXAXAXAXAXAXAXAXAXAXAXAXAXAXAXAXAXAXAXAXAXAXAXAXAXAXAXAXAXAXAXAXAXAXAXAXAXAXAXAXAX",
"AXAXAXAXAXAXAXAXAXAXAXAXAXAXAXAXAXAXAXAXAXAXAXAXAXAXAXAXAXAXAXAXAXAXAXAXAXAXAXAXAXAXAXAXAXAXAXAXAXAXAXAXAXAXAXnX_ %             # P XX*X*X*X-X>X1X5X6X6X5X6X6X5X1X:X$X}.}.|.|.|.|.|.}.}.}. X X[.P <             X F XX<X6X6X6X5X5X5X5X5X5X5X5X5X5X5X5X5X5X5X5X5X5X5X5X5X5X5X5X5X5X5X5X5X5X5X5X5X5X5X5X5X6X6X6X5X1X>X-X*X*X*X*X-X*XXXT D 1 < < 2 P W }. X X}.}.|.}.}.}.}.}.}.|.|.}.}.}. X+X$X$X$X'.P <               5 _ cXvXvXvXnXNXZXAXAXAXAXAXAXAXAXAXAXAXAXAXAXAXAXAXAXAXAXAXAXAXAXAXAXAXAXAXAXAXAXAXAXAXAXAXAXAXAXAXAXAXAXAXAXAXAXAXAXAXAXAXAXAXAXAXAXAXAXAXAXAXAXAXAXAXAXAXAXAXAXAXAXAXAXAXAXAXAXAXAXAXAXAXAXAXAXAX",
"AXAXAXAXAXAXAXAXAXAXAXAXAXAXAXAXAXAXAXAXAXAXAXAXAXAXAXAXAXAXAXAXAXAXAXAXAXAXAXAXAXAXAXAXAXAXAXAXAXAXAXAXAXAXZXnX_ %             X < F P P I T XX>X4X6X6X5X6X6X5X1X:X$X}.}.|.|.|.}.}.}.}.}. X X[.P <             X F XX<X6X6X6X6X5X5X5X5X5X5X5X5X5X5X5X5X5X5X5X5X5X5X5X5X5X5X5X5X5X5X5X5X5X5X5X5X5X5X5X5X6X6X6X4X>XXXT P P I I I I I I T T T T Y W [.}. X|.}.}.|.}.}.}.}.}.}.|.|.}.}. X X+X$X$X$X'.P <               $ 5 / ( ( ( ' bXBXAXAXAXAXAXAXAXAXAXAXAXAXAXAXAXAXAXAXAXAXAXAXAXAXAXAXAXAXAXAXAXAXAXAXAXAXAXAXAXAXAXAXAXAXAXAXAXAXAXAXAXAXAXAXAXAXAXAXAXAXAXAXAXAXAXAXAXAXAXAXAXAXAXAXAXAXAXAXAXAXAXAXAXAXAXAXAXAXAX",
"AXAXAXAXAXAXAXAXAXAXAXAXAXAXAXAXAXAXAXAXAXAXAXAXAXAXAXAXAXAXAXAXAXAXAXAXAXAXAXAXAXAXAXAXAXAXAXAXAXAXAXAXAXAXZXnX_ %               X X @ X X < T -X4X6X6X5X6X6X5X1X:X$X}.}.|.|.|.}.}.}.}.}. X X[.P <             X F XX<X6X6X6X6X5X5X5X5X5X5X5X5X5X5X5X5X5X5X5X5X5X5X5X5X5X5X5X5X5X5X5X5X5X5X5X5X5X5X5X5X5X6X6X4X-XT < X X @ @ X @ < P W [.[.[.[.}.}.}.}.}.}.}.}.}.}.}.}.}.}.}.|.}.}. X X+X$X$X$X'.P <                 $ $ $ $ $ ^ zXNXAXAXAXAXAXAXAXAXAXAXAXAXAXAXAXAXAXAXAXAXAXAXAXAXAXAXAXAXAXAXAXAXAXAXAXAXAXAXAXAXAXAXAXAXAXAXAXAXAXAXAXAXAXAXAXAXAXAXAXAXAXAXAXAXAXAXAXAXAXAXAXAXAXAXAXAXAXAXAXAXAXAXAXAXAXAXAXAXAX",
"AXAXAXAXAXAXAXAXAXAXAXAXAXAXAXAXAXAXAXAXAXAXAXAXAXAXAXAXAXAXAXAXAXAXAXAXAXAXAXAXAXAXAXAXAXAXAXAXAXAXAXAXAXAXZXnX_ %                         @ I -X4X6X6X5X6X6X5X1X:X$X}.}.}.}.}.}.}.}.}.}. X X].P < X           X F XX<X6X6X6X5X5X5X5X5X5X5X5X5X5X5X5X5X5X5X5X5X5X5X5X5X5X5X5X5X5X5X5X5X5X5X5X5X5X5X5X5X5X6X6X4X-XI @             # D W  X$X@X X X}.}.}.}.}.}.}.}.}.}.}.}.}.}.}.}.}.}. X+X$X$X$X'.P <                           5 lXNXAXAXAXAXAXAXAXAXAXAXAXAXAXAXAXAXAXAXAXAXAXAXAXAXAXAXAXAXAXAXAXAXAXAXAXAXAXAXAXAXAXAXAXAXAXAXAXAXAXAXAXAXAXAXAXAXAXAXAXAXAXAXAXAXAXAXAXAXAXAXAXAXAXAXAXAXAXAXAXAXAXAXAXAXAXAXAXAXAX",
"AXAXAXAXAXAXAXAXAXAXAXAXAXAXAXAXAXAXAXAXAXAXAXAXAXAXAXAXAXAXAXAXAXAXAXAXAXAXAXAXAXAXAXAXAXAXAXAXAXAXAXAXAXAXZXnX_ %                         # I -X4X6X6X5X6X6X5X1X:X$X}.}.}.}.}.}.}.}.}.}. X X].P < X           X F XX<X6X6X6X5X5X5X5X5X5X5X5X5X5X5X5X5X5X5X5X5X5X5X5X5X5X5X5X5X5X5X5X5X5X5X5X5X5X5X5X5X5X6X6X4X-XI @             # D W  X$X@X X X}.}.}.}.}.}.}.}.}.}.}.}.}.}.}.}.}. X X+X$X$X$X'.P <                           5 lXNXAXAXAXAXAXAXAXAXAXAXAXAXAXAXAXAXAXAXAXAXAXAXAXAXAXAXAXAXAXAXAXAXAXAXAXAXAXAXAXAXAXAXAXAXAXAXAXAXAXAXAXAXAXAXAXAXAXAXAXAXAXAXAXAXAXAXAXAXAXAXAXAXAXAXAXAXAXAXAXAXAXAXAXAXAXAXAXAXAX",
"AXAXAXAXAXAXAXAXAXAXAXAXAXAXAXAXAXAXAXAXAXAXAXAXAXAXAXAXAXAXAXAXAXAXAXAXAXAXAXAXAXAXAXAXAXAXAXAXAXAXAXAXAXAXAXnX_ %                         # I -X4X6X6X5X6X6X5X1X:X$X}.}.}.}.}.}.}.}.}.}. X X].P < X           X F XX<X6X6X6X5X5X5X5X5X5X5X5X5X5X5X5X5X5X5X5X5X5X5X5X5X5X5X5X5X5X5X5X5X5X5X5X5X5X5X5X5X5X6X6X4X-XI #             # D W }. X X|.}.}.}.}.}.}.|.|.}.|.}.}.}.}.}.}.}.}. X X$X$X$X$X'.P <                           5 zXNXAXAXAXAXAXAXAXAXAXAXAXAXAXAXAXAXAXAXAXAXAXAXAXAXAXAXAXAXAXAXAXAXAXAXAXAXAXAXAXAXAXAXAXAXAXAXAXAXAXAXAXAXAXAXAXAXAXAXAXAXAXAXAXAXAXAXAXAXAXAXAXAXAXAXAXAXAXAXAXAXAXAXAXAXAXAXAXAXAX",
"AXAXAXAXAXAXAXAXAXAXAXAXAXAXAXAXAXAXAXAXAXAXAXAXAXAXAXAXAXAXAXAXAXAXAXAXAXAXAXAXAXAXAXAXAXAXAXAXAXAXAXAXAXAXAXnX_ %                         # I -X4X6X6X5X6X6X5X1X:X$X}.}.}.}.}.}.}.}.}.}. X X].P <               1 XX<X6X6X6X5X5X5X5X5X5X5X5X5X5X5X5X5X5X5X5X5X5X5X5X5X5X5X5X5X5X5X5X5X5X5X5X5X5X5X5X5X5X6X6X4X-XI #             # D W }. X X}.}.}.}.}.}.}.}.|.|.|.}.}.}.|.|.}.}.}. X X+X$X$X$X'.P <                           5 zXNXAXAXAXAXAXAXAXAXAXAXAXAXAXAXAXAXAXAXAXAXAXAXAXAXAXAXAXAXAXAXAXAXAXAXAXAXAXAXAXAXAXAXAXAXAXAXAXAXAXAXAXAXAXAXAXAXAXAXAXAXAXAXAXAXAXAXAXAXAXAXAXAXAXAXAXAXAXAXAXAXAXAXAXAXAXAXAXAXAX",
"AXAXAXAXAXAXAXAXAXAXAXAXAXAXAXAXAXAXAXAXAXAXAXAXAXAXAXAXAXAXAXAXAXAXAXAXAXAXAXAXAXAXAXAXAXAXAXAXAXAXAXAXAXAXAXnX_ $                         # T -X4X6X6X5X6X6X5X1X:X$X}.}.|.}.}.}.}.}.}.|. X X].P ,               1 XX<X6X6X6X5X5X5X5X5X5X5X5X5X5X5X5X5X5X5X5X5X5X5X5X5X5X5X5X5X5X5X5X5X5X5X5X5X5X5X5X5X5X6X6X4X-XI #             # D W }. X}.}.}.}.|.}.}.}.}.}.}.}.}.}.}.}.}.}.|.}. X X+X$X$X$X'.P ,                           5 zXNXAXAXAXAXAXAXAXAXAXAXAXAXAXAXAXAXAXAXAXAXAXAXAXAXAXAXAXAXAXAXAXAXAXAXAXAXAXAXAXAXAXAXAXAXAXAXAXAXAXAXAXAXAXAXAXAXAXAXAXAXAXAXAXAXAXAXAXAXAXAXAXAXAXAXAXAXAXAXAXAXAXAXAXAXAXAXAXAXAX",
"AXAXAXAXAXAXAXAXAXAXAXAXAXAXAXAXAXAXAXAXAXAXAXAXAXAXAXAXAXAXAXAXAXAXAXAXAXAXAXAXAXAXAXAXAXAXAXAXAXAXAXAXAXAXAXmX_ 3                         # T -X4X6X6X5X6X6X5X<X:X$X}.}.|.|.|.}.}.}.}.|. X X[.P < X           X F XX<X6X6X6X6X5X5X5X5X5X5X5X5X5X5X5X5X5X5X5X5X5X5X5X5X5X5X5X5X5X5X5X5X5X5X5X5X5X5X5X5X5X6X6X4X-XT #             # D W }. X}.}.}.}.|.|.}.}.}.}.}.}.}.}.}.}.}.}.|.}. X X+X$X$X$X'.P < X                         5 zXNXAXAXAXAXAXAXAXAXAXAXAXAXAXAXAXAXAXAXAXAXAXAXAXAXAXAXAXAXAXAXAXAXAXAXAXAXAXAXAXAXAXAXAXAXAXAXAXAXAXAXAXAXAXAXAXAXAXAXAXAXAXAXAXAXAXAXAXAXAXAXAXAXAXAXAXAXAXAXAXAXAXAXAXAXAXAXAXAXAX",
"AXAXAXAXAXAXAXAXAXAXAXAXAXAXAXAXAXAXAXAXAXAXAXAXAXAXAXAXAXAXAXAXAXAXAXAXAXAXAXAXAXAXAXAXAXAXAXAXAXAXAXAXAXAXAXmXzX/ 5 5 5 5 6 6 5 % $       # I -X4X6X6X5X6X6X5X<X:X$X}.}.|.|.|.}.}.}.}.|. X X[.R P 2 1 1 1 1 < 1 T *X1X6X6X6X6X5X5X5X5X5X5X5X5X5X5X5X5X5X5X5X5X5X5X5X5X5X5X5X5X5X5X5X5X5X5X5X5X5X5X5X5X5X6X6X4X-XT #             # D W }. X X}.}.}.}.}.}.}.}.}.}.}.|.|.}.|.|.|.}.}. X X+X$X$X$X}.Y D , # , , , , , # X         5 zXNXAXAXAXAXAXAXAXAXAXAXAXAXAXAXAXAXAXAXAXAXAXAXAXAXAXAXAXAXAXAXAXAXAXAXAXAXAXAXAXAXAXAXAXAXAXAXAXAXAXAXAXAXAXAXAXAXAXAXAXAXAXAXAXAXAXAXAXAXAXAXAXAXAXAXAXAXAXAXAXAXAXAXAXAXAXAXAXAXAX",
"AXAXAXAXAXAXAXAXAXAXAXAXAXAXAXAXAXAXAXAXAXAXAXAXAXAXAXAXAXAXAXAXAXAXAXAXAXAXAXAXAXAXAXAXAXAXAXAXAXAXAXAXAXAXAXBXnXcXzXlXzXzXzXzX' / %       # I -X4X6X6X5X6X6X5X<X:X$X}.}.|.|.|.}.}.}.}.|.}.}.|.|.XXXXXXXXXXXXXXXX*X>X4X6X6X6X6X5X5X5X5X5X5X5X5X5X5X5X5X5X5X5X5X5X5X5X5X5X5X5X5X5X5X5X5X5X5X5X5X5X5X5X5X5X6X6X4X-XT #             # D W }. X X}.}.}.}.}.|.}.}.}.}.|.|.|.|.|.}.|.}.}. X X+X$X$X$X X].Y P P P P P P P 2 , X       5 zXNXAXAXAXAXAXAXAXAXAXAXAXAXAXAXAXAXAXAXAXAXAXAXAXAXAXAXAXAXAXAXAXAXAXAXAXAXAXAXAXAXAXAXAXAXAXAXAXAXAXAXAXAXAXAXAXAXAXAXAXAXAXAXAXAXAXAXAXAXAXAXAXAXAXAXAXAXAXAXAXAXAXAXAXAXAXAXAXAXAX",
"AXAXAXAXAXAXAXAXAXAXAXAXAXAXAXAXAXAXAXAXAXAXAXAXAXAXAXAXAXAXAXAXAXAXAXAXAXAXAXAXAXAXAXAXAXAXAXAXAXAXAXAXAXAXAXZXVXNXNXNXNXNXBXNXnX' 5       # I -X4X6X6X5X6X6X5X1X:X$X}.}.}.}.}.}.}.}.}.}.}.}.@X&X:X,X,X,X,X,X,X,X<X4X5X6X6X5X5X5X5X5X5X5X5X5X5X5X5X5X5X5X5X5X5X5X5X5X5X5X5X5X5X5X5X5X5X5X5X5X5X5X5X6X5X5X6X6X4X-XI #             # D W }. X X}.}.}.|.|.|.|.|.}.}.}.}.|.}.}.}.}.}.}. X X+X$X$X$X X{.'.'.'.'.'.'.'.].P 1 X       5 zXNXAXAXAXAXAXAXAXAXAXAXAXAXAXAXAXAXAXAXAXAXAXAXAXAXAXAXAXAXAXAXAXAXAXAXAXAXAXAXAXAXAXAXAXAXAXAXAXAXAXAXAXAXAXAXAXAXAXAXAXAXAXAXAXAXAXAXAXAXAXAXAXAXAXAXAXAXAXAXAXAXAXAXAXAXAXAXAXAXAX",
"AXAXAXAXAXAXAXAXAXAXAXAXAXAXAXAXAXAXAXAXAXAXAXAXAXAXAXAXAXAXAXAXAXAXAXAXAXAXAXAXAXAXAXAXAXAXAXAXAXAXAXAXAXAXAXAXAXAXAXAXAXAXAXAXNXzX6       # I -X4X6X6X5X6X6X5X1X:X$X}.}.}.}.}.}.}.}.}.}.}.}.$X-X<X5X6X6X6X6X6X6X6X6X5X5X5X5X5X5X5X5X5X5X5X5X5X5X5X5X5X5X5X5X5X5X5X5X5X5X5X5X5X5X5X5X5X5X5X5X5X5X5X6X6X6X6X6X4X-XI #             # D W }. X X}.}.}.|.}.|.|.}.}.}.}.}.}.}.}.}.}.}.}. X X+X$X$X$X$X$X$X$X$X$X$X$X$X{.R 2 X       5 zXNXAXAXAXAXAXAXAXAXAXAXAXAXAXAXAXAXAXAXAXAXAXAXAXAXAXAXAXAXAXAXAXAXAXAXAXAXAXAXAXAXAXAXAXAXAXAXAXAXAXAXAXAXAXAXAXAXAXAXAXAXAXAXAXAXAXAXAXAXAXAXAXAXAXAXAXAXAXAXAXAXAXAXAXAXAXAXAXAXAX",
"AXAXAXAXAXAXAXAXAXAXAXAXAXAXAXAXAXAXAXAXAXAXAXAXAXAXAXAXAXAXAXAXAXAXAXAXAXAXAXAXAXAXAXAXAXAXAXAXAXAXAXAXAXAXAXAXAXAXAXAXAXAXAXAXBXzX6       # I -X4X6X6X5X6X6X5X1X:X$X}.}.}.}.}.}.|.|.|.}.}.}.$X;X1X6X7X7X6X6X6X6X6X6X6X5X5X5X5X5X5X5X5X5X5X5X5X5X5X5X5X5X5X5X5X5X5X5X5X5X5X5X5X5X5X5X5X5X5X5X5X5X5X6X6X5X6X6X4X-XI #             # D W }. X X}.}.}.}.}.}.}.}.}.}.}.}.}.}.|.}.}.}.}. X X+X$X$X$X$X$X$X$X$X$X$X%X%X XR 2 X       5 zXNXAXAXAXAXAXAXAXAXAXAXAXAXAXAXAXAXAXAXAXAXAXAXAXAXAXAXAXAXAXAXAXAXAXAXAXAXAXAXAXAXAXAXAXAXAXAXAXAXAXAXAXAXAXAXAXAXAXAXAXAXAXAXAXAXAXAXAXAXAXAXAXAXAXAXAXAXAXAXAXAXAXAXAXAXAXAXAXAXAX",
"AXAXAXAXAXAXAXAXAXAXAXAXAXAXAXAXAXAXAXAXAXAXAXAXAXAXAXAXAXAXAXAXAXAXAXAXAXAXAXAXAXAXAXAXAXAXAXAXAXAXAXAXAXAXAXAXAXAXAXAXAXAXAXAXNXzX6       # T -X4X6X6X5X6X6X5X1X:X$X}.}.}.}.}.}.|.|.|.}.}.}.$X-X<X5X6X6X6X6X6X6X6X6X5X5X5X5X5X5X5X5X5X5X5X5X5X5X5X5X5X5X5X5X5X5X5X5X5X5X5X5X5X5X5X5X5X5X5X5X5X5X5X5X5X5X6X6X4X-XI #             # D W }. X X}.}.}.}.}.}.}.}.}.}.}.}.}.}.|.}.}.}.}. X X+X$X$X$X$X$X$X$X$X$X$X$X$X XR 2 X       5 zXNXAXAXAXAXAXAXAXAXAXAXAXAXAXAXAXAXAXAXAXAXAXAXAXAXAXAXAXAXAXAXAXAXAXAXAXAXAXAXAXAXAXAXAXAXAXAXAXAXAXAXAXAXAXAXAXAXAXAXAXAXAXAXAXAXAXAXAXAXAXAXAXAXAXAXAXAXAXAXAXAXAXAXAXAXAXAXAXAXAX",
"AXAXAXAXAXAXAXAXAXAXAXAXAXAXAXAXAXAXAXAXAXAXAXAXAXAXAXAXAXAXAXAXAXAXAXAXAXAXAXAXAXAXAXAXAXAXAXAXAXAXAXAXAXAXAXAXAXAXAXAXAXAXAXAXNXzX5       # T -X4X6X6X6X6X6X5X1X:X$X}.}.|.}.}.}.}.}.}.}.}.}.@X-X<X5X6X6X5X5X5X5X5X5X5X5X5X5X5X5X5X5X5X5X5X5X5X5X5X5X5X5X5X5X5X5X5X5X5X5X5X5X5X5X5X5X5X5X5X5X5X5X5X5X5X5X6X6X4X-XI #             # D W }. X}.}.}.}.}.}.}.}.}.}.}.}.}.}.}.}.}.}.}.}.}. X+X$X$X$X$X$X$X$X$X$X$X$X$X XR 2 X       5 zXNXAXAXAXAXAXAXAXAXAXAXAXAXAXAXAXAXAXAXAXAXAXAXAXAXAXAXAXAXAXAXAXAXAXAXAXAXAXAXAXAXAXAXAXAXAXAXAXAXAXAXAXAXAXAXAXAXAXAXAXAXAXAXAXAXAXAXAXAXAXAXAXAXAXAXAXAXAXAXAXAXAXAXAXAXAXAXAXAXAX",
"AXAXAXAXAXAXAXAXAXAXAXAXAXAXAXAXAXAXAXAXAXAXAXAXAXAXAXAXAXAXAXAXAXAXAXAXAXAXAXAXAXAXAXAXAXAXAXAXAXAXAXAXAXAXAXAXAXAXAXAXAXAXAXAXNXzX5       # T -X5X7X7X6X7X7X6X1X:X$X}.}.|.|.|.|.}.}.}.}.}.}.@X-X<X5X6X6X5X5X5X5X5X5X5X5X5X5X5X5X5X5X5X5X5X5X5X5X5X5X5X5X5X5X5X5X5X5X5X5X5X5X5X5X5X5X5X5X5X5X5X5X5X5X5X5X6X6X4X-XI #             # D W }. X}.}.|.|.|.|.}.}.}.}.}.}.}.}.}.}.}.|.}.}.}. X+X$X$X$X$X$X$X$X$X$X$X$X$X XR 2 X       5 zXNXAXAXAXAXAXAXAXAXAXAXAXAXAXAXAXAXAXAXAXAXAXAXAXAXAXAXAXAXAXAXAXAXAXAXAXAXAXAXAXAXAXAXAXAXAXAXAXAXAXAXAXAXAXAXAXAXAXAXAXAXAXAXAXAXAXAXAXAXAXAXAXAXAXAXAXAXAXAXAXAXAXAXAXAXAXAXAXAXAX",
"AXAXAXAXAXAXAXAXAXAXAXAXAXAXAXAXAXAXAXAXAXAXAXAXAXAXAXAXAXAXAXAXAXAXAXAXAXAXAXAXAXAXAXAXAXAXAXAXAXAXAXAXAXAXAXAXAXAXAXAXAXAXAXAXNXzX5       # T -X5X7X7X6X6X6X5X1X:X$X}.}.}.|.|.}.}.}.}.}.}.}.@X=X<X5X6X6X5X5X5X5X5X5X5X5X5X5X5X5X5X5X5X5X5X5X5X5X5X5X5X5X5X5X5X5X5X5X5X5X5X5X5X5X5X5X5X5X5X5X5X5X5X5X5X5X6X6X4X-XI #             # D W }. X}.}.}.|.|.|.|.}.}.}.}.}.}.}.}.}.}.}.}.}.}. X+X$X$X$X$X$X$X$X$X$X$X$X$X{.R 2 X       5 zXNXAXAXAXAXAXAXAXAXAXAXAXAXAXAXAXAXAXAXAXAXAXAXAXAXAXAXAXAXAXAXAXAXAXAXAXAXAXAXAXAXAXAXAXAXAXAXAXAXAXAXAXAXAXAXAXAXAXAXAXAXAXAXAXAXAXAXAXAXAXAXAXAXAXAXAXAXAXAXAXAXAXAXAXAXAXAXAXAXAX",
"AXAXAXAXAXAXAXAXAXAXAXAXAXAXAXAXAXAXAXAXAXAXAXAXAXAXAXAXAXAXAXAXAXAXAXAXAXAXAXAXAXAXAXAXAXAXAXAXAXAXAXAXAXAXAXAXAXAXAXAXAXAXAXAXNXzX5       # P #X,X1X1X<X<X<X,X>X=X$X}.}.}.}.}. X X}.}.}.}.}.$X=X<X5X6X6X5X5X5X5X5X5X5X5X5X5X5X5X5X5X5X5X5X5X5X5X5X5X5X5X5X5X5X5X5X5X5X5X5X5X5X5X5X5X5X5X5X5X5X5X5X5X5X5X6X6X4X-XT < X X @ @ X # < P ].}. X X}.}. X X X X}.}.}.}.}.}.}. X X X X}.}. X X+X$X$X$X$X$X$X$X$X$X$X$X$X XR 2 X       5 zXNXAXAXAXAXAXAXAXAXAXAXAXAXAXAXAXAXAXAXAXAXAXAXAXAXAXAXAXAXAXAXAXAXAXAXAXAXAXAXAXAXAXAXAXAXAXAXAXAXAXAXAXAXAXAXAXAXAXAXAXAXAXAXAXAXAXAXAXAXAXAXAXAXAXAXAXAXAXAXAXAXAXAXAXAXAXAXAXAXAX",
"AXAXAXAXAXAXAXAXAXAXAXAXAXAXAXAXAXAXAXAXAXAXAXAXAXAXAXAXAXAXAXAXAXAXAXAXAXAXAXAXAXAXAXAXAXAXAXAXAXAXAXAXAXAXAXAXAXAXAXAXAXAXAXAXNXzX5       X 1 T XX#X#XXXXXXXXXXX X X X X X X X X X X X X}. X$X;X<X5X6X6X5X5X5X5X5X5X5X5X5X5X5X5X5X5X5X5X5X5X5X5X5X5X5X5X5X5X5X5X5X5X5X5X5X5X5X5X5X5X5X5X5X5X5X5X5X5X5X5X6X6X4X>X[.P 2 2 F D D F P Y [. X X X X X X X X X X X X X X X X X X X X X X X+X+X$X$X$X$X$X$X$X$X$X$X$X$X{.R 2 X       5 zXNXAXAXAXAXAXAXAXAXAXAXAXAXAXAXAXAXAXAXAXAXAXAXAXAXAXAXAXAXAXAXAXAXAXAXAXAXAXAXAXAXAXAXAXAXAXAXAXAXAXAXAXAXAXAXAXAXAXAXAXAXAXAXAXAXAXAXAXAXAXAXAXAXAXAXAXAXAXAXAXAXAXAXAXAXAXAXAXAXAX",
"AXAXAXAXAXAXAXAXAXAXAXAXAXAXAXAXAXAXAXAXAXAXAXAXAXAXAXAXAXAXAXAXAXAXAXAXAXAXAXAXAXAXAXAXAXAXAXAXAXAXAXAXAXAXAXAXAXAXAXAXAXAXAXAXNXzX5         # < 1 F F F 1 1 F I W }.$X$X+X X X+X+X+X+X X X X$X;X<X5X6X6X5X5X5X5X5X5X5X5X5X5X5X5X5X5X5X5X5X5X5X5X5X5X5X5X5X5X5X5X5X5X5X5X5X5X5X5X5X5X5X5X5X5X5X5X5X5X5X5X6X6X5X,X%X].R R E E R E E [.}. X+X X X X X X X+X+X+X+X X X X X X X X X+X+X+X$X$X$X$X$X$X$X$X$X$X$X$X$X$X{.R 2 X       5 zXNXAXAXAXAXAXAXAXAXAXAXAXAXAXAXAXAXAXAXAXAXAXAXAXAXAXAXAXAXAXAXAXAXAXAXAXAXAXAXAXAXAXAXAXAXAXAXAXAXAXAXAXAXAXAXAXAXAXAXAXAXAXAXAXAXAXAXAXAXAXAXAXAXAXAXAXAXAXAXAXAXAXAXAXAXAXAXAXAXAX",
"AXAXAXAXAXAXAXAXAXAXAXAXAXAXAXAXAXAXAXAXAXAXAXAXAXAXAXAXAXAXAXAXAXAXAXAXAXAXAXAXAXAXAXAXAXAXAXAXAXAXAXAXAXAXAXAXAXAXAXAXAXAXAXAXNXzX5               X X X     X < P '.$X$X$X$X$X$X$X$X$X$X{.{.%X:X<X5X6X6X5X5X5X5X5X5X5X5X5X5X5X5X5X5X5X5X5X5X5X5X5X5X5X5X5X5X5X5X5X5X5X5X5X5X5X5X5X5X5X5X5X5X5X5X5X5X5X5X6X6X5X<X;X$X X{. X X{.{. X X+X$X$X$X$X$X$X$X$X$X$X$X$X$X$X$X$X$X$X$X$X$X$X$X$X$X$X$X$X$X$X$X$X$X$X$X$X$X{.R 2 X       5 zXNXAXAXAXAXAXAXAXAXAXAXAXAXAXAXAXAXAXAXAXAXAXAXAXAXAXAXAXAXAXAXAXAXAXAXAXAXAXAXAXAXAXAXAXAXAXAXAXAXAXAXAXAXAXAXAXAXAXAXAXAXAXAXAXAXAXAXAXAXAXAXAXAXAXAXAXAXAXAXAXAXAXAXAXAXAXAXAXAXAX",
"AXAXAXAXAXAXAXAXAXAXAXAXAXAXAXAXAXAXAXAXAXAXAXAXAXAXAXAXAXAXAXAXAXAXAXAXAXAXAXAXAXAXAXAXAXAXAXAXAXAXAXAXAXAXAXAXAXAXAXAXAXAXAXAXNXzX5                           , P '.$X$X$X$X$X$X$X$X$X$X{.{.%X:X<X5X6X6X6X6X6X6X6X6X5X5X5X5X5X5X5X5X5X5X5X5X5X5X5X5X5X5X5X5X5X5X5X5X5X5X5X5X5X5X5X5X5X5X5X5X5X5X5X6X6X6X6X6X5X1X:X%X$X$X$X$X$X$X$X$X$X$X$X$X$X$X$X$X$X$X$X$X$X$X$X+X{.{.{.{.{.{.+X+X+X{.{.{.{.{.{.{. X{.{.{.$X$X{.R 2 X       5 zXNXAXAXAXAXAXAXAXAXAXAXAXAXAXAXAXAXAXAXAXAXAXAXAXAXAXAXAXAXAXAXAXAXAXAXAXAXAXAXAXAXAXAXAXAXAXAXAXAXAXAXAXAXAXAXAXAXAXAXAXAXAXAXAXAXAXAXAXAXAXAXAXAXAXAXAXAXAXAXAXAXAXAXAXAXAXAXAXAXAX",
"AXAXAXAXAXAXAXAXAXAXAXAXAXAXAXAXAXAXAXAXAXAXAXAXAXAXAXAXAXAXAXAXAXAXAXAXAXAXAXAXAXAXAXAXAXAXAXAXAXAXAXAXAXAXAXAXAXAXAXAXAXAXAXAXNXlX5                           , P '.$X$X$X$X$X$X$X$X$X$X{.{.%X:X1X5X6X6X6X6X6X6X6X6X5X5X5X5X5X5X5X5X5X5X5X5X5X5X5X5X5X5X5X5X5X5X5X5X5X5X5X5X5X5X5X5X5X5X5X5X5X5X5X6X6X6X6X6X5X1X:X%X$X$X$X$X$X$X$X$X$X$X$X$X$X$X$X$X$X$X$X$X$X$X+X X{.{.{.{.{.{.{.{.{.+X+X{.{.{.{.{.{.{.{.{.$X$X{.R 2 X       5 zXNXAXAXAXAXAXAXAXAXAXAXAXAXAXAXAXAXAXAXAXAXAXAXAXAXAXAXAXAXAXAXAXAXAXAXAXAXAXAXAXAXAXAXAXAXAXAXAXAXAXAXAXAXAXAXAXAXAXAXAXAXAXAXAXAXAXAXAXAXAXAXAXAXAXAXAXAXAXAXAXAXAXAXAXAXAXAXAXAXAX",
"AXAXAXAXAXAXAXAXAXAXAXAXAXAXAXAXAXAXAXAXAXAXAXAXAXAXAXAXAXAXAXAXAXAXAXAXAXAXAXAXAXAXAXAXAXAXAXAXAXAXAXAXAXAXAXAXAXAXAXAXAXAXAXAXNXzX^ $ $ $ $ $                 < P '.$X$X$X$X$X$X$X$X$X+X{. X%X;X,X2X5X5X5X5X5X5X5X5X5X5X5X5X5X5X5X5X5X5X5X5X5X5X5X5X5X5X5X5X5X5X5X5X5X5X5X5X5X5X5X5X5X5X5X5X5X5X5X5X5X5X5X5X2X,X;X%X X{.$X$X$X$X$X$X$X$X$X$X$X$X$X$X$X$X$X$X$X$X$X$X$X$X$X$X$X$X$X$X$X%X%X$X$X$X$X$X$X$X$X$X%X%X+XE 2 X       5 zXNXAXAXAXAXAXAXAXAXAXAXAXAXAXAXAXAXAXAXAXAXAXAXAXAXAXAXAXAXAXAXAXAXAXAXAXAXAXAXAXAXAXAXAXAXAXAXAXAXAXAXAXAXAXAXAXAXAXAXAXAXAXAXAXAXAXAXAXAXAXAXAXAXAXAXAXAXAXAXAXAXAXAXAXAXAXAXAXAXAX",
"AXAXAXAXAXAXAXAXAXAXAXAXAXAXAXAXAXAXAXAXAXAXAXAXAXAXAXAXAXAXAXAXAXAXAXAXAXAXAXAXAXAXAXAXAXAXAXAXAXAXAXAXAXAXAXAXAXAXAXAXAXAXAXAXBXbX' ( / ( / 5 $               < P '.$X$X$X$X$X$X$X$X$X$X X X$X&X>X,X<X<X<X,X,X<X1X2X5X6X6X5X5X5X5X5X5X5X5X5X5X5X5X5X5X5X5X5X5X5X5X5X5X5X5X5X5X5X5X5X5X5X5X5X6X5X5X2X1X<X<X<X,X>X&X$X+X X$X$X$X$X$X$X$X$X$X$X$X$X$X$X$X$X$X+X+X$X%X&X=X;X;X;X;X=X=X=X=X;X;X;X;X;X=X;X;X=X;X=X:X:X=X[.D @       5 zXNXAXAXAXAXAXAXAXAXAXAXAXAXAXAXAXAXAXAXAXAXAXAXAXAXAXAXAXAXAXAXAXAXAXAXAXAXAXAXAXAXAXAXAXAXAXAXAXAXAXAXAXAXAXAXAXAXAXAXAXAXAXAXAXAXAXAXAXAXAXAXAXAXAXAXAXAXAXAXAXAXAXAXAXAXAXAXAXAXAX",
"AXAXAXAXAXAXAXAXAXAXAXAXAXAXAXAXAXAXAXAXAXAXAXAXAXAXAXAXAXAXAXAXAXAXAXAXAXAXAXAXAXAXAXAXAXAXAXAXAXAXAXAXAXAXAXAXAXAXAXAXAXAXAXAXZXNXnXvXvXvXcX_ 5               < P '.$X$X$X$X$X$X$X$X$X$X+X+X$X%X&X=X;X;X;X=X=X;X>X<X5X6X6X5X5X5X5X5X5X5X5X5X5X5X5X5X5X5X5X5X5X5X5X5X5X5X5X5X5X5X5X5X5X5X5X5X6X6X5X1X>X:X=X=X=X&X%X$X+X+X$X$X$X$X$X$X$X$X$X$X$X$X$X$X$X$X$X X X$X&X:X,X<X<X<X<X,X,X,X,X<X<X<X<X<X<X<X<X<X<X<X<X1X,X#XP #       5 zXNXAXAXAXAXAXAXAXAXAXAXAXAXAXAXAXAXAXAXAXAXAXAXAXAXAXAXAXAXAXAXAXAXAXAXAXAXAXAXAXAXAXAXAXAXAXAXAXAXAXAXAXAXAXAXAXAXAXAXAXAXAXAXAXAXAXAXAXAXAXAXAXAXAXAXAXAXAXAXAXAXAXAXAXAXAXAXAXAXAX",
"AXAXAXAXAXAXAXAXAXAXAXAXAXAXAXAXAXAXAXAXAXAXAXAXAXAXAXAXAXAXAXAXAXAXAXAXAXAXAXAXAXAXAXAXAXAXAXAXAXAXAXAXAXAXAXAXAXAXAXAXAXAXAXAXAXZXZXCXZXZXNXzX^ $             < P '.$X$X$X$X$X$X$X$X$X$X$X$X$X$X$X$X$X$X$X$X$X%X=X,X2X6X6X5X5X5X5X5X5X5X5X5X5X5X5X5X5X5X5X5X5X5X5X5X5X5X5X5X5X5X5X5X5X5X5X5X6X6X4X,X;X%X$X$X$X$X$X$X$X+X$X$X$X$X$X$X$X$X$X$X$X$X$X$X$X$X$X X{.$X=X,X2X5X5X5X5X5X5X5X5X5X5X5X5X5X5X5X5X5X5X5X5X6X1X-XI #       5 zXNXAXAXAXAXAXAXAXAXAXAXAXAXAXAXAXAXAXAXAXAXAXAXAXAXAXAXAXAXAXAXAXAXAXAXAXAXAXAXAXAXAXAXAXAXAXAXAXAXAXAXAXAXAXAXAXAXAXAXAXAXAXAXAXAXAXAXAXAXAXAXAXAXAXAXAXAXAXAXAXAXAXAXAXAXAXAXAXAXAX",
"AXAXAXAXAXAXAXAXAXAXAXAXAXAXAXAXAXAXAXAXAXAXAXAXAXAXAXAXAXAXAXAXAXAXAXAXAXAXAXAXAXAXAXAXAXAXAXAXAXAXAXAXAXAXAXAXAXAXAXAXAXAXAXAXAXAXAXAXAXAXVXcX/ $             < P '.$X$X$X$X$X$X$X$X$X$X$X$X$X+X{.{.{.{.{.{.{.$X&X,X2X6X6X5X5X5X5X5X5X5X5X5X5X5X5X5X5X5X5X5X5X5X5X5X5X5X5X5X5X5X5X5X5X5X5X5X6X6X4X,X=X$X{.{.{.+X$X$X$X$X$X$X$X$X$X$X$X$X$X$X$X$X$X$X$X$X$X{.{.$X=X,X5X6X6X6X6X6X6X6X6X6X6X6X6X6X6X6X6X6X6X6X6X7X4X-XI #       5 zXNXAXAXAXAXAXAXAXAXAXAXAXAXAXAXAXAXAXAXAXAXAXAXAXAXAXAXAXAXAXAXAXAXAXAXAXAXAXAXAXAXAXAXAXAXAXAXAXAXAXAXAXAXAXAXAXAXAXAXAXAXAXAXAXAXAXAXAXAXAXAXAXAXAXAXAXAXAXAXAXAXAXAXAXAXAXAXAXAXAX",
"AXAXAXAXAXAXAXAXAXAXAXAXAXAXAXAXAXAXAXAXAXAXAXAXAXAXAXAXAXAXAXAXAXAXAXAXAXAXAXAXAXAXAXAXAXAXAXAXAXAXAXAXAXAXAXAXAXAXAXAXAXAXAXAXAXAXAXAXAXAXVXcX/ $             < P '.$X$X$X$X$X$X$X$X$X$X$X$X$X$X+X{.{.{.{.{.{.$X&X,X2X6X6X6X5X5X5X5X5X5X5X5X5X5X5X5X5X5X5X5X5X5X5X5X5X5X5X5X5X5X5X5X5X5X5X5X6X6X2X,X=X$X{.{.{.+X$X$X$X$X$X$X$X$X$X$X$X$X$X$X$X$X$X$X$X$X$X{.{.$X=X,X5X6X6X6X6X6X6X6X6X6X6X6X6X6X6X6X6X6X6X6X6X7X4X-XI #       5 zXNXAXAXAXAXAXAXAXAXAXAXAXAXAXAXAXAXAXAXAXAXAXAXAXAXAXAXAXAXAXAXAXAXAXAXAXAXAXAXAXAXAXAXAXAXAXAXAXAXAXAXAXAXAXAXAXAXAXAXAXAXAXAXAXAXAXAXAXAXAXAXAXAXAXAXAXAXAXAXAXAXAXAXAXAXAXAXAXAXAX",
"AXAXAXAXAXAXAXAXAXAXAXAXAXAXAXAXAXAXAXAXAXAXAXAXAXAXAXAXAXAXAXAXAXAXAXAXAXAXAXAXAXAXAXAXAXAXAXAXAXAXAXAXAXAXAXAXAXAXAXAXAXAXAXAXAXAXAXAXAXAXVXcX/ $             < P '.$X$X$X$X$X$X$X$X$X$X$X$X$X$X$X$X$X$X$X{.{.$X&X,X2X6X6X6X5X5X5X5X5X5X5X5X5X5X5X5X5X5X5X5X5X5X5X5X5X5X5X5X5X5X5X5X5X5X5X5X6X6X2X,X=X$X{.{.$X$X$X$X$X$X$X$X$X$X$X$X$X$X$X$X$X$X$X$X$X$X$X{.{.$X=X,X4X6X6X5X5X5X5X5X5X5X5X5X5X5X5X5X5X5X5X5X6X6X4X-XI #       5 zXNXAXAXAXAXAXAXAXAXAXAXAXAXAXAXAXAXAXAXAXAXAXAXAXAXAXAXAXAXAXAXAXAXAXAXAXAXAXAXAXAXAXAXAXAXAXAXAXAXAXAXAXAXAXAXAXAXAXAXAXAXAXAXAXAXAXAXAXAXAXAXAXAXAXAXAXAXAXAXAXAXAXAXAXAXAXAXAXAXAX",
"AXAXAXAXAXAXAXAXAXAXAXAXAXAXAXAXAXAXAXAXAXAXAXAXAXAXAXAXAXAXAXAXAXAXAXAXAXAXAXAXAXAXAXAXAXAXAXAXAXAXAXAXAXAXAXAXAXAXAXAXAXAXAXAXAXAXAXAXAXAXBXcX^ $             , P '.$X$X$X$X$X$X$X$X$X$X$X$X$X$X$X$X$X$X$X X{.$X&X,X2X6X6X6X6X6X6X6X6X6X6X6X6X6X6X6X6X6X6X6X6X6X6X6X6X6X6X6X6X6X6X6X6X6X6X6X6X6X5X,X=X$X{.{.$X$X$X$X$X$X$X$X$X$X$X$X$X$X$X$X$X+X+X+X X{.{.{.{.$X=X,X2X6X6X5X5X5X5X5X5X5X5X5X5X5X5X5X5X5X5X5X6X6X4X-XI #       5 zXNXAXAXAXAXAXAXAXAXAXAXAXAXAXAXAXAXAXAXAXAXAXAXAXAXAXAXAXAXAXAXAXAXAXAXAXAXAXAXAXAXAXAXAXAXAXAXAXAXAXAXAXAXAXAXAXAXAXAXAXAXAXAXAXAXAXAXAXAXAXAXAXAXAXAXAXAXAXAXAXAXAXAXAXAXAXAXAXAXAX",
"AXAXAXAXAXAXAXAXAXAXAXAXAXAXAXAXAXAXAXAXAXAXAXAXAXAXAXAXAXAXAXAXAXAXAXAXAXAXAXAXAXAXAXAXAXAXAXAXAXAXAXAXAXAXAXAXAXAXAXAXAXAXAXAXAXAXAXAXAXAXBXcX^               , P '.%X%X$X$X$X$X$X$X$X$X$X$X$X$X$X$X$X$X$X X{.$X=X,X2X6X6X6X6X6X6X6X6X6X6X6X6X6X6X6X6X6X6X6X6X6X6X6X6X6X6X6X6X6X6X6X6X6X6X6X6X6X5X,X=X$X{.{.$X$X$X$X$X$X$X$X$X$X$X$X$X$X$X$X$X+X{.{.{.{.{.{.{.$X&X,X2X6X6X5X5X5X5X5X5X5X5X5X5X5X5X5X5X5X5X5X6X6X4X-XI #       5 zXNXAXAXAXAXAXAXAXAXAXAXAXAXAXAXAXAXAXAXAXAXAXAXAXAXAXAXAXAXAXAXAXAXAXAXAXAXAXAXAXAXAXAXAXAXAXAXAXAXAXAXAXAXAXAXAXAXAXAXAXAXAXAXAXAXAXAXAXAXAXAXAXAXAXAXAXAXAXAXAXAXAXAXAXAXAXAXAXAXAX",
"AXAXAXAXAXAXAXAXAXAXAXAXAXAXAXAXAXAXAXAXAXAXAXAXAXAXAXAXAXAXAXAXAXAXAXAXAXAXAXAXAXAXAXAXAXAXAXAXAXAXAXAXAXAXAXAXAXAXAXAXAXAXAXAXAXAXAXAXAXAXVXcX/ $           X < P '.$X$X+X X X+X+X$X$X$X$X$X$X$X$X$X$X$X$X X{.$X&X,X2X6X6X5X5X5X5X5X5X5X5X5X5X5X5X5X5X5X5X5X5X5X5X5X5X5X5X5X5X5X5X5X5X5X5X5X6X6X2X,X=X$X{.{.$X$X$X$X$X$X$X$X$X$X$X$X$X$X$X$X$X$X$X$X$X$X$X+X{.$X=X,X5X6X6X5X5X5X5X5X5X5X5X5X5X5X5X5X5X5X5X5X6X6X4X-XI #       5 zXNXAXAXAXAXAXAXAXAXAXAXAXAXAXAXAXAXAXAXAXAXAXAXAXAXAXAXAXAXAXAXAXAXAXAXAXAXAXAXAXAXAXAXAXAXAXAXAXAXAXAXAXAXAXAXAXAXAXAXAXAXAXAXAXAXAXAXAXAXAXAXAXAXAXAXAXAXAXAXAXAXAXAXAXAXAXAXAXAXAX",
"AXAXAXAXAXAXAXAXAXAXAXAXAXAXAXAXAXAXAXAXAXAXAXAXAXAXAXAXAXAXAXAXAXAXAXAXAXAXAXAXAXAXAXAXAXAXAXAXAXAXAXAXAXAXAXAXAXAXAXAXAXAXAXAXAXAXAXAXAXAXVXbX_ 6 5 5 5 5 5 6 U T W ].].E E E E ].'. X$X$X$X$X$X$X$X$X$X$X+X{.$X&X>X<X1X1X1X1X1X1X1X1X1X1X1X1X1X1X1X1X1X1X1X1X1X1X1X1X1X1X1X1X1X1X1X1X1X1X1X1X1X<X>X&X$X{.+X$X$X$X$X$X$X$X$X$X$X$X$X$X$X+X$X$X%X%X&X&X&X&X&X&X&X:X<X5X6X6X5X5X5X5X5X5X5X5X5X5X5X5X5X5X5X5X5X6X6X4X-XI #       5 zXNXAXAXAXAXAXAXAXAXAXAXAXAXAXAXAXAXAXAXAXAXAXAXAXAXAXAXAXAXAXAXAXAXAXAXAXAXAXAXAXAXAXAXAXAXAXAXAXAXAXAXAXAXAXAXAXAXAXAXAXAXAXAXAXAXAXAXAXAXAXAXAXAXAXAXAXAXAXAXAXAXAXAXAXAXAXAXAXAXAX",
"AXAXAXAXAXAXAXAXAXAXAXAXAXAXAXAXAXAXAXAXAXAXAXAXAXAXAXAXAXAXAXAXAXAXAXAXAXAXAXAXAXAXAXAXAXAXAXAXAXAXAXAXAXAXAXAXAXAXAXAXAXAXAXAXAXAXAXAXAXAXZXNXvXzXlXzXzXzXzXzX' U P D D D D D D P R '.+X$X$X$X$X$X$X$X$X$X$X+X$X%X=X:X>X>X>X>X>X>X>X>X>X>X>X>X>X>X>X>X>X>X>X>X>X>X>X>X>X>X>X>X>X>X>X>X>X>X>X>X>X:X=X%X$X+X$X$X$X$X$X$X$X$X$X$X$X$X$X$X$X X+X$X&X:X>X,X,X,X>X>X,X<X2X5X6X6X5X5X5X5X5X5X5X5X5X5X5X5X5X5X5X5X5X6X6X4X-XI #       5 zXNXAXAXAXAXAXAXAXAXAXAXAXAXAXAXAXAXAXAXAXAXAXAXAXAXAXAXAXAXAXAXAXAXAXAXAXAXAXAXAXAXAXAXAXAXAXAXAXAXAXAXAXAXAXAXAXAXAXAXAXAXAXAXAXAXAXAXAXAXAXAXAXAXAXAXAXAXAXAXAXAXAXAXAXAXAXAXAXAXAX",
"AXAXAXAXAXAXAXAXAXAXAXAXAXAXAXAXAXAXAXAXAXAXAXAXAXAXAXAXAXAXAXAXAXAXAXAXAXAXAXAXAXAXAXAXAXAXAXAXAXAXAXAXAXAXAXAXAXAXAXAXAXAXAXAXAXAXAXAXAXAXAXZXBXNXNXNXNXNXBXNXcX_ 1 @ @ # # @ # < P ]. X$X$X$X$X$X$X$X$X$X$X$X$X$X%X%X%X%X%X%X%X%X%X%X%X%X%X%X%X%X%X%X%X%X%X%X%X%X%X%X%X%X%X%X%X%X%X%X%X%X%X%X%X%X%X$X$X$X$X$X$X$X$X$X$X$X$X$X$X$X$X$X+X{.+X%X;X,X2X2X2X2X2X2X2X2X5X5X5X5X5X5X5X5X5X5X5X5X5X5X5X5X5X5X5X5X5X6X6X4X-XI #       5 zXNXAXAXAXAXAXAXAXAXAXAXAXAXAXAXAXAXAXAXAXAXAXAXAXAXAXAXAXAXAXAXAXAXAXAXAXAXAXAXAXAXAXAXAXAXAXAXAXAXAXAXAXAXAXAXAXAXAXAXAXAXAXAXAXAXAXAXAXAXAXAXAXAXAXAXAXAXAXAXAXAXAXAXAXAXAXAXAXAXAX",
"AXAXAXAXAXAXAXAXAXAXAXAXAXAXAXAXAXAXAXAXAXAXAXAXAXAXAXAXAXAXAXAXAXAXAXAXAXAXAXAXAXAXAXAXAXAXAXAXAXAXAXAXAXAXAXAXAXAXAXAXAXAXAXAXAXAXAXAXAXAXAXAXAXAXAXAXAXAXAXAXmX_ %             # D E  X$X$X$X$X$X$X$X$X$X$X$X$X$X$X$X+X+X$X+X$X$X+X+X$X$X$X$X+X+X$X+X$X+X+X+X$X$X$X$X+X+X$X+X$X$X+X+X$X$X$X$X+X+X+X$X$X$X$X$X$X$X$X$X$X$X$X$X$X$X+X+X+X{.{.%X:X1X5X6X6X6X6X6X6X6X5X5X5X5X5X5X5X5X5X5X5X5X5X5X5X5X5X5X5X5X5X6X6X4X-XI #       5 zXNXAXAXAXAXAXAXAXAXAXAXAXAXAXAXAXAXAXAXAXAXAXAXAXAXAXAXAXAXAXAXAXAXAXAXAXAXAXAXAXAXAXAXAXAXAXAXAXAXAXAXAXAXAXAXAXAXAXAXAXAXAXAXAXAXAXAXAXAXAXAXAXAXAXAXAXAXAXAXAXAXAXAXAXAXAXAXAXAXAX",
"AXAXAXAXAXAXAXAXAXAXAXAXAXAXAXAXAXAXAXAXAXAXAXAXAXAXAXAXAXAXAXAXAXAXAXAXAXAXAXAXAXAXAXAXAXAXAXAXAXAXAXAXAXAXAXAXAXAXAXAXAXAXAXAXAXAXAXAXAXAXAXAXAXAXAXAXAXAXAXAXmX_ %             @ D E  X$X$X$X$X$X$X$X$X$X$X$X$X$X{.{.{.{.{.{.{.{.{.{.{.{.{.{.{.{.{.{.{.{.{.{.{.{.{.{.{.{.{.{.{.{.{.{.{.{.{.{.{.{. X+X$X$X$X$X$X$X$X$X$X$X$X$X$X+X X{.{.{.{.%X:X1X5X6X6X6X6X6X6X6X6X5X5X5X5X5X5X5X5X5X5X5X5X5X5X5X5X5X5X5X5X6X6X4X-XI #       5 zXNXAXAXAXAXAXAXAXAXAXAXAXAXAXAXAXAXAXAXAXAXAXAXAXAXAXAXAXAXAXAXAXAXAXAXAXAXAXAXAXAXAXAXAXAXAXAXAXAXAXAXAXAXAXAXAXAXAXAXAXAXAXAXAXAXAXAXAXAXAXAXAXAXAXAXAXAXAXAXAXAXAXAXAXAXAXAXAXAXAX",
"AXAXAXAXAXAXAXAXAXAXAXAXAXAXAXAXAXAXAXAXAXAXAXAXAXAXAXAXAXAXAXAXAXAXAXAXAXAXAXAXAXAXAXAXAXAXAXAXAXAXAXAXAXAXAXAXAXAXAXAXAXAXAXAXAXAXAXAXAXAXAXAXAXAXAXAXAXAXAXAXmX_ %             # D E +X$X$X$X$X$X$X$X$X$X$X$X$X+X+X+X+X+X+X+X+X+X+X+X+X+X+X+X+X+X+X+X+X+X+X+X+X+X+X+X+X+X+X+X+X+X+X+X+X+X+X+X+X+X+X$X$X$X$X$X$X$X$X$X$X$X$X$X$X$X$X$X+X{.{.%X:X1X5X6X6X6X6X6X6X6X5X5X5X5X5X5X5X5X5X5X5X5X5X5X5X5X5X5X5X5X5X6X6X4X-XI #       5 zXNXAXAXAXAXAXAXAXAXAXAXAXAXAXAXAXAXAXAXAXAXAXAXAXAXAXAXAXAXAXAXAXAXAXAXAXAXAXAXAXAXAXAXAXAXAXAXAXAXAXAXAXAXAXAXAXAXAXAXAXAXAXAXAXAXAXAXAXAXAXAXAXAXAXAXAXAXAXAXAXAXAXAXAXAXAXAXAXAXAX",
"AXAXAXAXAXAXAXAXAXAXAXAXAXAXAXAXAXAXAXAXAXAXAXAXAXAXAXAXAXAXAXAXAXAXAXAXAXAXAXAXAXAXAXAXAXAXAXAXAXAXAXAXAXAXAXAXAXAXAXAXAXAXAXAXAXAXAXAXAXAXAXAXAXAXAXAXAXAXAXAXnX_ %             # D E +X$X$X$X$X$X$X$X$X$X$X$X$X$X$X$X$X$X$X$X$X$X$X$X$X$X$X$X$X$X$X$X$X$X$X$X$X$X$X$X$X$X$X$X$X$X$X$X$X$X$X$X$X$X$X$X$X$X$X$X$X$X$X$X$X$X$X+X$X$X%X%X%X%X%X&X>X1X5X6X6X5X5X5X5X5X5X5X5X5X5X5X5X5X5X5X5X5X5X5X5X5X5X5X5X5X5X6X6X4X-XI #       5 zXNXAXAXAXAXAXAXAXAXAXAXAXAXAXAXAXAXAXAXAXAXAXAXAXAXAXAXAXAXAXAXAXAXAXAXAXAXAXAXAXAXAXAXAXAXAXAXAXAXAXAXAXAXAXAXAXAXAXAXAXAXAXAXAXAXAXAXAXAXAXAXAXAXAXAXAXAXAXAXAXAXAXAXAXAXAXAXAXAXAX",
"AXAXAXAXAXAXAXAXAXAXAXAXAXAXAXAXAXAXAXAXAXAXAXAXAXAXAXAXAXAXAXAXAXAXAXAXAXAXAXAXAXAXAXAXAXAXAXAXAXAXAXAXAXAXAXAXAXAXAXAXAXAXAXAXAXAXAXAXAXAXAXAXAXAXAXAXAXAXAXAXnX_ %             # D E +X$X$X$X$X$X$X$X$X$X$X$X$X$X$X$X$X$X$X$X$X$X$X$X$X$X$X$X$X$X$X$X$X$X$X$X$X$X$X$X$X$X$X$X$X$X$X$X$X$X$X$X$X$X$X$X$X$X$X$X$X$X$X$X$X$X+X X$X%X&X:X>X>X>X>X<X2X5X6X6X5X5X5X5X5X5X5X5X5X5X5X5X5X5X5X5X5X5X5X5X5X5X5X5X5X5X6X6X4X-XI #       5 zXNXAXAXAXAXAXAXAXAXAXAXAXAXAXAXAXAXAXAXAXAXAXAXAXAXAXAXAXAXAXAXAXAXAXAXAXAXAXAXAXAXAXAXAXAXAXAXAXAXAXAXAXAXAXAXAXAXAXAXAXAXAXAXAXAXAXAXAXAXAXAXAXAXAXAXAXAXAXAXAXAXAXAXAXAXAXAXAXAXAX",
"AXAXAXAXAXAXAXAXAXAXAXAXAXAXAXAXAXAXAXAXAXAXAXAXAXAXAXAXAXAXAXAXAXAXAXAXAXAXAXAXAXAXAXAXAXAXAXAXAXAXAXAXAXAXAXAXAXAXAXAXAXAXAXAXAXAXAXAXAXAXAXAXAXAXAXAXAXAXAXZXnX_ %             # D E +X$X$X$X$X$X$X$X$X$X$X$X$X$X$X$X$X$X$X$X$X$X$X$X$X$X$X$X$X$X$X$X$X$X$X$X$X$X$X$X$X$X$X$X$X$X$X$X$X$X$X$X$X$X$X$X$X$X$X$X$X$X$X$X$X$X+X{.$X%X:X,X1X1X1X1X2X5X5X6X5X5X5X5X5X5X5X5X5X5X5X5X5X5X5X5X5X5X5X5X5X5X5X5X5X5X5X6X6X4X-XI #       5 zXNXAXAXAXAXAXAXAXAXAXAXAXAXAXAXAXAXAXAXAXAXAXAXAXAXAXAXAXAXAXAXAXAXAXAXAXAXAXAXAXAXAXAXAXAXAXAXAXAXAXAXAXAXAXAXAXAXAXAXAXAXAXAXAXAXAXAXAXAXAXAXAXAXAXAXAXAXAXAXAXAXAXAXAXAXAXAXAXAXAX",
"AXAXAXAXAXAXAXAXAXAXAXAXAXAXAXAXAXAXAXAXAXAXAXAXAXAXAXAXAXAXAXAXAXAXAXAXAXAXAXAXAXAXAXAXAXAXAXAXAXAXAXAXAXAXAXAXAXAXAXAXAXAXAXAXAXAXAXAXAXAXAXAXAXAXAXAXAXAXAXZXnX_ %             # D E +X$X$X$X$X$X$X$X$X$X$X$X$X$X$X$X$X$X$X$X$X$X$X$X$X$X$X$X$X$X$X$X$X$X$X$X$X$X$X$X$X$X$X$X$X$X$X$X$X$X$X$X$X$X$X$X$X$X$X$X$X$X$X$X$X$X+X{.$X&X>X1X5X6X5X5X5X5X5X5X5X5X5X5X5X5X5X5X5X5X5X5X5X5X5X5X5X5X5X5X5X5X5X5X5X5X5X6X6X4X-XI #       5 zXNXAXAXAXAXAXAXAXAXAXAXAXAXAXAXAXAXAXAXAXAXAXAXAXAXAXAXAXAXAXAXAXAXAXAXAXAXAXAXAXAXAXAXAXAXAXAXAXAXAXAXAXAXAXAXAXAXAXAXAXAXAXAXAXAXAXAXAXAXAXAXAXAXAXAXAXAXAXAXAXAXAXAXAXAXAXAXAXAXAX",
"AXAXAXAXAXAXAXAXAXAXAXAXAXAXAXAXAXAXAXAXAXAXAXAXAXAXAXAXAXAXAXAXAXAXAXAXAXAXAXAXAXAXAXAXAXAXAXAXAXAXAXAXAXAXAXAXAXAXAXAXAXAXAXAXAXAXAXAXAXAXAXAXAXAXAXAXAXAXAXZXnX_ %             # D E +X$X$X$X$X$X$X$X$X$X$X$X$X$X$X$X$X$X$X$X$X$X$X$X$X$X$X$X$X$X$X$X$X$X$X$X$X$X$X$X$X$X$X$X$X$X$X$X$X$X$X$X$X$X$X$X$X$X$X$X$X$X$X$X$X$X+X{.$X&X>X2X6X6X6X6X6X5X5X5X5X5X5X5X5X5X5X5X5X5X5X5X5X5X5X5X5X5X5X5X5X5X5X5X5X5X5X6X6X4X-XI #       5 zXNXAXAXAXAXAXAXAXAXAXAXAXAXAXAXAXAXAXAXAXAXAXAXAXAXAXAXAXAXAXAXAXAXAXAXAXAXAXAXAXAXAXAXAXAXAXAXAXAXAXAXAXAXAXAXAXAXAXAXAXAXAXAXAXAXAXAXAXAXAXAXAXAXAXAXAXAXAXAXAXAXAXAXAXAXAXAXAXAXAX",
"AXAXAXAXAXAXAXAXAXAXAXAXAXAXAXAXAXAXAXAXAXAXAXAXAXAXAXAXAXAXAXAXAXAXAXAXAXAXAXAXAXAXAXAXAXAXAXAXAXAXAXAXAXAXAXAXAXAXAXAXAXAXAXAXAXAXAXAXAXAXAXAXAXAXAXAXAXAXAXZXnX_ %             # D E +X$X$X$X$X$X$X$X$X$X$X$X$X$X$X$X$X$X$X$X$X$X$X$X$X$X$X$X$X$X$X$X$X$X$X$X$X$X$X$X$X$X$X$X$X$X$X$X$X$X$X$X$X$X$X$X$X$X$X$X$X$X$X$X$X$X+X{.$X&X>X2X6X6X6X6X5X5X5X5X5X5X5X5X5X5X5X5X5X5X5X5X5X5X5X5X5X5X5X5X5X5X5X5X5X5X5X6X6X4X-XI #       5 zXNXAXAXAXAXAXAXAXAXAXAXAXAXAXAXAXAXAXAXAXAXAXAXAXAXAXAXAXAXAXAXAXAXAXAXAXAXAXAXAXAXAXAXAXAXAXAXAXAXAXAXAXAXAXAXAXAXAXAXAXAXAXAXAXAXAXAXAXAXAXAXAXAXAXAXAXAXAXAXAXAXAXAXAXAXAXAXAXAXAX",
"AXAXAXAXAXAXAXAXAXAXAXAXAXAXAXAXAXAXAXAXAXAXAXAXAXAXAXAXAXAXAXAXAXAXAXAXAXAXAXAXAXAXAXAXAXAXAXAXAXAXAXAXAXAXAXAXAXAXAXAXAXAXAXAXAXAXAXAXAXAXAXAXAXAXAXAXAXAXAXAXnX_ %             # D E +X$X$X$X$X$X$X$X$X$X$X$X$X$X$X$X$X$X$X$X$X$X$X$X$X$X$X$X$X$X$X$X$X$X$X$X$X$X$X$X$X$X$X$X$X$X$X$X$X$X$X$X$X$X$X$X$X$X$X$X$X$X$X$X$X$X+X{.$X&X>X1X5X6X6X5X5X5X5X5X5X5X5X5X5X5X5X5X5X5X5X5X5X5X5X5X5X5X5X5X5X5X5X5X5X5X5X6X6X4X-XI #       5 zXNXAXAXAXAXAXAXAXAXAXAXAXAXAXAXAXAXAXAXAXAXAXAXAXAXAXAXAXAXAXAXAXAXAXAXAXAXAXAXAXAXAXAXAXAXAXAXAXAXAXAXAXAXAXAXAXAXAXAXAXAXAXAXAXAXAXAXAXAXAXAXAXAXAXAXAXAXAXAXAXAXAXAXAXAXAXAXAXAXAX",
"AXAXAXAXAXAXAXAXAXAXAXAXAXAXAXAXAXAXAXAXAXAXAXAXAXAXAXAXAXAXAXAXAXAXAXAXAXAXAXAXAXAXAXAXAXAXAXAXAXAXAXAXAXAXAXAXAXAXAXAXAXAXAXAXAXAXAXAXAXAXAXAXAXAXAXAXAXAXAXAXnX_ %             # D E  X$X$X$X$X$X$X$X$X$X$X$X$X$X$X$X$X$X$X$X$X$X$X$X$X$X$X$X$X$X$X$X$X$X$X$X$X$X$X$X$X$X$X$X$X$X$X$X$X$X$X$X$X$X$X$X$X$X$X$X$X$X$X$X$X$X+X{.$X&X>X1X5X6X6X5X5X5X5X5X5X5X5X5X5X5X5X5X5X5X5X5X5X5X5X5X5X5X5X5X5X5X5X5X5X5X5X6X6X4X-XI #       5 zXNXAXAXAXAXAXAXAXAXAXAXAXAXAXAXAXAXAXAXAXAXAXAXAXAXAXAXAXAXAXAXAXAXAXAXAXAXAXAXAXAXAXAXAXAXAXAXAXAXAXAXAXAXAXAXAXAXAXAXAXAXAXAXAXAXAXAXAXAXAXAXAXAXAXAXAXAXAXAXAXAXAXAXAXAXAXAXAXAXAX",
"AXAXAXAXAXAXAXAXAXAXAXAXAXAXAXAXAXAXAXAXAXAXAXAXAXAXAXAXAXAXAXAXAXAXAXAXAXAXAXAXAXAXAXAXAXAXAXAXAXAXAXAXAXAXAXAXAXAXAXAXAXAXAXAXAXAXAXAXAXAXAXAXAXAXAXAXAXAXAXAXnX_ %             # D E  X$X$X$X$X$X$X$X$X$X$X$X$X$X$X$X$X$X$X$X$X$X$X$X$X$X$X$X$X$X$X$X$X$X$X$X$X$X$X$X$X$X$X$X$X$X$X$X$X$X$X$X$X$X$X$X$X$X$X$X$X$X$X$X$X$X+X{.$X&X>X1X5X6X6X5X5X5X5X5X5X5X5X5X5X5X5X5X5X5X5X5X5X5X5X5X5X5X5X5X5X5X5X5X5X5X5X6X6X4X-XI #       5 zXNXAXAXAXAXAXAXAXAXAXAXAXAXAXAXAXAXAXAXAXAXAXAXAXAXAXAXAXAXAXAXAXAXAXAXAXAXAXAXAXAXAXAXAXAXAXAXAXAXAXAXAXAXAXAXAXAXAXAXAXAXAXAXAXAXAXAXAXAXAXAXAXAXAXAXAXAXAXAXAXAXAXAXAXAXAXAXAXAXAX",
"AXAXAXAXAXAXAXAXAXAXAXAXAXAXAXAXAXAXAXAXAXAXAXAXAXAXAXAXAXAXAXAXAXAXAXAXAXAXAXAXAXAXAXAXAXAXAXAXAXAXAXAXAXAXAXAXAXAXAXAXAXAXAXAXAXAXAXAXAXAXAXAXAXAXAXAXAXAXAXAXnX_ %             # D E  X$X$X$X$X$X$X$X$X$X$X$X$X$X$X$X$X$X$X$X$X$X$X$X$X$X$X$X$X$X$X$X$X$X$X$X$X$X$X$X$X$X$X$X$X$X$X$X$X$X$X$X$X$X$X$X$X$X$X$X$X$X$X$X$X$X+X{.$X&X>X1X5X6X6X5X5X5X5X5X5X5X5X5X5X5X5X5X5X5X5X5X5X5X5X5X5X5X5X5X5X5X5X5X5X5X5X6X6X4X-XI #       5 zXNXAXAXAXAXAXAXAXAXAXAXAXAXAXAXAXAXAXAXAXAXAXAXAXAXAXAXAXAXAXAXAXAXAXAXAXAXAXAXAXAXAXAXAXAXAXAXAXAXAXAXAXAXAXAXAXAXAXAXAXAXAXAXAXAXAXAXAXAXAXAXAXAXAXAXAXAXAXAXAXAXAXAXAXAXAXAXAXAXAX",
"AXAXAXAXAXAXAXAXAXAXAXAXAXAXAXAXAXAXAXAXAXAXAXAXAXAXAXAXAXAXAXAXAXAXAXAXAXAXAXAXAXAXAXAXAXAXAXAXAXAXAXAXAXAXAXAXAXAXAXAXAXAXAXAXAXAXAXAXAXAXAXAXAXAXAXAXAXAXAXAXnX_ %             # D E  X$X$X$X$X$X$X$X$X$X$X$X$X$X$X$X$X$X$X$X$X$X$X$X$X$X$X$X$X$X$X$X$X$X$X$X$X$X$X$X$X$X$X$X$X$X$X$X$X$X$X$X$X$X$X$X$X$X$X$X$X$X$X$X$X$X+X{.$X&X>X1X5X6X6X6X5X5X5X5X5X5X5X5X5X5X5X5X5X5X5X5X5X5X5X5X5X5X5X5X5X5X5X5X5X5X5X6X6X4X-XI #       5 zXNXAXAXAXAXAXAXAXAXAXAXAXAXAXAXAXAXAXAXAXAXAXAXAXAXAXAXAXAXAXAXAXAXAXAXAXAXAXAXAXAXAXAXAXAXAXAXAXAXAXAXAXAXAXAXAXAXAXAXAXAXAXAXAXAXAXAXAXAXAXAXAXAXAXAXAXAXAXAXAXAXAXAXAXAXAXAXAXAXAX"
};
