/* XPM */
static char *palett_0[] = {
/* columns rows colors chars-per-pixel */
"300 300 243 2 ",
"   c #010101",
".  c #090703",
"X  c #0D0A05",
"o  c #0B070C",
"O  c #120D07",
"+  c #171108",
"@  c #1B140A",
"#  c #0E0411",
"$  c #17061B",
"%  c #0F1010",
"&  c #121212",
"*  c #1D1D1E",
"=  c #231A0D",
"-  c #291E0F",
";  c #281E11",
":  c #2E2312",
">  c #28241E",
",  c #342713",
"<  c #382A16",
"1  c #3C2D16",
"2  c #1E0724",
"3  c #230A2A",
"4  c #2C0936",
"5  c #320C3C",
"6  c #282828",
"7  c #392E26",
"8  c #363636",
"9  c #3C383A",
"0  c #402F17",
"q  c #433219",
"w  c #4B381C",
"e  c #513D1E",
"r  c #4E0927",
"t  c #540B2A",
"y  c #5B0B2D",
"u  c #581629",
"i  c #6E0F36",
"p  c #543329",
"a  c #653929",
"s  c #094E16",
"d  c #0A5217",
"f  c #0A5518",
"g  c #155219",
"h  c #28511C",
"j  c #0C671D",
"k  c #0D6D1E",
"l  c #0F7822",
"z  c #326523",
"x  c #5C4522",
"c  c #594525",
"v  c #51522F",
"b  c #654A27",
"n  c #654C26",
"m  c #694E27",
"M  c #695225",
"N  c #6D5129",
"B  c #73562B",
"V  c #74592A",
"C  c #7B5C2E",
"Z  c #774435",
"A  c #765836",
"S  c #7D5E30",
"D  c #676824",
"F  c #706D2D",
"G  c #06125B",
"H  c #091558",
"J  c #08145B",
"K  c #0E1759",
"L  c #3C0C4A",
"P  c #381242",
"I  c #1D2158",
"U  c #2C2B4F",
"Y  c #10166E",
"T  c #480E58",
"R  c #471655",
"E  c #493B54",
"W  c #581669",
"Q  c #5A126E",
"!  c #64147A",
"~  c #642076",
"^  c #752F7B",
"/  c #3D6D59",
"(  c #307769",
")  c #494949",
"_  c #514C4D",
"`  c #545454",
"'  c #5A5958",
"]  c #6F5A4F",
"[  c #5A6355",
"{  c #656565",
"}  c #6A6A6A",
"|  c #787877",
" . c #813B38",
".. c #83741F",
"X. c #866F2D",
"o. c #846332",
"O. c #886634",
"+. c #8D6935",
"@. c #916D37",
"#. c #99733A",
"$. c #A37A3E",
"%. c #871343",
"&. c #AD1856",
"*. c #A72C4F",
"=. c #C4365D",
"-. c #C61964",
";. c #C91B65",
":. c #D01D68",
">. c #C72661",
",. c #9B4C42",
"<. c #BE5A53",
"1. c #8E6E4D",
"2. c #A87E41",
"3. c #BB724E",
"4. c #8F6B67",
"5. c #C24A58",
"6. c #C06F50",
"7. c #109028",
"8. c #2F8F2D",
"9. c #12A82E",
"0. c #0DB731",
"q. c #13B532",
"w. c #17B633",
"e. c #2BAF35",
"r. c #37AC36",
"t. c #4F9234",
"y. c #6B9A3C",
"u. c #779B3F",
"i. c #4BA739",
"p. c #66A13D",
"a. c #10C034",
"s. c #1F857E",
"d. c #2D877B",
"f. c #5B8E6D",
"g. c #6E8C66",
"h. c #8E8C16",
"j. c #918F18",
"k. c #8F9014",
"l. c #959218",
"z. c #A9A818",
"x. c #B7B619",
"c. c #9A892E",
"v. c #AB8D35",
"b. c #B0A622",
"n. c #CEB039",
"m. c #CCCB1B",
"M. c #EAE81E",
"N. c #F0EF1D",
"B. c #F7F51F",
"V. c #F8F71F",
"C. c #FAF91E",
"Z. c #DDC92F",
"A. c #E6D82A",
"S. c #F3EE22",
"D. c #96904A",
"F. c #939C5C",
"G. c #AD8242",
"H. c #AA8949",
"J. c #B28644",
"K. c #B68946",
"L. c #B98B47",
"P. c #B4864A",
"I. c #BA8548",
"U. c #B68A49",
"Y. c #A59047",
"T. c #BC9245",
"R. c #BF9049",
"E. c #A79758",
"W. c #8AAB75",
"Q. c #C28A46",
"!. c #C29842",
"~. c #C2924A",
"^. c #1B1A8A",
"/. c #262098",
"(. c #261EA6",
"). c #281DB7",
"_. c #3829AA",
"`. c #2C20B4",
"'. c #2E21B8",
"]. c #6D1585",
"[. c #73168D",
"{. c #771691",
"}. c #7A1795",
"|. c #7C1798",
" X c #7E189A",
".X c #77268D",
"XX c #4634A0",
"oX c #5B448D",
"OX c #62498A",
"+X c #81199D",
"@X c #82299B",
"#X c #871DA4",
"$X c #9329B0",
"%X c #A134BF",
"&X c #9F29C0",
"*X c #A52CC6",
"=X c #A936C8",
"-X c #AF34D0",
";X c #B538D8",
":X c #BE3CE1",
">X c #C33CE8",
",X c #CB3FF1",
"<X c #CB41F2",
"1X c #D042F7",
"2X c #DB46FF",
"3X c #DF48FF",
"4X c #E249FF",
"5X c #168986",
"6X c #158C8A",
"7X c #17928D",
"8X c #159491",
"9X c #289B8E",
"0X c #1DA59C",
"qX c #22B6A7",
"wX c #5BA991",
"eX c #74B98A",
"rX c #27C9B6",
"tX c #2ED2BA",
"yX c #63C69B",
"uX c #4ED4AF",
"iX c #2CDBC3",
"pX c #2EE6CB",
"aX c #36E5C7",
"sX c #30EACD",
"dX c #27EFD6",
"fX c #2CECD1",
"gX c #30EED1",
"hX c #858585",
"jX c #8B8B8B",
"kX c #989898",
"lX c #A2A09E",
"zX c #A2A2A2",
"xX c #ABABAB",
"cX c #AFAFB0",
"vX c #B3B3B3",
"bX c #BEBEBE",
"nX c #C5C5C5",
"mX c #D3D3D3",
"MX c #DADADA",
"NX c #E4E4E4",
"BX c #ECECEC",
"VX c #F4F4F4",
"CX c #FFFFFF",
/* pixels */
"CXCXCXCXCXCXCXCXCXCXCXCXCXCXCXCXCXCXCXCXCXCXCXCXCXCXCXCXCXCXCXCXCXCXCXCXCXCXCXCXCXCXCXCXCXCXCXCXCXCXCXCXCXCXCXCXCXCXCXCXCXCXCXCXCXCXCXCXCXCXCXCXCXCXCXCXCXCXCXCXCXCXCXCXCXCXCXCXCXCXCXCXCXCXCXCXCXCXCXCXCXCXCXCXCXCXCXCXCXCXCXCXCXCXCXCXCXCXCXCXCXCXCXCXCXCXCXCXCXCXCXCXCXCXCXCXCXCXCXCXCXCXCXCXCXCXCXCXCXCXCXCXCXCXCXCXCXCXCXCXCXCXCXCXCXCXCXCXCXCXCXCXCXCXCXCXCXCXCXCXCXCXCXCXCXCXCXCXCXCXCXCXCXCXCXCXCXCXCXCXCXCXCXCXCXCXCXCXCXCXCXCXCXCXCXCXCXCXCXCXCXCXCXCXCXCXCXCXCXCXCXCXCXCXCXCXCXCXCXCXCXCXCXCXCXCXCXCXCXCXCXCXCXCXCXCXCXCXCXCXCXCXCXCXCXCXCXCXCXCXCXCXCXCXCXCXCXCXCXCXCXCXCXCXCXCXCXCXCXCXCXCXCXCXCXCXCXCXCXCX",
"CXCXCXCXCXCXCXCXCXCXCXCXCXCXCXCXCXCXCXCXCXCXCXCXCXCXCXCXCXCXCXCXCXCXCXCXCXCXCXCXCXCXCXCXCXCXCXCXCXCXCXCXCXCXCXCXCXCXCXCXCXCXCXCXCXCXCXCXCXCXCXCXCXCXCXCXCXCXCXCXCXCXCXCXCXCXCXCXCXCXCXCXCXCXCXCXCXCXCXCXCXCXCXCXCXCXCXCXCXCXCXCXCXCXCXCXCXCXCXCXCXCXCXCXCXCXCXCXCXCXCXCXCXCXCXCXCXCXCXCXCXCXCXCXCXCXCXCXCXCXCXCXCXCXCXCXCXCXCXCXCXCXCXCXCXCXCXCXCXCXCXCXCXCXCXCXCXCXCXCXCXCXCXCXCXCXCXCXCXCXCXCXCXCXCXCXCXCXCXCXCXCXCXCXCXCXCXCXCXCXCXCXCXCXCXCXCXCXCXCXCXCXCXCXCXCXCXCXCXCXCXCXCXCXCXCXCXCXCXCXCXCXCXCXCXCXCXCXCXCXCXCXCXCXCXCXCXCXCXCXCXCXCXCXCXCXCXCXCXCXCXCXCXCXCXCXCXCXCXCXCXCXCXCXCXCXCXCXCXCXCXCXCXCXCXCXCXCXCXCX",
"CXCXCXCXCXCXCXCXCXCXCXCXCXCXCXCXCXCXCXCXCXCXCXCXCXCXCXCXCXCXCXCXCXCXCXCXCXCXCXCXCXCXCXCXCXCXCXCXCXCXCXCXCXCXCXCXCXCXCXCXCXCXCXCXCXCXCXCXCXCXCXCXCXCXCXCXCXCXCXCXCXCXCXCXCXCXCXCXCXCXCXCXCXCXCXCXCXCXCXCXCXCXCXCXCXCXCXCXCXCXCXCXCXCXCXCXCXCXCXCXCXCXCXCXCXCXCXCXCXCXCXCXCXCXCXCXCXCXCXCXCXCXCXCXCXCXCXCXCXCXCXCXCXCXCXCXCXCXCXCXCXCXCXCXCXCXCXCXCXCXCXCXCXCXCXCXCXCXCXCXCXCXCXCXCXCXCXCXCXCXCXCXCXCXCXCXCXCXCXCXCXCXCXCXCXCXCXCXCXCXCXCXCXCXCXCXCXCXCXCXCXCXCXCXCXCXCXCXCXCXCXCXCXCXCXCXCXCXCXCXCXCXCXCXCXCXCXCXCXCXCXCXCXCXCXCXCXCXCXCXCXCXCXCXCXCXCXCXCXCXCXCXCXCXCXCXCXCXCXCXCXCXCXCXCXCXCXCXCXCXCXCXCXCXCXCXCXCXCXCX",
"CXCXCXCXCXCXCXCXCXCXCXCXCXCXCXCXCXCXCXCXCXCXCXCXCXCXCXCXCXCXCXCXCXCXCXCXCXCXCXCXCXCXCXCXCXCXCXCXCXCXCXCXCXCXCXCXCXCXCXCXCXCXCXCXCXCXCXCXCXCXCXCXCXCXCXCXCXCXCXCXCXCXCXCXCXCXCXCXCXCXCXCXCXCXCXCXCXCXCXCXCXCXCXCXCXCXCXCXCXCXCXCXCXCXCXCXCXCXCXCXCXCXCXCXCXCXCXCXCXCXCXCXCXCXCXCXCXCXCXCXCXCXCXCXCXCXCXCXCXCXCXCXCXCXCXCXCXCXCXCXCXCXCXCXCXCXCXCXCXCXCXCXCXCXCXCXCXCXCXCXCXCXCXCXCXCXCXCXCXCXCXCXCXCXCXCXCXCXCXCXCXCXCXCXCXCXCXCXCXCXCXCXCXCXCXCXCXCXCXCXCXCXCXCXCXCXCXCXCXCXCXCXCXCXCXCXCXCXCXCXCXCXCXCXCXCXCXCXCXCXCXCXCXCXCXCXCXCXCXCXCXCXCXCXCXCXCXCXCXCXCXCXCXCXCXCXCXCXCXCXCXCXCXCXCXCXCXCXCXCXCXCXCXCXCXCXCXCXCXCX",
"CXCXCXCXCXCXCXCXCXCXCXCXCXCXCXCXCXCXCXCXCXCXCXCXCXCXCXCXCXCXCXCXCXCXCXCXCXCXCXCXCXCXCXCXCXCXCXCXCXCXCXCXCXCXCXCXCXCXCXCXCXCXCXCXCXCXCXCXCXCXCXCXCXCXCXCXCXCXCXCXCXCXCXCXCXCXCXCXCXCXCXCXCXCXCXCXCXCXCXCXCXCXCXCXCXCXCXCXCXCXCXCXCXCXCXCXCXCXCXCXCXCXCXCXCXCXCXCXCXCXCXCXCXCXCXCXCXCXCXCXCXCXCXCXCXCXCXCXCXCXCXCXCXCXCXCXCXCXCXCXCXCXCXCXCXCXCXCXCXCXCXCXCXCXCXCXCXCXCXCXCXCXCXCXCXCXCXCXCXCXCXCXCXCXCXCXCXCXCXCXCXCXCXCXCXCXCXCXCXCXCXCXCXCXCXCXCXCXCXCXCXCXCXCXCXCXCXCXCXCXCXCXCXCXCXCXCXCXCXCXCXCXCXCXCXCXCXCXCXCXCXCXCXCXCXCXCXCXCXCXCXCXCXCXCXCXCXCXCXCXCXCXCXCXCXCXCXCXCXCXCXCXCXCXCXCXCXCXCXCXCXCXCXCXCXCXCXCXCXCX",
"CXCXCXCXCXCXCXCXCXCXCXCXCXCXCXCXCXCXCXCXCXCXCXCXCXCXCXCXCXCXCXCXCXCXCXCXCXCXCXCXCXCXCXCXCXCXCXCXCXCXCXCXCXCXCXCXCXCXCXCXCXCXCXCXCXCXCXCXCXCXCXCXCXCXCXCXCXCXCXCXCXCXCXCXCXCXCXCXCXCXCXCXCXCXCXCXCXCXCXCXCXCXCXCXCXCXCXCXCXCXCXCXCXCXCXCXCXCXCXCXCXCXCXCXCXCXCXCXCXCXCXCXCXCXCXCXCXCXCXCXCXCXCXCXCXCXCXCXCXCXCXCXCXCXCXCXCXCXCXCXCXCXCXCXCXCXCXCXCXCXCXCXCXCXCXCXCXCXCXCXCXCXCXCXCXCXCXCXCXCXCXCXCXCXCXCXCXCXCXCXCXCXCXCXCXCXCXCXCXCXCXCXCXCXCXCXCXCXCXCXCXCXCXCXCXCXCXCXCXCXCXCXCXCXCXCXCXCXCXCXCXCXCXCXCXCXCXCXCXCXCXCXCXCXCXCXCXCXCXCXCXCXCXCXCXCXCXCXCXCXCXCXCXCXCXCXCXCXCXCXCXCXCXCXCXCXCXCXCXCXCXCXCXCXCXCXCXCXCXCX",
"CXCXCXCXCXCXCXCXCXCXCXCXCXCXCXCXCXCXCXCXCXCXCXCXCXCXCXCXCXCXCXCXCXCXCXCXCXCXCXCXCXCXCXCXCXCXCXCXCXCXCXCXCXCXCXCXCXCXCXCXCXCXCXCXCXCXCXCXCXCXCXCXCXCXCXCXCXCXCXCXCXCXCXCXCXCXCXCXCXCXCXCXCXCXCXCXCXCXCXCXCXCXCXCXCXCXCXCXCXCXCXCXCXCXCXCXCXCXCXCXCXCXCXCXCXCXCXCXCXCXCXCXCXCXCXCXCXCXCXCXCXCXCXCXCXCXCXCXCXCXCXCXCXCXCXCXCXCXCXCXCXCXCXCXCXCXCXCXCXCXCXCXCXCXCXCXCXCXCXCXCXCXCXCXCXCXCXCXCXCXCXCXCXCXCXCXCXCXCXCXCXCXCXCXCXCXCXCXCXCXCXCXCXCXCXCXCXCXCXCXCXCXCXCXCXCXCXCXCXCXCXCXCXCXCXCXCXCXCXCXCXCXCXCXCXCXCXCXCXCXCXCXCXCXCXCXCXCXCXCXCXCXCXCXCXCXCXCXCXCXCXCXCXCXCXCXCXCXCXCXCXCXCXCXCXCXCXCXCXCXCXCXCXCXCXCXCXCXCXCX",
"CXCXCXCXCXCXCXCXCXCXCXCXCXCXCXCXCXCXCXCXCXCXCXCXCXCXCXCXCXCXCXCXCXCXCXCXCXCXCXCXCXCXCXCXCXCXCXCXCXCXCXCXCXCXCXCXCXCXCXCXCXCXCXCXCXCXCXCXCXCXCXCXCXCXCXCXCXCXCXCXCXCXCXCXCXCXCXCXCXCXCXCXCXCXCXCXCXCXCXCXCXCXCXCXCXCXCXCXCXCXCXCXCXCXCXCXCXCXCXCXCXCXCXCXCXCXCXCXCXCXCXCXCXCXCXCXCXCXCXCXCXCXCXCXCXCXCXCXCXCXCXCXCXCXCXCXCXCXCXCXCXCXCXCXCXCXCXCXCXCXCXCXCXCXCXCXCXCXCXCXCXCXCXCXCXCXCXCXCXCXCXCXCXCXCXCXCXCXCXCXCXCXCXCXCXCXCXCXCXCXCXCXCXCXCXCXCXCXCXCXCXCXCXCXCXCXCXCXCXCXCXCXCXCXCXCXCXCXCXCXCXCXCXCXCXCXCXCXCXCXCXCXCXCXCXCXCXCXCXCXCXCXCXCXCXCXCXCXCXCXCXCXCXCXCXCXCXCXCXCXCXCXCXCXCXCXCXCXCXCXCXCXCXCXCXCXCXCXCXCX",
"CXCXCXCXCXCXCXCXCXCXCXCXCXCXCXCXCXCXCXCXCXCXCXCXCXCXCXCXCXCXCXCXCXCXCXCXCXCXCXCXCXCXCXCXCXCXCXCXCXCXCXCXCXCXCXCXCXCXCXCXCXCXCXCXCXCXCXCXCXCXCXCXCXCXCXCXCXCXCXCXCXCXCXCXCXCXCXCXCXCXCXCXCXCXCXCXCXCXCXCXCXCXCXCXCXCXCXCXCXCXCXCXCXCXCXCXCXCXCXCXCXCXCXCXCXCXCXCXCXCXCXCXCXCXCXCXCXCXCXCXCXCXCXCXCXCXCXCXCXCXCXCXCXCXCXCXCXCXCXCXCXCXCXCXCXCXCXCXCXCXCXCXCXCXCXCXCXCXCXCXCXCXCXCXCXCXCXCXCXCXCXCXCXCXCXCXCXCXCXCXCXCXCXCXCXCXCXCXCXCXCXCXCXCXCXCXCXCXCXCXCXCXCXCXCXCXCXCXCXCXCXCXCXCXCXCXCXCXCXCXCXCXCXCXCXCXCXCXCXCXCXCXCXCXCXCXCXCXCXCXCXCXCXCXCXCXCXCXCXCXCXCXCXCXCXCXCXCXCXCXCXCXCXCXCXCXCXCXCXCXCXCXCXCXCXCXCXCXCXCX",
"CXCXCXCXCXCXCXCXCXCXCXCXCXCXCXCXCXCXCXCXCXCXCXCXCXCXCXCXCXCXCXCXCXCXCXCXCXCXCXCXCXCXCXCXCXCXCXCXCXCXCXCXCXCXCXCXCXCXCXCXCXCXCXCXCXCXCXCXCXCXCXCXCXCXCXCXCXCXCXCXCXCXCXCXCXCXCXCXCXCXCXCXCXCXCXCXCXCXCXCXCXCXCXCXCXCXCXCXCXCXCXCXCXCXCXCXCXCXCXCXCXCXCXCXCXCXCXCXCXCXCXCXCXCXCXCXCXCXCXCXCXCXCXCXCXCXCXCXCXCXCXCXCXCXCXCXCXCXCXCXCXCXCXCXCXCXCXCXCXCXCXCXCXCXCXCXCXCXCXCXCXCXCXCXCXCXCXCXCXCXCXCXCXCXCXCXCXCXCXCXCXCXCXCXCXCXCXCXCXCXCXCXCXCXCXCXCXCXCXCXCXCXCXCXCXCXCXCXCXCXCXCXCXCXCXCXCXCXCXCXCXCXCXCXCXCXCXCXCXCXCXCXCXCXCXCXCXCXCXCXCXCXCXCXCXCXCXCXCXCXCXCXCXCXCXCXCXCXCXCXCXCXCXCXCXCXCXCXCXCXCXCXCXCXCXCXCXCXCXCX",
"CXCXCXCXCXCXCXCXCXCXCXCXCXCXCXCXCXCXCXCXCXCXCXCXCXCXCXCXCXCXCXCXCXCXCXCXCXCXCXCXCXCXCXCXCXCXCXCXCXCXCXCXCXCXCXCXCXCXCXCXCXCXCXCXCXCXCXCXCXCXCXCXCXCXCXCXCXCXCXCXCXCXCXCXCXCXCXCXCXCXCXCXCXCXCXCXCXCXCXCXCXCXCXCXCXCXCXCXCXCXCXCXCXCXCXCXCXCXCXCXCXCXCXCXCXCXCXCXCXCXCXCXCXCXCXCXCXCXCXCXCXCXCXCXCXCXCXCXCXCXCXCXCXCXCXCXCXCXCXCXCXCXCXCXCXCXCXCXCXCXCXCXCXCXCXCXCXCXCXCXCXCXCXCXCXCXCXCXCXCXCXCXCXCXCXCXCXCXCXCXCXCXCXCXCXCXCXCXCXCXCXCXCXCXCXCXCXCXCXCXCXCXCXCXCXCXCXCXCXCXCXCXCXCXCXCXCXCXCXCXCXCXCXCXCXCXCXCXCXCXCXCXCXCXCXCXCXCXCXCXCXCXCXCXCXCXCXCXCXCXCXCXCXCXCXCXCXCXCXCXCXCXCXCXCXCXCXCXCXCXCXCXCXCXCXCXCXCXCXCX",
"CXCXCXCXCXCXCXCXCXCXCXCXCXCXCXCXCXCXCXCXCXCXCXCXCXCXCXCXCXCXCXCXCXCXCXCXCXCXCXCXCXCXCXCXCXCXCXCXCXCXCXCXCXCXCXCXCXCXCXCXCXCXCXCXCXCXCXCXCXCXCXCXCXCXCXCXCXCXCXCXCXCXCXCXCXCXCXCXCXCXCXCXCXCXCXCXCXCXCXCXCXCXCXCXCXCXCXCXCXCXCXCXCXCXCXCXCXCXCXCXCXCXCXCXCXCXCXCXCXCXCXCXCXCXCXCXCXCXCXCXCXCXCXCXCXCXCXCXCXCXCXCXCXCXCXCXCXCXCXCXCXCXCXCXCXCXCXCXCXCXCXCXCXCXCXCXCXCXCXCXCXCXCXCXCXCXCXCXCXCXCXCXCXCXCXCXCXCXCXCXCXCXCXCXCXCXCXCXCXCXCXCXCXCXCXCXCXCXCXCXCXCXCXCXCXCXCXCXCXCXCXCXCXCXCXCXCXCXCXCXCXCXCXCXCXCXCXCXCXCXCXCXCXCXCXCXCXCXCXCXCXCXCXCXCXCXCXCXCXCXCXCXCXCXCXCXCXCXCXCXCXCXCXCXCXCXCXCXCXCXCXCXCXCXCXCXCXCXCXCX",
"CXCXCXCXCXCXCXCXCXCXCXCXCXCXCXCXCXCXCXCXCXCXCXCXCXCXCXCXCXCXCXCXCXCXCXCXCXCXCXCXCXCXCXCXCXCXCXCXCXCXCXCXCXCXCXCXCXCXCXCXCXCXCXCXCXCXCXCXCXCXCXCXCXCXCXCXCXCXCXCXCXCXCXCXCXCXCXCXCXCXCXCXCXCXCXCXCXCXCXCXCXCXCXCXCXCXCXCXCXCXCXCXCXCXCXCXCXCXCXCXCXCXCXCXCXCXCXCXCXCXCXCXCXCXCXCXCXCXCXCXCXCXCXCXCXCXCXCXCXCXCXCXCXCXCXCXCXCXCXCXCXCXCXCXCXCXCXCXCXCXCXCXCXCXCXCXCXCXCXCXCXCXCXCXCXCXCXCXCXCXCXCXCXCXCXCXCXCXCXCXCXCXCXCXCXCXCXCXCXCXCXCXCXCXCXCXCXCXCXCXCXCXCXCXCXCXCXCXCXCXCXCXCXCXCXCXCXCXCXCXCXCXCXCXCXCXCXCXCXCXCXCXCXCXCXCXCXCXCXCXCXCXCXCXCXCXCXCXCXCXCXCXCXCXCXCXCXCXCXCXCXCXCXCXCXCXCXCXCXCXCXCXCXCXCXCXCXCXCXCX",
"CXCXCXCXCXCXCXCXCXCXCXCXCXCXCXCXCXCXCXCXCXCXCXCXCXCXCXCXCXCXCXCXCXCXCXCXCXCXCXCXCXCXCXCXCXCXCXCXCXCXCXCXCXCXCXCXCXCXCXCXCXCXCXCXCXCXCXCXCXCXCXCXCXCXCXCXCXCXCXCXCXCXCXCXCXCXCXCXCXCXCXCXCXCXCXCXCXCXCXCXCXCXCXCXCXCXCXCXCXCXCXCXCXCXCXCXCXCXCXCXCXCXCXCXCXCXCXCXCXCXCXCXCXCXCXCXCXCXCXCXCXCXCXCXCXCXCXCXCXCXCXCXCXCXCXCXCXCXCXCXCXCXCXCXCXCXCXCXCXCXCXCXCXCXCXCXCXCXCXCXCXCXCXCXCXCXCXCXCXCXCXCXCXCXCXCXCXCXCXCXCXCXCXCXCXCXCXCXCXCXCXCXCXCXCXCXCXCXCXCXCXCXCXCXCXCXCXCXCXCXCXCXCXCXCXCXCXCXCXCXCXCXCXCXCXCXCXCXCXCXCXCXCXCXCXCXCXCXCXCXCXCXCXCXCXCXCXCXCXCXCXCXCXCXCXCXCXCXCXCXCXCXCXCXCXCXCXCXCXCXCXCXCXCXCXCXCXCXCXCX",
"CXCXCXCXCXCXCXCXCXCXCXCXCXCXCXCXCXCXCXCXCXCXCXCXCXCXCXCXCXCXCXCXCXCXCXCXCXCXCXCXCXCXCXCXCXCXCXCXCXCXCXCXCXCXCXCXCXCXCXCXCXCXCXCXCXCXCXCXCXCXCXCXCXCXCXCXCXCXCXCXCXCXCXCXCXCXCXCXCXCXCXCXCXCXCXCXCXCXCXCXCXCXCXCXCXCXCXCXCXCXCXCXCXCXCXCXCXCXCXCXCXCXCXCXCXCXCXCXCXCXCXCXCXCXCXCXCXCXCXCXCXCXCXCXCXCXCXCXCXCXCXCXCXCXCXCXCXCXCXCXCXCXCXCXCXCXCXCXCXCXCXCXCXCXCXCXCXCXCXCXCXCXCXCXCXCXCXCXCXCXCXCXCXCXCXCXCXCXCXCXCXCXCXCXCXCXCXCXCXCXCXCXCXCXCXCXCXCXCXCXCXCXCXCXCXCXCXCXCXCXCXCXCXCXCXCXCXCXCXCXCXCXCXCXCXCXCXCXCXCXCXCXCXCXCXCXCXCXCXCXCXCXCXCXCXCXCXCXCXCXCXCXCXCXCXCXCXCXCXCXCXCXCXCXCXCXCXCXCXCXCXCXCXCXCXCXCXCXCXCX",
"CXCXCXCXCXCXCXCXCXCXCXCXCXCXCXCXCXCXCXCXCXCXCXCXCXCXCXCXCXCXCXCXCXCXCXCXCXCXCXCXCXCXCXCXCXCXCXCXCXCXCXCXCXCXCXCXCXCXCXCXCXCXCXCXCXCXCXCXCXCXCXCXCXCXCXCXCXCXCXCXCXCXCXCXCXCXCXCXCXCXCXCXCXCXCXCXCXCXCXCXCXCXCXCXCXCXCXCXCXCXCXCXCXCXCXCXCXCXCXCXCXCXCXCXCXCXCXCXCXCXCXCXCXCXCXCXCXCXCXCXCXCXCXCXCXCXCXCXCXCXCXCXCXCXCXCXCXCXCXCXCXCXCXCXCXCXCXCXCXCXCXCXCXCXCXCXCXCXCXCXCXCXCXCXCXCXCXCXCXCXCXCXCXCXCXCXCXCXCXCXCXCXCXCXCXCXCXCXCXCXCXCXCXCXCXCXCXCXCXCXCXCXCXCXCXCXCXCXCXCXCXCXCXCXCXCXCXCXCXCXCXCXCXCXCXCXCXCXCXCXCXCXCXCXCXCXCXCXCXCXCXCXCXCXCXCXCXCXCXCXCXCXCXCXCXCXCXCXCXCXCXCXCXCXCXCXCXCXCXCXCXCXCXCXCXCXCXCXCXCX",
"CXCXCXCXCXCXCXCXCXCXCXCXCXCXCXCXCXCXCXCXCXCXCXCXCXCXCXCXCXCXCXCXCXCXCXCXCXCXCXCXCXCXCXCXCXCXCXCXCXCXCXCXCXCXCXCXCXCXCXCXCXCXCXCXCXCXCXCXCXCXCXCXCXCXCXCXCXCXCXCXCXCXCXCXCXCXCXCXCXCXCXCXCXCXCXCXCXCXCXCXCXCXCXCXCXCXCXCXCXCXCXCXCXCXCXCXCXCXCXCXCXCXCXCXCXCXCXCXCXCXCXCXCXCXCXCXCXCXCXCXCXCXCXCXCXCXCXCXCXCXCXCXCXCXCXCXCXCXCXCXCXCXCXCXCXCXCXCXCXCXCXCXCXCXCXCXCXCXCXCXCXCXCXCXCXCXCXCXCXCXCXCXCXCXCXCXCXCXCXCXCXCXCXCXCXCXCXCXCXCXCXCXCXCXCXCXCXCXCXCXCXCXCXCXCXCXCXCXCXCXCXCXCXCXCXCXCXCXCXCXCXCXCXCXCXCXCXCXCXCXCXCXCXCXCXCXCXCXCXCXCXCXCXCXCXCXCXCXCXCXCXCXCXCXCXCXCXCXCXCXCXCXCXCXCXCXCXCXCXCXCXCXCXCXCXCXCXCXCXCX",
"CXCXCXCXCXCXCXCXCXCXCXCXCXCXCXCXCXCXCXCXCXCXCXCXCXCXCXCXCXCXCXCXCXCXCXCXCXCXCXCXCXCXCXCXCXCXCXCXCXCXCXCXCXCXCXCXCXCXCXCXCXCXCXCXCXCXCXCXCXCXCXCXCXCXCXCXCXCXCXCXCXCXCXCXCXCXCXCXCXCXCXCXCXCXCXCXCXCXCXCXCXCXCXCXCXCXCXCXCXCXCXCXCXCXCXCXCXCXCXCXCXCXCXCXCXCXCXCXCXCXCXCXCXCXCXCXCXCXCXCXCXCXCXCXCXCXCXCXCXCXCXCXCXCXCXCXCXCXCXCXCXCXCXCXCXCXCXCXCXCXCXCXCXCXCXCXCXCXCXCXCXCXCXCXCXCXCXCXCXCXCXCXCXCXCXCXCXCXCXCXCXCXCXCXCXCXCXCXCXCXCXCXCXCXCXCXCXCXCXCXCXCXCXCXCXCXCXCXCXCXCXCXCXCXCXCXCXCXCXCXCXCXCXCXCXCXCXCXCXCXCXCXCXCXCXCXCXCXCXCXCXCXCXCXCXCXCXCXCXCXCXCXCXCXCXCXCXCXCXCXCXCXCXCXCXCXCXCXCXCXCXCXCXCXCXCXCXCXCXCX",
"CXCXCXCXCXCXCXCXCXCXCXCXCXCXCXCXCXCXCXCXCXCXCXCXCXCXCXCXCXCXCXCXCXCXCXCXCXCXCXCXCXCXCXCXCXCXCXCXCXCXCXCXCXCXCXCXCXCXCXCXCXCXCXCXCXCXCXCXCXCXCXCXCXCXCXCXCXCXCXCXCXCXCXCXCXCXCXCXCXCXCXCXCXCXCXCXCXCXCXCXCXCXCXCXCXCXCXCXCXCXCXCXCXCXCXCXCXCXCXCXCXCXCXCXCXCXCXCXCXCXCXCXCXCXCXCXCXCXCXCXCXCXCXCXCXCXCXCXCXCXCXCXCXCXCXCXCXCXCXCXCXCXCXCXCXCXCXCXCXCXCXCXCXCXCXCXCXCXCXCXCXCXCXCXCXCXCXCXCXCXCXCXCXCXCXCXCXCXCXCXCXCXCXCXCXCXCXCXCXCXCXCXCXCXCXCXCXCXCXCXCXCXCXCXCXCXCXCXCXCXCXCXCXCXCXCXCXCXCXCXCXCXCXCXCXCXCXCXCXCXCXCXCXCXCXCXCXCXCXCXCXCXCXCXCXCXCXCXCXCXCXCXCXCXCXCXCXCXCXCXCXCXCXCXCXCXCXCXCXCXCXCXCXCXCXCXCXCXCXCX",
"CXCXCXCXCXCXCXCXCXCXCXCXCXCXCXCXCXCXCXCXCXCXCXCXCXCXCXCXCXCXCXCXCXCXCXCXCXCXCXCXCXCXCXCXCXCXCXCXCXCXCXCXCXCXCXCXCXCXCXCXCXCXCXCXCXCXCXCXCXCXCXCXCXCXCXCXCXCXCXCXCXCXCXCXCXCXCXCXCXCXCXCXCXCXCXCXCXCXCXCXCXCXCXCXCXCXCXCXCXCXCXCXCXCXCXCXCXCXCXCXCXCXCXCXCXCXCXCXCXCXCXCXCXCXCXCXCXCXCXCXCXCXCXCXCXCXCXCXCXCXCXCXCXCXCXCXCXCXCXCXCXCXCXCXCXCXCXCXCXCXCXCXCXCXCXCXCXCXCXCXCXCXCXCXCXCXCXCXCXCXCXCXCXCXCXCXCXCXCXCXCXCXCXCXCXCXCXCXCXCXCXCXCXCXCXCXCXCXCXCXCXCXCXCXCXCXCXCXCXCXCXCXCXCXCXCXCXCXCXCXCXCXCXCXCXCXCXCXCXCXCXCXCXCXCXCXCXCXCXCXCXCXCXCXCXCXCXCXCXCXCXCXCXCXCXCXCXCXCXCXCXCXCXCXCXCXCXCXCXCXCXCXCXCXCXCXCXCXCXCX",
"CXCXCXCXCXCXCXCXCXCXCXCXCXCXCXCXCXCXCXCXCXCXCXCXCXCXCXCXCXCXCXCXCXCXCXCXCXCXCXCXCXCXCXCXCXCXCXCXCXCXCXCXCXCXCXCXCXCXCXCXCXCXCXCXCXCXCXCXCXCXCXCXCXCXCXCXCXCXCXCXCXCXCXCXCXCXCXCXCXCXCXCXCXCXCXCXCXCXCXCXCXCXCXCXCXCXCXCXCXCXCXCXCXCXCXCXCXCXCXCXCXCXCXCXCXCXCXCXCXCXCXCXCXCXCXCXCXCXCXCXCXCXCXCXCXCXCXCXCXCXCXCXCXCXCXCXCXCXCXCXCXCXCXCXCXCXCXCXCXCXCXCXCXCXCXCXCXCXCXCXCXCXCXCXCXCXCXCXCXCXCXCXCXCXCXCXCXCXCXCXCXCXCXCXCXCXCXCXCXCXCXCXCXCXCXCXCXCXCXCXCXCXCXCXCXCXCXCXCXCXCXCXCXCXCXCXCXCXCXCXCXCXCXCXCXCXCXCXCXCXCXCXCXCXCXCXCXCXCXCXCXCXCXCXCXCXCXCXCXCXCXCXCXCXCXCXCXCXCXCXCXCXCXCXCXCXCXCXCXCXCXCXCXCXCXCXCXCXCXCX",
"CXCXCXCXCXCXCXCXCXCXCXCXCXCXCXCXCXCXCXCXCXCXCXCXCXCXCXCXCXCXCXCXCXCXCXCXCXCXCXCXCXCXCXCXCXCXCXCXCXCXCXCXCXCXCXCXCXCXCXCXCXCXCXCXCXCXCXCXCXCXCXCXCXCXCXCXCXCXCXCXCXCXCXCXCXCXCXCXCXCXCXCXCXCXCXCXCXCXCXCXCXCXCXCXCXCXCXCXCXCXCXCXCXCXCXCXCXCXCXCXCXCXCXCXCXCXCXCXCXCXCXCXCXCXCXCXCXCXCXCXCXCXCXCXCXCXCXCXCXCXCXCXCXCXCXCXCXCXCXCXCXCXCXCXCXCXCXCXCXCXCXCXCXCXCXCXCXCXCXCXCXCXCXCXCXCXCXCXCXCXCXCXCXCXCXCXCXCXCXCXCXCXCXCXCXCXCXCXCXCXCXCXCXCXCXCXCXCXCXCXCXCXCXCXCXCXCXCXCXCXCXCXCXCXCXCXCXCXCXCXCXCXCXCXCXCXCXCXCXCXCXCXCXCXCXCXCXCXCXCXCXCXCXCXCXCXCXCXCXCXCXCXCXCXCXCXCXCXCXCXCXCXCXCXCXCXCXCXCXCXCXCXCXCXCXCXCXCXCXCX",
"CXCXCXCXCXCXCXCXCXCXCXCXCXCXCXCXCXCXCXCXCXCXCXCXCXCXCXCXCXCXCXCXCXCXCXCXCXCXCXCXCXCXCXCXCXCXCXCXCXCXCXCXCXCXCXCXCXCXCXCXCXCXCXCXCXCXCXCXCXCXCXCXCXCXCXCXCXCXCXCXCXCXCXCXCXCXCXCXCXCXCXCXCXCXCXCXCXCXCXCXCXCXCXCXCXCXCXCXCXCXCXCXCXCXCXCXCXCXCXCXCXCXCXCXCXCXCXCXCXCXCXCXCXCXCXCXCXCXCXCXCXCXCXCXCXCXCXCXCXCXCXCXCXCXCXCXCXCXCXCXCXCXCXCXCXCXCXCXCXCXCXCXCXCXCXCXCXCXCXCXCXCXCXCXCXCXCXCXCXCXCXCXCXCXCXCXCXCXCXCXCXCXCXCXCXCXCXCXCXCXCXCXCXCXCXCXCXCXCXCXCXCXCXCXCXCXCXCXCXCXCXCXCXCXCXCXCXCXCXCXCXCXCXCXCXCXCXCXCXCXCXCXCXCXCXCXCXCXCXCXCXCXCXCXCXCXCXCXCXCXCXCXCXCXCXCXCXCXCXCXCXCXCXCXCXCXCXCXCXCXCXCXCXCXCXCXCXCXCXCX",
"CXCXCXCXCXCXCXCXCXCXCXCXCXCXCXCXCXCXCXCXCXCXCXCXCXCXCXCXCXCXCXCXCXCXCXCXCXCXCXCXCXCXCXCXCXCXCXCXCXCXCXCXCXCXCXCXCXCXCXCXCXCXCXCXCXCXCXCXCXCXCXCXCXCXCXCXCXCXCXCXCXCXCXCXCXCXCXCXCXCXCXCXCXCXCXCXCXCXCXCXCXCXCXCXCXCXCXCXCXCXCXCXCXCXCXCXCXCXCXCXCXCXCXCXCXCXCXCXCXCXCXCXCXCXCXCXCXCXCXCXCXCXCXCXCXCXCXCXCXCXCXCXCXCXCXCXCXCXCXCXCXCXCXCXCXCXCXCXCXCXCXCXCXCXCXCXCXCXCXCXCXCXCXCXCXCXCXCXCXCXCXCXCXCXCXCXCXCXCXCXCXCXCXCXCXCXCXCXCXCXCXCXCXCXCXCXCXCXCXCXCXCXCXCXCXCXCXCXCXCXCXCXCXCXCXCXCXCXCXCXCXCXCXCXCXCXCXCXCXCXCXCXCXCXCXCXCXCXCXCXCXCXCXCXCXCXCXCXCXCXCXCXCXCXCXCXCXCXCXCXCXCXCXCXCXCXCXCXCXCXCXCXCXCXCXCXCXCXCXCX",
"CXCXCXCXCXCXCXCXCXCXCXCXCXCXCXCXCXCXCXCXCXCXCXCXCXCXCXCXCXCXCXCXCXCXCXCXCXCXCXCXCXCXCXCXCXCXCXCXCXCXCXCXCXCXCXCXCXCXCXCXCXCXCXCXCXCXCXCXCXCXCXCXCXCXCXCXCXCXCXCXCXCXCXCXCXCXCXCXCXCXCXCXCXCXCXCXCXCXCXCXCXCXCXCXCXCXCXCXCXCXCXCXCXCXCXCXCXCXCXCXCXCXCXCXCXCXCXCXCXCXCXCXCXCXCXCXCXCXCXCXCXCXCXCXCXCXCXCXCXCXCXCXCXCXCXCXCXCXCXCXCXCXCXCXCXCXCXCXCXCXCXCXCXCXCXCXCXCXCXCXCXCXCXCXCXCXCXCXCXCXCXCXCXCXCXCXCXCXCXCXCXCXCXCXCXCXCXCXCXCXCXCXCXCXCXCXCXCXCXCXCXCXCXCXCXCXCXCXCXCXCXCXCXCXCXCXCXCXCXCXCXCXCXCXCXCXCXCXCXCXCXCXCXCXCXCXCXCXCXCXCXCXCXCXCXCXCXCXCXCXCXCXCXCXCXCXCXCXCXCXCXCXCXCXCXCXCXCXCXCXCXCXCXCXCXCXCXCXCXCX",
"CXCXCXCXCXCXCXCXCXCXCXCXCXCXCXCXCXCXCXCXCXCXCXCXCXCXCXCXCXCXCXCXCXCXCXCXCXCXCXCXCXCXCXCXCXCXCXCXCXCXCXCXCXCXCXCXCXCXCXCXCXCXCXCXCXCXCXCXCXCXCXCXCXCXCXCXCXCXCXCXCXCXCXCXCXCXCXCXCXCXCXCXCXCXCXCXCXCXCXCXCXCXCXCXCXCXCXCXCXCXCXCXCXCXCXCXCXCXCXCXCXCXCXCXCXCXCXCXCXCXCXCXCXCXCXCXCXCXCXCXCXCXCXCXCXCXCXCXCXCXCXCXCXCXCXCXCXCXCXCXCXCXCXCXCXCXCXCXCXCXCXCXCXCXCXCXCXCXCXCXCXCXCXCXCXCXCXCXCXCXCXCXCXCXCXCXCXCXCXCXCXCXCXCXCXCXCXCXCXCXCXCXCXCXCXCXCXCXCXCXCXCXCXCXCXCXCXCXCXCXCXCXCXCXCXCXCXCXCXCXCXCXCXCXCXCXCXCXCXCXCXCXCXCXCXCXCXCXCXCXCXCXCXCXCXCXCXCXCXCXCXCXCXCXCXCXCXCXCXCXCXCXCXCXCXCXCXCXCXCXCXCXCXCXCXCXCXCXCXCX",
"CXCXCXCXCXCXCXCXCXCXCXCXCXCXCXCXCXCXCXCXCXCXCXCXCXCXCXCXCXCXCXCXCXCXCXCXCXCXCXCXCXCXCXCXCXCXCXCXCXCXCXCXCXCXCXCXCXCXCXCXCXCXCXCXCXCXCXCXCXCXCXCXCXCXCXCXCXCXCXCXCXCXCXCXCXCXCXCXCXCXCXCXCXCXCXCXCXCXCXCXCXCXCXCXCXCXCXCXCXCXCXCXCXCXCXCXCXCXCXCXCXCXCXCXCXCXCXCXCXCXCXCXCXCXCXCXCXCXCXCXCXCXCXCXCXCXCXCXCXCXCXCXCXCXCXCXCXCXCXCXCXCXCXCXCXCXCXCXCXCXCXCXCXCXCXCXCXCXCXCXCXCXCXCXCXCXCXCXCXCXCXCXCXCXCXCXCXCXCXCXCXCXCXCXCXCXCXCXCXCXCXCXCXCXCXCXCXCXCXCXCXCXCXCXCXCXCXCXCXCXCXCXCXCXCXCXCXCXCXCXCXCXCXCXCXCXCXCXCXCXCXCXCXCXCXCXCXCXCXCXCXCXCXCXCXCXCXCXCXCXCXCXCXCXCXCXCXCXCXCXCXCXCXCXCXCXCXCXCXCXCXCXCXCXCXCXCXCXCXCX",
"CXCXCXCXCXCXCXCXCXCXCXCXCXCXCXCXCXCXCXCXCXCXCXCXCXCXCXCXCXCXCXCXCXCXCXCXCXCXCXCXCXCXCXCXCXCXCXCXCXCXCXCXCXCXCXCXCXCXCXCXCXCXCXCXCXCXCXCXCXCXCXCXCXCXCXCXCXCXCXCXCXCXCXCXCXCXCXCXCXCXCXCXCXCXCXCXCXCXCXCXCXCXCXCXCXCXCXCXCXCXCXCXCXCXCXCXCXCXCXCXCXCXCXCXCXCXCXCXCXCXCXCXCXCXCXCXCXCXCXCXCXCXCXCXCXCXCXCXCXCXCXCXCXCXCXCXCXCXCXCXCXCXCXCXCXCXCXCXCXCXCXCXCXCXCXCXCXCXCXCXCXCXCXCXCXCXCXCXCXCXCXCXCXCXCXCXCXCXCXCXCXCXCXCXCXCXCXCXCXCXCXCXCXCXCXCXCXCXCXCXCXCXCXCXCXCXCXCXCXCXCXCXCXCXCXCXCXCXCXCXCXCXCXCXCXCXCXCXCXCXCXCXCXCXCXCXCXCXCXCXCXCXCXCXCXCXCXCXCXCXCXCXCXCXCXCXCXCXCXCXCXCXCXCXCXCXCXCXCXCXCXCXCXCXCXCXCXCXCXCX",
"CXCXCXCXCXCXCXCXCXCXCXCXCXCXCXCXCXCXCXCXCXCXCXCXCXCXCXCXCXCXCXCXCXCXCXCXCXCXCXCXCXCXCXCXCXCXCXCXCXCXCXCXCXCXCXCXCXCXCXCXCXCXCXCXCXCXCXCXCXCXCXCXCXCXCXCXCXCXCXCXCXCXCXCXCXCXCXCXCXCXCXCXCXCXCXCXCXCXCXCXCXCXCXCXCXCXCXCXCXCXCXCXCXCXCXCXCXCXCXCXCXCXCXCXCXCXCXCXCXCXCXCXCXCXCXCXCXCXCXCXCXCXCXCXCXCXCXCXCXCXCXCXCXCXCXCXCXCXCXCXCXCXCXCXCXCXCXCXCXCXCXCXCXCXCXCXCXCXCXCXCXCXCXCXCXCXCXCXCXCXCXCXCXCXCXCXCXCXCXCXCXCXCXCXCXCXCXCXCXCXCXCXCXCXCXCXCXCXCXCXCXCXCXCXCXCXCXCXCXCXCXCXCXCXCXCXCXCXCXCXCXCXCXCXCXCXCXCXCXCXCXCXCXCXCXCXCXCXCXCXCXCXCXCXCXCXCXCXCXCXCXCXCXCXCXCXCXCXCXCXCXCXCXCXCXCXCXCXCXCXCXCXCXCXCXCXCXCXCXCX",
"CXCXCXCXCXCXCXCXCXCXCXCXCXCXCXCXCXCXCXCXCXCXCXCXCXCXCXCXCXCXCXCXCXCXCXCXCXCXCXCXCXCXCXCXCXCXCXCXCXCXCXCXCXCXCXCXCXCXCXCXCXCXCXCXCXCXCXCXCXCXCXCXCXCXCXCXCXCXCXCXCXCXCXCXCXCXCXCXCXCXCXCXCXCXCXCXCXCXCXCXCXCXCXCXCXCXCXCXCXCXCXCXCXCXCXCXCXCXCXCXCXCXCXCXCXCXCXCXCXCXCXCXCXCXCXCXCXCXCXCXCXCXCXCXCXCXCXCXCXCXCXCXCXCXCXCXCXCXCXCXCXCXCXCXCXCXCXCXCXCXCXCXCXCXCXCXCXCXCXCXCXCXCXCXCXCXCXCXCXCXCXCXCXCXCXCXCXCXCXCXCXCXCXCXCXCXCXCXCXCXCXCXCXCXCXCXCXCXCXCXCXCXCXCXCXCXCXCXCXCXCXCXCXCXCXCXCXCXCXCXCXCXCXCXCXCXCXCXCXCXCXCXCXCXCXCXCXCXCXCXCXCXCXCXCXCXCXCXCXCXCXCXCXCXCXCXCXCXCXCXCXCXCXCXCXCXCXCXCXCXCXCXCXCXCXCXCXCXCXCX",
"CXCXCXCXCXCXCXCXCXCXCXCXCXCXCXCXCXCXCXCXCXCXCXCXCXCXCXCXCXCXCXCXCXCXCXCXCXCXCXCXCXCXCXCXCXCXCXCXCXCXCXCXCXCXCXCXCXCXCXCXCXCXCXCXCXCXCXCXCXCXCXCXCXCXCXCXCXCXCXCXCXCXCXCXCXCXCXCXCXCXCXCXCXCXCXCXCXCXCXCXCXCXCXCXCXCXCXCXCXCXCXCXCXCXCXCXCXCXCXCXCXCXCXCXCXCXCXCXCXCXCXCXCXCXCXCXCXCXCXCXCXCXCXCXCXCXCXCXCXCXCXCXCXCXCXCXCXCXCXCXCXCXCXCXCXCXCXCXCXCXCXCXCXCXCXCXCXCXCXCXCXCXCXCXCXCXCXCXCXCXCXCXCXCXCXCXCXCXCXCXCXCXCXCXCXCXCXCXCXCXCXCXCXCXCXCXCXCXCXCXCXCXCXCXCXCXCXCXCXCXCXCXCXCXCXCXCXCXCXCXCXCXCXCXCXCXCXCXCXCXCXCXCXCXCXCXCXCXCXCXCXCXCXCXCXCXCXCXCXCXCXCXCXCXCXCXCXCXCXCXCXCXCXCXCXCXCXCXCXCXCXCXCXCXCXCXCXCXCXCX",
"CXCXCXCXCXCXCXCXCXCXCXCXCXCXCXCXCXCXCXCXCXCXCXCXCXCXCXCXCXCXCXCXCXCXCXCXCXCXCXCXCXCXCXCXCXCXCXCXCXCXCXCXCXCXCXCXCXCXCXCXCXCXCXCXCXCXCXCXCXCXCXCXCXCXCXCXCXCXCXCXCXCXCXCXCXCXCXCXCXCXCXCXCXCXCXCXCXCXCXCXCXCXCXCXCXCXCXCXCXCXCXCXCXCXCXCXCXCXCXCXCXCXCXCXCXCXCXCXCXCXCXCXCXCXCXCXCXCXCXCXCXCXCXCXCXCXCXCXCXCXCXCXCXCXCXCXCXCXCXCXCXCXCXCXCXCXCXCXCXCXCXCXCXCXCXCXCXCXCXCXCXCXCXCXCXCXCXCXCXCXCXCXCXCXCXCXCXCXCXCXCXCXCXCXCXCXCXCXCXCXCXCXCXCXCXCXCXCXCXCXCXCXCXCXCXCXCXCXCXCXCXCXCXCXCXCXCXCXCXCXCXCXCXCXCXCXCXCXCXCXCXCXCXCXCXCXCXCXCXCXCXCXCXCXCXCXCXCXCXCXCXCXCXCXCXCXCXCXCXCXCXCXCXCXCXCXCXCXCXCXCXCXCXCXCXCXCXCXCXCX",
"CXCXCXCXCXCXCXCXCXCXCXCXCXCXCXCXCXCXCXCXCXCXCXCXCXCXCXCXCXCXCXCXCXCXCXCXCXCXCXCXCXCXCXCXCXCXCXCXCXCXCXCXCXCXCXCXCXCXCXCXCXCXCXCXCXCXCXCXCXCXCXCXCXCXCXCXCXCXCXCXCXCXCXCXCXCXCXCXCXCXCXCXCXCXCXCXCXCXCXCXCXCXCXCXCXCXCXCXCXCXCXCXCXCXCXCXCXCXCXCXCXCXCXCXCXCXCXCXCXCXCXCXCXCXCXCXCXCXCXCXCXCXCXCXCXCXCXCXCXCXCXCXCXCXCXCXCXCXCXCXCXCXCXCXCXCXCXCXCXCXCXCXCXCXCXCXCXCXCXCXCXCXCXCXCXCXCXCXCXCXCXCXCXCXCXCXCXCXCXCXCXCXCXCXCXCXCXCXCXCXCXCXCXCXCXCXCXCXCXCXCXCXCXCXCXCXCXCXCXCXCXCXCXCXCXCXCXCXCXCXCXCXCXCXCXCXCXCXCXCXCXCXCXCXCXCXCXCXCXCXCXCXCXCXCXCXCXCXCXCXCXCXCXCXCXCXCXCXCXCXCXCXCXCXCXCXCXCXCXCXCXCXCXCXCXCXCXCXCXCX",
"CXCXCXCXCXCXCXCXCXCXCXCXCXCXCXCXCXCXCXCXCXCXCXCXCXCXCXCXCXCXCXCXCXCXCXCXCXCXCXCXCXCXCXCXCXCXCXCXCXCXCXCXCXCXCXCXCXCXCXCXCXCXCXCXCXCXCXCXCXCXCXCXCXCXCXCXCXCXCXCXCXCXCXCXCXCXCXCXCXCXCXCXCXCXCXCXCXCXCXCXCXCXCXCXCXCXCXCXCXCXCXCXCXCXCXCXCXCXCXCXCXCXCXCXCXCXCXCXCXCXCXCXCXCXCXCXCXCXCXCXCXCXCXCXCXCXCXCXCXCXCXCXCXCXCXCXCXCXCXCXCXCXCXCXCXCXCXCXCXCXCXCXCXCXCXCXCXCXCXCXCXCXCXCXCXCXCXCXCXCXCXCXCXCXCXCXCXCXCXCXCXCXCXCXCXCXCXCXCXCXCXCXCXCXCXCXCXCXCXCXCXCXCXCXCXCXCXCXCXCXCXCXCXCXCXCXCXCXCXCXCXCXCXCXCXCXCXCXCXCXCXCXCXCXCXCXCXCXCXCXCXCXCXCXCXCXCXCXCXCXCXCXCXCXCXCXCXCXCXCXCXCXCXCXCXCXCXCXCXCXCXCXCXCXCXCXCXCXCXCX",
"CXCXCXCXCXCXCXCXCXCXCXCXCXCXCXCXCXCXCXCXCXCXCXCXCXCXCXCXCXCXCXCXCXCXCXCXCXCXCXCXCXCXCXCXCXCXCXCXCXCXCXCXCXCXCXCXCXCXCXCXCXCXCXCXCXCXCXCXCXCXCXCXCXCXCXCXCXCXCXCXCXCXCXCXCXCXCXCXCXCXCXCXCXCXCXCXCXCXCXCXCXCXCXCXCXCXCXCXCXCXCXCXCXCXCXCXCXCXCXCXCXCXCXCXCXCXCXCXCXCXCXCXCXCXCXCXCXCXCXCXCXCXCXCXCXCXCXCXCXCXCXCXCXCXCXCXCXCXCXCXCXCXCXCXCXCXCXCXCXCXCXCXCXCXCXCXCXCXCXCXCXCXCXCXCXCXCXCXCXCXCXCXCXCXCXCXCXCXCXCXCXCXCXCXCXCXCXCXCXCXCXCXCXCXCXCXCXCXCXCXCXCXCXCXCXCXCXCXCXCXCXCXCXCXCXCXCXCXCXCXCXCXCXCXCXCXCXCXCXCXCXCXCXCXCXCXCXCXCXCXCXCXCXCXCXCXCXCXCXCXCXCXCXCXCXCXCXCXCXCXCXCXCXCXCXCXCXCXCXCXCXCXCXCXCXCXCXCXCXCX",
"CXCXCXCXCXCXCXCXCXCXCXCXCXCXCXCXCXCXCXCXCXCXCXCXCXCXCXCXCXCXCXCXCXCXCXCXCXCXCXCXCXCXCXCXCXCXCXCXCXCXCXCXCXCXCXCXCXCXCXCXCXCXCXCXCXCXCXCXCXCXCXCXCXCXCXCXCXCXCXCXCXCXCXCXCXCXCXCXCXCXCXCXCXCXCXCXCXCXCXCXCXCXCXCXCXCXCXCXCXCXCXCXCXCXCXCXCXCXCXCXCXCXCXCXCXCXCXCXCXCXCXCXCXCXCXCXCXCXCXCXCXCXCXCXCXCXCXCXCXCXCXCXCXCXCXCXCXCXCXCXCXCXCXCXCXCXCXCXCXCXCXCXCXCXCXCXCXCXCXCXCXCXCXCXCXCXCXCXCXCXCXCXCXCXCXCXCXCXCXCXCXCXCXCXCXCXCXCXCXCXCXCXCXCXCXCXCXCXCXCXCXCXCXCXCXCXCXCXCXCXCXCXCXCXCXCXCXCXCXCXCXCXCXCXCXCXCXCXCXCXCXCXCXCXCXCXCXCXCXCXCXCXCXCXCXCXCXCXCXCXCXCXCXCXCXCXCXCXCXCXCXCXCXCXCXCXCXCXCXCXCXCXCXCXCXCXCXCXCXCX",
"CXCXCXCXCXCXCXCXCXCXCXCXCXCXCXCXCXCXCXCXCXCXCXCXCXCXCXCXCXCXCXCXCXCXCXCXCXCXCXCXCXCXCXCXCXCXCXCXCXCXCXCXCXCXCXCXCXCXCXCXCXCXCXCXCXCXCXCXCXCXCXCXCXCXCXCXCXCXCXCXCXCXCXCXCXCXCXCXCXCXCXCXCXCXCXCXCXCXCXCXCXCXCXCXCXCXCXCXCXCXCXCXCXCXCXCXCXCXCXCXCXCXCXCXCXCXCXCXCXCXCXCXCXCXCXCXCXCXCXCXCXCXCXCXCXCXCXCXCXCXCXCXCXCXCXCXCXCXCXCXCXCXCXCXCXCXCXCXCXCXCXCXCXCXCXCXCXCXCXCXCXCXCXCXCXCXCXCXCXCXCXCXCXCXCXCXCXCXCXCXCXCXCXCXCXCXCXCXCXCXCXCXCXCXCXCXCXCXCXCXCXCXCXCXCXCXCXCXCXCXCXCXCXCXCXCXCXCXCXCXCXCXCXCXCXCXCXCXCXCXCXCXCXCXCXCXCXCXCXCXCXCXCXCXCXCXCXCXCXCXCXCXCXCXCXCXCXCXCXCXCXCXCXCXCXCXCXCXCXCXCXCXCXCXCXCXCXCXCXCX",
"CXCXCXCXCXCXCXCXCXCXCXCXCXCXCXCXCXCXCXCXCXCXCXCXCXCXCXCXCXCXCXCXCXCXCXCXCXCXCXCXCXCXCXCXCXCXCXCXCXCXCXCXCXCXCXCXCXCXCXCXCXCXCXCXCXCXCXCXCXCXCXCXCXCXCXCXCXCXCXCXCXCXCXCXCXCXCXCXCXCXCXCXCXCXCXCXCXCXCXCXCXCXCXCXCXCXCXCXCXCXCXCXCXCXCXCXCXCXCXCXCXCXCXCXCXCXCXCXCXCXCXCXCXCXCXCXCXCXCXCXCXCXCXCXCXCXCXCXCXCXCXCXCXCXCXCXCXCXCXCXCXCXCXCXCXCXCXCXCXCXCXCXCXCXCXCXCXCXCXCXCXCXCXCXCXCXCXCXCXCXCXCXCXCXCXCXCXCXCXCXCXCXCXCXCXCXCXCXCXCXCXCXCXCXCXCXCXCXCXCXCXCXCXCXCXCXCXCXCXCXCXCXCXCXCXCXCXCXCXCXCXCXCXCXCXCXCXCXCXCXCXCXCXCXCXCXCXCXCXCXCXCXCXCXCXCXCXCXCXCXCXCXCXCXCXCXCXCXCXCXCXCXCXCXCXCXCXCXCXCXCXCXCXCXCXCXCXCXCXCX",
"CXCXCXCXCXCXCXCXCXCXCXCXCXCXCXCXCXCXCXCXCXCXCXCXCXCXCXCXCXCXCXCXCXCXCXCXCXCXCXCXCXCXCXCXCXCXCXCXCXCXCXCXCXCXCXCXCXCXCXCXCXCXCXCXCXCXCXCXCXCXCXCXCXCXCXCXCXCXCXCXCXCXCXCXCXCXCXCXCXCXCXCXCXCXCXCXCXCXCXCXCXCXCXCXCXCXCXCXCXCXCXCXCXCXCXCXCXCXCXCXCXCXCXCXCXCXCXCXCXCXCXCXCXCXCXCXCXCXCXCXCXCXCXCXCXCXCXCXCXCXCXCXCXCXCXCXCXCXCXCXCXCXCXCXCXCXCXCXCXCXCXCXCXCXCXCXCXCXCXCXCXCXCXCXCXCXCXCXCXCXCXCXCXCXCXCXCXCXCXCXCXCXCXCXCXCXCXCXCXCXCXCXCXCXCXCXCXCXCXCXCXCXCXCXCXCXCXCXCXCXCXCXCXCXCXCXCXCXCXCXCXCXCXCXCXCXCXCXCXCXCXCXCXCXCXCXCXCXCXCXCXCXCXCXCXCXCXCXCXCXCXCXCXCXCXCXCXCXCXCXCXCXCXCXCXCXCXCXCXCXCXCXCXCXCXCXCXCXCXCX",
"CXCXCXCXCXCXCXCXCXCXCXCXCXCXCXCXCXCXCXCXCXCXCXCXCXCXCXCXCXCXCXCXCXCXCXCXCXCXCXCXCXCXCXCXCXCXCXCXCXCXCXCXCXCXCXCXCXCXCXCXCXCXCXCXCXCXCXCXCXCXCXCXCXCXCXCXCXCXCXCXCXCXCXCXCXCXCXCXCXCXCXCXCXCXCXCXCXCXCXCXCXCXCXCXCXCXCXCXCXCXCXCXBXNXMXMXMXMXMXMXMXMXMXMXMXMXMXMXMXMXMXMXMXMXMXMXMXMXMXMXMXMXMXMXMXMXMXMXMXMXMXMXMXMXMXMXMXMXMXMXMXMXMXMXMXMXMXMXMXMXMXMXMXMXMXMXMXNXVXCXCXCXCXCXCXCXCXCXCXCXCXCXCXCXCXCXCXCXCXCXCXCXCXCXCXCXCXCXCXCXCXCXCXCXCXCXCXCXCXCXCXCXCXCXCXCXCXCXCXCXCXCXCXCXCXCXCXCXCXCXCXCXCXCXCXCXCXCXCXCXCXCXCXCXCXCXCXCXCXCXCXCXCXCXCXCXCXCXCXCXCXCXCXCXCXCXCXCXCXCXCXCXCXCXCXCXCXCXCXCXCXCXCXCXCXCXCXCXCXCX",
"CXCXCXCXCXCXCXCXCXCXCXCXCXCXCXCXCXCXCXCXCXCXCXCXCXCXCXCXCXCXCXCXCXCXCXCXCXCXCXCXCXCXCXCXCXCXCXCXCXCXCXCXCXCXCXCXCXCXCXCXCXCXCXCXCXCXCXCXCXCXCXCXCXCXCXCXCXCXCXCXCXCXCXCXCXCXCXCXCXCXCXCXCXCXCXCXCXCXCXCXCXCXCXCXCXCXCXCXCXCXCXBXnXzXjXhXjXjXjXjXjXjXjXjXjXjXjXjXjXjXjXjXjXjXjXjXjXjXjXjXjXjXjXjXjXjXjXjXjXjXjXjXjXjXjXjXjXjXjXjXjXjXjXjXjXjXjXjXjXjXjXjXjXjXjXhXjXxXmXVXCXCXCXCXCXCXCXCXCXCXCXCXCXCXCXCXCXCXCXCXCXCXCXCXCXCXCXCXCXCXCXCXCXCXCXCXCXCXCXCXCXCXCXCXCXCXCXCXCXCXCXCXCXCXCXCXCXCXCXCXCXCXCXCXCXCXCXCXCXCXCXCXCXCXCXCXCXCXCXCXCXCXCXCXCXCXCXCXCXCXCXCXCXCXCXCXCXCXCXCXCXCXCXCXCXCXCXCXCXCXCXCXCXCXCXCXCXCXCXCX",
"CXCXCXCXCXCXCXCXCXCXCXCXCXCXCXCXCXCXCXCXCXCXCXCXCXCXCXCXCXCXCXCXCXCXCXCXCXCXCXCXCXCXCXCXCXCXCXCXCXCXCXCXCXCXCXCXCXCXCXCXCXCXCXCXCXCXCXCXCXCXCXCXCXCXCXCXCXCXCXCXCXCXCXCXCXCXCXCXCXCXCXCXCXCXCXCXCXCXCXCXCXCXCXCXCXCXCXCXCXCXCXMXlX' 8 8 8 8 8 8 8 8 8 8 8 8 8 8 8 8 8 8 8 8 8 8 8 8 8 8 8 8 8 8 8 8 8 8 8 8 8 8 8 8 8 8 8 8 8 8 8 8 8 8 8 8 8 8 8 8 8 8 8 8 8 8 9 | vXBXCXCXCXCXCXCXCXCXCXCXCXCXCXCXCXCXCXCXCXCXCXCXCXCXCXCXCXCXCXCXCXCXCXCXCXCXCXCXCXCXCXCXCXCXCXCXCXCXCXCXCXCXCXCXCXCXCXCXCXCXCXCXCXCXCXCXCXCXCXCXCXCXCXCXCXCXCXCXCXCXCXCXCXCXCXCXCXCXCXCXCXCXCXCXCXCXCXCXCXCXCXCXCXCXCXCXCXCXCXCXCXCXCXCXCXCXCXCXCXCX",
"CXCXCXCXCXCXCXCXCXCXCXCXCXCXCXCXCXCXCXCXCXCXCXCXCXCXCXCXCXCXCXCXCXCXCXCXCXCXCXCXCXCXCXCXCXCXCXCXCXCXCXCXCXCXCXCXCXCXCXCXCXCXCXCXCXCXCXCXCXCXCXCXCXCXCXCXCXCXCXCXCXCXCXCXCXCXCXCXCXCXCXCXCXCXCXCXCXCXCXCXCXCXCXCXCXCXCXCXCXCXCXmXhX8                                                                                                                             % _ zXBXCXCXCXCXCXCXCXCXCXCXCXCXCXCXCXCXCXCXCXCXCXCXCXCXCXCXCXCXCXCXCXCXCXCXCXCXCXCXCXCXCXCXCXCXCXCXCXCXCXCXCXCXCXCXCXCXCXCXCXCXCXCXCXCXCXCXCXCXCXCXCXCXCXCXCXCXCXCXCXCXCXCXCXCXCXCXCXCXCXCXCXCXCXCXCXCXCXCXCXCXCXCXCXCXCXCXCXCXCXCXCXCXCXCXCXCXCXCXCXCX",
"CXCXCXCXCXCXCXCXCXCXCXCXCXCXCXCXCXCXCXCXCXCXCXCXCXCXCXCXCXCXCXCXCXCXCXCXCXCXCXCXCXCXCXCXCXCXCXCXCXCXCXCXCXCXCXCXCXCXCXCXCXCXCXCXCXCXCXCXCXCXCXCXCXCXCXCXCXCXCXCXCXCXCXCXCXCXCXCXCXCXCXCXCXCXCXCXCXCXCXCXCXCXCXCXCXCXCXCXCXCXCXmX| 6                                                                                                                               ) lXNXCXCXCXCXCXCXCXCXCXCXCXCXCXCXCXCXCXCXCXCXCXCXCXCXCXCXCXCXCXCXCXCXCXCXCXCXCXCXCXCXCXCXCXCXCXCXCXCXCXCXCXCXCXCXCXCXCXCXCXCXCXCXCXCXCXCXCXCXCXCXCXCXCXCXCXCXCXCXCXCXCXCXCXCXCXCXCXCXCXCXCXCXCXCXCXCXCXCXCXCXCXCXCXCXCXCXCXCXCXCXCXCXCXCXCXCXCXCXCXCX",
"CXCXCXCXCXCXCXCXCXCXCXCXCXCXCXCXCXCXCXCXCXCXCXCXCXCXCXCXCXCXCXCXCXCXCXCXCXCXCXCXCXCXCXCXCXCXCXCXCXCXCXCXCXCXCXCXCXCXCXCXCXCXCXCXCXCXCXCXCXCXCXCXCXCXCXCXCXCXCXCXCXCXCXCXCXCXCXCXCXCXCXCXCXCXCXCXCXCXCXCXCXCXCXCXCXCXCXCXCXCXCXmX| 6                                                                                                                             % ) lXNXCXCXCXCXCXCXCXCXCXCXCXCXCXCXCXCXCXCXCXCXCXCXCXCXCXCXCXCXCXCXCXCXCXCXCXCXCXCXCXCXCXCXCXCXCXCXCXCXCXCXCXCXCXCXCXCXCXCXCXCXCXCXCXCXCXCXCXCXCXCXCXCXCXCXCXCXCXCXCXCXCXCXCXCXCXCXCXCXCXCXCXCXCXCXCXCXCXCXCXCXCXCXCXCXCXCXCXCXCXCXCXCXCXCXCXCXCXCXCXCX",
"CXCXCXCXCXCXCXCXCXCXCXCXCXCXCXCXCXCXCXCXCXCXCXCXCXCXCXCXCXCXCXCXCXCXCXCXCXCXCXCXCXCXCXCXCXCXCXCXCXCXCXCXCXCXCXCXCXCXCXCXCXCXCXCXCXCXCXCXCXCXCXCXCXCXCXCXCXCXCXCXCXCXCXCXCXCXCXCXCXCXCXCXCXCXCXCXCXCXCXCXCXCXCXCXCXCXCXCXCXCXCXmXhX6                                                                                                                             % _ zXBXCXCXCXCXCXCXCXCXCXCXCXCXCXCXCXCXCXCXCXCXCXCXCXCXCXCXCXCXCXCXCXCXCXCXCXCXCXCXCXCXCXCXCXCXCXCXCXCXCXCXCXCXCXCXCXCXCXCXCXCXCXCXCXCXCXCXCXCXCXCXCXCXCXCXCXCXCXCXCXCXCXCXCXCXCXCXCXCXCXCXCXCXCXCXCXCXCXCXCXCXCXCXCXCXCXCXCXCXCXCXCXCXCXCXCXCXCXCXCXCX",
"CXCXCXCXCXCXCXCXCXCXCXCXCXCXCXCXCXCXCXCXCXCXCXCXCXCXCXCXCXCXCXCXCXCXCXCXCXCXCXCXCXCXCXCXCXCXCXCXCXCXCXCXCXCXCXCXCXCXCXCXCXCXCXCXCXCXCXCXCXCXCXCXCXCXCXCXCXCXCXCXCXCXCXCXCXCXCXCXCXCXCXCXCXCXCXCXCXCXCXCXCXCXCXCXCXCXCXCXCXCXCXmXhX6                                                                                                                             % _ zXBXCXCXCXCXCXCXCXCXCXCXCXCXCXCXCXCXCXCXCXCXCXCXCXCXCXCXCXCXCXCXCXCXCXCXCXCXCXCXCXCXCXCXCXCXCXCXCXCXCXCXCXCXCXCXCXCXCXCXCXCXCXCXCXCXCXCXCXCXCXCXCXCXCXCXCXCXCXCXCXCXCXCXCXCXCXCXCXCXCXCXCXCXCXCXCXCXCXCXCXCXCXCXCXCXCXCXCXCXCXCXCXCXCXCXCXCXCXCXCXCX",
"CXCXCXCXCXCXCXCXCXCXCXCXCXCXCXCXCXCXCXCXCXCXCXCXCXCXCXCXCXCXCXCXCXCXCXCXCXCXCXCXCXCXCXCXCXCXCXCXCXCXCXCXCXCXCXCXCXCXCXCXCXCXCXCXCXCXCXCXCXCXCXCXCXCXCXCXCXCXCXCXCXCXCXCXCXCXCXCXCXCXCXCXCXCXCXCXCXCXCXCXCXCXCXCXCXCXCXCXCXCXCXmXhX6                                                                                                                             % _ zXBXCXCXCXCXCXCXCXCXCXCXCXCXCXCXCXCXCXCXCXCXCXCXCXCXCXCXCXCXCXCXCXCXCXCXCXCXCXCXCXCXCXCXCXCXCXCXCXCXCXCXCXCXCXCXCXCXCXCXCXCXCXCXCXCXCXCXCXCXCXCXCXCXCXCXCXCXCXCXCXCXCXCXCXCXCXCXCXCXCXCXCXCXCXCXCXCXCXCXCXCXCXCXCXCXCXCXCXCXCXCXCXCXCXCXCXCXCXCXCXCX",
"CXCXCXCXCXCXCXCXCXCXCXCXCXCXCXCXCXCXCXCXCXCXCXCXCXCXCXCXCXCXCXCXCXCXCXCXCXCXCXCXCXCXCXCXCXCXCXCXCXCXCXCXCXCXCXCXCXCXCXCXCXCXCXCXCXCXCXCXCXCXCXCXCXCXCXCXCXCXCXCXCXCXCXCXCXCXCXCXCXCXVXVXBXBXBXBXBXBXBXBXBXBXBXBXBXBXBXBXVXVXBXnX| 8 X   . X X X X X X X X X X X X X X X X X X X X X X X X X X X X X X X X X X X X X X X X X X X X X X X X X X X X X X X X X .   & _ kXMXVXVXBXBXBXBXBXBXBXBXBXBXBXBXBXBXBXBXBXBXBXBXBXBXBXBXBXBXVXVXCXCXCXCXCXCXCXCXCXCXCXCXCXCXCXCXCXCXCXCXCXCXCXCXCXCXCXCXCXCXCXCXCXCXCXCXCXCXCXCXCXCXCXCXCXCXCXCXCXCXCXCXCXCXCXCXCXCXCXCXCXCXCXCXCXCXCXCXCXCXCXCXCXCXCXCXCXCXCXCXCXCXCXCXCXCXCXCXCXCX",
"CXCXCXCXCXCXCXCXCXCXCXCXCXCXCXCXCXCXCXCXCXCXCXCXCXCXCXCXCXCXCXCXCXCXCXCXCXCXCXCXCXCXCXCXCXCXCXCXCXCXCXCXCXCXCXCXCXCXCXCXCXCXCXCXCXCXCXCXCXCXCXCXCXCXCXCXCXCXCXCXCXCXCXCXCXCXCXCXCXVXMXbXxXxXxXxXxXxXxXxXxXxXxXxXxXxXxXxXxXcXxXkX} v < < < < < < < < < < < < < < < < < < < < < < < < < < < < < < < < < < < < < < < < < < < < < < < < < < < < < < < < < < < < < < q _ 4.lXxXcXxXxXxXxXxXxXxXxXxXxXxXxXxXxXxXxXxXxXxXxXxXxXxXxXxXxXbXMXVXCXCXCXCXCXCXCXCXCXCXCXCXCXCXCXCXCXCXCXCXCXCXCXCXCXCXCXCXCXCXCXCXCXCXCXCXCXCXCXCXCXCXCXCXCXCXCXCXCXCXCXCXCXCXCXCXCXCXCXCXCXCXCXCXCXCXCXCXCXCXCXCXCXCXCXCXCXCXCXCXCXCXCXCXCXCXCXCXCX",
"CXCXCXCXCXCXCXCXCXCXCXCXCXCXCXCXCXCXCXCXCXCXCXCXCXCXCXCXCXCXCXCXCXCXCXCXCXCXCXCXCXCXCXCXCXCXCXCXCXCXCXCXCXCXCXCXCXCXCXCXCXCXCXCXCXCXCXCXCXCXCXCXCXCXCXCXCXCXCXCXCXCXCXCXCXCXCXCXCXNXvX| ` _ ` ` ` ` ` ` ` ` ` ` ` ` ` ` ` ` ` ` ] A S C C S S S S S S S S S S S S S S S S S S S S S S S S S S S S S S S S S S S S S S S S S S S S S S S S S S S S S S S S S S C S A ] ` ` ` ` ` ` ` ` ` ` ` ` ` ` ` ` ` ` ` ` ` ` ` ` ` ` ` _ ` | vXNXCXCXCXCXCXCXCXCXCXCXCXCXCXCXCXCXCXCXCXCXCXCXCXCXCXCXCXCXCXCXCXCXCXCXCXCXCXCXCXCXCXCXCXCXCXCXCXCXCXCXCXCXCXCXCXCXCXCXCXCXCXCXCXCXCXCXCXCXCXCXCXCXCXCXCXCXCXCXCXCXCXCXCXCXCXCXCXCXCX",
"CXCXCXCXCXCXCXCXCXCXCXCXCXCXCXCXCXCXCXCXCXCXCXCXCXCXCXCXCXCXCXCXCXCXCXCXCXCXCXCXCXCXCXCXCXCXCXCXCXCXCXCXCXCXCXCXCXCXCXCXCXCXCXCXCXCXCXCXCXCXCXCXCXCXCXCXCXCXCXCXCXCXCXCXCXCXCXCXCXMXjX) & % % & & & & & & & & & & & & & & % & > m @.G.J.G.G.G.G.G.G.G.G.G.G.G.G.G.G.G.G.G.G.G.G.G.G.G.G.G.G.G.G.G.G.G.G.G.G.G.G.G.G.G.G.G.G.G.G.G.G.G.G.G.G.G.G.G.G.G.G.G.G.J.J.2.o.e * % % & & & & & & & & & & & & & & & & & & & & & & & % % & ) jXMXCXCXCXCXCXCXCXCXCXCXCXCXCXCXCXCXCXCXCXCXCXCXCXCXCXCXCXCXCXCXCXCXCXCXCXCXCXCXCXCXCXCXCXCXCXCXCXCXCXCXCXCXCXCXCXCXCXCXCXCXCXCXCXCXCXCXCXCXCXCXCXCXCXCXCXCXCXCXCXCXCXCXCXCXCXCXCXCXCX",
"CXCXCXCXCXCXCXCXCXCXCXCXCXCXCXCXCXCXCXCXCXCXCXCXCXCXCXCXCXCXCXCXCXCXCXCXCXCXCXCXCXCXCXCXCXCXCXCXCXCXCXCXCXCXCXCXCXCXCXCXCXCXCXCXCXCXCXCXCXCXCXCXCXCXCXCXCXCXCXCXCXCXCXCXCXCXCXCXCXMXjX8                                       + c #.L.~.~.L.L.L.~.~.L.R.R.R.R.L.L.L.R.R.~.L.L.~.R.R.L.L.L.L.L.L.L.L.R.R.~.L.R.~.R.R.L.L.L.L.L.L.L.L.R.R.~.L.L.~.R.R.L.L.L.L.~.~.K.o.0 .                                                         8 jXMXCXCXCXCXCXCXCXCXCXCXCXCXCXCXCXCXCXCXCXCXCXCXCXCXCXCXCXCXCXCXCXCXCXCXCXCXCXCXCXCXCXCXCXCXCXCXCXCXCXCXCXCXCXCXCXCXCXCXCXCXCXCXCXCXCXCXCXCXCXCXCXCXCXCXCXCXCXCXCXCXCXCXCXCXCXCXCXCXCX",
"CXCXCXCXCXCXCXCXCXCXCXCXCXCXCXCXCXCXCXCXCXCXCXCXCXCXCXCXCXCXCXCXCXCXCXCXCXCXCXCXCXCXCXCXCXCXCXCXCXCXCXCXCXCXCXCXCXCXCXCXCXCXCXCXCXCXCXCXCXCXCXCXCXCXCXCXCXCXCXCXCXCXCXCXCXCXCXCXCXNXjX8                                       + c #.L.~.~.L.L.L.L.L.L.L.L.L.L.R.L.L.L.L.L.L.L.L.L.R.L.L.L.L.L.L.L.L.L.L.L.L.L.L.L.R.L.L.L.L.L.L.L.L.L.L.L.L.L.L.R.R.L.L.L.L.~.~.K.o.<                                                           8 jXNXCXCXCXCXCXCXCXCXCXCXCXCXCXCXCXCXCXCXCXCXCXCXCXCXCXCXCXCXCXCXCXCXCXCXCXCXCXCXCXCXCXCXCXCXCXCXCXCXCXCXCXCXCXCXCXCXCXCXCXCXCXCXCXCXCXCXCXCXCXCXCXCXCXCXCXCXCXCXCXCXCXCXCXCXCXCXCXCXCX",
"CXCXCXCXCXCXCXCXCXCXCXCXCXCXCXCXCXCXCXCXCXCXCXCXCXCXCXCXCXCXCXCXCXCXCXCXCXCXCXCXCXCXCXCXCXCXCXCXCXCXCXCXCXCXCXCXCXCXCXCXCXCXCXCXCXCXCXCXCXCXCXCXCXCXVXVXVXCXCXCXCXCXCXCXCXCXCXCXCXmXhX8                                       = b #.L.~.L.L.L.L.L.L.L.L.L.L.L.L.L.L.L.L.L.L.L.L.L.L.L.L.L.L.L.L.L.L.L.L.L.L.L.L.L.L.L.L.L.L.L.L.L.L.L.L.L.L.L.L.L.L.L.L.L.L.L.R.J.o.w +                                                         8 hXmXCXCXCXVXVXCXCXCXCXCXCXCXCXCXCXCXCXCXCXCXCXCXCXCXCXCXCXCXCXCXCXCXCXCXCXCXCXCXCXCXCXCXCXCXCXCXCXCXCXCXCXCXCXCXCXCXCXCXCXCXCXCXCXCXCXCXCXCXCXCXCXCXCXCXCXCXCXCXCXCXCXCXCXCXCXCXCXCXCX",
"CXCXCXCXCXCXCXCXCXCXCXCXCXCXCXCXCXCXCXCXCXCXCXCXCXCXCXCXCXCXCXCXCXCXCXCXCXCXCXCXCXCXCXCXCXCXCXCXCXCXCXCXCXCXCXCXCXCXCXCXCXCXCXCXCXCXCXCXCXCXCXNXmXnXbXbXbXbXbXbXbXbXbXbXbXbXnXnXnXzX} 6         + = : , , : : : , , : : : : : w B $.L.L.L.L.L.L.L.L.L.L.L.L.L.L.L.L.L.L.L.L.L.L.L.L.L.L.L.L.L.L.L.L.L.L.L.L.L.L.L.L.L.L.L.L.L.L.L.L.L.L.L.L.L.L.L.L.L.L.L.L.L.L.J.@.b < : : : : : : , : : : , , : : : : , , : , , : = O         6 } zXnXnXnXbXbXbXnXMXBXCXCXCXCXCXCXCXCXCXCXCXCXCXCXCXCXCXCXCXCXCXCXCXCXCXCXCXCXCXCXCXCXCXCXCXCXCXCXCXCXCXCXCXCXCXCXCXCXCXCXCXCXCXCXCXCXCXCXCXCXCXCXCXCXCXCXCXCXCXCXCXCXCXCXCXCXCXCXCXCX",
"CXCXCXCXCXCXCXCXCXCXCXCXCXCXCXCXCXCXCXCXCXCXCXCXCXCXCXCXCXCXCXCXCXCXCXCXCXCXCXCXCXCXCXCXCXCXCXCXCXCXCXCXCXCXCXCXCXCXCXCXCXCXCXCXCXCXCXCXCXCXVXnXjX| { { } } } } } } } } } } } } } ' 8 &       X ; w m B B N N N N N N N N N N S @.G.L.L.L.L.L.L.L.L.L.L.L.L.L.L.L.L.L.L.L.L.L.L.L.L.L.L.L.L.L.L.L.L.L.L.L.L.L.L.L.L.L.L.L.L.L.L.L.L.L.L.L.L.L.L.L.L.L.L.L.L.L.L.K.$.O.B N N N N N N N N N N N N N N N N N N N N B m w ; X       & 8 ' } } } } { { | zXMXCXCXCXCXCXCXCXCXCXCXCXCXCXCXCXCXCXCXCXCXCXCXCXCXCXCXCXCXCXCXCXCXCXCXCXCXCXCXCXCXCXCXCXCXCXCXCXCXCXCXCXCXCXCXCXCXCXCXCXCXCXCXCXCXCXCXCXCXCXCXCXCXCXCXCXCXCXCXCXCX",
"CXCXCXCXCXCXCXCXCXCXCXCXCXCXCXCXCXCXCXCXCXCXCXCXCXCXCXCXCXCXCXCXCXCXCXCXCXCXCXCXCXCXCXCXCXCXCXCXCXCXCXCXCXCXCXCXCXCXCXCXCXCXCXCXCXCXCXCXCXCXBXxX{ 6 & * * * * * * * * * * * * * * * &         O < B #.2.2.$.$.$.$.$.$.$.$.$.$.2.G.K.L.L.L.L.L.L.L.L.L.L.L.L.L.L.L.L.L.L.L.L.L.L.L.L.L.L.L.L.L.L.L.L.L.L.L.L.L.L.L.L.L.L.L.L.L.L.L.L.L.L.L.L.L.L.L.L.L.L.L.L.L.L.L.J.G.$.$.$.$.$.$.$.$.$.$.$.$.$.$.$.$.$.$.$.$.2.2.#.B < O         & * * 6 * * & * 8 | nXCXCXCXCXCXCXCXCXCXCXCXCXCXCXCXCXCXCXCXCXCXCXCXCXCXCXCXCXCXCXCXCXCXCXCXCXCXCXCXCXCXCXCXCXCXCXCXCXCXCXCXCXCXCXCXCXCXCXCXCXCXCXCXCXCXCXCXCXCXCXCXCXCXCXCXCXCXCXCXCX",
"CXCXCXCXCXCXCXCXCXCXCXCXCXCXCXCXCXCXCXCXCXCXCXCXCXCXCXCXCXCXCXCXCXCXCXCXCXCXCXCXCXCXCXCXCXCXCXCXCXCXCXCXCXCXCXCXCXCXCXCXCXCXCXCXCXCXCXCXCXCXBXlX) %                                           + q o.K.~.~.L.L.L.L.L.L.L.L.L.L.L.L.L.L.L.L.L.L.L.L.L.L.L.L.L.L.L.L.L.L.L.L.L.L.L.L.L.L.L.L.L.L.L.L.L.L.L.L.L.L.L.L.L.L.L.L.L.L.L.L.L.L.L.L.L.L.L.L.L.L.L.L.L.L.L.L.L.L.L.L.L.L.L.L.L.L.L.L.L.L.L.L.L.L.L.L.L.L.~.~.J.o.q +                         * { bXCXCXCXCXCXCXCXCXCXCXCXCXCXCXCXCXCXCXCXCXCXCXCXCXCXCXCXCXCXCXCXCXCXCXCXCXCXCXCXCXCXCXCXCXCXCXCXCXCXCXCXCXCXCXCXCXCXCXCXCXCXCXCXCXCXCXCXCXCXCXCXCXCXCXCXCXCXCXCXCX",
"CXCXCXCXCXCXCXCXCXCXCXCXCXCXCXCXCXCXCXCXCXCXCXCXCXCXCXCXCXCXCXCXCXCXCXCXCXCXCXCXCXCXCXCXCXCXCXCXCXCXCXCXCXCXCXCXCXCXCXCXCXCXCXCXCXCXCXCXCXCXNXlX)                                             + w O.K.~.~.R.R.R.L.R.R.R.R.R.R.L.L.L.L.L.L.L.L.L.L.L.L.L.L.L.L.L.L.L.L.L.L.L.L.L.L.L.L.L.L.L.L.L.L.L.L.L.L.L.L.L.L.L.L.L.L.L.L.L.L.L.L.L.L.L.L.L.L.L.L.L.L.L.L.L.L.L.L.L.R.R.R.R.R.R.R.R.R.R.R.R.R.R.R.R.~.~.R.~.~.K.O.w O                         * { bXVXCXCXCXCXCXCXCXCXCXCXCXCXCXCXCXCXCXCXCXCXCXCXCXCXCXCXCXCXCXCXCXCXCXCXCXCXCXCXCXCXCXCXCXCXCXCXCXCXCXCXCXCXCXCXCXCXCXCXCXCXCXCXCXCXCXCXCXCXCXCXCXCXCXCXCXCXCXCXCX",
"CXCXCXCXCXCXCXCXCXCXCXCXCXCXCXCXCXCXCXCXCXCXCXCXCXCXCXCXCXCXCXCXCXCXCXCXCXCXCXCXCXCXCXCXCXCXCXCXCXCXCXCXCXCXCXCXCXCXCXCXCXCXCXCXCXCXCXCXCXCXBXzX_ %                                           O q o.J.~.L.L.L.L.L.L.L.L.L.L.L.L.L.L.L.L.L.L.L.L.L.L.L.L.L.L.L.L.L.L.L.L.L.L.L.L.L.L.L.L.L.L.L.L.L.L.L.L.L.L.L.L.L.L.L.L.L.L.L.L.L.L.L.L.L.L.L.L.L.L.L.L.L.L.L.L.L.L.L.L.L.L.L.L.L.L.L.L.L.L.L.L.L.L.L.L.L.L.L.L.~.J.o.q O                         * } bXCXCXCXCXCXCXCXCXCXCXCXCXCXCXCXCXCXCXCXCXCXCXCXCXCXCXCXCXCXCXCXCXCXCXCXCXCXCXCXCXCXCXCXCXCXCXCXCXCXCXCXCXCXCXCXCXCXCXCXCXCXCXCXCXCXCXCXCXCXCXCXCXCXCXCXCXCXCXCXCX",
"CXCXCXCXCXCXCXCXCXCXCXCXCXCXCXCXCXCXCXCXCXCXCXCXCXCXCXCXCXCXCXCXCXCXCXCXCXCXCXCXCXCXCXCXCXCXCXCXCXCXCXCXCXCXCXCXCXCXCXCXCXCXCXCXCXCXCXCXCXCXBXzX_ %                                           O q o.J.~.L.L.L.L.L.L.L.L.L.L.L.L.L.L.L.L.L.L.L.L.L.L.L.L.L.L.L.L.L.L.L.L.L.L.L.L.L.L.L.L.L.L.L.L.L.L.L.L.L.L.L.L.L.L.L.L.L.L.L.L.L.L.L.L.L.L.L.L.L.L.L.L.L.L.L.L.L.L.L.L.L.L.L.L.L.L.L.L.L.L.L.L.L.L.L.L.L.L.L.L.R.J.o.q O                         * } nXCXCXCXCXCXCXCXCXCXCXCXCXCXCXCXCXCXCXCXCXCXCXCXCXCXCXCXCXCXCXCXCXCXCXCXCXCXCXCXCXCXCXCXCXCXCXCXCXCXCXCXCXCXCXCXCXCXCXCXCXCXCXCXCXCXCXCXCXCXCXCXCXCXCXCXCXCXCXCXCX",
"CXCXCXCXCXCXCXCXCXCXCXCXCXCXCXCXCXCXCXCXCXCXCXCXCXCXCXCXCXCXCXCXCXCXCXCXCXCXCXCXCXCXCXCXCXCXCXCXCXCXCXCXCXCXCXCXCXCXCXCXCXCXCXCXCXCXCXCXCXCXVXzX_ %                                           X q o.J.~.L.L.L.L.L.L.L.L.L.L.L.L.L.L.L.L.L.L.L.L.L.L.L.L.L.L.L.L.L.L.L.L.L.L.L.L.L.L.L.L.L.L.L.L.L.L.L.L.L.L.L.L.L.L.L.L.I.I.I.I.L.L.L.L.L.L.L.L.L.L.L.L.L.L.L.L.L.L.L.L.L.L.L.L.L.L.L.L.L.L.L.L.L.L.L.L.L.L.L.L.R.J.o.q X                         * } nXCXCXCXCXCXCXCXCXCXCXCXCXCXCXCXCXCXCXCXCXCXCXCXCXCXCXCXCXCXCXCXCXCXCXCXCXCXCXCXCXCXCXCXCXCXCXCXCXCXCXCXCXCXCXCXCXCXCXCXCXCXCXCXCXCXCXCXCXCXCXCXCXCXCXCXCXCXCXCXCX",
"CXCXCXCXCXCXCXCXCXCXCXCXCXCXCXCXCXCXCXCXCXCXCXCXCXCXCXCXCXCXCXCXCXCXCXCXCXCXCXCXCXCXCXCXCXCXCXCXCXCXCXCXCXCXCXCXCXCXCXCXCXCXCXCXCXCXCXCXCXCXBXzX_ %                                           O q o.J.~.L.L.L.L.L.L.L.L.L.L.L.L.L.L.L.L.L.L.L.L.L.L.L.L.L.L.L.L.L.L.L.L.L.L.L.L.L.L.L.L.L.L.L.L.L.L.L.L.L.L.L.L.L.L.L.L.L.L.L.L.L.L.L.L.L.L.L.L.L.L.L.L.L.L.L.L.L.L.L.L.L.L.L.L.L.L.L.L.L.L.L.L.L.L.L.L.L.L.L.L.R.J.o.q O                         * } nXCXCXCXCXCXCXCXCXCXCXCXCXCXCXCXCXCXCXCXCXCXCXCXCXCXCXCXCXCXCXCXCXCXCXCXCXCXCXCXCXCXCXCXCXCXCXCXCXCXCXCXCXCXCXCXCXCXCXCXCXCXCXCXCXCXCXCXCXCXCXCXCXCXCXCXCXCXCXCXCX",
"CXCXCXCXCXCXCXCXCXCXCXCXCXCXCXCXCXCXCXCXCXCXCXCXCXCXCXCXCXCXCXCXCXCXCXCXCXCXCXCXCXCXCXCXCXCXCXCXCXCXCXCXCXCXCXCXCXCXCXCXCXCXCXCXCXBXNXMXMXMXnXjX) %             . O @ @ @ @ @ @ @ @ @ @ @ + @ : c +.J.L.L.L.L.L.L.L.L.L.L.L.L.L.L.L.L.L.L.L.L.L.L.L.L.L.L.L.L.L.L.L.L.L.L.L.L.L.L.L.L.L.L.L.L.L.L.L.L.L.L.L.L.L.U.E.E.E.E.E.E.E.E.E.E.U.L.L.L.L.L.L.L.L.L.L.L.L.L.L.L.L.L.L.L.L.L.L.L.L.L.L.L.L.L.L.L.L.L.L.L.L.L.J.O.w = X X X O O O O O O X . X > { zXmXNXMXMXMXMXMXMXMXMXMXMXMXNXBXCXCXCXCXCXCXCXCXCXCXCXCXCXCXCXCXCXCXCXCXCXCXCXCXCXCXCXCXCXCXCXCXCXCXCXCXCXCXCXCXCXCXCXCXCXCXCXCXCXCXCXCXCXCXCXCXCXCXCXCXCXCXCXCXCX",
"CXCXCXCXCXCXCXCXCXCXCXCXCXCXCXCXCXCXCXCXCXCXCXCXCXCXCXCXCXCXCXCXCXCXCXCXCXCXCXCXCXCXCXCXCXCXCXCXCXCXCXCXCXCXCXCXCXCXCXCXCXCXCXCXBXnXzXjXjXjX| ' 6               + , w c c c c c c c e c e e e c C #.K.L.L.L.L.L.L.L.L.L.L.L.L.L.L.L.L.L.L.L.L.L.L.L.L.L.L.L.L.L.L.L.L.L.L.L.L.L.L.L.L.L.L.L.L.L.L.L.L.L.L.L.L.U.E.W.W.eXeXeXeXeXeXW.F.E.L.L.L.L.L.L.L.L.L.L.L.L.L.L.L.L.L.L.L.L.L.L.L.L.L.L.L.L.L.L.L.L.L.L.L.L.L.J.@.b < : : : : : : : : : : - - 7 _ } jXjXjXjXjXjXjXjXjXjXjXhXjXzXnXBXCXCXCXCXCXCXCXCXCXCXCXCXCXCXCXCXCXCXCXCXCXCXCXCXCXCXCXCXCXCXCXCXCXCXCXCXCXCXCXCXCXCXCXCXCXCXCXCXCXCXCXCXCXCXCXCXCXCXCXCXCXCXCXCX",
"CXCXCXCXCXCXCXCXCXCXCXCXCXCXCXCXCXCXCXCXCXCXCXCXCXCXCXCXCXCXCXCXCXCXCXCXCXCXCXCXCXCXCXCXCXCXCXCXCXCXCXCXCXCXCXCXCXCXCXCXCXCXCXCXNXzX{ 8 8 8 8 6 &               = c o.#.#.@.@.@.@.@.@.@.@.@.@.#.$.G.K.L.L.L.L.L.L.L.L.L.L.L.L.L.L.L.L.L.L.L.L.L.L.L.L.L.L.L.L.L.L.L.L.L.L.L.L.L.L.L.L.L.L.L.L.L.L.L.L.L.L.L.L.U.F.eXuXuXuXuXuXuXuXyXW.E.L.L.L.L.L.L.L.L.L.L.L.L.L.L.L.L.L.L.L.L.L.L.L.L.L.L.L.L.L.L.L.L.L.L.L.L.L.K.#.C c w w e e e e e e e e e e e w 9 9 8 8 8 8 8 8 8 8 8 8 8 8 { zXNXCXCXCXCXCXCXCXCXCXCXCXCXCXCXCXCXCXCXCXCXCXCXCXCXCXCXCXCXCXCXCXCXCXCXCXCXCXCXCXCXCXCXCXCXCXCXCXCXCXCXCXCXCXCXCXCXCXCXCXCXCXCXCXCX",
"CXCXCXCXCXCXCXCXCXCXCXCXCXCXCXCXCXCXCXCXCXCXCXCXCXCXCXCXCXCXCXCXCXCXCXCXCXCXCXCXCXCXCXCXCXCXCXCXCXCXCXCXCXCXCXCXCXCXCXCXCXCXCXCXMXjX8 %                         : N $.L.L.L.K.K.K.K.K.K.K.K.K.K.L.L.L.L.L.L.L.L.L.L.L.L.L.L.L.L.L.L.L.L.L.L.L.L.L.L.L.L.L.L.L.L.L.L.L.L.L.L.L.L.L.L.L.L.L.L.L.L.L.L.L.L.L.L.L.U.W.yXtXfXfXsXsXfXsXuXeXE.L.I.L.L.L.L.L.L.L.L.L.L.L.L.L.L.L.L.L.L.L.L.L.L.L.L.L.L.L.L.L.L.L.L.L.L.L.K.$.o.N b b b b b b b b b b b b c < @                         % 8 jXMXCXCXCXCXCXCXCXCXCXCXCXCXCXCXCXCXCXCXCXCXCXCXCXCXCXCXCXCXCXCXCXCXCXCXCXCXCXCXCXCXCXCXCXCXCXCXCXCXCXCXCXCXCXCXCXCXCXCXCXCXCXCXCXCX",
"CXCXCXCXCXCXCXCXCXCXCXCXCXCXCXCXCXCXCXCXCXCXCXCXCXCXCXCXCXCXCXCXCXCXCXCXCXCXCXCXCXCXCXCXCXCXCXCXCXCXCXCXCXCXCXCXCXCXCXCXCXCXCXCXMXjX8                           : N 2.~.~.~.~.~.~.~.~.~.~.~.~.L.L.L.L.L.L.L.L.L.L.L.L.L.L.L.L.L.L.L.L.L.L.L.L.L.L.L.L.L.L.L.L.L.L.L.L.L.L.L.L.L.L.L.L.L.L.L.L.L.L.L.L.L.L.Q.Q.U.W.yXaXfXdXfXfXdXfXuXeXE.L.I.L.L.L.L.L.L.L.L.L.L.L.L.L.L.L.L.L.L.L.L.L.L.L.L.L.L.L.L.L.L.L.L.L.L.L.K.$.o.N b b b m m m m m m N N N c < O                           8 jXMXCXCXCXCXCXCXCXCXCXCXCXCXCXCXCXCXCXCXCXCXCXCXCXCXCXCXCXCXCXCXCXCXCXCXCXCXCXCXCXCXCXCXCXCXCXCXCXCXCXCXCXCXCXCXCXCXCXCXCXCXCXCXCXCX",
"CXCXCXCXCXCXCXCXCXCXCXCXCXCXCXCXCXCXCXCXCXCXCXCXCXCXCXCXCXCXCXCXCXCXCXCXCXCXCXCXCXCXCXCXCXCXCXCXCXCXCXCXCXCXCXCXCXCXCXCXCXCXCXCXMXjX8                           : N 2.R.~.L.L.L.L.L.L.L.L.L.L.L.L.L.L.L.L.L.L.L.L.L.L.L.L.L.L.L.L.L.L.L.L.L.L.L.L.L.L.L.L.L.L.L.L.L.L.L.L.L.L.L.L.L.L.L.L.L.L.L.L.L.L.L.L.Q.Q.U.W.yXaXfXfXfXfXfXfXuXeXE.L.I.L.L.L.L.L.L.L.L.L.L.L.L.L.L.L.L.L.L.L.L.L.L.L.L.L.L.L.L.L.L.L.L.L.L.L.K.$.o.N b b b b b b m m m m N m c < +                           8 jXMXCXCXCXCXCXCXCXCXCXCXCXCXCXCXCXCXCXCXCXCXCXCXCXCXCXCXCXCXCXCXCXCXCXCXCXCXCXCXCXCXCXCXCXCXCXCXCXCXCXCXCXCXCXCXCXCXCXCXCXCXCXCXCXCX",
"CXCXCXCXCXCXCXCXCXCXCXCXCXCXCXCXCXCXCXCXCXCXCXCXCXCXCXCXCXCXCXCXCXCXCXCXCXCXCXCXCXCXCXCXCXCXCXCXCXCXCXCXCXCXCXCXVXBXNXNXNXBXVXBXnX| 8           X O + + O X X + < B 2.L.L.L.L.L.L.L.L.L.L.L.L.L.L.L.L.L.L.L.L.L.L.L.L.L.L.L.L.L.L.L.L.L.L.L.L.L.L.L.L.L.L.L.L.L.L.L.L.L.L.L.L.L.L.L.L.L.L.L.L.L.L.L.U.U.E.E.U.E.W.yXaXfXfXsXfXfXfXuXeXE.L.L.L.L.L.L.L.L.L.L.L.L.L.L.L.L.L.L.L.L.L.L.L.L.L.L.L.L.L.L.L.L.L.L.L.L.L.K.$.O.B N N N N m b b b b b m m c q = X   . . X X .             8 | nXBXBXBXNXNXBXBXVXCXCXCXCXCXCXCXCXCXCXCXCXCXCXCXCXCXCXCXCXCXCXCXCXCXCXCXCXCXCXCXCXCXCXCXCXCXCXCXCXCXCXCXCXCXCXCXCXCXCXCXCXCXCXCXCX",
"CXCXCXCXCXCXCXCXCXCXCXCXCXCXCXCXCXCXCXCXCXCXCXCXCXCXCXCXCXCXCXCXCXCXCXCXCXCXCXCXCXCXCXCXCXCXCXCXCXCXCXCXCXCXCXNXnXxXlXlXzXzXzXzXjX' 6         @ , q w q q q q w b O.G.L.L.L.L.L.L.L.L.L.L.L.L.L.L.L.L.L.L.L.L.L.L.L.L.L.L.L.L.L.L.L.L.L.L.L.L.L.L.L.L.L.L.L.L.L.L.L.L.L.L.L.L.L.L.L.L.L.L.L.L.L.L.U.E.W.W.W.W.W.eXuXaXfXfXsXfXfXfXuXeXE.L.L.L.L.L.L.L.L.L.L.L.L.L.L.L.L.L.L.L.L.L.L.L.L.L.L.L.L.L.L.L.L.L.L.L.L.L.K.G.#.O.o.o.o.C B N b b b b m m c w < - = = = - - = @ X         6 ' jXzXzXzXzXlXlXxXnXNXCXCXCXCXCXCXCXCXCXCXCXCXCXCXCXCXCXCXCXCXCXCXCXCXCXCXCXCXCXCXCXCXCXCXCXCXCXCXCXCXCXCXCXCXCXCXCXCXCXCXCXCXCXCXCX",
"CXCXCXCXCXCXCXCXCXCXCXCXCXCXCXCXCXCXCXCXCXCXCXCXCXCXCXCXCXCXCXCXCXCXCXCXCXCXCXCXCXCXCXCXCXCXCXCXCXCXCXCXCXCXCXmXjX{ ) ) _ _ _ _ ) 6 &       X , c S O.o.o.o.o.o.@.$.J.L.L.L.L.L.L.L.L.L.L.L.L.L.L.L.L.L.L.L.L.L.L.L.L.L.L.L.L.L.L.L.L.L.L.L.L.L.L.L.L.L.L.L.L.L.L.L.L.L.L.L.L.L.L.L.L.L.L.L.L.L.L.U.W.eXuXuXuXuXuXtXaXfXfXsXfXfXfXuXeXE.L.L.L.L.L.L.L.L.L.L.L.L.L.L.L.L.L.L.L.L.L.L.L.L.L.L.L.L.L.L.L.L.L.L.L.L.L.L.J.G.$.$.$.$.@.o.N b b b b b b b c w w w w w w w q , @         & 6 ) _ _ _ _ ) ) ' jXmXCXCXCXCXCXCXCXCXCXCXCXCXCXCXCXCXCXCXCXCXCXCXCXCXCXCXCXCXCXCXCXCXCXCXCXCXCXCXCXCXCXCXCXCXCXCXCXCXCXCXCXCXCXCXCX",
"CXCXCXCXCXCXCXCXCXCXCXCXCXCXCXCXCXCXCXCXCXCXCXCXCXCXCXCXCXCXCXCXCXCXCXCXCXCXCXCXCXCXCXCXCXCXCXCXCXCXCXCXCXCXVXnX| 6 %   % % % % %           O q S 2.K.K.J.J.J.J.J.K.L.L.L.L.L.L.L.L.L.L.L.L.L.L.L.L.L.L.L.L.L.L.L.L.L.L.L.L.L.L.L.L.L.L.L.L.L.L.L.L.L.L.L.L.L.L.L.L.L.L.L.L.L.L.L.L.L.L.L.L.L.L.L.E.W.uXaXaXaXaXaXaXsXsXsXsXfXfXfXuXeXE.L.L.L.L.L.L.L.L.L.L.L.L.L.L.L.L.L.L.L.L.L.L.L.L.L.L.L.L.L.L.L.L.L.L.L.L.L.L.L.K.K.K.L.J.$.+.B b b b b b b b b b b b b b b b c q = .           % % % % %   % 6 | nXCXCXCXCXCXCXCXCXCXCXCXCXCXCXCXCXCXCXCXCXCXCXCXCXCXCXCXCXCXCXCXCXCXCXCXCXCXCXCXCXCXCXCXCXCXCXCXCXCXCXCXCXCXCXCX",
"CXCXCXCXCXCXCXCXCXCXCXCXCXCXCXCXCXCXCXCXCXCXCXCXCXCXCXCXCXCXCXCXCXCXCXCXCXCXCXCXCXCXCXCXCXCXCXCXCXCXCXCXCXCXVXbX{ &                         O q O.K.~.~.R.R.R.R.L.L.L.L.L.L.L.L.L.L.L.L.L.L.L.L.L.L.L.L.L.L.L.L.L.L.L.L.L.L.L.L.L.L.L.L.L.L.L.L.L.L.L.L.L.L.L.L.L.L.L.L.L.L.L.L.L.L.L.L.L.L.L.L.L.E.W.uXaXfXfXfXfXfXsXsXsXsXfXfXfXuXeXE.L.L.L.L.L.L.L.L.L.L.L.L.L.L.L.L.L.L.L.L.L.L.L.L.L.L.L.L.L.L.L.L.L.L.L.L.L.L.L.L.L.L.R.L.2.+.B b b b b b b b b m m m m m N N b w - X                         & { bXVXCXCXCXCXCXCXCXCXCXCXCXCXCXCXCXCXCXCXCXCXCXCXCXCXCXCXCXCXCXCXCXCXCXCXCXCXCXCXCXCXCXCXCXCXCXCXCXCXCXCXCXCXCXCX",
"CXCXCXCXCXCXCXCXCXCXCXCXCXCXCXCXCXCXCXCXCXCXCXCXCXCXCXCXCXCXCXCXCXCXCXCXCXCXCXCXCXCXCXCXCXCXCXCXCXCXCXCXCXCXVXbX{ *                         O q o.K.~.~.L.L.L.L.L.L.L.L.L.L.L.L.L.L.L.L.L.L.L.L.L.L.L.L.L.L.L.L.L.L.L.L.L.L.L.L.L.L.L.L.L.L.L.L.L.L.L.L.L.L.L.L.L.L.L.L.L.L.L.L.L.L.L.L.L.L.L.L.L.E.W.uXaXfXfXfXfXfXsXsXsXsXfXfXfXuXeXE.L.L.L.L.L.L.L.L.L.L.L.L.L.L.L.L.L.L.L.L.L.L.L.L.L.L.L.L.L.L.L.L.L.L.L.L.L.L.L.L.L.L.L.L.2.+.B b b b b b b b b b m m m m N N b w = X                         * { bXVXCXCXCXCXCXCXCXCXCXCXCXCXCXCXCXCXCXCXCXCXCXCXCXCXCXCXCXCXCXCXCXCXCXCXCXCXCXCXCXCXCXCXCXCXCXCXCXCXCXCXCXCXCXCX",
"CXCXCXCXCXCXCXCXCXCXCXCXCXCXCXCXCXCXCXCXCXCXCXCXCXCXCXCXCXCXCXCXCXCXCXCXCXCXCXCXCXCXCXCXCXCXCXCXCXCXCXCXCXCXCXbX} *                         O q o.J.R.L.L.L.L.L.L.L.L.L.L.L.L.L.L.L.L.L.L.L.L.L.L.L.L.L.L.L.L.L.L.L.L.L.L.L.L.L.L.L.L.L.L.L.L.L.L.L.L.L.L.L.L.L.L.L.L.L.L.L.L.L.L.L.L.L.L.L.L.I.L.E.W.uXaXfXfXsXsXsXsXsXsXsXfXfXsXuXeXE.L.I.L.L.L.L.L.L.L.L.L.L.L.L.L.L.L.L.L.L.L.L.L.L.L.L.L.L.L.L.L.L.L.L.L.L.L.L.L.L.L.L.L.L.$.+.B b b b b b b b b b b b b b m m b w = X                         * } bXVXCXCXCXCXCXCXCXCXCXCXCXCXCXCXCXCXCXCXCXCXCXCXCXCXCXCXCXCXCXCXCXCXCXCXCXCXCXCXCXCXCXCXCXCXCXCXCXCXCXCXCXCXCXCX",
"CXCXCXCXCXCXCXCXCXCXCXCXCXCXCXCXCXCXCXCXCXCXCXCXCXCXCXCXCXCXCXCXCXCXCXCXCXCXCXCXCXCXCXCXCXCXCXCXCXCXCXCXCXCXCXbX} *                         X q o.J.R.L.L.L.L.L.L.L.L.L.L.L.L.L.L.L.L.L.L.L.L.L.L.L.L.L.L.L.L.L.L.L.L.L.L.L.L.L.L.L.L.L.L.L.L.L.L.L.L.L.L.L.L.L.L.L.L.L.L.L.L.L.L.L.L.L.L.L.L.Q.Q.E.W.uXaXfXfXsXsXsXsXsXsXsXfXfXsXuXeXE.L.I.L.L.L.L.L.L.L.L.L.L.L.L.L.L.L.L.L.L.L.L.L.L.L.L.L.L.L.L.L.L.L.L.L.L.L.L.L.L.L.L.L.L.$.+.B b b b b b b b b b b b b b m m b w = .                         * } nXCXCXCXCXCXCXCXCXCXCXCXCXCXCXCXCXCXCXCXCXCXCXCXCXCXCXCXCXCXCXCXCXCXCXCXCXCXCXCXCXCXCXCXCXCXCXCXCXCXCXCXCXCXCXCX",
"CXCXCXCXCXCXCXCXCXCXCXCXCXCXCXCXCXCXCXCXCXCXCXCXCXCXCXCXCXCXCXCXCXCXCXCXCXCXCXCXCXCXCXCXCXCXCXCXCXCXCXCXCXCXCXbX} *                         X q o.J.~.L.L.L.L.L.L.L.L.L.L.L.L.L.L.L.L.L.L.L.L.L.L.L.L.L.L.L.L.L.L.L.L.L.L.L.L.L.L.L.L.L.L.L.L.L.L.L.L.L.L.Q.L.Q.L.Q.L.L.L.I.I.L.I.I.I.I.I.L.Q.Q.Q.U.W.uXaXfXfXsXsXsXsXsXsXsXfXfXsXuXeXE.L.I.L.L.L.L.L.L.L.L.L.L.L.L.L.L.L.L.L.L.L.L.L.L.L.L.L.L.L.L.L.L.L.L.L.L.L.L.L.L.L.L.L.L.$.+.N b b b b b b b b b b b b b m m b q =                           * } nXCXCXCXCXCXCXCXCXCXCXCXCXCXCXCXCXCXCXCXCXCXCXCXCXCXCXCXCXCXCXCXCXCXCXCXCXCXCXCXCXCXCXCXCXCXCXCXCXCXCXCXCXCXCXCX",
"CXCXCXCXCXCXCXCXCXCXCXCXCXCXCXCXCXCXCXCXCXCXCXCXCXCXCXCXCXCXCXCXCXCXCXCXCXCXCXCXCXCXCXCXCXCXCXCXCXCXCXCXCXCXCXbX} *                         + w o.J.R.L.L.L.L.L.L.L.L.L.L.L.L.L.L.L.L.L.L.L.L.L.L.L.L.L.L.L.L.L.L.L.L.L.L.L.L.L.L.L.L.L.L.L.L.L.L.U.U.U.U.U.U.U.U.U.U.U.U.U.U.U.U.U.U.U.U.U.U.L.L.E.W.uXaXfXfXsXsXsXsXsXsXsXfXfXfXuXeXE.L.I.L.L.L.L.L.L.L.L.L.L.L.L.L.L.L.L.L.L.L.L.L.L.L.L.L.L.L.L.L.L.L.L.L.L.L.L.L.L.L.L.L.L.$.+.B b b b m m m m m b b b b b m m b w - X                         * { bXVXCXCXCXCXCXCXCXCXCXCXCXCXCXCXCXCXCXCXCXCXCXCXCXCXCXCXCXCXCXCXCXCXCXCXCXCXCXCXCXCXCXCXCXCXCXCXCXCXCXCXCXCXCXCX",
"CXCXCXCXCXCXCXCXCXCXCXCXCXCXCXCXCXCXCXCXCXCXCXCXCXCXCXCXCXCXCXCXCXCXCXCXCXCXCXCXCXCXCXCXCXCXCXCXCXCXCXCXCXCXCXbX} *             . + = : : : < b @.J.L.L.L.L.L.L.L.L.L.L.L.L.L.L.L.L.L.L.L.L.L.L.L.L.L.L.L.L.L.L.L.L.L.L.L.L.L.L.L.L.L.L.L.L.L.L.U.H.D.D.D.D.D.D.D.D.F.F.F.W.W.W.W.F.F.F.F.W.W.F.F.W.eXuXaXfXfXsXsXsXsXsXsXsXfXfXfXuXeXE.L.I.L.L.L.L.L.L.L.L.L.L.L.L.L.L.L.L.L.L.L.L.L.L.L.L.L.L.L.L.L.L.L.L.L.L.L.L.L.L.L.L.L.L.G.#.o.C C C C C C C B N b b b b m m b e < = @ @ @ + X               & ` jXbXnXnXnXmXBXCXCXCXCXCXCXCXCXCXCXCXCXCXCXCXCXCXCXCXCXCXCXCXCXCXCXCXCXCXCXCXCXCXCXCXCXCXCXCXCXCXCXCXCXCXCXCXCXCX",
"CXCXCXCXCXCXCXCXCXCXCXCXCXCXCXCXCXCXCXCXCXCXCXCXCXCXCXCXCXCXCXCXCXCXCXCXCXCXCXCXCXCXCXCXCXCXCXCXCXCXCXCXCXCXCXbX} *             O , c N N N B O.$.K.L.L.L.L.L.L.L.L.L.L.L.L.L.L.L.L.L.L.L.L.L.L.L.L.L.L.L.L.L.L.L.L.L.L.L.L.L.L.L.L.L.L.L.L.L.L.U.D.g.f.f.f.f.f.f.f.f.wXeXyXyXyXyXyXyXyXyXyXyXyXyXyXuXuXsXfXfXsXsXsXsXsXsXsXfXfXfXuXeXE.L.L.L.L.L.L.L.L.L.L.L.L.L.L.L.L.L.L.L.L.L.L.L.L.L.L.L.L.L.L.L.L.L.L.L.L.L.L.L.L.L.L.L.L.J.2.#.#.#.#.#.#.#.@.o.B b b b b b b b c w q < < < : @ .             % 6 _ { } { | lXnXVXCXCXCXCXCXCXCXCXCXCXCXCXCXCXCXCXCXCXCXCXCXCXCXCXCXCXCXCXCXCXCXCXCXCXCXCXCXCXCXCXCXCXCXCXCXCXCXCX",
"CXCXCXCXCXCXCXCXCXCXCXCXCXCXCXCXCXCXCXCXCXCXCXCXCXCXCXCXCXCXCXCXCXCXCXCXCXCXCXCXCXCXCXCXCXCXCXCXCXCXCXCXCXCXVXbX} *             @ w o.$.2.2.2.G.J.L.L.L.L.L.L.L.L.L.L.L.L.L.L.L.L.L.L.L.L.L.L.L.L.L.L.L.L.L.L.L.L.L.L.L.L.L.L.L.L.L.L.L.L.L.L.L.H.F.f.9X5X5X9X9X9X9X9XqXtXaXaXuXuXuXuXuXuXuXuXuXuXtXaXaXsXsXsXsXsXsXsXsXsXsXfXfXfXuXeXE.L.I.L.L.L.L.L.L.L.L.L.L.L.L.L.L.L.L.L.L.L.L.L.L.L.L.L.L.L.L.L.L.L.L.L.L.L.L.L.L.L.L.L.L.K.J.J.G.G.G.J.J.J.2.@.C m b b b b b b b c c c c c q ; X               % & * * * 6 } vXVXCXCXCXCXCXCXCXCXCXCXCXCXCXCXCXCXCXCXCXCXCXCXCXCXCXCXCXCXCXCXCXCXCXCXCXCXCXCXCXCXCXCXCXCXCXCXCXCX",
"CXCXCXCXCXCXCXCXCXCXCXCXCXCXCXCXCXCXCXCXCXCXCXCXCXCXCXCXCXCXCXCXCXCXCXCXCXCXCXCXCXCXCXCXCXCXCXCXCXCXCXCXCXCXVXbX} *             @ c #.L.~.~.L.L.L.L.L.L.L.L.L.L.L.L.L.L.L.L.L.L.L.L.L.L.L.L.L.L.L.L.L.L.L.L.L.L.L.L.L.L.L.L.L.L.L.L.L.L.L.L.L.L.H.g.d.5X6X6X6X6X6X6X0XrXiXfXfXfXsXsXfXsXfXgXfXfXfXfXfXfXsXsXsXsXsXsXsXsXsXsXfXfXsXuXeXE.L.L.L.L.L.L.L.L.L.L.L.L.L.L.L.L.L.L.L.L.L.L.L.L.L.L.L.L.L.L.L.L.L.L.L.L.L.L.L.L.L.L.L.L.L.L.L.L.L.L.L.L.L.J.#.C m b b b b b b b b m m N b e , O                         % ` xXBXCXCXCXCXCXCXCXCXCXCXCXCXCXCXCXCXCXCXCXCXCXCXCXCXCXCXCXCXCXCXCXCXCXCXCXCXCXCXCXCXCXCXCXCXCXCXCXCX",
"CXCXCXCXCXCXCXCXCXCXCXCXCXCXCXCXCXCXCXCXCXCXCXCXCXCXCXCXCXCXCXCXCXCXCXCXCXCXCXCXCXCXCXCXCXCXCXCXCXCXCXCXCXCXVXbX} *             @ c #.L.~.~.L.L.L.L.L.L.L.L.L.L.L.L.L.L.L.L.L.L.L.L.L.L.L.L.L.L.L.L.L.L.L.L.L.L.L.L.L.L.L.L.L.L.L.L.L.L.L.L.L.L.H.g.d.6X6X6X6X6X6X6X0XrXpXfXfXfXfXfXfXfXfXfXfXfXfXfXfXfXsXsXsXsXsXsXsXsXsXsXfXfXfXuXeXE.L.L.L.L.L.L.L.L.L.L.L.L.L.L.L.L.L.L.L.L.L.L.L.L.L.L.L.L.L.L.L.L.L.L.L.L.L.L.L.L.L.L.L.L.L.L.L.L.L.L.L.L.L.J.#.C m b b b b b b b m m N N m e , O                         % _ xXBXCXCXCXCXCXCXCXCXCXCXCXCXCXCXCXCXCXCXCXCXCXCXCXCXCXCXCXCXCXCXCXCXCXCXCXCXCXCXCXCXCXCXCXCXCXCXCXCX",
"CXCXCXCXCXCXCXCXCXCXCXCXCXCXCXCXCXCXCXCXCXCXCXCXCXCXCXCXCXCXCXCXCXCXCXCXCXCXCXCXCXCXCXCXCXCXCXCXCXCXCXCXCXCXCXbX} *             @ c @.K.~.L.L.L.L.L.L.L.L.L.L.L.L.L.L.L.L.L.L.L.L.L.L.L.L.L.L.L.L.L.L.L.L.L.L.L.L.L.L.L.L.L.L.L.L.L.L.L.L.L.L.L.H.g.d.6X6X6X6X6X6X6X0XrXiXsXfXfXfXsXsXsXsXsXfXfXfXfXsXsXsXsXsXsXsXsXsXsXsXsXfXfXfXuXeXE.L.L.L.L.L.L.L.L.L.L.L.L.L.L.L.L.L.L.L.L.L.L.L.L.L.L.L.L.L.L.L.L.L.L.L.L.L.L.L.L.L.L.L.L.L.L.L.L.L.L.L.L.L.G.#.C m b b b b b b b b b m m b e : O                         & ` xXBXCXCXCXCXCXCXCXCXCXCXCXCXCXCXCXCXCXCXCXCXCXCXCXCXCXCXCXCXCXCXCXCXCXCXCXCXCXCXCXCXCXCXCXCXCXCXCXCX",
"CXCXCXCXCXCXCXCXCXCXCXCXCXCXCXCXCXCXCXCXCXCXCXCXCXCXCXCXCXCXCXCXCXCXCXCXCXCXCXCXCXCXCXCXCXCXCXCXCXCXCXCXCXCXCXnX} *             @ c @.K.~.L.L.L.L.L.L.L.L.L.L.L.L.L.L.L.L.L.L.L.L.L.L.L.L.L.L.L.L.L.L.L.L.L.L.L.L.L.L.L.L.L.L.L.L.L.L.L.L.L.Q.Q.H.g.d.5X6X6X6X6X5X6X0XrXiXsXsXfXsXsXsXsXsXfXfXfXsXsXsXsXsXsXsXsXsXsXsXsXsXsXfXfXfXuXeXE.L.L.L.L.L.L.L.L.L.L.L.L.L.L.L.L.L.L.L.L.L.L.L.L.L.L.L.L.L.L.L.L.L.L.L.L.L.L.L.L.L.L.L.L.L.L.L.L.L.L.L.L.L.G.#.C b b b b b b b b b b m m b e : X                         & ` xXBXCXCXCXCXCXCXCXCXCXCXCXCXCXCXCXCXCXCXCXCXCXCXCXCXCXCXCXCXCXCXCXCXCXCXCXCXCXCXCXCXCXCXCXCXCXCXCXCX",
"CXCXCXCXCXCXCXCXCXCXCXCXCXCXCXCXCXCXCXCXCXCXCXCXCXCXCXCXCXCXCXCXCXCXCXCXCXCXCXCXCXCXCXCXCXCXCXCXCXCXCXCXCXCXCXnX} 6             @ c @.K.~.L.L.L.L.L.L.L.L.L.L.L.L.L.L.L.L.L.L.L.L.L.L.L.L.L.L.L.L.L.L.L.L.L.L.L.L.L.L.L.L.L.L.L.L.L.L.L.Q.Q.Q.Q.U.F.f.5X6X6X6X6X5X6X0XrXpXgXgXsXgXgXsXsXsXgXgXgXsXsXsXsXsXsXsXsXsXsXsXsXsXsXfXfXfXuXeXE.L.Q.Q.L.L.L.L.L.L.L.L.L.L.L.L.L.L.L.L.L.L.L.L.L.L.L.L.L.L.L.L.L.L.L.L.L.L.L.L.L.L.L.L.L.L.L.L.L.L.L.L.L.L.G.#.C b b b b b b b b b b m m b e : X                         & ` xXBXCXCXCXCXCXCXCXCXCXCXCXCXCXCXCXCXCXCXCXCXCXCXCXCXCXCXCXCXCXCXCXCXCXCXCXCXCXCXCXCXCXCXCXCXCXCXCXCX",
"CXCXCXCXCXCXCXCXCXCXCXCXCXCXCXCXCXCXCXCXCXCXCXCXCXCXCXCXCXCXCXCXCXCXCXCXCXCXCXCXCXCXCXCXCXCXCXCXCXCXCXCXCXCXCXnX} *             @ c @.K.L.L.L.L.L.L.L.L.L.L.L.L.L.L.L.L.L.L.L.L.L.L.L.L.L.L.L.L.L.L.L.L.L.L.L.L.L.L.L.L.L.L.L.L.L.L.L.L.L.L.Q.Q.H.g.d.5X6X6X6X6X5X7X0XrXiXsXgXsXsXsXsXsXsXsXsXsXsXsXsXsXsXsXsXsXsXsXsXsXsXsXfXfXsXuXeXE.L.I.L.L.L.L.L.L.L.L.L.L.L.L.L.L.L.L.L.L.L.L.L.L.L.L.L.L.L.L.L.L.L.L.L.L.L.L.L.L.L.L.L.L.L.L.L.L.L.L.L.L.L.G.#.C m b b b b b b b b b m m b e : X                         & ` xXBXCXCXCXCXCXCXCXCXCXCXCXCXCXCXCXCXCXCXCXCXCXCXCXCXCXCXCXCXCXCXCXCXCXCXCXCXCXCXCXCXCXCXCXCXCXCXCXCX",
"CXCXCXCXCXCXCXCXCXCXCXCXCXCXCXCXCXCXCXCXCXCXCXCXCXCXCXCXCXCXCXCXCXCXCXCXCXCXCXCXCXCXCXCXCXCXCXCXCXVXNXMXMXNXmXzX' *             @ c @.K.L.L.L.L.L.L.L.L.L.L.L.L.L.L.L.L.L.L.L.L.L.L.L.L.L.L.L.L.L.L.L.L.L.L.L.L.L.L.L.L.L.L.L.U.H.H.Y.Y.Y.Y.H.Y.D.g.d.5X6X6X6X6X6X6X0XqXtXiXiXiXiXiXiXiXiXiXiXiXiXiXpXpXsXsXsXsXsXsXsXsXsXsXfXfXsXuXeXF.Y.H.Y.Y.H.U.L.L.L.L.L.L.L.L.L.L.L.L.L.L.L.L.L.L.L.L.L.L.L.L.L.L.L.L.L.L.L.L.L.L.L.L.L.L.L.L.L.L.L.L.L.L.L.J.#.o.B B B B B B B N N b b m b e < @ X X X O O O X .         & ` xXBXCXCXCXCXCXCXCXCXCXCXCXCXCXCXCXCXCXCXCXCXCXCXCXCXCXCXCXCXCXCXCXCXCXCXCXCXCXCXCXCXCXCXCXCXCXCXCXCX",
"CXCXCXCXCXCXCXCXCXCXCXCXCXCXCXCXCXCXCXCXCXCXCXCXCXCXCXCXCXCXCXCXCXCXCXCXCXCXCXCXCXCXCXCXCXCXCXCXVXMXvXjXjXjXhX} 8 &             @ c @.K.~.L.L.L.L.L.L.L.L.L.L.L.L.L.L.L.L.L.L.L.L.L.L.L.L.L.L.L.L.L.L.L.L.L.L.L.L.L.L.L.L.L.L.H.D.g.g.g.g.g.g.g.g.f.d.5X6X6X6X6X6X6X8X0XqXqXrXqXqXqXqXqXqXqXqXqXqXrXtXiXsXsXsXsXsXsXsXsXsXsXfXfXsXtXwXf.g.g.g.g.D.H.U.L.L.L.L.L.L.L.L.L.L.L.L.L.L.L.L.L.L.L.L.L.L.L.L.L.L.L.L.L.L.L.L.L.L.L.L.L.L.L.L.L.L.L.L.L.L.J.2.#.+.+.+.+.+.+.+.o.B m b b b c w < : : : : , , ; @ X       & ` xXBXCXCXCXCXCXCXCXCXCXCXCXCXCXCXCXCXCXCXCXCXCXCXCXCXCXCXCXCXCXCXCXCXCXCXCXCXCXCXCXCXCXCXCXCXCXCXCXCX",
"CXCXCXCXCXCXCXCXCXCXCXCXCXCXCXCXCXCXCXCXCXCXCXCXCXCXCXCXCXCXCXCXCXCXCXCXCXCXCXCXCXCXCXCXCXCXCXCXVXbX| ) 8 8 8 6 &               @ c @.K.~.L.L.L.L.L.L.L.L.L.L.L.L.L.L.L.L.L.L.L.L.L.L.L.L.L.L.L.L.L.L.L.L.L.L.L.L.L.L.L.L.L.L.Y.g.f.d.d.d.d.d.d.d.9X5X6X6X6X6X6X6X6X7X7X8X0X0X0X0X0X0X0X0X0X0X8X8X0XqXtXpXsXsXsXsXsXsXsXsXsXsXgXsXtXqX9Xd.d.d.f.g.D.U.L.L.L.L.L.L.L.L.L.L.L.L.L.L.L.L.L.L.L.L.L.L.L.L.L.L.L.L.L.L.L.L.L.L.L.L.L.L.L.L.L.L.L.L.L.L.K.J.G.2.2.2.2.2.G.$.@.C N b b b b c e e e e e e e q : +       & ` xXBXCXCXCXCXCXCXCXCXCXCXCXCXCXCXCXCXCXCXCXCXCXCXCXCXCXCXCXCXCXCXCXCXCXCXCXCXCXCXCXCXCXCXCXCXCXCXCXCX",
"CXCXCXCXCXCXCXCXCXCXCXCXCXCXCXCXCXCXCXCXCXCXCXCXCXCXCXCXCXCXCXCXCXCXCXCXCXCXCXCXCXCXCXCXCXCXCXCXBXxX` &                         @ c @.K.~.L.L.L.L.L.L.L.L.L.L.L.L.L.L.L.L.L.L.L.L.L.L.L.L.L.L.L.L.L.L.L.L.L.L.L.L.L.L.L.L.L.L.D.g.d.6X6X6X6X6X6X6X6X6X6X6X6X6X6X6X6X6X6X6X6X6X6X6X6X6X6X6X6X6X6X6X7XqXtXpXsXsXsXsXsXsXsXsXsXsXsXsXiXqX8X6X6X6X9Xf.D.U.L.L.L.L.L.L.L.L.L.L.L.L.L.L.L.L.L.L.L.L.L.L.L.L.L.L.L.L.L.L.L.L.L.L.L.L.L.L.L.L.L.L.L.L.L.L.L.L.L.L.L.L.L.L.L.J.$.o.N b b b b b b b b b b m b c < @       & ` xXBXCXCXCXCXCXCXCXCXCXCXCXCXCXCXCXCXCXCXCXCXCXCXCXCXCXCXCXCXCXCXCXCXCXCXCXCXCXCXCXCXCXCXCXCXCXCXCXCX",
"CXCXCXCXCXCXCXCXCXCXCXCXCXCXCXCXCXCXCXCXCXCXCXCXCXCXCXCXCXCXCXCXCXCXCXCXCXCXCXCXCXCXCXCXCXCXCXCXVXxX` %                         + e @.K.~.L.L.L.L.L.L.L.L.L.L.L.L.L.L.L.L.L.L.L.L.L.L.L.L.L.L.L.L.L.L.L.L.L.L.L.L.L.L.L.L.L.L.D.g.d.6X6X6X6X6X6X6X6X6X5X5X5X5X5X5X5X5X5X5X5X5X5X5X5X5X5X5X5X5X5X5X6X0XtXpXgXgXsXsXsXsXsXgXgXgXgXgXiXqX0X6X6X6X5Xf.D.U.Q.L.L.L.L.L.L.L.L.L.L.L.L.L.L.L.L.L.L.L.L.L.L.L.L.L.L.L.L.L.L.L.L.L.L.L.L.L.L.L.L.L.L.L.L.L.L.L.L.L.L.L.L.L.R.L.$.o.N b b b b m m m m m m N N c < @       & ` vXVXCXCXCXCXCXCXCXCXCXCXCXCXCXCXCXCXCXCXCXCXCXCXCXCXCXCXCXCXCXCXCXCXCXCXCXCXCXCXCXCXCXCXCXCXCXCXCXCX",
"CXCXCXCXCXCXCXCXCXCXCXCXCXCXCXCXCXCXCXCXCXCXCXCXCXCXCXCXCXCXCXCXCXCXCXCXCXCXCXCXCXCXCXCXCXCXCXCXVXxX` %                         @ e @.K.~.L.L.L.L.L.L.L.L.L.L.L.L.L.L.L.L.L.L.L.L.L.L.L.L.L.L.L.L.L.L.L.L.L.L.L.L.L.L.L.L.L.L.D.g.d.6X6X6X6X6X6X6X6X6X6X5X5X5X5X5X5X5X5X5X5X5X5X5X5X5X5X5X5X5X5X5X7X0XtXpXgXgXsXsXsXsXsXgXgXgXgXsXiXqX8X6X6X6X5Xf.D.U.Q.L.L.L.L.L.L.L.L.L.L.L.L.L.L.L.L.L.L.L.L.L.L.L.L.L.L.L.L.L.L.L.L.L.L.L.L.L.L.L.L.L.L.L.L.L.L.L.L.L.L.L.L.L.L.K.$.o.N b b b b b b m m m m N m c < @       & ` xXVXCXCXCXCXCXCXCXCXCXCXCXCXCXCXCXCXCXCXCXCXCXCXCXCXCXCXCXCXCXCXCXCXCXCXCXCXCXCXCXCXCXCXCXCXCXCXCXCX",
"CXCXCXCXCXCXCXCXCXCXCXCXCXCXCXCXCXCXCXCXCXCXCXCXCXCXCXCXCXCXCXCXCXCXCXCXCXCXCXCXVXBXBXNXBXBXBXBXMXlX_ &         X X O O O O X O : c #.K.R.L.L.L.L.L.L.L.L.L.L.L.L.L.L.L.L.L.L.L.L.L.L.L.L.L.L.L.L.L.L.L.L.L.L.L.L.L.L.L.L.L.L.D.g.d.6X6X6X6X6X6X6X6X7X7X7X7X7X7X7X7X7X7X7X7X7X7X7X7X7X7X7X7X7X7X7X8XqXrXiXpXpXpXpXpXpXpXpXpXpXpXpXtXqX8X6X6X6X9Xf.D.G.I.J.J.J.J.J.J.K.L.L.L.L.L.L.L.L.L.L.L.L.L.L.L.L.L.L.L.L.L.L.L.L.L.L.L.L.L.L.L.L.L.L.L.L.L.L.L.L.L.L.L.L.L.L.L.K.$.o.N b b b b b b b b b b m m c < @       & _ lXMXBXBXBXBXNXBXBXVXCXCXCXCXCXCXCXCXCXCXCXCXCXCXCXCXCXCXCXCXCXCXCXCXCXCXCXCXCXCXCXCXCXCXCXCXCXCXCXCX",
"CXCXCXCXCXCXCXCXCXCXCXCXCXCXCXCXCXCXCXCXCXCXCXCXCXCXCXCXCXCXCXCXCXCXCXCXCXCXCXVXmXvXzXlXlXzXzXzXjX} 8 %       O ; < q w q q q q c C $.K.L.L.L.L.L.L.L.L.L.L.L.L.L.L.L.L.L.L.L.L.L.L.L.L.L.L.L.L.L.L.L.L.L.L.L.L.L.L.L.L.L.L.L.D.g.d.6X6X6X6X6X6X6X8X0X0XqXqXqXqXqXqX0X0X0X0XqXqXqXqXqXqXqXqX0X0X0XqXqXrXrXrXrXrXrXrXrXrXrXrXrXrXrXqX0X7X6X6X6X5Xf.] #.#.#.#.#.#.#.$.G.K.L.L.L.L.L.L.L.L.L.L.L.L.L.L.L.L.L.L.L.L.L.L.L.L.L.L.L.L.L.L.L.L.L.L.L.L.L.L.L.L.L.L.L.L.L.L.K.$.o.N b b b b b b b b b b m m c < @       % 8 } jXzXzXzXlXlXzXvXmXVXCXCXCXCXCXCXCXCXCXCXCXCXCXCXCXCXCXCXCXCXCXCXCXCXCXCXCXCXCXCXCXCXCXCXCXCXCXCXCX",
"CXCXCXCXCXCXCXCXCXCXCXCXCXCXCXCXCXCXCXCXCXCXCXCXCXCXCXCXCXCXCXCXCXCXCXCXCXCXCXNXxX| _ ) ) _ _ _ ) 8 *         = w B o.O.o.o.o.o.+.#.G.L.L.L.L.L.L.L.L.L.L.L.L.L.L.L.L.L.L.L.L.L.L.L.L.L.L.L.L.L.L.L.L.L.L.L.L.L.L.L.L.L.L.L.L.D.g.d.6X6X6X6X6X6X7X0XqXrXtXtXtXtXtXtXtXtXtXtXtXtXtXtXtXtXtXtXrXtXtXrXqXqX0X0X0X0X0X0X0X0X0X0X0X0X0X0X8X7X6X6X6Xs./ [ S o.C C C C o.+.$.J.L.L.L.L.L.L.L.L.L.L.L.L.L.L.L.L.L.L.L.L.L.L.L.L.L.L.L.L.L.L.L.L.L.L.L.L.L.L.L.L.L.L.L.L.L.L.K.$.o.N b b b b b b b b b b m m c < @         * 8 ) _ _ _ ) ) _ | xXNXCXCXCXCXCXCXCXCXCXCXCXCXCXCXCXCXCXCXCXCXCXCXCXCXCXCXCXCXCXCXCXCXCXCXCXCXCXCXCX",
"CXCXCXCXCXCXCXCXCXCXCXCXCXCXCXCXCXCXCXCXCXCXCXCXCXCXCXCXCXCXCXCXCXCXCXCXCXCXCXMXjX) &   % % % % % %           : m #.K.K.J.J.J.J.J.J.K.L.L.L.L.L.L.L.L.L.L.L.L.L.L.L.L.L.L.L.L.L.L.L.L.L.L.L.L.L.L.L.L.L.L.L.L.L.L.L.L.L.L.L.L.D.g.d.6X6X6X6X6X6X7X0XrXpXsXpXpXpXpXpXpXpXpXpXpXpXpXpXpXpXpXpXpXpXfXiXrX0X7X6X6X7X7X7X7X7X7X7X7X7X7X6X6X6X6X6X6Xs./ _ N m m m m b N o.#.J.L.L.L.L.L.L.L.L.L.L.L.L.L.L.L.L.L.L.L.L.L.L.L.L.L.L.L.L.L.L.L.L.L.L.L.L.L.L.L.L.L.L.L.L.L.L.K.$.o.N b b b b b b b b b b m m c < @           % % % % % %   & ) jXMXCXCXCXCXCXCXCXCXCXCXCXCXCXCXCXCXCXCXCXCXCXCXCXCXCXCXCXCXCXCXCXCXCXCXCXCXCXCXCX",
"CXCXCXCXCXCXCXCXCXCXCXCXCXCXCXCXCXCXCXCXCXCXCXCXCXCXCXCXCXCXCXCXCXCXCXCXCXCXCXMXhX8                           , B 2.~.~.~.R.~.~.L.L.L.L.L.L.L.L.L.L.L.L.L.L.L.L.L.L.L.L.L.L.L.L.L.L.L.L.L.L.L.L.L.L.L.L.L.L.L.L.L.L.L.L.L.L.L.D.g.d.6X6X6X6X5X6X7XqXtXaXgXgXsXsXsXsXsXsXgXgXgXgXsXsXsXgXsXsXsXgXgXpXrX0X6X5X5X5X5X5X5X5X5X5X5X5X5X5X6X6X6X6X6Xs./ v m b b b b b m C #.J.L.L.L.L.L.L.L.L.L.L.L.L.L.L.L.L.L.L.L.L.L.L.L.L.L.L.L.L.L.L.L.L.L.L.L.L.L.L.L.L.L.L.L.L.L.L.K.$.o.N b b b b b b b b b b m m c < @                           8 hXMXCXCXCXCXCXCXCXCXCXCXCXCXCXCXCXCXCXCXCXCXCXCXCXCXCXCXCXCXCXCXCXCXCXCXCXCXCXCXCX",
"CXCXCXCXCXCXCXCXCXCXCXCXCXCXCXCXCXCXCXCXCXCXCXCXCXCXCXCXCXCXCXCXCXCXCXCXCXCXCXMXjX8                           , B 2.~.~.L.L.L.L.L.L.L.L.L.L.L.L.L.L.L.L.L.L.L.L.L.L.L.L.L.L.L.L.L.L.L.L.L.L.L.L.L.L.L.L.L.L.L.L.L.L.L.L.L.Q.L.D.g.d.6X6X6X6X5X5X7XqXtXpXgXgXsXsXsXsXsXsXsXsXsXsXsXsXsXsXsXsXsXgXgXpXrX0X6X5X5X5X5X5X5X5X5X5X5X5X6X6X6X6X6X6X6Xs./ v m b b b b b m C #.J.L.L.L.L.L.L.L.L.L.L.L.L.L.L.L.L.L.L.L.L.L.L.L.L.L.L.L.L.L.L.L.L.L.L.L.L.L.L.L.L.L.L.L.L.L.L.K.$.o.N b b b b b b b b b b m m c < @                           8 jXMXCXCXCXCXCXCXCXCXCXCXCXCXCXCXCXCXCXCXCXCXCXCXCXCXCXCXCXCXCXCXCXCXCXCXCXCXCXCXCX",
"CXCXCXCXCXCXCXCXCXCXCXCXCXCXCXCXCXCXCXCXCXCXCXCXCXCXCXCXCXCXCXCXCXCXCXCXCXCXCXMXjX8                           , N $.L.R.L.L.L.L.L.L.L.L.L.L.L.L.L.L.L.L.L.L.L.L.L.L.L.L.L.L.L.L.L.L.L.L.L.L.L.L.L.L.L.L.L.L.L.L.L.L.L.L.L.Q.L.D.g.d.6X6X6X6X5X5X7XqXtXpXgXsXsXsXsXsXsXsXfXfXsXfXsXsXsXsXsXfXfXsXsXpXrX0X7X5X5X6X6X6X6X6X6X6X6X6X6X6X6X6X6X6X6Xs./ v b m b b b b m S #.J.L.L.L.L.L.L.L.L.L.L.L.L.L.L.L.L.L.L.L.L.L.L.L.L.L.L.L.L.L.L.L.L.L.L.L.L.L.L.L.L.L.L.L.L.L.L.K.$.o.N b b b b b b b b b b m m c < @                           8 jXMXCXCXCXCXCXCXCXCXCXCXCXCXCXCXCXCXCXCXCXCXCXCXCXCXCXCXCXCXCXCXCXCXCXCXCXCXCXCXCX",
"CXCXCXCXCXCXCXCXCXCXCXCXCXCXCXCXCXCXCXCXCXCXCXCXCXCXCXCXCXCXCXCXCXCXCXCXCXCXCXMXjX8                           : N $.L.R.L.L.L.L.L.L.L.L.L.L.L.L.L.L.L.L.L.L.L.L.L.L.L.L.U.L.U.U.L.L.L.L.L.L.L.L.L.L.L.L.L.L.L.L.L.L.L.L.L.Q.L.D.g.d.6X6X6X6X6X6X8X0XrXpXgXsXsXsXsXsXsXsXsXsXsXsXsXsXsXsXsXsXsXgXgXpXrX0X7X5X5X6X6X6X6X6X6X6X6X6X6X6X6X6X6X7X6Xs.( _ m m m b b b m S #.J.L.L.L.L.L.L.L.L.L.L.L.L.L.L.L.L.L.L.L.L.L.L.L.L.L.L.L.L.L.L.L.L.L.L.L.L.L.L.L.L.L.L.L.L.L.L.K.$.o.N b b b b b b b b b b m m c < @                           8 jXMXCXCXCXCXCXCXCXCXCXCXCXCXCXCXCXCXCXCXCXCXCXCXCXCXCXCXCXCXCXCXCXCXCXCXCXCXCXCXCX",
"CXCXCXCXCXCXCXCXCXCXCXCXCXCXCXCXCXCXCXCXCXCXCXCXCXCXCXCXCXCXCXCXCXCXCXCXCXCXCXMXjX8                           : N $.L.R.L.L.L.L.L.L.L.L.L.L.L.L.U.U.U.U.U.U.U.U.U.U.U.U.U.U.U.U.U.U.U.U.U.U.U.U.U.L.L.L.L.L.L.L.L.L.L.L.L.Q.L.D.g.d.6X6X6X6X6X6X8X0XrXpXgXgXsXsXsXsXsXsXsXsXsXsXsXsXsXsXgXgXgXgXgXpXrX0X7X5X5X6X6X6X6X6X6X6X6X6X6X6X6X6X6X8X7X5X( _ m m b b b b m S #.J.L.L.L.L.L.L.L.L.L.L.L.L.L.L.L.L.L.L.L.L.L.L.L.L.L.L.L.L.L.L.L.L.L.L.L.L.L.L.L.L.L.L.L.L.L.L.K.$.o.N b b b b b b b b b b m m c < @                           8 jXMXCXCXCXCXCXCXCXCXCXCXCXCXCXCXCXCXCXCXCXCXCXCXCXCXCXCXCXCXCXCXCXCXCXCXCXCXCXCXCX",
"CXCXCXCXCXCXCXCXCXCXCXCXCXCXCXCXCXCXCXCXCXCXCXCXCXCXCXCXCXCXCXCXCXCXCXCXCXCXCXMXjX8                           : N $.L.R.L.L.L.L.L.L.L.L.L.L.L.L.L.L.L.L.L.L.L.L.L.L.L.L.L.L.L.L.L.L.L.L.L.L.L.L.L.L.L.L.L.L.L.L.L.L.L.L.L.L.L.D.g.d.5X6X6X5X5X5X7XqXtXpXsXsXsXsXsXsXsXsXsXsXsXsXsXsXpXpXaXpXpXsXsXiXrX0X7X5X5X6X6X6X6X6X6X6X6X6X6X6X5X5X5X6X6Xs./ v m m b b b b m S #.J.L.L.L.L.L.L.L.L.L.L.L.L.L.L.L.L.L.L.L.L.L.L.K.K.K.K.K.K.K.K.L.L.L.L.L.L.L.L.L.L.L.L.L.L.L.L.K.$.o.N b b b b b b b b b b m m c < @                           8 jXMXCXCXCXCXCXCXCXCXCXCXCXCXCXCXCXCXCXCXCXCXCXCXCXCXCXCXCXCXCXCXCXCXCXCXCXCXCXCXCX",
"CXCXCXCXCXCXCXCXCXCXCXCXCXCXCXCXCXCXCXCXCXCXCXCXCXCXCXCXCXCXCXCXCXCXCXCXCXCXCXMXjX8                           : N $.L.R.L.L.L.L.L.L.L.L.L.L.L.T.!.n.n.n.n.n.n.n.n.n.n.n.n.n.n.n.n.n.n.n.n.n.n.n.!.T.L.L.L.L.L.L.L.L.L.L.L.L.L.Y.g.f.d.d.d.d.d.d.9X9XtXaXgXsXsXsXsXsXsXsXsXsXsXsXpXiXtXtXtXtXtXtXtXrXqX0X6X5X6X6X6X6X6X6X6X6X6X6X6X5Xs.d.( ( ( ( / v b m b b b b m S #.J.L.L.L.L.L.L.L.L.L.L.L.L.L.L.L.L.L.L.L.L.L.K.Y.Y.D.D.D.D.D.Y.K.L.L.L.L.L.L.L.L.L.L.L.L.L.L.L.K.$.o.N b b b b b b b b b b m m c q : @ @ @ @ O .               8 jXMXCXCXCXCXCXCXCXCXCXCXCXCXCXCXCXCXCXCXCXCXCXCXCXCXCXCXCXCXCXCXCXCXCXCXCXCXCXCXCX",
"CXCXCXCXCXCXCXCXCXCXCXCXCXCXCXCXCXCXCXCXCXCXCXCXCXCXCXCXCXCXCXCXCXCXCXCXCXCXCXMXjX8                           : N $.L.R.L.L.L.L.L.L.L.L.L.L.T.n.n.Z.Z.Z.Z.Z.Z.Z.Z.Z.Z.Z.Z.Z.Z.Z.Z.Z.Z.Z.Z.Z.Z.Z.n.!.L.L.L.L.L.L.L.L.L.L.L.L.L.H.D.F.g.g.g.g.g.g.g.wXuXaXfXfXsXsXsXsXsXsXsXsXsXsXiXtXqXqXqXqXqXqXqXqX0X7X6X6X6X6X6X6X6X6X6X6X6X6X6X5X( / / / / [ v v b b b b b b m S #.J.L.L.L.L.L.L.L.L.L.L.L.L.L.L.L.L.L.L.L.L.L.K.D.u.p.i.i.p.y.D.Y.L.L.L.L.L.L.L.L.L.L.L.L.L.L.L.K.$.o.N b b b b b b b b b b m b b e q < < < < ; +               8 jXMXCXCXCXCXCXCXCXCXCXCXCXCXCXCXCXCXCXCXCXCXCXCXCXCXCXCXCXCXCXCXCXCXCXCXCXCXCXCXCX",
"CXCXCXCXCXCXCXCXCXCXCXCXCXCXCXCXCXCXCXCXCXCXCXCXCXCXCXCXCXCXCXCXCXCXCXCXCXCXCXMXjX8                           : N $.L.R.L.L.L.L.L.L.L.L.L.L.T.n.Z.M.S.S.S.M.S.S.S.S.S.S.M.S.S.S.M.M.S.M.S.S.S.M.Z.n.L.U.L.L.L.L.L.L.L.L.L.L.L.U.U.H.H.H.H.H.H.H.F.g.uXaXfXfXsXsXsXsXsXsXsXsXsXsXiXrX0X7X7X7X7X7X7X7X7X6X6X6X6X6X6X6X6X6X6X6X6X6X6Xs./ _ v b v v b m b b b b b b m S #.J.L.L.L.L.L.L.L.L.L.L.L.L.L.L.L.L.L.L.L.L.L.K.D.p.r.w.w.e.i.y.Y.L.L.L.L.L.L.L.L.L.L.L.L.L.L.L.K.$.o.N b b b b b b b b b b b b b b c c c c e < @               8 jXMXCXCXCXCXCXCXCXCXCXCXCXCXCXCXCXCXCXCXCXCXCXCXCXCXCXCXCXCXCXCXCXCXCXCXCXCXCXCXCX",
"CXCXCXCXCXCXCXCXCXCXCXCXCXCXCXCXCXCXCXCXCXCXCXCXCXCXCXCXCXCXCXCXCXCXCXCXCXCXCXMXjX8                           : N $.L.~.L.L.L.L.L.L.L.L.U.U.T.n.A.B.C.C.V.V.V.V.V.V.V.V.V.V.V.V.V.V.V.V.V.C.C.S.Z.n.T.U.U.L.L.L.L.L.L.L.L.L.L.L.L.L.L.L.L.L.Q.Q.E.W.uXaXfXfXsXsXsXsXsXsXsXsXsXsXiXqX8X5X5X5X5X5X5X5X6X6X6X6X6X6X6X6X6X6X6X6X6X6X6Xs./ v m m m b b b b b b b b b m C #.J.L.L.L.L.L.L.L.L.L.L.L.L.L.L.L.L.L.L.L.L.Q.K.D.i.w.0.0.w.r.y.Y.L.L.L.L.L.L.L.L.L.L.L.L.L.L.L.K.$.o.N b b b b b b b b b b b b b b b m N N b q = .             8 jXMXCXCXCXCXCXCXCXCXCXCXCXCXCXCXCXCXCXCXCXCXCXCXCXCXCXCXCXCXCXCXCXCXCXCXCXCXCXCXCX",
"CXCXCXCXCXCXCXCXCXCXCXCXCXCXCXCXCXCXCXCXCXCXCXCXCXCXCXCXCXCXCXCXCXCXCXCXCXCXCXNXjX8                           : N $.L.~.L.L.L.L.L.L.L.L.U.U.T.n.A.B.C.C.V.V.V.V.C.C.C.C.C.C.C.C.V.V.V.V.C.C.C.S.A.n.T.U.U.L.L.L.L.L.L.L.L.L.L.L.L.L.L.L.Q.Q.Q.Q.E.W.uXaXfXfXsXsXsXsXsXsXsXsXgXsXiXqX7X5X5X5X5X5X5X5X5X6X6X6X6X6X6X6X6X6X6X6X6X6X6X( / v m m m m b b b b b b b b b C #.J.L.L.L.L.L.L.L.L.L.L.L.L.L.L.L.Q.L.L.L.Q.Q.K.D.i.w.0.0.w.r.y.Y.L.L.L.L.L.L.L.L.L.L.L.L.L.L.L.K.$.o.N b b b b b b b b b b b b b b m m N N b q = .             8 jXNXCXCXCXCXCXCXCXCXCXCXCXCXCXCXCXCXCXCXCXCXCXCXCXCXCXCXCXCXCXCXCXCXCXCXCXCXCXCXCX",
"CXCXCXCXCXCXCXCXCXCXCXCXCXCXCXCXCXCXCXCXCXCXCXCXCXCXCXCXCXCXCXCXCXCXCXCXCXCXCXMXjX8                           , N $.L.R.L.L.L.L.L.L.L.L.U.U.T.n.A.B.C.C.B.B.B.B.B.B.B.B.B.B.B.B.B.B.B.B.B.C.C.S.Z.n.T.U.U.L.L.L.L.L.L.L.L.L.L.L.L.L.L.L.L.L.Q.L.E.W.uXaXfXfXsXsXsXsXsXsXsXsXsXsXiXqX8X6X5X6X6X6X6X6X6X6X6X6X6X6X6X6X6X6X6X6X6X6X5X( / v b m b b b b m b b b b b m S #.J.L.L.L.L.L.L.L.L.L.L.L.L.L.L.L.L.L.L.L.L.L.K.D.i.w.0.0.w.r.y.Y.L.Q.L.L.L.L.L.L.L.L.L.L.L.L.L.K.$.o.N b b b b b b b b b b b b b b b b m m b q = .             8 jXMXCXCXCXCXCXCXCXCXCXCXCXCXCXCXCXCXCXCXCXCXCXCXCXCXCXCXCXCXCXCXCXCXCXCXCXCXCXCXCX",
"CXCXCXCXCXCXCXCXCXCXCXCXCXCXCXCXCXCXCXCXCXCXCXCXCXCXCXCXCXCXVXNXmXmXmXmXmXMXmXvX| 6               X + = = @ = w C 2.L.L.L.L.L.L.L.L.L.L.U.U.T.n.A.B.C.V.B.B.B.B.B.B.B.B.B.B.B.B.B.B.B.B.B.C.V.S.Z.n.T.U.U.L.L.L.L.L.L.L.L.L.L.L.L.L.L.L.L.L.L.L.E.W.uXaXfXfXsXsXsXsXsXsXsXsXsXsXiXrX0X8X8X8X8X8X8X8X7X7X6X6X6X6X6X6X6X6X6X6X6X6X6Xs./ v b m b m N B B B B B B B C O.$.J.L.L.L.L.L.L.L.L.L.L.L.L.K.Y.Y.D.D.D.D.D.D.D.y.i.w.0.0.w.r.y.Y.L.Q.L.L.L.L.L.L.L.L.L.L.L.L.L.K.$.+.C B B B B B B B B B B B B B N m b m m c q =               6 | vXmXMXmXmXmXmXmXNXVXCXCXCXCXCXCXCXCXCXCXCXCXCXCXCXCXCXCXCXCXCXCXCXCXCXCXCXCXCXCX",
"CXCXCXCXCXCXCXCXCXCXCXCXCXCXCXCXCXCXCXCXCXCXCXCXCXCXCXCXCXCXMXvXjX| | hXhXhXhX} ) *               @ < c c c b B @.G.L.L.L.L.L.L.L.L.L.L.U.U.T.n.A.B.C.V.B.B.B.B.B.B.B.B.B.B.B.B.B.B.B.B.B.C.V.S.Z.n.T.U.L.L.L.L.L.L.L.L.L.L.L.L.L.L.L.L.L.L.L.L.E.W.uXaXfXfXsXsXsXsXsXsXsXsXsXsXpXtXrXqXqXqXqXqXqXqX0X8X6X6X6X6X6X6X6X6X6X6X6X6X6Xs./ v b m m N C o.+.@.@.@.+.+.@.#.2.K.L.L.L.L.L.L.L.L.L.L.L.L.K.D.u.y.p.p.p.p.y.p.i.r.w.0.0.w.r.y.Y.L.L.L.L.L.L.L.L.L.L.L.L.L.L.L.K.G.$.@.@.+.+.+.+.+.@.@.@.@.@.@.+.C B m b m c q = .             * ) } hXhXhXhX| | jXvXMXCXCXCXCXCXCXCXCXCXCXCXCXCXCXCXCXCXCXCXCXCXCXCXCXCXCXCXCXCXCX",
"CXCXCXCXCXCXCXCXCXCXCXCXCXCXCXCXCXCXCXCXCXCXCXCXCXCXCXCXCXCXnXhX) 6 6 6 6 8 6 6 * %             X , m +.#.#.#.$.G.K.L.L.L.L.L.L.L.L.L.L.U.U.T.n.A.S.C.V.B.B.B.B.B.B.B.B.B.B.B.B.B.B.B.B.B.C.C.S.Z.n.T.U.U.L.L.L.L.L.L.L.L.L.L.L.L.L.L.L.L.L.L.L.E.W.uXaXfXfXsXsXsXsXsXsXsXsXsXsXpXpXiXiXiXiXiXiXiXtXqX0X7X5X6X6X6X6X6X6X6X6X6X6X6Xs./ v b b b N o.#.$.G.G.G.G.G.G.G.J.L.L.L.L.L.L.L.L.L.L.L.L.L.Y.D.i.r.e.e.r.r.r.e.e.w.w.w.0.w.r.y.Y.L.L.L.L.L.L.L.L.L.L.L.L.L.L.L.L.K.J.G.2.2.G.G.G.2.G.G.G.G.G.G.$.+.B m b m b q = .             % * 6 6 8 6 6 6 6 ) hXnXCXCXCXCXCXCXCXCXCXCXCXCXCXCXCXCXCXCXCXCXCXCXCXCXCXCXCXCXCXCX",
"CXCXCXCXCXCXCXCXCXCXCXCXCXCXCXCXCXCXCXCXCXCXCXCXCXCXCXCXCXCXbX} *                               X < S G.L.L.L.L.L.L.L.L.L.L.L.L.L.L.L.L.U.L.T.n.A.S.C.V.B.B.B.B.B.B.B.B.B.B.B.B.B.B.B.B.B.C.C.S.Z.n.L.U.L.L.L.L.L.L.L.L.L.L.L.L.L.L.L.L.L.L.L.L.E.W.uXaXfXfXsXsXsXsXsXsXsXsXsXsXsXsXsXsXsXsXsXsXsXpXrX0X7X5X5X6X6X6X6X6X6X6X6X6X6Xs./ v b b b B O.$.K.L.L.L.L.L.L.L.L.L.L.L.L.L.L.L.L.L.L.L.L.L.Y.y.r.w.0.w.w.w.w.w.w.w.w.w.0.w.r.y.Y.L.L.L.L.L.L.L.L.L.L.L.L.L.L.L.L.L.L.L.L.L.L.L.L.L.L.L.L.L.L.L.J.#.C m b m c q = .                               * } bXCXCXCXCXCXCXCXCXCXCXCXCXCXCXCXCXCXCXCXCXCXCXCXCXCXCXCXCXCXCX",
"CXCXCXCXCXCXCXCXCXCXCXCXCXCXCXCXCXCXCXCXCXCXCXCXCXCXCXCXCXVXbX{ &                               X q o.J.~.~.~.L.L.L.L.L.L.L.L.L.L.L.L.L.L.L.T.n.A.B.C.V.B.B.B.B.B.B.B.B.B.B.B.B.B.B.B.B.B.C.C.S.Z.n.L.U.L.L.L.L.L.L.L.L.L.L.L.L.L.L.L.L.L.L.L.L.E.W.uXaXfXfXsXsXsXsXsXsXsXsXsXsXsXsXsXgXgXgXgXgXgXpXrX0X7X5X5X6X6X6X6X6X6X6X6X6X6Xs./ v b b b B O.$.L.L.L.L.L.L.L.L.L.L.L.L.L.L.L.L.L.L.L.L.Q.L.Y.y.r.w.0.0.0.0.0.0.0.w.w.w.0.w.r.y.Y.L.L.L.L.L.L.L.L.L.L.L.L.L.L.L.L.L.L.L.L.L.L.L.L.L.L.L.L.L.R.L.J.#.C m b m b q = .                               & { bXVXCXCXCXCXCXCXCXCXCXCXCXCXCXCXCXCXCXCXCXCXCXCXCXCXCXCXCXCXCX",
"CXCXCXCXCXCXCXCXCXCXCXCXCXCXCXCXCXCXCXCXCXCXCXCXCXCXCXCXCXVXbX} *                               X < S G.~.~.L.L.L.L.L.L.L.L.L.L.L.L.L.L.L.L.T.n.A.B.C.V.B.B.V.V.B.B.B.B.B.B.B.B.B.B.B.B.B.C.C.S.Z.n.L.U.L.L.L.L.L.L.L.L.L.L.L.L.L.L.L.L.L.L.I.L.E.W.uXaXfXfXsXsXsXsXsXsXsXsXsXsXsXsXsXsXsXsXsXgXgXpXrX0X7X5X5X6X6X6X6X6X6X6X6X6X6Xs./ v b b b N O.$.L.L.L.L.L.L.L.L.L.L.L.L.L.L.L.L.L.L.L.L.Q.L.Y.y.r.w.0.w.w.w.w.w.w.w.w.w.0.w.r.y.Y.L.Q.L.L.L.L.L.L.L.L.L.L.L.L.L.L.L.L.L.L.L.L.L.L.L.L.L.L.L.L.L.J.#.C m b b c q = .                               * } bXVXCXCXCXCXCXCXCXCXCXCXCXCXCXCXCXCXCXCXCXCXCXCXCXCXCXCXCXCXCX",
"CXCXCXCXCXCXCXCXCXCXCXCXCXCXCXCXCXCXCXCXCXCXCXCXCXCXCXCXCXVXbX} *                               X < S G.L.L.L.L.L.L.L.L.L.L.L.L.L.L.L.L.L.L.T.n.A.B.C.C.B.V.V.V.B.B.B.B.B.B.B.B.B.B.B.B.B.C.C.S.Z.n.L.U.U.L.L.L.L.L.L.L.L.L.L.L.L.L.L.L.L.L.I.L.E.W.uXaXfXfXsXsXsXsXsXsXsXsXsXsXsXsXsXsXsXsXsXsXsXpXrX0X7X5X5X6X6X6X6X6X6X6X6X6X6Xs./ v b b b N O.$.K.L.L.L.L.L.L.L.L.L.L.L.L.L.L.L.L.L.L.L.Q.L.Y.y.r.w.w.w.w.w.w.w.w.w.w.w.0.w.r.y.Y.L.Q.L.L.L.L.L.L.L.L.L.L.L.L.L.L.L.L.L.L.L.L.L.L.L.L.L.L.L.L.L.J.#.C m b b c q =                                 * } bXVXCXCXCXCXCXCXCXCXCXCXCXCXCXCXCXCXCXCXCXCXCXCXCXCXCXCXCXCXCX",
"CXCXCXCXCXCXCXCXCXCXCXCXCXCXCXCXCXCXCXCXCXCXCXCXCXCXCXCXCXCXbX} *                               . < C G.~.R.L.L.L.L.L.L.L.L.L.L.L.L.L.L.U.U.T.n.A.B.C.C.C.C.C.C.V.V.B.B.B.B.B.B.B.B.B.B.B.C.C.S.Z.n.L.U.U.U.U.U.U.U.L.L.L.L.L.L.L.L.L.L.L.L.L.L.E.W.uXaXfXfXsXsXsXsXsXsXsXsXsXsXsXsXsXsXsXsXsXsXsXpXrX0X7X5X5X6X6X6X6X6X6X6X6X8X6Xs./ v b b b N O.$.K.L.L.L.L.L.L.L.L.L.L.L.L.L.L.L.L.L.L.L.L.L.Y.y.r.w.w.w.w.w.w.w.w.w.w.w.0.w.r.y.Y.Q.Q.Q.L.L.L.L.L.L.L.L.L.L.L.L.L.L.L.L.L.L.L.L.L.L.L.L.L.L.L.L.G.#.C m b b c q =                                 * } bXCXCXCXCXCXCXCXCXCXCXCXCXCXCXCXCXCXCXCXCXCXCXCXCXCXCXCXCXCXCX",
"CXCXCXCXCXCXCXCXCXCXCXCXCXCXCXCXCXCXCXCXCXCXCXCXCXCXCXCXCXCXbX} *                               . < S G.R.R.L.L.L.L.L.L.L.L.L.L.L.L.L.L.U.U.T.n.A.B.C.C.V.C.C.C.V.V.B.B.B.B.B.B.B.B.B.B.B.C.C.S.Z.n.L.U.U.U.U.U.U.L.L.L.L.L.L.L.L.L.L.L.L.L.L.L.E.W.uXaXfXfXsXsXsXsXsXsXsXsXsXsXsXsXsXsXsXsXsXsXsXpXrX0X7X5X5X6X6X6X6X6X6X6X6X7X6Xs./ v b b b N O.$.K.L.L.L.L.L.L.L.L.L.L.L.L.L.L.L.L.L.L.L.L.L.Y.y.r.w.w.w.w.w.w.w.w.w.w.w.0.w.r.y.Y.L.Q.Q.L.L.L.L.L.L.L.L.L.L.L.L.L.L.L.L.L.L.L.L.L.L.L.L.L.L.L.L.J.#.C m b b c q =                                 * } bXCXCXCXCXCXCXCXCXCXCXCXCXCXCXCXCXCXCXCXCXCXCXCXCXCXCXCXCXCXCX",
"CXCXCXCXCXCXCXCXCXCXCXCXCXCXCXCXCXCXCXCXCXCXCXCXCXCXCXCXCXCXbX} *               . X O O + O X X @ w o.G.L.L.L.L.L.L.L.L.L.L.L.L.L.L.L.L.U.L.T.n.Z.M.N.N.N.N.N.N.N.B.B.B.B.B.B.B.B.B.B.B.B.C.V.S.A.n.!.T.T.T.T.T.T.T.L.L.L.L.L.L.L.L.L.L.L.L.I.L.E.W.uXaXfXfXsXsXsXsXsXsXsXsXsXsXsXsXsXsXsXsXsXsXsXpXrX0X7X5X5X6X5X5X5X5X5X5X5X5Xs.( / v b b b B O.$.K.L.L.L.L.L.L.L.L.L.L.L.L.L.L.L.L.L.L.L.L.L.Y.y.r.w.0.w.w.w.w.w.w.w.w.w.0.w.r.p.D.Y.K.Y.Y.Y.Y.Y.Y.Y.Y.Y.Y.Y.Y.Y.Y.Y.Y.Y.Y.Y.Y.Y.K.K.L.L.L.L.L.L.G.#.C m b b b w - O     X X X . .                 * } bXCXCXCXCXCXCXCXCXCXCXCXCXCXCXCXCXCXCXCXCXCXCXCXCXCXCXCXCXCXCX",
"CXCXCXCXCXCXCXCXCXCXCXCXCXCXCXCXCXCXCXCXCXCXCXCXCXCXCXCXCXCXbX} *             X = < q w q q q q w N @.J.L.L.L.L.L.L.L.L.L.L.L.L.L.L.L.L.L.L.T.n.n.m.m.m.m.m.m.m.A.M.B.V.V.B.B.B.B.B.B.B.B.V.V.S.A.Z.n.n.n.n.n.n.n.n.!.T.L.L.L.L.L.L.L.L.L.L.I.L.E.W.uXaXfXfXsXsXsXsXsXsXsXsXsXsXsXsXsXsXsXsXsXsXsXpXrX0X7X5X6X5Xs.( ( ( ( ( ( ( ( / [ v b b b B O.$.K.L.L.L.L.L.L.L.L.L.L.L.L.L.L.L.L.L.L.L.L.L.Y.y.r.w.0.w.w.w.w.w.w.w.w.w.0.w.e.i.y.u.c.u.u.u.u.u.u.u.u.u.u.u.u.u.u.u.u.u.u.u.u.D.D.Y.L.L.L.L.L.L.G.#.C m b b b e < : = = = = - = @ O               * } bXCXCXCXCXCXCXCXCXCXCXCXCXCXCXCXCXCXCXCXCXCXCXCXCXCXCXCXCXCXCX",
"CXCXCXCXCXCXCXCXCXCXCXCXCXCXCXCXCXCXCXCXCXCXCXCXCXCXCXCXCXVXbX} *             + < m o.O.o.o.o.o.o.#.2.K.L.L.L.L.L.L.L.L.L.L.L.L.L.L.L.L.L.L.L.v.b.z.z.z.z.z.z.z.x.m.N.V.V.B.B.B.B.B.B.B.B.V.B.B.S.A.A.A.A.A.A.A.A.Z.n.T.L.U.L.L.L.L.L.L.L.L.L.L.E.W.uXaXfXfXsXsXsXsXsXsXsXsXsXsXsXsXsXsXsXsXsXsXsXpXrX0X7X6X6X5X( / [ _ v _ _ [ _ v v b b b b B O.$.K.L.L.L.L.L.L.L.L.L.L.L.L.L.L.L.L.L.L.L.L.L.Y.y.r.w.0.0.w.w.w.w.w.w.w.w.w.w.w.e.r.i.i.i.i.i.i.i.i.i.i.i.i.i.i.i.i.i.i.i.i.i.i.p.D.Y.L.L.L.L.L.L.G.#.C m b b b c e w w w w w w w < = X             * } nXVXCXCXCXCXCXCXCXCXCXCXCXCXCXCXCXCXCXCXCXCXCXCXCXCXCXCXCXCXCX",
"CXCXCXCXCXCXCXCXCXCXCXCXCXCXCXCXCXCXCXCXCXCXCXCXCXCXCXCXCXVXbX} *             @ e +.G.K.J.J.J.J.J.J.K.L.L.L.L.L.L.L.L.L.L.L.L.L.L.L.L.L.L.L.K.v.c.l.l.l.l.l.l.l.z.m.N.V.C.B.B.B.B.B.B.B.B.B.B.B.B.B.B.B.B.B.B.B.S.A.n.!.L.U.L.L.L.L.L.L.L.L.L.L.E.W.uXaXfXfXsXsXsXsXsXsXsXsXsXsXsXsXsXsXsXsXsXsXsXpXrX0X7X6X6X5X( / v m b m b b m m b b b b b B O.$.K.L.L.L.L.L.L.L.L.L.L.L.L.L.L.L.L.L.L.L.L.L.Y.y.r.w.0.w.w.w.w.w.w.w.w.w.w.w.w.w.w.w.w.w.w.w.w.w.w.w.w.w.w.w.w.w.w.w.w.w.w.w.w.r.y.Y.L.L.L.L.L.L.G.#.C m b b b b b b b b b b b b w : X             * } bXVXCXCXCXCXCXCXCXCXCXCXCXCXCXCXCXCXCXCXCXCXCXCXCXCXCXCXCXCXCX",
"CXCXCXCXCXCXCXCXCXCXCXCXCXCXCXCXCXCXCXCXCXCXCXCXCXCXCXCXCXCXbX} *             @ c #.L.~.~.L.~.~.R.L.L.L.L.L.L.L.L.L.L.L.L.L.L.L.L.L.L.L.L.L.K.v.c.j.k.k.k.k.k.j.z.m.N.V.C.B.B.B.B.B.B.B.B.B.B.B.V.V.C.C.C.C.C.C.B.A.n.!.L.U.L.L.L.L.L.L.L.L.L.L.E.W.uXaXfXfXsXsXsXsXsXsXsXsXsXsXsXsXsXsXsXsXsXsXsXpXrX0X7X6X6X5X( [ b m m m m m m m b b b b b B O.$.K.L.L.L.L.L.L.L.L.L.L.L.L.L.L.L.L.L.L.L.Q.L.Y.y.r.w.0.0.w.w.w.w.w.w.w.w.w.w.w.w.0.0.0.0.0.0.0.0.w.w.0.0.0.0.0.0.0.0.w.0.0.0.w.r.y.Y.L.Q.L.L.L.L.J.#.C m b b b b m m m m m N N m e , O             * } bXCXCXCXCXCXCXCXCXCXCXCXCXCXCXCXCXCXCXCXCXCXCXCXCXCXCXCXCXCXCX",
"CXCXCXCXCXCXCXCXCXCXCXCXCXCXCXCXCXCXCXCXCXCXCXCXCXCXCXCXCXCXbX} *             @ c #.L.~.~.L.L.L.L.L.L.L.L.L.L.L.L.L.L.L.L.L.L.L.L.L.L.L.L.L.K.v.c.j.k.k.k.k.k.l.z.m.N.C.C.B.B.B.B.B.B.B.B.B.B.B.V.V.V.V.V.V.C.C.B.A.n.!.L.U.L.L.L.L.L.L.L.L.L.L.E.W.uXaXfXfXsXsXsXsXsXsXsXsXsXsXsXsXsXsXsXsXsXsXsXpXrX0X7X5X6X5X( [ b m m m b m m b b b b b b B O.$.K.L.L.L.L.L.L.L.L.L.L.L.L.L.L.L.L.L.L.L.Q.L.Y.y.r.w.0.0.w.w.w.w.w.w.w.w.w.w.w.w.0.0.0.0.0.0.w.w.w.w.w.w.0.0.0.0.0.0.w.w.0.0.w.r.y.Y.L.L.L.L.L.L.J.#.C m b b b b m m m m m m N b e , O             * } bXVXCXCXCXCXCXCXCXCXCXCXCXCXCXCXCXCXCXCXCXCXCXCXCXCXCXCXCXCXCX",
"CXCXCXCXCXCXCXCXCXCXCXCXCXCXCXCXCXCXCXCXCXCXCXCXCXCXCXCXCXCXbX} *             @ c @.K.R.L.L.L.L.L.L.L.L.L.L.L.L.L.L.L.L.L.L.L.L.L.L.L.L.L.L.K.v.c.l.l.l.l.k.k.l.z.m.N.C.C.B.B.B.B.B.B.B.B.B.B.B.B.B.B.B.B.B.V.C.B.A.n.!.L.L.L.L.L.L.L.L.L.L.L.L.E.W.uXaXfXfXsXsXsXsXsXsXsXsXsXsXsXsXsXsXsXsXsXsXsXpXrX0X7X6X6X5X( [ b m m b b b b b b b b b b B O.$.K.L.L.L.L.L.L.L.L.L.L.L.L.L.L.L.L.L.L.L.Q.L.Y.y.i.w.0.0.w.w.w.w.w.w.w.w.w.w.w.w.w.w.w.w.w.w.w.w.w.w.w.w.w.w.w.w.w.w.w.w.w.0.w.r.y.Y.L.Q.L.L.L.L.J.#.C m b b b b b b b b b b m b e : O             * } bXCXCXCXCXCXCXCXCXCXCXCXCXCXCXCXCXCXCXCXCXCXCXCXCXCXCXCXCXCXCX",
"CXCXCXCXCXCXCXCXCXCXCXCXCXCXCXCXCXCXCXCXCXCXCXCXCXCXCXCXCXCXnX} *             @ c @.K.R.L.L.L.L.L.L.L.L.L.L.L.L.L.L.L.L.L.L.L.L.L.L.L.L.L.L.K.v.c.l.l.l.l.k.k.l.z.m.N.V.C.B.B.B.B.B.B.B.B.B.B.B.B.B.B.B.B.B.V.C.B.A.n.!.L.L.L.L.L.L.L.L.L.L.L.L.E.W.uXaXfXfXfXfXfXfXfXfXfXfXfXfXfXfXsXsXsXsXsXsXsXpXrX0X7X6X6X5X( [ b m m m b b b b b b b b b B O.$.L.L.L.L.L.L.L.L.L.L.L.L.L.L.L.L.L.L.L.L.Q.L.Y.y.r.w.0.0.w.w.w.w.w.w.w.w.w.w.w.w.w.w.w.w.w.w.w.w.w.w.w.w.w.w.w.w.w.w.w.w.w.0.w.r.y.Y.L.Q.L.L.L.L.J.#.C m b b b b b b b b b b m b e : O             * } bXCXCXCXCXCXCXCXCXCXCXCXCXCXCXCXCXCXCXCXCXCXCXCXCXCXCXCXCXCXCX",
"CXCXCXCXCXCXCXCXCXCXCXCXCXCXCXCXCXCXCXCXCXCXCXCXCXCXCXCXCXCXnX} *             @ c @.K.~.L.L.L.L.L.L.L.L.L.L.L.L.L.L.L.L.L.L.L.L.L.L.U.U.I.I.K.v.c.j.k.l.j.k.k.l.z.m.N.V.C.V.B.B.B.B.B.B.B.B.B.B.B.B.B.B.B.B.V.C.B.A.n.!.L.U.L.L.L.L.L.L.L.L.L.L.E.W.uXsXdXfXfXfXfXfXfXfXfXfXfXfXfXfXfXsXsXsXsXsXsXpXrX0X7X6X6X5X( [ b m m m m m m m m m b b b B O.$.L.R.L.L.L.L.L.L.L.L.L.L.L.L.L.L.L.L.L.L.L.L.Y.y.r.w.0.w.w.w.w.w.w.w.w.w.w.w.w.w.w.w.w.w.w.w.w.w.w.w.w.w.w.w.w.w.w.w.w.w.w.0.w.r.y.Y.Q.Q.Q.L.Q.L.J.#.C m b b b b b b b b b m m b e : O             * } bXVXCXCXCXCXCXCXCXCXCXCXCXCXCXCXCXCXCXCXCXCXCXCXCXCXCXCXCXCXCX",
"CXCXCXCXCXCXCXCXCXCXCXCXCXCXCXCXCXCXCXCXCXCXCXCXCXCXCXCXCXVXbX{ *             @ c @.K.~.L.L.L.L.L.L.L.L.L.L.L.L.L.L.L.L.L.L.L.L.L.L.L.L.L.L.K.v.c.j.k.l.j.k.k.l.z.m.N.V.C.V.B.B.B.B.B.B.B.B.B.B.B.B.B.B.B.B.V.C.B.A.n.!.L.U.L.L.L.L.L.L.L.L.L.L.E.W.uXaXsXsXaXaXaXaXaXaXaXaXaXaXaXsXsXsXsXsXsXsXsXpXrX0X7X6X6X5X( / v b b m m m m m m m b b b N o.$.K.L.K.K.K.K.K.L.L.L.L.L.L.L.L.L.L.L.L.L.L.L.Y.y.r.w.0.w.w.w.w.w.w.w.w.w.w.w.w.w.w.w.w.w.w.w.w.w.w.w.w.w.w.w.w.w.w.w.w.w.w.0.w.r.y.D.K.L.K.K.K.K.G.#.C m b b b b b b b b b m m b e : O             * } bXVXCXCXCXCXCXCXCXCXCXCXCXCXCXCXCXCXCXCXCXCXCXCXCXCXCXCXCXCXCX",
"CXCXCXCXCXCXCXCXCXCXCXCXCXCXCXCXCXCXCXCXCXCXCXCXBXmXnXnXnXbXjX` &             @ c @.K.~.L.L.L.L.L.L.L.L.L.L.L.L.L.L.L.L.L.L.L.L.L.!.!.n.n.n.n.b.c.l.k.k.j.k.k.l.z.m.N.V.C.V.B.B.B.B.B.B.B.B.B.B.B.B.B.B.B.B.V.C.B.A.n.!.L.U.L.L.L.L.L.L.L.L.L.L.U.W.eXuXuXuXuXuXuXuXuXuXuXuXuXuXuXuXaXfXfXfXsXsXsXpXrX0X7X6X6X5X( / [ v v v v _ v v v m b b b N o.#.$.$.$.$.$.$.$.G.J.L.L.L.L.L.L.L.L.L.L.L.L.L.Y.y.r.w.0.w.w.w.w.w.9.9.7.7.7.7.9.9.w.w.w.w.w.w.w.w.9.9.7.7.7.7.7.7.7.7.7.7.9.9.7.8.t.u.D.D.D.D.D.D.c.F B b b b b b b b b b b m m b e : O             * } bXCXCXCXCXCXCXCXCXCXCXCXCXCXCXCXCXCXCXCXCXCXCXCXCXCXCXCXCXCXCX",
"CXCXCXCXCXCXCXCXCXCXCXCXCXCXCXCXCXCXCXCXCXCXCXVXnXlX| } } { ` 6 %             @ c @.K.~.L.L.L.L.L.L.L.L.L.L.L.L.L.L.L.L.L.L.L.L.T.n.n.Z.Z.Z.Z.n.z.l.k.k.l.k.k.l.z.m.N.V.C.V.B.B.B.B.B.B.B.B.B.B.B.B.B.B.B.B.V.C.B.A.n.!.L.U.L.L.L.L.L.L.L.L.L.L.U.E.W.W.eXeXW.W.W.W.W.W.W.W.W.g.eXuXaXfXfXfXsXsXsXpXrX0X7X6X6X5Xs.( ( / / / ( ( ( / _ v b b b m B o.O.O.O.O.o.o.+.#.2.K.L.L.L.L.L.L.L.L.L.L.L.L.Y.y.r.w.0.w.w.w.w.w.9.7.7.l l l 7.7.9.w.w.w.w.w.w.9.7.7.l l l l l l l l l l l l l 7.8.i.p.p.p.p.p.p.p.t.D M b b b b b b b b b m m b e : O             * } bXCXCXCXCXCXCXCXCXCXCXCXCXCXCXCXCXCXCXCXCXCXCXCXCXCXCXCXCXCXCX",
"CXCXCXCXCXCXCXCXCXCXCXCXCXCXCXCXCXCXCXCXCXCXCXVXvX} 6 * * * & %               @ c @.K.R.L.L.L.L.L.L.L.L.L.L.L.L.L.L.L.L.L.L.U.L.!.n.A.S.S.S.M.m.z.l.k.k.j.k.k.l.z.m.N.V.C.V.B.B.B.B.B.B.B.B.B.B.B.B.B.B.V.V.C.C.B.A.n.!.L.U.L.L.L.L.L.L.L.L.L.L.L.U.E.E.E.E.E.E.E.E.E.E.E.E.E.E.W.yXuXfXfXfXfXgXsXpXrX0X7X5X6X6X5X5Xs.s.s.s.s.5Xs.( / v b m b b m N N B B B N N B o.#.J.L.L.L.L.L.L.L.L.L.L.L.L.Y.y.r.w.w.w.w.w.w.w.7.l j f f f k 7.9.w.w.w.w.w.w.9.7.l j f f f f f f f f f f f f k 7.e.w.e.e.e.w.w.e.t.D b b b b b b b b b b m m b e : O             * } bXCXCXCXCXCXCXCXCXCXCXCXCXCXCXCXCXCXCXCXCXCXCXCXCXCXCXCXCXCXCX",
"CXCXCXCXCXCXCXCXCXCXCXCXCXCXCXCXCXCXCXCXCXCXCXBXxX` %                         @ e @.K.~.L.L.L.L.L.L.L.L.L.L.L.L.L.L.L.L.L.L.U.L.!.n.M.V.C.C.N.m.z.l.k.k.j.k.k.l.z.m.N.V.C.V.V.V.V.V.V.V.B.B.B.B.V.V.V.V.V.V.C.C.B.A.n.!.L.I.L.L.L.L.L.L.L.L.L.L.L.L.L.L.L.L.L.L.L.L.L.L.L.L.Q.L.E.eXuXfXfXfXfXfXfXpXrX0X7X5X6X6X6X6X6X6X6X6X7X8X6Xs./ v b m b b b b b b b b b b m C #.J.L.L.L.L.L.L.L.L.L.L.Q.L.Y.u.i.w.w.w.w.w.w.w.7.l f s s d j 7.9.w.w.w.w.w.w.9.7.k d s s d d d d d d d s s d j 7.9.0.0.w.0.0.0.9.8.v b b b b b b b b b b m m b e : X             * } nXCXCXCXCXCXCXCXCXCXCXCXCXCXCXCXCXCXCXCXCXCXCXCXCXCXCXCXCXCXCX",
"CXCXCXCXCXCXCXCXCXCXCXCXCXCXCXCXCXCXCXCXCXCXCXBXxX_ %                         + e @.K.R.L.L.L.L.L.L.L.L.L.L.L.L.L.L.L.L.L.L.U.L.!.n.M.V.C.C.N.m.z.l.k.k.j.k.k.l.z.m.N.C.C.C.C.C.C.C.C.C.V.V.V.V.C.C.C.C.C.C.C.C.B.A.n.!.L.I.L.L.L.L.L.L.L.L.L.L.L.L.L.L.L.L.L.L.I.I.I.I.L.Q.Q.L.E.eXuXfXdXfXfXdXfXpXrX0X7X6X6X6X6X6X8X8X8X8X8X8X7Xs./ v b m b b b b b b b b b b m C #.J.L.L.L.L.L.L.L.L.L.Q.Q.Q.Y.u.i.w.w.w.w.w.w.w.7.l f s s d j 7.9.w.w.w.w.w.w.9.7.k d s s s s s d d f f s s f j 7.9.0.0.0.0.0.0.9.8.v b b b b b b b b b b m m b w : X             * } nXCXCXCXCXCXCXCXCXCXCXCXCXCXCXCXCXCXCXCXCXCXCXCXCXCXCXCXCXCXCX",
"CXCXCXCXCXCXCXCXCXCXCXCXCXCXCXCXCXCXCXCXCXCXCXBXxX` &                         @ c @.K.L.L.L.L.L.L.L.L.L.L.L.L.L.L.L.L.L.L.L.U.L.!.n.A.B.C.C.N.m.z.l.k.k.j.k.k.l.z.m.N.V.C.B.B.B.B.B.B.B.B.B.B.B.B.B.B.B.V.V.C.C.B.A.n.!.L.I.L.L.L.L.L.L.L.L.L.L.L.L.L.L.L.L.L.L.L.L.L.L.L.L.L.L.E.eXuXsXfXfXfXgXsXpXrX0X7X5X5X6X6X6X6X6X6X6X6X6X6Xs./ v b m b b b b b b b b b b m S #.J.L.L.L.L.L.L.L.L.L.L.L.L.Y.y.r.w.0.w.w.w.w.w.7.l f s s d j 7.9.w.w.w.w.w.w.9.7.k d s s d d d d d d d d d d j 7.9.w.w.w.w.0.w.9.8.v b m m b b b b b b b m m b e : O             * } bXVXCXCXCXCXCXCXCXCXCXCXCXCXCXCXCXCXCXCXCXCXCXCXCXCXCXCXCXCXCX",
"CXCXCXCXCXCXCXCXCXCXCXCXCXCXCXCXCXCXCXCXCXCXCXBXxX` &       . + @ = = = = @ = < m #.K.L.L.L.L.L.L.L.L.L.L.L.L.L.L.L.L.L.L.L.U.L.!.n.M.V.C.C.N.m.z.l.k.k.l.j.k.l.z.m.A.M.M.M.M.M.M.M.M.M.M.M.M.M.M.M.M.M.M.M.M.M.M.Z.n.v.v.v.v.K.K.L.L.L.L.L.L.L.L.L.L.L.L.L.L.L.L.L.L.L.L.L.L.L.E.W.uXuXuXuXuXuXuXuXuX9X9Xd.d.d.d.d.s.s.s.s.s.s.s.( / v b m b b b b b b b b b b m S #.J.L.L.L.L.L.L.K.Y.Y.D.D.D.D.p.8.9.9.9.9.9.9.9.7.k f s s d j l 7.9.9.9.9.9.9.7.7.j f s d d d d d f g g g g g z 8.e.r.e.r.r.e.e.r.t.D B B B B B N b b b b m m b e < @ O O O O X O 6 ' lXnXmXmXmXNXVXCXCXCXCXCXCXCXCXCXCXCXCXCXCXCXCXCXCXCXCXCXCXCXCX",
"CXCXCXCXCXCXCXCXCXCXCXCXCXCXCXCXCXCXCXCXCXCXCXBXxX` &       @ < e c b c c c c N o.2.L.L.L.L.L.L.L.L.L.L.L.L.L.L.L.L.L.L.L.L.U.L.!.n.M.V.C.C.N.m.z.l.k.k.l.j.k.l.l.z.x.m.m.m.m.m.m.m.m.m.m.m.m.m.m.m.m.m.m.m.m.m.m.x.b.v.c.c.v.v.v.K.L.L.L.L.L.L.L.L.L.L.L.L.L.L.L.L.L.L.L.L.L.L.E.W.W.eXeXeXeXeXeXeXg.g.g.g.g.g.f./ / / / / / / / / v b b m b b b b b b b b b b m S #.J.L.L.L.L.L.L.Y.D.y.p.p.p.p.t.8.7.7.7.7.7.7.7.l j f s s d f k l 7.7.7.7.7.7.l k f d d d d d d d g h h h h h z D y.p.p.p.p.p.p.y.u.X.+.@.@.+.o.B m b b b b m b c w < , , , , , , q _ } | wX| jXxXmXVXCXCXCXCXCXCXCXCXCXCXCXCXCXCXCXCXCXCXCXCXCXCXCX",
"CXCXCXCXCXCXCXCXCXCXCXCXCXCXCXCXCXCXCXCXCXCXCXBXxX` &       = c o.#.#.#.#.#.#.#.2.J.L.L.L.L.L.L.L.L.L.L.L.L.L.L.L.L.L.L.L.L.U.L.!.n.A.V.C.C.N.m.z.l.k.k.l.l.l.l.l.l.z.z.z.z.z.z.z.z.z.z.z.z.z.z.z.z.z.z.z.z.z.z.z.z.l.l.j.j.l.c.v.K.L.L.L.L.L.L.L.L.L.L.L.L.L.L.L.L.L.L.L.L.L.L.U.E.E.E.E.E.E.E.E.E.E.D.D.D.D.D.1.] v v v v v v v v b m b m b b b b b b b b b b m S #.J.L.L.L.L.L.L.Y.y.i.r.e.e.e.8.l j j j j j j j f f d d d d f f j j j j j j j j f f d d d d d d f h h c c c c M F c.D.D.D.D.D.D.D.Y.G.G.G.G.$.@.C N b b b b b b b c c e e e e e e e w 7 6 6 6 8 | bXVXCXCXCXCXCXCXCXCXCXCXCXCXCXCXCXCXCXCXCXCXCXCXCX",
"CXCXCXCXCXCXCXCXCXCXCXCXCXCXCXCXCXCXCXCXCXCXCXBXxX` &       : N $.L.R.L.L.L.L.L.L.L.L.L.L.L.L.L.L.L.L.L.L.L.L.L.L.L.L.L.L.L.U.L.!.n.M.V.C.C.N.m.z.l.k.k.l.l.l.l.l.l.l.l.k.k.k.k.l.l.l.l.k.k.k.k.l.l.j.j.k.k.k.k.l.l.l.j.k.k.j.l.c.v.L.L.L.L.L.L.L.L.L.L.L.L.L.L.L.L.L.L.L.L.L.L.L.L.L.L.L.L.L.L.L.L.L.L.L.L.L.K.$.o.N b b b b b b b b b b m b b b b b b b b b b m S #.J.L.L.L.L.L.L.D.p.r.w.0.w.9.7.k d s s d d d d d d d d d d d d d d d d d d d d d d d d d d d f f h e c b b m C @.G.L.L.L.L.L.L.L.L.L.L.L.L.J.#.o.N b b b b b b b b b b b b b m m c < @       & ` xXBXCXCXCXCXCXCXCXCXCXCXCXCXCXCXCXCXCXCXCXCXCXCXCX",
"CXCXCXCXCXCXCXCXCXCXCXCXCXCXCXCXCXCXCXCXCXCXCXBXxX` &       , B G.~.~.~.~.~.R.L.L.L.L.L.L.L.L.L.L.L.L.L.L.L.L.L.L.L.L.L.L.L.U.L.!.n.A.B.C.C.N.m.z.l.k.k.l.l.l.j.j.k.k.k.k.k.k.k.k.k.k.k.k.k.k.k.k.k.k.k.k.k.k.k.k.k.k.k.l.l.l.l.c.v.L.L.L.L.L.L.L.L.L.L.L.L.L.L.L.L.L.L.L.L.L.L.L.L.L.I.I.I.L.L.L.L.L.L.L.Q.Q.L.$.o.N b m m m m m m b b b b b b b b b b b b b b m S #.J.L.L.L.L.Q.L.D.p.e.0.0.0.9.7.j d s s s s s s d d d d d d d d s s s s s s s s d d d d d d d f f h v b m b m C #.J.Q.Q.Q.L.L.L.L.L.L.L.R.R.K.#.o.N b b b b b b b m m m m m m N N c < O       % _ xXBXCXCXCXCXCXCXCXCXCXCXCXCXCXCXCXCXCXCXCXCXCXCXCX",
"CXCXCXCXCXCXCXCXCXCXCXCXCXCXCXCXCXCXCXCXCXCXCXBXxX` &       , N 2.R.~.L.L.L.L.L.L.L.L.L.L.L.L.L.L.L.L.L.L.L.L.L.L.L.L.L.L.L.U.L.!.n.A.B.C.C.N.m.z.l.k.k.j.l.l.j.l.j.k.k.k.k.k.k.k.k.k.k.k.k.k.k.k.k.k.k.k.k.k.k.k.k.k.k.l.l.l.l.c.v.L.L.L.L.L.L.L.L.L.L.L.L.L.L.L.L.L.L.L.L.L.L.L.L.L.L.L.L.L.L.L.L.L.L.L.L.L.K.$.o.N b b m m m b b b b b b b b b b b b b b b b m S #.J.L.L.L.L.Q.L.D.p.r.w.0.w.9.7.k d s s d d d d d d d d d d d d d d d d d d d d d d d d d d d f f h v c b b b C @.G.L.L.L.L.L.L.L.L.L.L.L.L.J.#.o.N b b b b b b b b b b m m m m m c < @       % ` xXBXCXCXCXCXCXCXCXCXCXCXCXCXCXCXCXCXCXCXCXCXCXCXCX",
"CXCXCXCXCXCXCXCXCXCXCXCXCXCXCXCXCXCXCXCXCXCXCXBXxX` &       , N $.L.~.L.L.L.L.L.L.L.L.L.L.L.L.L.L.L.L.L.L.L.L.L.L.L.L.L.L.L.U.L.!.n.A.B.C.C.N.m.z.l.k.k.j.l.j.j.l.l.j.j.j.j.j.j.j.j.j.j.l.j.l.l.l.l.j.j.j.j.j.j.l.l.l.l.l.l.l.c.c.v.L.L.L.L.L.L.L.L.L.L.L.L.L.L.L.L.L.L.L.L.L.L.L.L.L.L.L.L.L.L.L.L.L.L.L.L.L.K.$.o.N b b b b b b b b b b b b b b b b b b b b b m S #.J.L.L.L.L.Q.L.D.p.r.w.0.w.9.7.k d s d d d d d d d d d d d d d d d d d d d d d d d d d d d d f d h v c b b b B @.G.L.L.L.L.L.L.L.L.L.L.L.L.J.#.o.N b b b b b b b b b b b b b m m c < @       & ` xXBXCXCXCXCXCXCXCXCXCXCXCXCXCXCXCXCXCXCXCXCXCXCXCX",
"CXCXCXCXCXCXCXCXCXCXCXCXCXCXCXCXCXCXCXCXCXCXCXVXvX' &       , B 2.~.~.~.L.L.L.L.L.L.L.L.L.L.L.L.L.L.L.L.L.L.L.L.L.L.L.L.L.L.U.L.!.n.A.B.C.C.N.m.z.l.k.k.l.l.l.l.l.l.j.j.j.j.j.j.j.j.j.j.j.j.l.l.l.l.l.l.l.l.l.l.l.l.l.l.l.k.l.c.v.K.L.L.L.L.L.L.L.L.L.L.L.L.L.L.L.L.L.L.L.L.L.L.L.L.L.L.L.L.L.L.L.L.L.L.L.L.L.K.$.o.m b b b b b b b b b b b b b b b b b b b b b m C #.J.L.L.L.L.Q.L.D.p.e.w.0.w.9.7.k d s d d d d d d d s s s s d d d d d d d d d d d d d d d d d f d h v c b b b B @.G.L.L.L.L.L.L.L.L.L.L.L.L.J.#.S m b b b b b b b b b b b b b m m c < @       & ` xXBXCXCXCXCXCXCXCXCXCXCXCXCXCXCXCXCXCXCXCXCXCXCXCX",
"CXCXCXCXCXCXCXCXCXCXCXCXCXCXCXCXCXCXCXCXCXCXCXVXxX` &       , B 2.~.~.R.L.L.L.L.L.L.L.L.L.L.L.L.L.L.L.L.L.L.L.L.L.L.L.L.L.L.U.L.!.n.M.V.C.C.N.m.z.l.k.j.l.l.l.l.k.k.k.j.j.j.l.l.l.j.k.k.j.j.j.j.l.l.l.l.l.l.l.l.l.l.l.l.l.k.l.l.c.v.L.L.L.L.L.L.L.L.L.L.L.L.L.L.L.L.L.L.L.L.L.L.L.L.L.L.L.L.L.L.L.L.L.L.L.L.L.K.$.o.N b b b b b b b b b b b b b b b b b b b b b m C #.J.L.L.L.L.L.L.D.p.e.w.0.w.9.7.k f s s d d d d d d d d d d d d d d d d d d d d d d d d d d f d d h e c b b m C @.G.L.L.L.L.L.L.L.L.L.L.L.L.J.#.o.m b b b b b b b b b b b b b m m c < @       & ` xXBXCXCXCXCXCXCXCXCXCXCXCXCXCXCXCXCXCXCXCXCXCXCXCX",
"CXCXCXCXCXCXCXCXCXCXCXCXCXCXCXVXBXBXNXNXBXBXBXMXlX_ &       : b #.G.G.G.2.2.2.G.J.K.L.L.L.L.L.L.L.L.L.L.L.L.L.L.L.L.L.L.L.L.U.L.!.n.M.V.C.C.N.m.z.l.k.k.l.l.l.l.j.l.k.j.j.j.l.l.l.l.k.k.j.j.l.j.k.k.k.h.k.k.k.k.k.k.k.j.l.l.l.j.c.v.J.J.J.J.J.J.J.K.L.L.L.L.L.L.L.L.L.L.L.L.L.L.L.L.L.L.L.L.L.L.L.L.L.L.L.L.L.K.$.O.B N N N N N N N N N N N N N N N N N N N N m B o.#.J.L.L.L.L.L.L.D.p.r.9.0.9.9.7.k d s s d d d d f f f f f f f f d d d d d d d d d d d d d d f d d h v c b b m C @.G.L.L.L.L.L.L.L.L.L.L.L.L.J.$.o.B N N N N N N N m b b b b b m m c < @       & ` xXBXCXCXCXCXCXCXCXCXCXCXCXCXCXCXCXCXCXCXCXCXCXCXCX",
"CXCXCXCXCXCXCXCXCXCXCXCXCXCXVXmXvXzXlXlXzXzXzXjX} 8 %       @ q m B C B B B B S @.G.L.L.L.L.L.L.L.L.L.L.L.L.L.L.L.L.L.L.L.L.U.L.!.n.M.V.C.C.N.m.z.l.k.k.l.l.j.l.l.l.l.l.l.l.l.l.l.l.j.j.l.l.l.k.h.....F ............h.k.l.l.j.j.c.#.#.#.#.#.#.#.#.$.J.L.L.L.L.L.L.L.L.L.L.L.L.L.L.L.L.L.L.L.L.L.L.L.L.L.L.L.L.K.G.#.O.o.o.o.o.o.o.o.o.o.o.o.o.o.o.o.o.o.o.o.o.o.o.@.2.K.L.L.L.L.L.L.D.y.8.7.7.7.7.l j d d d d d d f f k l l l l k j f d d d d d d d d d d d d d d d d h e c b b m C @.G.L.L.L.L.L.L.L.L.L.L.L.L.K.2.#.O.o.o.o.o.o.o.S B m b b b b m m c < @       & ` xXBXCXCXCXCXCXCXCXCXCXCXCXCXCXCXCXCXCXCXCXCXCXCXCX",
"CXCXCXCXCXCXCXCXCXCXCXCXCXCXNXxX| _ ) ) _ _ _ ) 8 *         X = , < < < < , < w B #.L.L.L.L.L.L.L.L.L.L.L.L.L.L.L.L.L.L.L.L.U.L.!.n.M.V.C.C.N.m.z.l.k.j.l.l.l.l.l.l.l.l.l.l.l.l.l.j.j.j.l.l.l.k...F V V V V V V V F ..k.l.l.l.h...X.C C C C C S o.@.2.K.L.L.L.L.L.L.L.L.L.L.L.L.L.L.L.L.L.L.L.L.L.L.L.L.L.L.L.L.J.G.$.$.$.$.$.$.$.$.$.$.$.$.$.$.$.$.$.$.$.$.$.$.$.2.J.K.L.L.L.L.L.L.D.F z k k k k j f d d d d d d f j l 7.7.7.7.7.l f d d d d d d d d d d d d d f f d h e c b b m C @.G.L.L.L.L.L.L.L.L.L.L.L.L.K.J.2.$.$.$.$.$.$.$.#.o.N b b b b m m c < @       & ` xXBXCXCXCXCXCXCXCXCXCXCXCXCXCXCXCXCXCXCXCXCXCXCXCX",
"CXCXCXCXCXCXCXCXCXCXCXCXCXCXMXjX8 %   % % % % % %               . . . . .   . = c @.K.R.L.L.L.L.L.L.L.L.L.L.L.L.L.L.L.L.L.L.U.L.!.n.M.V.C.C.N.m.z.l.k.k.l.l.j.j.l.l.l.l.l.l.l.l.l.l.j.j.l.l.l.k...V N b b M b b N V F h.l.l.l.h.F V m m m m m m B o.$.K.L.L.L.L.L.L.L.L.L.L.L.L.L.L.L.L.L.L.L.L.L.L.L.L.L.L.L.L.L.K.K.K.K.K.K.K.K.K.K.K.K.K.K.K.K.K.K.K.K.K.K.K.K.K.L.L.L.L.L.L.L.L.c.F z f f f f f d d d d d d s f k 7.9.w.w.w.7.l f d s d d d d d d d d d d d d f d h v c b b m C @.G.L.L.L.L.L.L.L.L.L.L.L.L.L.L.K.K.K.K.K.K.L.J.$.+.B b b b b m m c < @       & ` xXBXCXCXCXCXCXCXCXCXCXCXCXCXCXCXCXCXCXCXCXCXCXCXCX",
"CXCXCXCXCXCXCXCXCXCXCXCXCXCXMXhX6                                             + e @.K.~.L.L.L.L.L.L.L.L.L.L.L.L.L.L.L.L.L.L.U.L.!.n.M.C.C.C.N.m.z.l.k.k.k.k.k.k.k.k.l.l.l.l.l.l.l.l.k.l.l.l.l.k...V b b b b b b b V F k.l.l.l.h.F N b b b b c b m o.$.K.L.L.L.L.L.L.L.L.L.L.L.L.L.L.L.L.L.L.L.L.L.L.L.L.L.L.L.L.L.L.L.L.L.L.L.L.L.L.L.L.L.L.L.L.L.L.L.L.L.L.L.L.L.L.L.L.L.L.L.L.Q.L.c.D h s s s s s d d d d d s s f k 7.0.0.a.w.9.7.j d s d d d f f d d f f f f f f d h v c b b m C @.G.L.L.L.L.L.L.L.L.L.L.L.L.L.L.L.L.L.L.L.L.R.L.G.+.B b b b b m m c < @       & ` xXBXCXCXCXCXCXCXCXCXCXCXCXCXCXCXCXCXCXCXCXCXCXCXCX",
"CXCXCXCXCXCXCXCXCXCXCXCXCXCXMXjX8                                             + e @.K.~.L.L.L.L.L.L.L.L.L.L.L.L.L.L.L.L.L.L.U.L.!.n.M.C.C.C.N.m.z.l.k.k.k.k.k.k.k.k.k.k.k.k.l.l.k.k.l.l.l.l.l.k...V m b b b b b b V F k.l.l.l.h.F N b c b b c b m o.$.K.L.L.L.L.L.L.L.L.L.L.L.L.L.L.L.L.L.L.L.L.L.L.L.L.L.L.L.L.L.L.L.L.L.L.L.L.L.L.L.L.L.L.L.L.L.L.L.L.L.L.L.L.L.L.L.L.L.L.L.L.L.L.c.D h s s s s s d d d d d s s f k 7.0.0.a.0.9.7.j f s f f f f f f f f f d f f f d h v c b b b B @.G.L.L.L.L.L.L.L.L.L.L.L.L.L.L.L.L.L.L.L.L.L.L.2.+.B b b b b m m c < @       & ` xXBXCXCXCXCXCXCXCXCXCXCXCXCXCXCXCXCXCXCXCXCXCXCXCX",
"CXCXCXCXCXCXCXCXCXCXCXCXCXCXMXjX8                   . . X X . . . . . . .   . = c @.K.~.L.L.L.L.L.L.L.L.L.L.L.L.L.L.L.L.L.L.U.L.!.n.A.B.C.B.M.m.z.l.h.j.j.j.j.j.l.j.j.j.l.l.l.l.l.j.j.k.k.k.k.h...V N b b b b b m V F h.k.l.k.h.F V m m m m m m B o.$.K.L.L.L.L.L.L.L.L.L.L.L.L.L.L.L.L.L.L.L.L.L.L.L.L.L.L.L.L.L.L.L.L.L.L.L.L.L.L.L.L.L.L.L.L.L.L.L.L.L.L.L.L.L.L.L.L.L.L.L.L.L.L.c.F z f f f f f d d d d d d s f k 7.9.w.w.w.9.l j d s d f f d d d d d d d d d d g h v c b b b B @.G.L.L.L.L.L.L.L.L.L.L.L.L.L.L.L.L.L.L.L.L.L.K.$.+.B b b b b m m c < @       & ` xXBXCXCXCXCXCXCXCXCXCXCXCXCXCXCXCXCXCXCXCXCXCXCXCX",
"CXCXCXCXCXCXCXCXCXCXCXCXCXCXMXjX8               O = , < < < < < < < < < < , < w B #.L.L.L.L.L.L.L.L.L.L.L.L.L.L.L.L.L.L.L.L.U.L.!.n.Z.A.A.A.Z.n.b.c.c.c.c.c.c.c.c.c.c.c.c.c.c.c.c.c.j.h.........F V b b b b b b m V F ....h.....X.o.S S S C C C o.@.2.K.L.L.L.L.L.L.L.L.L.L.L.L.L.L.L.L.L.L.L.L.L.L.L.L.L.L.L.L.L.L.L.L.L.L.L.L.L.L.L.L.L.L.L.L.L.L.L.L.L.L.L.L.L.L.L.L.L.L.L.L.Q.L.c.F z k k k k j f d d d d s s f k 8.r.i.i.i.8.z h h h h h h h h h h h h h h h h h h c c b b m C @.G.L.L.L.L.L.L.L.L.L.L.L.L.L.L.L.L.L.L.L.L.L.L.2.+.B b b b b m m c < @       & ` xXBXCXCXCXCXCXCXCXCXCXCXCXCXCXCXCXCXCXCXCXCXCXCXCX",
"CXCXCXCXCXCXCXCXCXCXCXCXCXCXMXjX8               = w N C C B B B B B B B B B B S @.G.L.L.L.L.L.L.L.L.L.L.L.L.L.L.L.L.L.L.L.L.L.L.T.!.n.n.n.n.n.n.v.v.v.v.v.v.v.v.v.v.v.v.v.v.v.v.v.v.X...V V V V V N b b b b b b b N V V V V V F X.@.#.#.#.#.#.#.#.$.J.L.L.L.L.L.L.L.L.L.L.L.L.L.L.L.L.L.L.L.L.L.L.L.L.L.L.L.L.L.L.L.L.L.L.L.L.L.L.L.L.L.L.L.L.L.L.L.L.L.L.L.L.L.L.L.L.L.L.L.L.L.Q.L.D.y.8.7.7.7.7.l j f s d d f s f z t.u.D.D.u.y.D v v e v v v v v e e v v v v v v v c c b b b b C @.G.L.L.L.L.L.L.L.L.L.L.L.L.L.L.L.L.L.L.L.L.L.L.2.+.B b b b b m m c < @       & ` xXBXCXCXCXCXCXCXCXCXCXCXCXCXCXCXCXCXCXCXCXCXCXCXCX",
"CXCXCXCXCXCXCXCXCXCXCXCXCXCXMXjX8             X < B #.G.G.2.2.2.2.2.2.2.2.2.2.G.J.K.L.L.L.L.L.L.L.L.L.L.L.L.L.L.L.L.L.L.L.L.L.L.L.L.T.T.T.T.T.T.L.K.K.K.K.K.K.K.K.K.K.K.K.K.K.L.K.v.@.S N M N N N b b b b b b b b b M N N M N B +.$.J.J.J.J.J.J.J.J.K.L.L.L.L.L.L.L.L.L.L.L.L.L.L.L.L.L.L.L.L.L.L.L.L.L.L.L.L.L.L.L.L.L.L.L.L.L.L.L.L.L.L.L.L.L.L.L.L.L.L.L.L.L.L.L.L.L.L.L.L.L.Q.L.D.p.r.9.0.9.9.7.k f s s d f f g z F D.U.U.Y.c.o.N c c c c c c c c c c c c c c c c c b b b b b C @.G.L.L.L.L.L.L.L.L.L.L.L.L.L.L.L.L.L.L.L.L.L.L.2.+.B b b b b m m c < @       & ` xXBXCXCXCXCXCXCXCXCXCXCXCXCXCXCXCXCXCXCXCXCXCXCXCX",
"CXCXCXCXCXCXCXCXCXCXCXCXCXCXMXjX8             X < o.J.~.~.L.L.L.L.L.L.L.L.L.L.L.L.L.L.L.L.L.L.L.L.L.L.L.L.L.L.L.L.L.L.L.L.L.L.L.L.L.K.K.U.U.L.L.L.L.L.L.L.L.L.L.L.L.L.L.L.L.L.L.L.G.@.B b b b b b b b b b b b b b b b b b b b B @.G.L.L.L.L.L.L.L.L.L.L.L.L.L.L.L.L.L.L.L.L.L.L.L.L.L.L.L.L.L.L.L.L.L.L.L.L.L.L.L.L.L.L.L.L.L.L.L.L.L.L.L.L.L.L.L.L.L.L.L.L.L.L.L.L.L.L.L.L.L.L.Q.L.D.p.e.w.0.w.9.7.k f s s d f f g z F G.Q.Q.L.2.O.B b b b b m b b b b m m m m b b b b b b b b b C @.G.L.L.L.L.L.L.L.L.L.L.L.L.L.L.L.L.L.L.L.L.L.L.2.+.B b b b b m m c < @       & ` xXBXCXCXCXCXCXCXCXCXCXCXCXCXCXCXCXCXCXCXCXCXCXCXCX",
"CXCXCXCXCXCXCXCXCXCXCXCXCXCXMXjX8             X < o.J.~.~.R.L.L.R.R.R.L.L.L.L.L.L.L.L.L.L.L.L.L.L.L.L.L.L.L.L.L.L.L.L.L.L.L.L.L.L.L.L.U.U.U.U.L.L.L.L.L.L.L.L.L.L.L.L.L.L.L.L.L.L.G.@.B b b b b b b b b b b b b b b b b b b b B @.G.L.R.L.L.L.L.L.L.L.L.L.L.L.L.L.L.L.L.L.L.L.L.L.L.L.L.L.L.L.L.L.L.L.L.L.L.L.L.L.L.L.L.L.L.L.L.L.L.L.L.L.L.L.L.L.L.L.L.L.L.L.L.L.L.L.L.L.L.L.L.L.L.D.p.e.w.0.w.9.7.k f s s d f f g z F G.Q.~.L.2.+.B m b m m m b b m m m m m m m m m b b b b b b C @.G.L.L.L.L.L.L.L.L.L.L.L.L.L.L.L.L.L.L.L.L.L.L.2.+.B b b b b m m c < @       & ` xXBXCXCXCXCXCXCXCXCXCXCXCXCXCXCXCXCXCXCXCXCXCXCXCX",
"CXCXCXCXCXCXCXCXCXCXCXCXCXCXMXjX8             X < S G.R.L.L.L.L.L.L.L.L.L.L.L.L.L.L.L.L.L.L.L.L.L.L.L.L.L.L.L.L.L.L.L.L.L.L.L.L.L.L.L.L.L.L.L.L.L.L.L.L.L.L.L.L.L.L.L.L.L.L.L.L.L.G.@.C b b b b b b b b b b b b b b b b b b b B @.G.L.L.L.L.L.L.L.L.L.L.L.L.L.L.L.L.L.L.L.L.L.L.L.L.L.L.L.L.L.L.L.L.L.L.L.L.L.L.L.L.L.L.L.L.L.L.L.L.L.L.L.L.L.L.L.L.L.L.L.L.L.L.L.L.L.L.L.L.L.L.L.L.D.p.r.w.0.w.9.7.k d s d d f s g z F G.L.Q.L.2.+.B b b b b b b b b b b b b b b b b b b b b b m C @.G.L.L.L.L.L.L.L.L.L.L.L.L.L.L.L.L.L.L.L.L.L.L.2.+.B b b b b m m c < @       & ` xXBXCXCXCXCXCXCXCXCXCXCXCXCXCXCXCXCXCXCXCXCXCXCXCX",
"CXCXCXCXCXCXCXCXCXCXCXCXCXCXMXjX8             X < S G.L.L.L.L.L.L.L.L.L.L.L.L.L.L.L.L.L.L.L.L.L.L.L.L.L.L.L.L.L.L.L.L.L.L.L.L.L.L.L.L.L.L.L.L.L.L.L.L.L.L.L.L.L.L.L.L.L.L.L.L.L.L.G.@.B b b b b b b b b b b b b b b b b b b b B +.G.L.L.L.L.L.L.L.L.L.L.L.L.L.L.L.L.L.L.L.L.L.L.L.L.L.L.L.L.L.L.L.L.L.L.L.L.L.L.L.L.L.L.L.L.L.L.L.L.L.L.L.L.L.L.L.L.L.L.L.L.L.L.L.L.L.L.L.L.L.L.L.L.D.p.r.w.0.w.9.7.k d s s f f s g z F G.Q.~.L.$.+.B b b b b b b b b b b b b b b b b b b b b b b B @.G.L.L.L.L.L.L.L.L.L.L.L.L.L.L.L.L.L.L.L.L.L.L.$.+.B b b b b m m c < @       & ` xXBXCXCXCXCXCXCXCXCXCXCXCXCXCXCXCXCXCXCXCXCXCXCXCX",
"CXCXCXCXCXCXCXCXCXCXCXCXCXCXMXjX8             X < S G.L.L.L.L.L.L.L.L.L.L.L.L.L.L.L.L.L.L.L.L.L.L.L.L.L.L.L.L.L.L.L.L.L.L.L.L.L.L.L.L.L.L.L.L.L.L.L.L.L.L.L.L.L.L.L.L.L.L.L.L.L.L.G.@.B b b b b b b b b b b b b b b b b b c b B +.G.L.L.L.L.L.L.L.L.L.L.L.L.L.L.L.L.L.L.L.L.L.L.L.L.L.L.L.L.L.L.L.L.L.L.L.L.L.L.L.L.L.L.L.L.L.L.L.L.L.L.L.L.L.L.L.L.L.L.L.L.L.L.L.L.L.L.L.L.L.L.L.L.D.p.e.0.0.0.9.7.k f s s f s s f z F G.Q.~.L.$.+.B b b b b b b b b b b b b b b b b b b b b c b B @.G.L.L.L.L.L.L.L.L.L.L.L.L.L.L.L.L.L.L.L.L.L.L.$.+.B b b b b m m c < @       & ` xXBXCXCXCXCXCXCXCXCXCXCXCXCXCXCXCXCXCXCXCXCXCXCXCX",
"CXCXCXCXCXCXCXCXCXCXCXCXCXCXMXjX8             X < C G.L.L.L.L.L.L.L.L.L.L.L.L.L.L.L.L.L.L.L.L.L.L.L.L.L.L.L.L.L.L.L.L.L.L.L.L.L.L.L.L.L.L.L.L.L.L.L.L.L.L.L.L.L.L.L.L.L.L.L.L.L.L.G.@.C b b b b b b b b b b b b b b b b b b b B +.G.L.L.L.L.L.L.L.L.L.L.L.L.L.L.L.L.L.L.L.L.L.L.L.L.L.L.L.L.L.L.L.L.L.L.L.L.L.L.L.L.L.L.L.L.L.L.L.L.L.L.L.L.L.L.L.L.L.L.L.L.L.L.L.L.L.L.L.L.L.L.L.L.D.p.r.w.0.w.9.7.k f s f f f f g z F G.L.Q.L.2.+.B b b b b b b b b b b b b b b b b b b b b b b C @.G.L.L.L.L.L.L.L.L.L.L.L.L.L.L.L.L.L.L.L.L.L.L.2.+.B b b b b m m c < @       & ` xXBXCXCXCXCXCXCXCXCXCXCXCXCXCXCXCXCXCXCXCXCXCXCXCX",
"CXCXCXCXCXCXCXCXCXCXCXCXCXCXMXjX8             X < C G.L.L.L.L.L.L.L.L.L.L.L.L.L.L.L.L.L.L.L.L.L.L.L.L.L.L.L.L.L.L.L.L.L.L.L.L.L.L.L.L.L.L.L.L.L.L.L.L.L.L.L.L.L.L.L.L.L.L.L.L.L.L.G.#.o.B B B B B B B B B B B B B B B B B B B o.#.G.L.L.L.L.L.L.L.L.L.L.L.L.L.L.L.L.L.L.L.L.L.L.L.L.L.L.L.L.L.L.L.L.L.L.L.L.L.L.L.L.L.L.L.L.L.L.L.L.L.L.L.L.L.L.L.L.L.L.L.L.L.L.L.L.L.L.L.L.L.L.L.L.Y.y.i.r.e.e.e.8.z z z z z h h z D X.G.L.Q.L.G.@.S B B B B B B B B B B B B B B B B B B B B B B o.#.G.L.L.L.L.L.L.L.L.L.L.L.L.L.L.L.L.L.L.L.L.L.L.2.+.B b b b b m b c < @       & ` xXBXCXCXCXCXCXCXCXCXCXCXCXCXCXCXCXCXCXCXCXCXCXCXCX",
"CXCXCXCXCXCXCXCXCXCXCXCXCXCXMXjX8             X < C G.L.L.L.L.L.L.L.L.L.L.L.L.L.L.L.L.L.L.L.L.L.L.L.L.L.L.L.L.L.L.L.L.L.L.L.L.L.L.L.L.L.L.L.L.L.L.L.L.L.L.L.L.L.L.L.L.L.L.L.L.L.L.J.2.#.@.+.+.@.@.@.@.@.+.@.@.@.@.@.+.+.+.+.@.#.$.J.L.L.L.L.L.L.L.L.L.L.L.L.L.L.L.L.L.L.L.L.L.L.L.L.L.L.L.L.L.L.L.L.L.L.L.L.L.L.L.L.L.L.L.L.L.L.L.L.L.L.L.L.L.L.L.L.L.L.L.L.L.L.L.L.L.L.L.L.L.L.L.L.Y.D.y.p.p.p.p.y.F F D D D D D F F c.K.L.L.L.J.$.#.+.+.+.@.@.+.+.@.@.@.@.@.@.+.+.+.+.@.@.+.+.@.#.2.J.L.L.L.L.L.L.L.L.L.L.L.L.L.L.L.L.L.L.L.L.L.L.2.+.B b b b b m b c < @       & ` xXBXCXCXCXCXCXCXCXCXCXCXCXCXCXCXCXCXCXCXCXCXCXCXCX",
"CXCXCXCXCXCXCXCXCXCXCXCXCXCXMXjX8             X < C G.L.R.L.L.L.L.L.L.L.L.L.L.L.L.L.L.L.L.L.L.L.L.L.L.L.L.L.L.L.L.L.L.L.L.L.L.L.L.L.L.L.L.L.L.L.L.L.L.L.L.L.L.L.L.L.L.L.L.L.L.L.L.K.J.G.G.G.G.G.G.G.G.G.G.G.G.G.G.G.G.G.G.G.G.G.J.K.L.L.L.L.L.L.L.L.L.L.L.L.L.L.L.L.L.L.L.L.L.L.L.L.L.L.L.L.L.L.L.L.L.L.L.L.L.L.L.L.L.L.L.L.L.L.L.L.L.L.L.L.L.L.L.L.L.L.L.L.L.L.L.L.L.L.L.L.L.L.L.L.K.Y.Y.D.D.D.D.D.D.D.D.D.c.c.D.D.G.Y.K.L.L.L.K.J.G.G.2.G.G.G.G.2.G.G.G.G.G.G.G.G.G.G.G.G.G.G.G.G.J.K.L.L.L.L.L.L.L.L.L.L.L.L.L.L.L.L.L.L.L.L.L.L.2.+.B b b b b m m c < @       & ` xXBXCXCXCXCXCXCXCXCXCXCXCXCXCXCXCXCXCXCXCXCXCXCXCX",
"CXCXCXCXCXCXCXCXCXCXCXCXCXCXMXjX8             X < S G.L.L.L.L.L.L.L.L.L.L.L.L.L.L.L.L.L.L.L.L.L.L.L.L.L.L.L.L.L.L.L.L.L.L.L.L.L.L.L.L.L.L.L.L.L.L.L.L.L.L.L.L.L.L.L.L.L.L.L.L.L.L.L.L.L.L.L.L.L.L.L.L.L.L.L.L.L.L.L.L.L.L.L.L.L.L.L.L.L.L.L.L.L.L.L.L.L.L.L.L.L.L.L.L.L.L.L.L.L.L.L.L.L.L.L.L.L.L.L.L.L.L.L.L.L.L.L.L.L.L.L.L.L.L.L.L.L.L.L.L.L.L.L.L.L.L.L.L.L.L.L.L.L.L.L.L.L.L.L.L.L.L.L.L.L.K.K.L.L.L.L.L.L.L.L.L.L.L.L.L.L.L.L.L.L.L.L.L.L.L.L.L.L.L.L.L.L.L.L.L.L.L.L.L.L.L.L.L.L.L.L.L.L.L.L.L.L.L.L.L.L.L.L.L.L.L.L.L.L.L.L.2.+.B b b b b m m c < @       & ` xXBXCXCXCXCXCXCXCXCXCXCXCXCXCXCXCXCXCXCXCXCXCXCXCX",
"CXCXCXCXCXCXCXCXCXCXCXCXCXCXMXjX8             X < S G.L.L.L.L.L.L.L.L.L.L.L.L.L.L.L.L.L.L.L.L.L.L.L.L.L.L.L.L.L.L.L.L.L.L.L.L.L.L.L.L.L.L.L.L.L.L.L.L.L.L.L.L.L.L.L.L.L.L.L.L.L.L.L.L.L.L.L.L.L.L.L.L.L.L.L.L.L.L.L.L.L.L.L.L.L.L.L.L.L.L.L.L.L.L.L.L.L.L.L.L.L.L.L.L.L.L.L.L.L.L.L.L.L.L.L.L.L.L.L.L.L.L.L.L.L.L.L.L.L.L.L.L.L.L.L.L.L.L.L.L.L.L.L.L.L.L.L.L.L.L.L.L.L.L.L.L.L.L.L.L.L.L.L.Q.Q.L.L.L.L.L.L.Q.Q.L.L.L.L.L.L.L.L.L.L.L.L.L.L.L.L.L.L.L.L.L.L.L.L.L.L.L.L.L.L.L.L.L.L.L.L.L.L.L.L.L.L.L.L.L.L.L.L.L.L.L.L.L.L.L.L.L.L.2.+.B b b b b m m c < @       & ` xXBXCXCXCXCXCXCXCXCXCXCXCXCXCXCXCXCXCXCXCXCXCXCXCX",
"CXCXCXCXCXCXCXCXCXCXCXCXCXCXMXjX8             X < S G.L.L.L.L.L.L.L.L.L.L.L.L.L.L.L.L.L.L.L.L.L.L.L.L.L.L.L.L.L.L.L.L.L.L.L.L.L.L.L.L.L.L.L.L.L.L.L.L.L.L.L.L.L.L.L.L.L.L.L.L.L.L.L.L.L.L.L.L.L.L.L.L.L.L.L.L.L.L.L.L.L.L.L.L.L.L.L.L.L.L.L.L.L.L.L.L.L.L.L.L.L.L.L.L.L.L.L.L.L.L.L.L.L.L.L.L.L.L.L.L.L.L.L.L.L.L.L.L.L.L.L.L.L.L.L.L.L.L.L.L.L.L.L.L.L.L.L.L.L.L.L.L.L.L.L.L.L.L.L.L.L.L.L.L.L.L.L.L.L.L.L.L.L.L.L.L.L.L.L.L.L.L.L.L.L.L.L.L.L.L.L.L.L.L.L.L.L.L.L.L.L.L.L.L.L.L.L.L.L.L.L.L.L.L.L.L.L.L.L.L.L.L.L.L.L.L.L.L.L.L.L.$.+.B b b b b m m c < @       & ` xXBXCXCXCXCXCXCXCXCXCXCXCXCXCXCXCXCXCXCXCXCXCXCXCX",
"CXCXCXCXCXCXCXCXCXCXCXCXCXCXMXjX8             X < S G.R.L.L.L.L.L.L.L.L.L.L.L.L.L.L.L.L.L.L.L.L.L.L.L.L.L.L.L.L.L.L.L.L.L.L.L.L.L.L.L.L.L.L.L.L.L.L.L.L.L.L.L.L.L.L.L.L.L.L.L.L.L.L.L.L.L.L.L.L.L.L.L.L.L.L.L.L.L.L.L.L.L.L.L.L.L.L.L.L.L.L.L.L.L.L.L.L.L.L.L.L.L.L.K.J.J.G.G.J.G.G.J.J.J.G.G.G.J.J.J.J.J.G.G.G.G.G.G.G.J.J.J.J.G.G.G.G.J.J.J.J.G.G.J.J.J.G.G.G.J.J.J.J.J.G.G.G.J.J.J.J.K.L.L.L.L.L.L.L.L.L.L.L.L.L.L.L.L.L.L.L.L.L.L.L.L.L.L.L.L.L.L.L.L.L.L.L.L.L.L.L.L.L.L.L.L.L.L.L.L.L.L.L.L.L.L.I.I.3.3.3.3.I.I.L.L.L.L.L.L.K.$.+.B b b b b m m c < @       & ` xXBXCXCXCXCXCXCXCXCXCXCXCXCXCXCXCXCXCXCXCXCXCXCXCX",
"CXCXCXCXCXCXCXCXCXCXCXCXCXCXMXjX8             X < S G.~.L.L.L.L.L.L.L.L.L.L.L.L.L.L.L.L.L.L.L.L.L.L.L.L.L.L.L.L.L.L.L.L.L.L.L.L.L.L.L.L.L.L.L.L.L.L.L.L.L.L.L.L.L.L.L.L.L.L.L.L.L.L.L.L.L.L.L.L.L.L.L.L.L.L.L.L.L.L.L.L.L.L.L.L.L.L.L.L.L.L.L.L.L.L.L.L.L.L.L.L.L.L.J.$.#.#.#.#.#.#.#.#.#.#.#.#.#.#.#.#.#.#.#.#.#.#.#.#.#.#.#.#.#.#.#.#.#.#.#.#.#.#.#.#.#.#.#.#.#.#.#.#.#.#.#.#.#.#.#.2.J.L.L.L.L.L.L.L.L.L.L.L.L.L.L.L.L.L.L.L.L.L.L.L.L.L.L.L.L.L.L.L.L.L.L.L.L.L.L.L.L.L.L.L.L.L.L.L.L.L.L.L.L.L.I.3.3.5.5.5.<.3.3.L.L.L.L.L.L.L.2.+.B b b b b m m c < @       & ` xXBXCXCXCXCXCXCXCXCXCXCXCXCXCXCXCXCXCXCXCXCXCXCXCX",
"CXCXCXCXCXCXCXCXCXCXCXCXCXCXMXjX8             X < S G.~.L.L.L.L.L.L.L.L.L.L.L.L.L.L.L.L.L.L.L.L.L.L.L.L.L.L.L.L.L.L.L.L.L.L.L.L.L.L.L.L.L.L.L.L.L.L.L.L.L.L.L.L.L.L.L.L.L.L.L.L.L.L.L.L.L.L.L.L.L.L.L.L.L.L.L.L.L.L.L.L.L.L.L.L.L.L.L.L.L.L.L.L.L.L.L.L.L.L.L.L.L.K.2.@.o.C C C C C C C C C C C C C C C C C C C C C C C C C C C C C C C C C C C C C C C C C C C C C C C C C C C C C o.#.G.L.L.L.L.L.L.L.L.L.L.L.L.L.L.L.L.L.L.L.L.L.L.L.L.L.L.L.L.L.L.L.L.L.L.L.L.L.L.L.L.L.L.L.L.L.L.L.L.L.L.L.L.L.I.3.5.=.=.=.=.5.3.I.L.L.L.L.L.L.2.+.B b b b b m m c < @       & ` xXBXCXCXCXCXCXCXCXCXCXCXCXCXCXCXCXCXCXCXCXCXCXCXCX",
"CXCXCXCXCXCXCXCXCXCXCXCXCXCXMXjX8             X < S G.~.L.L.L.L.L.L.L.L.L.L.L.L.L.L.L.L.L.L.L.L.L.L.L.L.L.L.L.L.L.L.L.L.L.L.L.L.L.L.L.L.L.L.L.L.L.L.L.L.L.L.L.L.L.L.L.L.L.L.L.L.L.L.L.L.L.L.L.L.L.L.L.L.L.L.L.L.L.L.L.L.L.L.L.L.L.L.L.L.L.L.L.L.L.L.L.L.L.L.L.L.L.K.$.O.B b b b m m m m m m m m m m m m m m m m m m m m m m m m m m m m m m m m m m m m m m m m m m m m m m m b b m B @.G.L.L.L.L.L.L.L.L.L.L.L.L.L.L.L.L.L.L.L.L.L.L.L.L.L.L.L.L.L.L.L.L.L.L.L.L.L.L.L.L.L.L.L.L.L.L.L.L.L.L.L.L.L.I.<.=.>.-.-.>.5.3.I.L.L.L.L.L.L.2.+.B b b b b m m c < @       & ` xXBXCXCXCXCXCXCXCXCXCXCXCXCXCXCXCXCXCXCXCXCXCXCXCX",
"CXCXCXCXCXCXCXCXCXCXCXCXCXCXMXjX8             X < S G.~.L.L.L.L.L.L.L.L.L.L.L.L.L.L.L.L.L.L.L.L.L.L.L.L.L.L.L.L.L.L.L.L.L.L.L.L.L.L.L.L.L.L.L.L.L.L.L.L.L.L.L.L.L.L.L.L.L.L.L.L.L.L.L.L.L.L.L.L.L.L.L.L.L.L.L.L.L.L.L.L.L.L.L.L.L.L.L.L.L.L.L.L.L.L.L.L.L.L.L.L.L.K.$.o.N b b b b b b b b b b b b b b b b b b b b b b b b b b b b b b b b b b b b b b b b b b b b b b b b b b b b b B +.G.L.L.L.L.L.L.L.L.L.L.L.L.L.L.L.L.L.L.L.L.L.L.L.L.L.L.L.L.L.L.L.L.L.L.L.L.L.L.L.L.L.L.L.L.L.L.L.L.L.L.L.T.L.3.5.=.-.-.-.>.=.<.I.L.L.L.L.L.L.2.+.B b b b b m m c < @       & ` xXBXCXCXCXCXCXCXCXCXCXCXCXCXCXCXCXCXCXCXCXCXCXCXCX",
"CXCXCXCXCXCXCXCXCXCXCXCXCXCXMXjX8             X < S G.L.L.L.L.L.L.L.L.L.L.L.L.L.L.L.L.L.L.L.L.L.L.L.L.L.L.L.L.L.L.L.L.L.L.L.L.L.L.L.L.L.L.L.L.L.L.L.L.L.L.L.L.L.L.L.L.L.L.L.L.L.L.L.L.L.L.L.L.L.L.L.L.L.L.L.L.L.L.L.L.L.L.L.L.L.L.L.L.L.L.L.L.L.L.L.L.L.L.L.L.L.L.K.$.O.N b b b b b b b b b b b b b b b b b b b b b b b b b b b b b b b b b b b b b b b b b b b b b b b b b b b b b B +.G.L.L.L.L.L.L.L.L.L.L.L.L.L.L.L.L.L.L.L.L.L.L.L.L.L.L.L.L.L.L.L.L.L.L.L.L.L.L.L.L.L.L.L.L.L.L.L.L.L.L.L.T.L.3.<.=.-.-.-.>.5.<.I.L.L.L.L.L.L.2.+.B b b b b m m c < @       & ` xXBXCXCXCXCXCXCXCXCXCXCXCXCXCXCXCXCXCXCXCXCXCXCXCX",
"CXCXCXCXCXCXCXCXCXCXCXCXCXCXMXjX8             X < S G.L.L.L.L.L.L.L.L.L.L.L.L.L.L.L.L.L.L.L.L.L.L.L.L.L.L.L.L.L.L.L.L.L.L.L.L.L.L.L.L.L.L.L.L.L.L.L.L.L.L.L.L.L.L.L.L.L.L.L.L.L.L.L.L.L.L.L.L.L.L.L.L.L.L.L.L.L.L.L.L.L.L.L.L.L.L.L.L.L.L.L.L.L.L.L.L.L.L.L.L.L.L.K.$.O.B b b b b b b b b b b b b b b b b b b b b b b b b b b b b b b b b b b b b b b b b b b b b b b b b b b b b b B @.G.L.L.L.L.L.L.L.L.L.L.L.L.L.L.L.L.L.L.L.L.L.L.L.L.L.L.L.L.L.L.L.L.L.L.L.L.L.L.L.L.L.L.L.L.L.L.L.L.L.L.L.T.L.3.<.=.-.-.-.>.5.<.I.L.L.L.L.L.L.2.+.B b b b b m m c < @       & ` xXBXCXCXCXCXCXCXCXCXCXCXCXCXCXCXCXCXCXCXCXCXCXCXCX",
"CXCXCXCXCXCXCXCXCXCXCXCXCXCXMXjX8             X < S G.L.R.L.L.L.L.L.L.L.L.L.L.L.L.L.L.L.L.L.L.L.L.L.L.L.L.L.L.L.L.L.L.L.L.L.L.L.L.L.L.L.L.L.L.L.L.L.L.L.L.L.L.L.L.L.L.L.L.L.L.L.L.L.L.L.L.L.L.L.L.L.L.L.L.L.L.L.L.L.L.L.L.L.L.L.L.L.L.L.L.L.L.L.L.L.L.L.L.L.L.L.L.K.$.O.B b b b b b m m m m m m m m m m m m m m m m m m m m m m m m m m m m m m b b b b b b b b b b b b b b b b b b B +.G.L.L.L.L.L.L.L.L.L.L.L.L.L.L.L.L.L.L.L.L.L.L.L.L.L.L.L.L.L.L.L.L.L.L.L.L.L.L.L.L.L.L.L.L.L.L.L.L.L.L.L.T.T.I.<.=.-.-.-.>.5.<.I.L.L.L.L.L.L.$.+.B b b b b m m c < @       & ` xXBXCXCXCXCXCXCXCXCXCXCXCXCXCXCXCXCXCXCXCXCXCXCXCX",
"CXCXCXCXCXCXCXCXCXCXCXCXCXCXMXjX8             X < S G.R.L.L.L.L.L.L.L.L.L.L.L.L.L.L.L.L.L.L.L.L.L.L.L.L.L.L.L.L.L.L.L.L.L.L.L.L.L.L.L.L.L.L.L.L.L.L.L.L.L.L.L.L.L.L.L.L.L.L.L.L.L.L.L.L.L.L.L.L.L.L.L.L.L.L.L.L.L.L.L.L.L.L.L.L.L.L.L.L.L.L.L.L.L.L.L.L.L.L.L.L.L.K.$.O.B b b b b m m m m m m m m m m m m m m m m m m m m m m m m m m m m m m m m b b b b b b b b b b b b b b b b b B +.G.L.L.L.L.L.L.L.L.L.L.L.L.L.L.L.L.L.L.L.L.L.L.L.L.L.L.L.L.L.L.L.L.L.L.L.L.L.L.L.T.T.L.L.L.L.L.L.T.T.L.T.U.T.I.<.=.-.-.-.>.5.<.I.L.L.L.L.L.L.$.+.B b b b b m m c < @       & ` xXBXCXCXCXCXCXCXCXCXCXCXCXCXCXCXCXCXCXCXCXCXCXCXCX",
"CXCXCXCXCXCXCXCXCXCXCXCXCXCXMXjX8             X < C G.L.L.L.L.L.L.L.L.L.L.L.L.L.L.L.L.L.L.L.L.L.L.L.L.L.L.L.L.L.U.U.U.U.U.U.U.U.U.U.U.U.U.U.U.U.U.U.U.U.U.U.U.U.U.U.U.U.U.U.U.U.U.U.U.U.U.U.U.U.U.L.L.L.L.L.L.L.L.L.L.L.L.L.L.L.L.L.L.L.L.L.L.L.L.L.L.L.L.L.L.L.L.K.$.O.B b b b b b b b b b b b b b b b b b b b b b b b b b b b b b b b b b b b b b b b b b b b b b b b b b b b b b B @.G.L.L.L.L.L.L.L.L.L.L.L.L.L.L.L.L.L.L.L.L.L.L.L.L.L.L.L.L.L.L.I.I.I.I.I.I.I.I.I.I.I.I.I.I.I.I.I.I.I.I.I.L.L.3.5.=.-.-.-.>.5.<.I.L.L.L.L.L.L.2.+.B b b b b m m c < @       & ` xXBXCXCXCXCXCXCXCXCXCXCXCXCXCXCXCXCXCXCXCXCXCXCXCX",
"CXCXCXCXCXCXCXCXCXCXCXCXCXCXMXjX8             X < C G.L.L.L.L.L.L.L.L.L.L.L.L.L.L.L.L.L.L.L.L.L.L.L.L.L.L.L.L.U.1.4.4.4.4.4.4.4.4.4.4.4.4.4.4.4.4.4.4.4.4.4.4.4.4.4.4.4.4.4.4.4.4.4.4.4.4.4.4.4.1.P.L.L.L.L.L.L.L.L.L.L.L.L.L.L.L.L.L.L.L.L.L.L.L.L.L.L.L.L.L.L.L.K.$.O.B b b b b c w w q q w w w w w w w w w w w w w w w w w w w w w w w q w w e c b b b b b b b b b b b b b b b b B @.G.L.L.L.L.L.L.L.L.L.L.L.L.L.L.L.L.L.L.L.L.L.L.L.L.L.L.L.L.I.3.3.3.3.3.3.3.3.3.3.3.3.3.3.3.3.3.3.3.3.3.3.3.3.<.5.=.-.-.-.>.5.<.I.L.L.L.L.L.L.2.+.B b b b b m m c < @       & ` xXBXCXCXCXCXCXCXCXCXCXCXCXCXCXCXCXCXCXCXCXCXCXCXCX",
"CXCXCXCXCXCXCXCXCXCXCXCXCXCXMXjX8             X < C G.L.L.L.L.L.L.L.L.L.L.L.L.L.L.L.L.L.L.L.L.L.L.L.L.L.L.L.U.2.4.OXoXoXOXOXOXOXOXOXOXOXOXOXOXOXOXOXOXOXOXOXOXOXOXOXOXOXOXOXOXOXOXOXOXOXoXoXoXOX4.1.U.L.L.L.L.L.L.L.L.L.L.L.L.L.L.L.L.L.L.L.L.L.L.L.L.L.L.L.L.L.L.K.$.O.B b b b c q , = = = = = = = = = = = = = = = = = = = = = = = = = = = = : q c b m m b b b b b b b b b b b b b B @.G.L.L.L.L.L.L.L.L.L.L.L.L.L.L.L.L.L.L.L.L.L.L.L.L.L.L.L.L.I.3.5.5.5.5.5.5.5.5.5.5.5.5.5.5.5.5.5.5.5.5.5.5.5.5.=.>.-.-.-.>.5.<.I.L.T.L.L.L.L.2.+.B b b b b m b c < @       & ` xXBXCXCXCXCXCXCXCXCXCXCXCXCXCXCXCXCXCXCXCXCXCXCXCX",
"CXCXCXCXCXCXCXCXCXCXCXCXCXCXMXjX8             X < C G.L.R.L.L.L.L.L.L.L.L.L.L.L.L.L.L.L.L.L.L.L.L.L.L.L.L.L.U.4.OXXX_._._._._._._._._._._._._._._._._._._._._._._._._._._._._._._._._._._._._.XXOX4.U.L.L.L.L.L.L.L.L.L.L.L.L.L.L.L.L.L.L.L.L.L.L.L.L.L.L.L.L.L.L.K.$.O.N b b b c < @ .   . . . . . . . . . . . . . . . . . . . . . . . .     O : w b m m b b b b b b b b b b b b b B +.G.L.L.L.L.L.L.L.L.L.L.L.L.L.L.L.L.L.L.L.L.L.L.L.L.L.L.L.L.3.<.5.>.>.>.>.>.>.>.>.>.>.>.>.>.>.>.>.>.>.>.>.>.>.>.>.-.-.-.-.>.5.<.I.L.L.L.L.L.L.2.+.B b b b b m m c < @       & ` xXBXCXCXCXCXCXCXCXCXCXCXCXCXCXCXCXCXCXCXCXCXCXCXCX",
"CXCXCXCXCXCXCXCXCXCXCXCXCXCXMXjX8             X < S G.L.L.L.L.L.L.L.L.L.L.L.L.L.L.L.L.L.L.L.L.L.L.L.L.L.L.!.U.4.OX_.).).).).).).).).).).).).).).).).).).).).).).).).).).).).).).).).).).).).)._.oX4.U.L.L.L.L.L.L.L.L.L.L.L.L.L.L.L.L.L.L.L.L.L.L.L.L.L.L.L.L.L.L.K.$.O.N b b b e , O                                                         . - w b m m b b b b b b b b b b b b b B +.G.L.L.L.L.L.L.L.L.L.L.L.L.L.L.L.L.L.L.L.L.L.L.L.L.L.L.T.L.3.<.=.-.-.-.-.-.-.-.-.-.-.-.-.-.-.-.-.-.-.-.-.-.-.-.-.-.-.-.-.>.5.<.I.L.L.L.L.L.L.2.+.B b b b b m m c < @       & ` xXBXCXCXCXCXCXCXCXCXCXCXCXCXCXCXCXCXCXCXCXCXCXCXCX",
"CXCXCXCXCXCXCXCXCXCXCXCXCXCXMXjX8             X < S G.L.L.L.L.L.L.L.L.L.L.L.L.L.L.L.L.L.L.L.L.L.L.L.L.L.L.T.U.4.OX_.).).).).).).).).).).).).).).).).).).).).).).).).).).).).).).).).).).).).)._.oX4.U.L.L.L.L.L.L.L.L.L.L.L.L.L.L.L.L.L.L.L.L.L.L.L.L.L.L.L.L.L.L.K.$.O.N b b b e , O                                                         . - w b m m b b b b b b b b b b b b b B +.G.L.L.L.L.L.L.L.L.L.L.L.L.L.L.L.L.L.L.L.L.L.L.L.L.L.L.T.L.3.<.=.-.-.-.-.-.-.-.-.-.-.-.-.-.-.-.-.-.-.-.-.-.-.-.-.-.-.-.-.>.5.<.I.L.L.L.L.L.L.2.+.B b b b b m m c < @       & ` xXBXCXCXCXCXCXCXCXCXCXCXCXCXCXCXCXCXCXCXCXCXCXCXCX",
"CXCXCXCXCXCXCXCXCXCXCXCXCXCXMXjX8             X < S G.L.L.L.L.L.L.L.L.L.L.L.L.L.L.L.L.L.L.L.L.L.L.L.L.L.L.L.U.4.OX_.).).).`.`.`.`.`.).).`.`.`.`.`.`.).).`.`.`.`.).`.`.`.`.`.`.`.`.`.).).).).)._.OX4.U.L.L.L.L.L.L.L.L.L.L.L.L.L.L.L.L.L.L.L.L.L.L.L.L.L.L.L.L.L.L.K.$.O.B b b b e , O                                                         X - w b m m b b b b b b b b b b b b b B @.G.L.L.L.L.L.L.L.L.L.L.L.L.L.L.L.L.L.L.L.L.L.L.L.L.L.L.T.L.I.<.=.-.-.-.-.-.-.-.-.-.-.-.-.-.-.-.-.-.-.-.-.-.-.-.-.-.-.-.-.>.5.<.I.L.L.L.L.L.L.$.+.B b b b b m m c < @       & ` xXBXCXCXCXCXCXCXCXCXCXCXCXCXCXCXCXCXCXCXCXCXCXCXCX",
"CXCXCXCXCXCXCXCXCXCXCXCXCXCXMXjX8             X < S G.~.~.L.L.L.L.L.L.L.L.L.L.L.L.L.L.L.L.L.L.L.L.L.L.L.L.!.U.4.OX_.).).`.`.`.`.`.`.`.`.`.`.`.`.`.`.`.`.`.`.`.`.`.`.`.`.`.`.`.`.`.`.`.`.).).)._.OX4.U.L.L.L.L.L.L.L.L.L.L.L.L.L.L.L.L.L.L.L.L.L.L.L.L.L.L.L.L.L.L.K.$.O.B b m b e , O                                                         X : w b N m m b b b b b b b b b b b b B @.G.L.L.L.L.L.L.L.L.L.L.L.L.L.L.L.L.L.L.L.L.L.L.L.L.L.L.T.T.I.<.=.-.-.-.-.-.-.-.-.-.-.-.-.-.-.-.-.-.-.-.-.-.-.-.-.-.-.-.-.>.5.<.I.T.T.L.L.L.L.2.+.B b b b b m m c < @       & ` xXBXCXCXCXCXCXCXCXCXCXCXCXCXCXCXCXCXCXCXCXCXCXCXCX",
"CXCXCXCXCXCXCXCXCXCXCXCXCXCXMXjX8             X q o.J.~.~.~.L.L.L.L.L.L.L.L.L.L.L.L.L.L.L.L.L.L.L.L.L.L.!.!.L.4.OX_.).).`.`.`.`.`.`.`.`.`.`.`.`.`.`.`.`.`.`.`.`.`.`.`.`.`.`.).).`.`.`.`.`.).)._.OX4.U.L.L.L.L.L.L.L.L.L.L.L.L.L.L.L.L.L.L.L.L.L.L.L.L.L.L.L.L.L.L.K.$.+.B m m m c , O                                                         X : w b N N m m m N m m b b b b b b b B @.G.L.L.L.L.L.L.L.L.L.L.L.L.L.L.L.L.L.L.L.L.L.T.T.T.T.T.U.T.I.6.=.>.-.-.-.-.-.-.-.-.-.-.-.-.-.-.-.-.-.-.-.-.-.-.-.-.-.-.-.>.5.6.I.L.L.L.L.R.L.G.+.B b b b b m m c < @       & ` xXBXCXCXCXCXCXCXCXCXCXCXCXCXCXCXCXCXCXCXCXCXCXCXCX",
"CXCXCXCXCXCXCXCXCXCXCXCXCXCXMXjX8             X < S G.L.L.L.L.L.L.L.L.L.L.L.L.L.L.L.L.L.L.L.L.L.L.L.L.L.L.L.U.4.OX_.).).`.`.`.`.`.`.`.`.`.`.`.`.`.`.`.`.`.`.`.`.`.`.`.`.`.`.`.).`.`.`.`.`.).)._.OX4.U.L.L.L.L.L.L.L.L.L.L.L.L.L.L.L.L.L.L.L.L.L.L.L.L.L.L.L.L.L.L.K.$.O.N b b b e , O                                                         X ; w b m m b b b b b b b b b b b b b B @.G.L.L.L.L.L.L.L.L.L.L.L.L.L.L.L.L.L.L.L.L.L.L.L.L.L.L.L.L.3.5.=.>.-.-.-.-.-.-.-.-.-.-.-.-.-.-.-.-.-.-.-.-.-.-.-.-.-.-.-.>.5.<.I.L.L.K.L.L.L.2.+.B b b b b m m c < @       & ` xXBXCXCXCXCXCXCXCXCXCXCXCXCXCXCXCXCXCXCXCXCXCXCXCX",
"CXCXCXCXCXCXCXCXCXCXCXCXCXCXMXjX8             . , b +.#.#.#.$.G.K.L.L.L.L.L.L.L.L.L.L.L.L.L.L.L.U.U.2.1.1.1.4.4.oX/.(.(.(.(.(.(.(.(.`.`.`.`.`.`.`.`.`.`.`.`.`.`.(.(.(.(.(.(.(.(.(.(.(.(.(.(.(./.oX4.U.L.L.L.L.L.L.L.L.L.L.L.L.L.L.L.L.L.L.L.L.L.L.L.L.L.L.L.L.L.L.K.$.S c e e e q - X                                                         . = < e c e e e e e c c b b b b b b b B @.G.L.L.L.L.L.L.L.L.L.L.L.L.L.L.L.L.L.L.L.L.I.3.3.3.3.3.3.3.3.5.=.>.-.-.-.-.-.-.-.-.-.-.-.-.;.&.&.&.&.&.&.&.&.&.&.&.&.&.&.*.<.<.2.G.G.G.G.G.2.#.o.B b b b b m m c < @       & ` xXBXCXCXCXCXCXCXCXCXCXCXCXCXCXCXCXCXCXCXCXCXCXCXCX",
"CXCXCXCXCXCXCXCXCXCXCXCXCXCXMXjX8               @ < c c c b B @.G.L.L.L.L.L.L.L.L.L.L.L.L.L.L.L.U.1.4.} } } } oXXX^.^.^.^.^.^.^.^./.(.`.`.`.`.`.`.`.`.`.`.`.`.`.(./.^.^.^.^.^.^.^.^.^.^.^.^.^.^.E 4.U.L.L.L.L.L.L.L.L.L.L.L.L.L.L.L.L.L.L.L.L.L.L.L.L.L.L.L.L.L.L.K.#.N q , , , - @ .                                                           + = , , , , , , < q e b m m b b b b B @.G.L.L.L.L.L.L.L.L.L.L.L.L.L.L.L.L.L.L.L.I.3.5.5.5.5.5.5.5.5.=.>.-.-.-.-.-.-.-.-.-.-.-.-.-.&.&.%.%.%.%.%.%.%.%.%.*.*.*.*.,.,.,.+.@.@.@.@.@.+.o.C N b b b b m m c < @       & ` xXBXCXCXCXCXCXCXCXCXCXCXCXCXCXCXCXCXCXCXCXCXCXCXCX",
"CXCXCXCXCXCXCXCXCXCXCXCXCXCXMXjX8               X + = = @ = w C 2.L.L.L.L.L.L.L.L.L.L.L.L.L.L.L.U.4.OXXXXXXXXXXX^.Y Y Y Y Y Y Y Y ^.(.`.`.`.`.`.`.`.`.`.`.`.`.`.(.^.Y Y Y Y Y Y Y Y Y Y Y Y Y I _ 1.U.L.L.L.L.L.L.L.L.L.L.L.L.L.L.L.L.L.L.L.L.L.L.L.L.L.L.L.L.L.R.K.@.c = O X O X .                                                             . X O O O O O X + - q c m m b b b b B +.G.L.L.L.L.L.L.L.L.L.L.L.L.L.L.L.L.L.L.L.3.5.=.=.>.=.=.=.=.=.>.>.-.-.-.-.-.-.-.-.-.-.-.-.;.&.%.i i i i i i i i i a Z Z Z Z Z B B B B B B B B B N m b b b b m m c < @       & ` xXBXCXCXCXCXCXCXCXCXCXCXCXCXCXCXCXCXCXCXCXCXCXCXCX",
"CXCXCXCXCXCXCXCXCXCXCXCXCXCXMXjX8                           : N $.L.R.L.L.L.L.L.L.L.L.L.L.L.L.L.U.4.oX_.).).)./.Y Y G G G G H G Y ^.(.`.`.`.`.`.`.`.`.`.`.`.`.`./.^.Y G G K G G G G G G K G G I ) 1.U.L.L.L.L.L.L.L.L.L.L.L.L.L.L.L.L.L.L.L.L.L.L.L.L.L.L.L.L.L.~.K.+.w +                                                                                         @ q c m m b b b b B +.G.L.L.L.L.L.L.L.L.L.L.L.L.L.L.L.L.L.L.L.3.5.>.-.-.-.-.-.-.-.-.-.-.-.-.-.-.-.-.-.-.-.-.-.;.&.%.i t t t t t t u p a b b b b b b b b b b b b b b b b b b b b m m c < @       % ` xXBXCXCXCXCXCXCXCXCXCXCXCXCXCXCXCXCXCXCXCXCXCXCXCX",
"CXCXCXCXCXCXCXCXCXCXCXCXCXCXMXjX8                           : N $.L.R.L.L.L.L.L.L.L.L.L.L.L.L.L.P.4.oX_.).).).(.Y Y H H H H K K Y ^.(.`.'.'.`.`.`.`.`.`.`.'.'.`./.Y Y H K K K K K K G G G G G I ) 1.U.L.L.L.L.L.L.L.L.L.L.L.L.L.L.L.L.L.L.L.L.L.L.L.L.R.~.R.R.~.~.L.+.w +                                                                                         @ < c m m b b b b B +.G.L.L.L.L.L.L.L.L.L.L.L.L.L.L.L.L.L.L.L.3.5.>.-.-.-.-.-.-.-.-.-.-.-.-.-.-.-.-.-.-.-.-.:.-.&.%.i r r r t t t u p a b M M b b b b b b b b b b b b m m m m m N N c < O       % _ xXBXCXCXCXCXCXCXCXCXCXCXCXCXCXCXCXCXCXCXCXCXCXCXCX",
"CXCXCXCXCXCXCXCXCXCXCXCXCXCXMXjX8                           : N $.L.R.L.L.L.L.L.L.L.L.L.L.L.L.L.G.4.oX_.).).).(.Y Y H H G G K G Y ^.(.`.'.`.`.`.`.`.`.`.`.`.`.`./.^.Y G K G G K K K G G G G G I ) 1.U.L.L.L.L.L.L.L.L.L.L.L.L.L.L.L.L.L.L.L.L.L.L.L.L.L.L.L.L.~.~.K.+.w +                                                                                         @ 0 c m m b b b b B +.G.L.L.L.L.L.L.L.L.L.L.L.L.L.L.L.L.L.L.L.3.5.>.-.-.-.-.-.-.-.-.-.-.-.-.-.-.-.-.-.-.-.-.:.;.&.%.i t r t t t t u p a b b b b b b b b b b b b b b b m m m m m N m c < +       % ` xXBXCXCXCXCXCXCXCXCXCXCXCXCXCXCXCXCXCXCXCXCXCXCXCX",
"CXCXCXCXCXCXCXCXCXCXCXCXCXCXMXjX8                           , N $.L.~.L.L.L.L.L.L.L.L.L.L.L.L.L.U.4.oX_.).).)./.^.Y G H G G H G Y Y /.(.(.(.(.(.(.(.(.(.(.(.(.(./.Y Y G G G G G K K K K G G G I ) 1.U.L.L.L.L.L.L.L.L.L.L.L.L.L.L.L.L.L.L.L.L.L.K.J.G.$.$.$.$.2.2.#.C q O         . o # # # # # # # # # # # # # # # # # # # # # # o .                             @ q c m m b b b b B @.G.L.L.L.L.L.L.L.L.L.L.L.L.L.L.L.L.L.L.L.3.5.>.-.-.-.-.-.-.-.-.-.-.-.-.-.-.-.-.;.;.&.&.&.&.&.%.i t t t t t t u p a b b b b b b b b b b b b b b c c c c c c c c e w > * & & 6 } vXVXCXCXCXCXCXCXCXCXCXCXCXCXCXCXCXCXCXCXCXCXCXCXCX",
"CXCXCXCXCXCXCXCXCXCXCXCXCXCXMXjX8                           , N $.L.R.L.L.L.L.L.L.L.L.L.L.L.L.L.U.4.oX_.).).`./.^.Y G K G G G G Y Y ^.^.^.^.^.^.^.^.^.^.^.^.^.^.^.Y Y K K G G G G G K K G G G I ) 1.U.L.L.L.L.L.L.L.L.L.L.L.L.L.L.L.L.L.L.L.L.L.J.#.o.B N N N N B m e : X       o $ 4 5 P 5 5 5 5 5 5 5 5 5 5 5 5 5 5 5 5 5 5 P 5 4 $ o                           @ q c m m b b b b B @.G.L.L.L.L.L.L.L.L.L.L.L.L.L.L.L.L.L.L.L.3.5.>.-.-.-.-.-.-.-.-.-.-.-.-.-.-.-.;.&.&.&.&.&.%.%.i y t t t t t t u p a b b b b b b b b b b b b b c w q < < < < < < w v ' { { { | lXnXVXCXCXCXCXCXCXCXCXCXCXCXCXCXCXCXCXCXCXCXCXCXCXCX",
"CXCXCXCXCXCXCXCXCXCXCXCXCXCXMXjX8                           , N $.L.R.L.L.L.L.L.L.L.L.L.L.L.L.L.G.4.oX_.).).`./.^.Y G K K K K K K Y Y Y Y Y Y Y Y Y Y Y Y Y Y Y Y Y K K K G G G G G G G G G G I E 1.U.L.L.L.L.L.L.L.L.L.L.L.L.L.L.L.L.L.L.L.L.L.G.o.c < ; : : : , : = O         # 4 T Q Q Q Q Q Q Q Q Q Q Q Q Q Q Q Q Q Q Q Q Q Q T 4 #                           @ q c m m b b b b B @.G.L.L.L.L.L.L.L.L.L.L.L.L.L.L.L.L.L.L.L.3.5.>.-.-.-.-.-.-.-.-.-.-.-.-.-.-.-.;.&.%.i i i i i i y t t t t t t u p a b b b b b b b b b b b m b c < = @ + @ @ O + > ' jXbXnXnXnXmXBXCXCXCXCXCXCXCXCXCXCXCXCXCXCXCXCXCXCXCXCXCXCXCXCX",
"CXCXCXCXCXCXCXCXCXCXCXCXCXCXMXjX8                           : N $.L.R.L.L.L.L.L.L.L.L.L.L.L.L.L.G.4.oX_.).).`./.^.Y G K K K K K K K K K K K K K K K K K K G K K K K K K K K K G G G G K G G G I E 1.U.L.L.L.L.L.L.L.L.L.L.L.L.L.L.L.L.L.L.L.L.L.2.B < X                         $ L ! {.}.}.{.{.{.{.{.{.{.{.{.{.{.{.{.{.{.{.}.}.{.! L $                           @ 0 c m m b b b b B @.G.L.L.L.L.L.L.L.L.L.L.L.L.L.L.L.L.L.L.L.3.5.>.-.-.-.-.-.-.-.-.-.-.-.-.-.-.-.;.&.%.i t t y t t t t t t t t t u p a b b b b b b b b b b m m b e , O             * { bXVXCXCXCXCXCXCXCXCXCXCXCXCXCXCXCXCXCXCXCXCXCXCXCXCXCXCXCXCXCX",
"CXCXCXCXCXCXCXCXCXCXCXCXCXCXMXjX8                           : N $.L.R.L.L.L.L.L.L.L.L.L.L.L.L.L.G.4.oX_.).).)./.Y Y G G K K G G K G G G K K K G K K G G G G K G G G G G K K K K K K G K G G G I E 1.U.L.L.K.L.L.L.L.L.L.L.L.L.L.L.L.L.L.L.L.~.L.2.B ,                           $ L ! |.#X+X X X|.|.|.|. X X X X|.|.|.|. X X+X#X|.! L $                           @ q c m m b b b b B +.G.L.L.L.L.L.L.L.L.L.L.L.L.L.L.L.L.L.L.L.3.5.>.-.-.;.;.;.-.-.-.-.-.-.-.-.-.-.;.&.i y r r t t t t t t t t r t u p a b b b b b b b b b b m m b e : X             * } nXCXCXCXCXCXCXCXCXCXCXCXCXCXCXCXCXCXCXCXCXCXCXCXCXCXCXCXCXCXCX",
"CXCXCXCXCXCXCXCXCXCXCXCXCXCXMXjX8                           : N $.L.R.L.L.L.L.L.L.L.L.L.L.L.L.L.G.4.oX_.).).)./.Y Y G G K K G G G G G G G G G K K K G G G G K G G K K G K K K K K K G G G G G I E 1.G.L.L.L.L.L.L.L.L.L.L.L.L.L.L.L.L.L.L.L.~.L.2.B ,                           $ L ! |.+X X|.|.|.|.|.|.|.|.|.|.|.|.|.|. X X X+X|.! L $                           @ q c m m b b b b B @.G.L.L.L.L.L.L.L.L.L.L.L.L.L.L.L.L.L.T.L.3.5.>.-.-.;.;.;.-.-.-.-.-.-.-.-.-.-.;.&.i y r r t t t t t t t t r t u p a b b b b b b b b b b m m b e : X             * } nXCXCXCXCXCXCXCXCXCXCXCXCXCXCXCXCXCXCXCXCXCXCXCXCXCXCXCXCXCXCX",
"CXCXCXCXCXCXCXCXCXCXCXCXCXCXMXjX8                           : N $.L.R.L.L.L.L.L.L.L.L.L.L.L.L.L.G.4.oX_.).).)./.Y Y G G G G G G G K G K G G G K K G G G K K K K K K G G G G K G K K K G K G G I ) 1.U.L.L.L.L.L.L.L.L.L.L.L.L.L.L.L.L.L.L.L.R.L.2.B < .                         $ L ! }. X}.}.}.}.}.}.}.}.}.}.}.}.}.}.}.}.}.}. X}.! L $                           @ q c m m b b b b B +.G.L.L.L.L.L.L.L.L.L.L.L.L.L.L.L.L.L.L.L.3.5.=.-.-.-.;.;.-.-.-.-.-.-.-.-.-.-.;.&.%.i t t t t t t t t t t r t u p a b m m b b b b b b b m m b e : X             * } bXCXCXCXCXCXCXCXCXCXCXCXCXCXCXCXCXCXCXCXCXCXCXCXCXCXCXCXCXCXCX",
"CXCXCXCXCXCXCXCXCXCXCXCXCXCXMXjX8                           : N $.L.R.L.L.L.L.L.L.L.L.L.L.L.L.L.G.4.oX_.).).).(.^.Y G G G G G G G G G K K K G G G G G G G G G G G G G G G G G G G G G G G G G K E 1.U.L.L.L.L.L.L.L.L.L.L.L.L.L.L.L.L.L.L.L.R.L.2.B < .                         $ L ! }. X}.}.}.}.}.}.}.}.}.}.}.}.}.}.}.}.}.}. X}.! L $                           @ q c m m b b b b B +.G.L.L.L.L.L.L.L.L.L.L.L.L.L.L.L.L.T.T.L.3.5.>.-.-.-.-.-.-.-.-.-.-.-.-.-.-.-.;.&.%.i t t t t t t t t t t r r u p a b m m b b b b b b b m m b e : X             * } bXCXCXCXCXCXCXCXCXCXCXCXCXCXCXCXCXCXCXCXCXCXCXCXCXCXCXCXCXCXCX",
"CXCXCXCXCXCXCXCXCXCXCXCXCXCXMXjX8                           : N $.L.~.L.L.L.L.L.L.L.L.L.L.L.L.L.P.4.oX_.).).)./.^.Y K K K K G G G G G G G K K G G G G G G G G G G G G G G G G G G G G G G G G K E 1.U.L.L.L.L.L.L.L.L.L.L.L.L.L.L.L.L.L.L.L.L.L.2.B < .                         # L ! }. X}.}.}.}.}.}.}.}.}.}.}.}.}.}.}.}.}.}. X}.! L $                           @ q c m m b b b b B +.G.L.L.L.L.L.L.L.L.L.L.L.L.L.L.L.L.L.R.L.6.5.>.-.:.-.-.-.-.-.-.-.-.-.-.-.-.-.;.&.%.y t t t t t t t t t t t t u p a b b b b b b b b b b m m b e : X             * } bXCXCXCXCXCXCXCXCXCXCXCXCXCXCXCXCXCXCXCXCXCXCXCXCXCXCXCXCXCXCX",
"CXCXCXCXCXCXCXCXCXCXCXCXCXCXMXjX8                   .     X < B $.L.R.L.L.L.L.L.L.L.L.L.L.L.L.L.P.4.oX_.).).(./.Y Y K G K K G G G G G G K K K K K K K K K K K K K K G K K K K K K K K K K K K I ) 1.U.L.L.L.L.L.L.L.L.L.L.L.L.L.L.L.L.L.L.L.L.L.2.B < .                         2 T ! }.|.}.}.}.}.}.}.}.}.}.}.}.}.}.}.}.}.}.}. X}.! L $                           @ q c m m b b b b B +.G.L.L.L.L.L.I.I.I.I.I.I.I.I.I.J.J.J.J.J.3.<.=.;.;.;.;.;.;.;.;.;.;.;.;.;.;.;.&.&.i y t t t t t t t t t t t t u p a b b b b b b b b b b m m b e : X             * } bXCXCXCXCXCXCXCXCXCXCXCXCXCXCXCXCXCXCXCXCXCXCXCXCXCXCXCXCXCXCX",
"CXCXCXCXCXCXCXCXCXCXCXCXCXCXMXjX8               + = , < , < c o.G.L.L.L.L.L.L.L.L.L.L.L.L.L.L.L.P.4.~ /./././.^.Y Y K K G G G G G G K K G G K I I I I I I I I I I I I I I I I I I I U U U U U E ] 1.U.L.L.L.L.L.L.L.L.L.L.L.L.L.L.L.L.L.L.L.L.L.2.B < .             o $ 2 3 3 3 5 T ].}.|.}.}.}.}.}.}.}.}.}.}.}.}.}.}.}.}.}.}. X}.! L $                           @ q c m m b b b b B @.G.L.L.L.I.3.3.3.3.3.3.3.3.3.3.2.1.#.#.,.,.*.*.&.&.&.&.&.&.&.&.&.&.&.&.&.&.&.&.%.i y t t t t t t t t t t t t u p a b b b b b b b b b b m m b e : X             * } bXVXCXCXCXCXCXCXCXCXCXCXCXCXCXCXCXCXCXCXCXCXCXCXCXCXCXCXCXCXCX",
"CXCXCXCXCXCXCXCXCXCXCXCXCXCXMXjX8             . ; w N B B B o.#.J.L.L.L.L.L.L.L.L.L.L.L.L.L.L.L.G.4.E Y Y Y Y Y Y K K K G G G G G G K K G G K I U 9 p p p p p p p p p p p p p p p p _ ] ] ] ] ] 1.2.K.L.L.L.L.L.L.L.L.L.L.L.L.L.L.L.L.L.L.L.L.L.2.B < .             # 4 T T T T Q ! [.}.}.}.}.}.}.}.}.}.}.}.}.}.}.}.}.}.}.}.}. X}.! L $                           @ q c m m b b b b B @.G.L.T.L.I.3.5.5.5.5.5.5.5.<.,.,. .a a a a i i i %.%.%.%.i i %.%.%.%.i %.%.%.i i i y t t t t t t t t t t r t u p a b b b b b b b b b b m m b e : X             * } bXVXCXCXCXCXCXCXCXCXCXCXCXCXCXCXCXCXCXCXCXCXCXCXCXCXCXCXCXCXCX",
"CXCXCXCXCXCXCXCXCXCXCXCXCXCXMXjX8             X < B #.G.G.2.G.J.L.L.L.L.L.L.L.L.L.L.L.L.L.L.L.L.G.] E K G G Y Y G G G G G K K K K K K K G G K U p c m c c c c c c c c c c c c c c N o.1.G.G.G.G.G.U.L.L.L.L.L.L.L.L.L.L.L.L.L.L.L.L.L.L.L.L.L.L.2.B < .             2 T ! [.[.[.[.[.}.}.}.}.}.}.}.}.}.}.}.}.}.}.}.}.}.}.}.}.}. X}.! L $                           @ 0 c m m b b b b B @.G.L.T.L.I.<.5.>.>.>.>.>.>.>.&.%.i u u u u u y y y y y y y y y y y y y y y y y y y t t t t t t t t t t t r t u p a b b b b b b b b b b m m b e : X             * } bXVXCXCXCXCXCXCXCXCXCXCXCXCXCXCXCXCXCXCXCXCXCXCXCXCXCXCXCXCXCX",
"CXCXCXCXCXCXCXCXCXCXCXCXCXCXMXjX8             X < o.J.~.~.L.L.L.L.L.L.L.L.L.L.L.L.L.L.L.L.L.L.L.G.] U K G G G G G G G G K K K K K K K K G G I U p b N N m m m m m m m b m m m b b B +.G.L.!.L.L.L.L.L.L.L.L.L.L.L.L.L.L.L.L.L.L.L.L.L.L.L.L.~.~.G.B < .             2 T ].|.+X|.}.}.}.}.}.}.}.}.}.}.}.}.}.}.}.}.}.}.}.}.}.}.}. X}.! L $                           @ 0 c m m b b b b B @.G.L.T.L.3.5.=.-.-.-.-.-.-.;.&.i y r r t t t t t t t t t t t t t t t t t t t t t t t t t t t t t t t t t r r u p a b b b b b b b m m m m N b e - X             * { bXVXCXCXCXCXCXCXCXCXCXCXCXCXCXCXCXCXCXCXCXCXCXCXCXCXCXCXCXCXCX",
"CXCXCXCXCXCXCXCXCXCXCXCXCXCXMXjX8             X q o.J.~.~.L.L.L.L.L.L.L.L.L.L.L.L.L.L.L.L.L.L.L.G.] U K G G G G G G G G G K K K G G G G G G I U p b M N m m m m N N m b m m m b m B @.v.L.~.Q.L.L.L.L.L.L.L.L.L.L.L.L.L.~.~.~.~.~.~.~.~.~.~.~.~.G.C < .             2 T ].|.|.}.}.}.}.}.}.}.}.}.}.}.}.}.}.}.}.}.}.}.}.}.}.}.}. X}.! L $                           @ < c m m b b b b B +.G.L.T.L.3.5.=.-.-.-.-.-.-.;.&.i y r r t t t t t t t t t t t t t t t t t t t t t t t t t t t t t t t t t r r u p a b b b b b m m m m m N N m e -               & { bXVXCXCXCXCXCXCXCXCXCXCXCXCXCXCXCXCXCXCXCXCXCXCXCXCXCXCXCXCXCX",
"CXCXCXCXCXCXCXCXCXCXCXCXCXCXMXjX8             X < S G.R.R.L.L.L.L.L.L.L.L.L.L.L.L.L.L.L.L.L.L.L.G.] E K G G K K K K G G G K K K G G G G G G I U p m m b b b b b b b b m b b b b b B +.2.L.L.L.L.L.L.L.L.L.L.L.L.L.L.L.K.K.K.K.K.K.K.K.K.K.L.L.L.2.B < .             2 T ]. X+X X|.}.}.}.}.}.}.}.}.}.}.}.}.}.}.}.}.}.}.}.}.}.}. X}.! L $                           @ q c m m b b b b B +.G.L.T.L.3.<.=.-.-.-.-.-.-.;.&.%.y t t y t t t t t t t t t t t t t t t t t t t t t t t t t t t t t t t t t t u p a b b b b b b b b b b b m b e , +             6 } nXCXCXCXCXCXCXCXCXCXCXCXCXCXCXCXCXCXCXCXCXCXCXCXCXCXCXCXCXCXCX",
"CXCXCXCXCXCXCXCXCXCXCXCXCXCXMXjX8             X < S G.~.L.L.L.L.L.L.L.L.L.L.L.L.L.L.L.L.L.L.L.L.U.1.` U U U U I I K K G K K G K K K K G G G K I 9 p v v v p p v c c b b b b b b b B +.2.L.L.L.L.L.L.L.L.L.L.L.L.L.G.$.#.@.@.@.@.@.@.@.@.@.@.#.#.o.c ;               3 Q  X$X$X$X#X#X X}.}.}.}.}.}.}.}.}.}.}.}.}.}.}.}.}.}.}.}. X}.! L $         . O + + + + O O @ : w c m m b b b b B @.G.L.T.L.I.<.=.>.-.-.-.-.-.;.&.%.i t t t t t t t t t t t t t t t t t t t t t t t t t t t t t u u u u u u u u u a b b b b b c c e e w e e e e e w 8 8 8 8 8 8 8 _ jXnXCXCXCXCXCXCXCXCXCXCXCXCXCXCXCXCXCXCXCXCXCXCXCXCXCXCXCXCXCXCX",
"CXCXCXCXCXCXCXCXCXCXCXCXCXCXMXjX8             X < S G.~.L.L.L.L.L.L.L.L.L.L.L.L.L.L.L.L.L.L.L.L.U.2.1.] ] ] ] _ U K G G K K G G K K K G G G K I I U U U U U U U p v m b b b b b b B +.2.L.L.L.L.L.L.L.L.L.L.L.L.K.$.S b e e e e e e c c c c c c w < @               4 ! $X;X;X-X*X$X+X}.}.}.}.}.}.}.}.}.}.}.}.}.}.}.}.}.}.}.}. X}.! L $         + - < < < < < < < q e b b b b b b b B @.G.L.T.L.3.<.=.>.-.-.-.-.-.;.&.%.y t t t t t t t t t t t t t t t t t t t t t t t t t t t t u u p p a a p a a a a b b m m b e q , : : : - - , w ' | jXjXjXjXhXjXlXbXNXCXCXCXCXCXCXCXCXCXCXCXCXCXCXCXCXCXCXCXCXCXCXCXCXCXCXCXCXCXCX",
"CXCXCXCXCXCXCXCXCXCXCXCXCXCXMXjX8             X < S G.L.L.L.L.L.L.L.L.L.L.L.L.L.L.L.L.L.L.L.L.L.U.U.G.2.2.2.1.] E I G G G G K K K K K K G G G G I I I I I I I I U p c b m b b b b B +.2.L.L.L.L.L.L.L.L.L.L.L.L.J.@.c : @ + @ @ @ @ @ @ @ @ @ @ @ O .               5 .X;X1X1X,X;X*X#X}.{.}.}.}.}.}.}.}.}.}.}.}.}.}.}.}.}.}.}. X}.! L $       . = q e c c c c c c c b b b b b b b b B +.G.L.T.L.3.<.=.>.-.-.-.-.-.;.&.i y t t t t t t t t t t t t t t t t t t t t t t t t t t t t u p a b b b b b b b b b b m m b w : + X X X X . + 8 | bXMXNXMXMXMXMXMXBXVXCXCXCXCXCXCXCXCXCXCXCXCXCXCXCXCXCXCXCXCXCXCXCXCXCXCXCXCXCXCX",
"CXCXCXCXCXCXCXCXCXCXCXCXCXCXMXjX8             X < S G.L.L.L.L.L.L.L.L.L.L.L.L.L.L.L.L.L.L.L.L.L.L.L.L.L.L.!.K.1._ I G G G G K K K K K G G G G G K K K K G G G K I 9 c b m b b b b B +.2.L.L.L.L.L.L.L.L.L.L.L.~.J.+.w +                                           . P .X:X2X4X2X>X*X#X}.{.}.}.}.}.}.}.}.}.}.}.}.}.}.}.}.}.}.}. X}.! L $       X : w b m m b b b b b b b b b b b b b B +.G.L.T.L.I.5.=.>.-.-.-.-.-.;.&.i y t t t t t t t t t t t t t t t t t t t t t t t t t t t t u p b b b b b b b b b b b m m c q =               8 jXMXCXCXCXCXCXCXCXCXCXCXCXCXCXCXCXCXCXCXCXCXCXCXCXCXCXCXCXCXCXCXCXCXCXCXCXCXCXCXCX",
"CXCXCXCXCXCXCXCXCXCXCXCXCXCXMXjX8             X < S G.L.L.L.L.L.L.L.L.L.L.L.L.L.L.L.L.L.L.L.L.L.L.L.L.L.!.!.L.1._ I G G G G K G G G G G G G G G G G G G G G G G I 9 c b m b b b b B +.2.L.L.L.L.L.L.L.L.L.L.L.~.J.O.w O                                           . P @X>X3X4X2X,X*X#X}.{.}.}.}.}.}.}.}.}.}.}.}.}.}.}.}.}.}.}. X}.! L $       X : w b N N m m m m m m b b b b b b b B +.G.L.T.L.3.5.=.>.-.-.-.-.-.;.&.i y t t t t t t t t t t t t t t t t t t t t t t t t t t t t u p b M N b b b b b b b b m m c q @               8 jXNXCXCXCXCXCXCXCXCXCXCXCXCXCXCXCXCXCXCXCXCXCXCXCXCXCXCXCXCXCXCXCXCXCXCXCXCXCXCXCX",
"CXCXCXCXCXCXCXCXCXCXCXCXCXCXMXjX8             X < S G.L.L.L.L.L.L.L.L.L.L.L.L.L.L.L.L.L.L.L.L.L.L.L.L.L.L.!.U.1._ I G G G G G K K K G G G G G K G K G G G G G K I 9 c b m b b b b B +.2.L.L.L.L.L.L.L.L.L.L.L.~.J.+.w +                                           . P .X:X2X4X2X>X*X#X}.{.}.}.}.}.}.}.}.}.}.}.}.}.}.}.}.}.}.}. X}.! L $       X - w b N m b b b b b b b b b b b b b B +.G.L.T.L.3.5.=.>.-.-.-.-.-.;.&.i y t t t t t t t t t t t t t t t t t t t t t t t t t t t t u p b b b b b b b b b b b m m c q =               8 jXMXCXCXCXCXCXCXCXCXCXCXCXCXCXCXCXCXCXCXCXCXCXCXCXCXCXCXCXCXCXCXCXCXCXCXCXCXCXCXCX",
"CXCXCXCXCXCXCXCXCXCXCXCXCXCXMXjX8             X < S G.~.R.L.L.L.L.L.L.L.L.L.L.L.L.L.L.L.L.L.L.L.L.L.L.L.L.Q.U.1._ I G G G G G G G G K K K K G G K K G G G G G K I 9 c b m b b b b B +.2.L.L.L.L.L.L.L.L.L.L.L.~.K.+.w +                                             P .X:X2X4X2X>X*X#X}.{.}.}.}.}.}.}.}.}.}.}.}.}.}.}.}.}.}.|. X}.! L $       X - w b m m b b b b b b b b b b b b b B @.G.L.T.L.3.5.=.>.-.-.-.-.-.;.&.%.y t t t t t t t t t t t t t t t t t t t t t t t t t t r t u p b b b b b b b b b b b m m b q =               8 jXMXCXCXCXCXCXCXCXCXCXCXCXCXCXCXCXCXCXCXCXCXCXCXCXCXCXCXCXCXCXCXCXCXCXCXCXCXCXCXCX",
"CXCXCXCXCXCXCXCXCXCXCXCXCXCXMXjX8             X q o.J.~.~.R.L.L.L.L.L.L.L.L.L.L.L.L.L.L.L.L.L.L.L.L.L.L.L.Q.U.1.) K G G G G G G G G G K K K G G K K G G G G G K I 9 c b m b b b b B +.2.L.L.L.L.L.L.R.R.R.R.~.~.L.+.w +                                             5 .X:X2X4X2X>X*X#X}.{.}.}.}.}.}.}.}.}.}.}.}.}.|. X X X X+X#X|.! L $       X - w b m m b b b b b b b b b b b b b B @.G.L.R.R.I.5.=.-.;.-.-.:.:.;.&.%.y t r r t t t t t t t t t t t t t t t t t t t t t r r r t u p b b b b b b b b m m m N N b 0 +               8 hXMXCXCXCXCXCXCXCXCXCXCXCXCXCXCXCXCXCXCXCXCXCXCXCXCXCXCXCXCXCXCXCXCXCXCXCXCXCXCXCX",
"CXCXCXCXCXCXCXCXCXCXCXCXCXCXMXjX8             X < S J.~.~.L.L.L.L.L.L.L.L.L.L.L.L.L.L.L.L.L.L.L.L.L.L.L.L.!.U.1.) I G G G G G G G G G G K K K G G G G K K G G G I p c b m b b b b B +.2.L.L.L.L.L.L.L.L.L.L.~.~.K.+.w +                                             5 .X:X2X4X2X>X*X$X}.}.}.}.}.}.}.}.}.}.}.}.}.}.}.|.|.|.|.|.+X|.! L $       X - w b m m b b b b b b b b b b b b b B @.G.L.T.L.I.5.=.>.-.-.-.-.-.;.&.%.y t t t t t t t t t t t t t t t t t t t t t t t t t t r t u p b b b b b b b b b m m m N b q @               8 jXMXCXCXCXCXCXCXCXCXCXCXCXCXCXCXCXCXCXCXCXCXCXCXCXCXCXCXCXCXCXCXCXCXCXCXCXCXCXCXCX",
"CXCXCXCXCXCXCXCXCXCXCXCXCXCXMXjX8             X < N #.2.2.$.2.J.K.L.L.L.L.L.L.L.L.L.L.L.L.L.L.L.L.L.L.L.L.L.U.1.` U I I I I I I I K G G K K K K G G G K K G G G I p c m b b b b b B +.2.L.L.L.K.J.G.$.$.$.$.2.G.#.C q +         o $ $ $ $ $ $ $ $ $ $ $ $ $ $ $ # 2 R @X>X2X4X2X>X*X$X}.}.}.}.}.}.}.}.}.}.}.}.}.{.[.].].].].].[.].Q P #       X - w b m m b b b b b b b b b b b b b B +.$.G.K.J.2.<.5.>.&.>.>.>.>.>.*.i u u u u u u u u u u u u u u t t t t t t t t t t u u u u u u a b b b b b b b b b c c c c c w < > * * * * & 6 _ lXMXCXCXCXCXCXCXCXCXCXCXCXCXCXCXCXCXCXCXCXCXCXCXCXCXCXCXCXCXCXCXCXCXCXCXCXCXCXCXCX",
"CXCXCXCXCXCXCXCXCXCXCXCXCXCXMXjX8             . = w b N N N o.#.J.L.L.L.L.L.L.L.L.L.L.L.L.L.L.L.L.L.L.L.L.L.K.1.] ` _ ) _ _ _ _ E U I K G G K K G G K K K G G K I 9 c m m b b b b B +.2.L.L.L.J.#.o.B N N N N B N e : X       # 4 R Q Q W W Q Q W W W W W W Q Q Q Q .X=X<X2X3X1X>X*X$X}.{.}.}.}.}.}.}.}.}.}.}.}.].Q T T T T T T T L 3 o       X - w b m m b b b b b b b b b b b b b N C +.#.#.#.#.,.,.*.*.*.*.*.*.*. .a a p p p p p p p p p p p p p u u t t t t t t t u u p p p p p a b b b b b m b b e q < < < < v ` { } } } { { } jXbXBXCXCXCXCXCXCXCXCXCXCXCXCXCXCXCXCXCXCXCXCXCXCXCXCXCXCXCXCXCXCXCXCXCXCXCXCXCXCXCX",
"CXCXCXCXCXCXCXCXCXCXCXCXCXCXMXjX8               O = : : : , e o.2.L.L.L.L.L.L.L.L.L.L.L.L.L.L.L.L.L.L.L.L.L.L.G.1.1.1.1.1.1.1.1.] _ I K G G K K G G K K K G G G I 9 c m m b b b b B +.2.L.~.L.G.o.c < : : : , , : = +         2 W @X%X=X=X%X%X%X%X%X%X%X%X%X%X%X%X=X-X>X1X2X2X1X>X*X$X}.{.}.}.}.}.}.}.}.}.|. X{.Q T 3 2 2 2 2 3 2 $ #         X - w b m m b b b b b b b b b b b b b m B B C C C C C Z Z Z Z Z Z  .a a a a a a a a a a a a a a a a a p u t t t t t t t u p a a a a b b b b b b b m m c q : @ O O * _ hXvXnXnXbXbXbXnXnXNXVXCXCXCXCXCXCXCXCXCXCXCXCXCXCXCXCXCXCXCXCXCXCXCXCXCXCXCXCXCXCXCXCXCXCXCXCXCXCXCX",
"CXCXCXCXCXCXCXCXCXCXCXCXCXCXMXjX8                         X , N $.L.L.L.L.L.L.L.L.L.L.L.L.L.L.L.L.L.L.L.L.L.L.L.K.U.U.U.U.U.L.U.1.] U K G G G G G K K K K G G K I 9 c b m b b b b B +.2.L.~.R.2.B < X                         3 ~ =X1X2X1X1X1X1X1X1X1X1X1X1X1X1X1X1X1X1X1X2X2X1X>X*X#X}.{.}.}.}.}.}.}.}.}. X X[.Q 4 #                         X - w b m m b b b b b b b b b b b b b b b m m m m m m m m m m m m m m b b b b b b b b b b b b b b b b p u t t t t t t t u a b b b b b b b b b b b m m c < @       & ` zXBXCXCXCXVXVXCXCXCXCXCXCXCXCXCXCXCXCXCXCXCXCXCXCXCXCXCXCXCXCXCXCXCXCXCXCXCXCXCXCXCXCXCXCXCXCXCXCXCX",
"CXCXCXCXCXCXCXCXCXCXCXCXCXCXMXjX8                           : N $.L.R.L.L.L.L.L.L.L.L.L.L.L.L.L.L.L.L.L.L.L.L.L.L.L.Q.Q.Q.!.!.Q.2.] U K G G G G G G K K K G G K I 9 c b m b b b b B +.2.L.~.~.2.B ,                           4 .X;X3X4X4X3X3X3X3X3X3X3X3X3X3X3X3X3X3X2X2X2X2X1X>X*X#X}.{.}.}.}.}.}.}.}.}. X X[.Q 4 .                         X - w b m m b b b b b b b b b b b b b b b b b b b b b b b b b b b b b b b b b b b b b m b b b b M b b a u t t t t t t t u a b m m b b b b b b b b m m c < +       % ` vXVXCXCXCXCXCXCXCXCXCXCXCXCXCXCXCXCXCXCXCXCXCXCXCXCXCXCXCXCXCXCXCXCXCXCXCXCXCXCXCXCXCXCXCXCXCXCXCXCX",
"CXCXCXCXCXCXCXCXCXCXCXCXCXCXMXjX8                           : N $.L.R.L.L.L.L.L.L.L.L.L.L.L.L.L.L.L.L.L.L.L.L.L.L.L.L.L.L.L.!.L.2.] U K G G G G K K K K K G G K I p c b m b b b b B +.2.L.~.R.2.B ,                           4 ].-X3X4X3X2X2X2X2X2X3X2X2X2X2X2X2X2X2X2X2X2X2X2X>X*X#X}.{.}.}.}.}.}.}.}.}. X|.[.Q 4 o                         X - w b m m b b b b b b b b b b b b b b b b b b b b b b b b b b b b b b b b b b b b b b b b b b M b b a u t t t t t t t u a b m b b b b b b b b b m m c < @       % ` xXVXCXCXCXCXCXCXCXCXCXCXCXCXCXCXCXCXCXCXCXCXCXCXCXCXCXCXCXCXCXCXCXCXCXCXCXCXCXCXCXCXCXCXCXCXCXCXCXCX",
"CXCXCXCXCXCXCXCXCXCXCXCXCXCXMXjX8                           : N $.L.L.L.L.L.L.L.L.L.L.L.L.L.L.L.L.L.L.L.L.L.L.L.L.L.L.L.L.L.L.L.1.] U K G G G K K K K K K G G K I 9 c m m b b b b B +.2.L.~.R.2.B < .                         3 ].-X1X3X3X2X2X1X1X2X1X1X2X1X2X2X1X1X1X1X2X2X2X2X>X*X#X}.{.}.}.}.}.}.}.}.}. X|.[.W 4 o                         X - w b m m b b b b b b b b b b b b b b b b b b b b b b b b b b b m m m m b b b b b b b b b b b b b b p u t r t t t t t u a b b b b b b b b b b b m m c < @       & ` xXBXCXCXCXCXCXCXCXCXCXCXCXCXCXCXCXCXCXCXCXCXCXCXCXCXCXCXCXCXCXCXCXCXCXCXCXCXCXCXCXCXCXCXCXCXCXCXCXCX",
"CXCXCXCXCXCXCXCXCXCXCXCXCXCXMXjX8                           , N $.L.~.L.L.L.L.L.L.L.L.L.L.L.L.L.L.L.L.L.L.L.L.L.L.L.L.L.L.L.L.L.1.] U K G G G G G G G G G G G K I 9 c b m b b b b B +.2.L.~.L.2.B < .                         3 ~ -X1X3X2X2X1X1X2X2X2X2X1X1X1X2X1X2X1X1X1X2X2X1X>X*X#X}.{.}.}.}.}.}.}.}. X+X+X{.Q 4 o                         . - w b m m b b b b b b b b b b b b b b b b b b b b b b b b b b b b b b b b b b b b b b b b b b b b b a u t r t t t t t u a b b b b b b b b b b b m m c < @       & ` xXBXCXCXCXCXCXCXCXCXCXCXCXCXCXCXCXCXCXCXCXCXCXCXCXCXCXCXCXCXCXCXCXCXCXCXCXCXCXCXCXCXCXCXCXCXCXCXCXCX",
"CXCXCXCXCXCXCXCXCXCXCXCXCXCXMXjX8                           , N $.L.~.L.L.L.L.L.L.L.L.L.L.L.L.L.L.L.L.L.L.L.L.L.L.L.L.L.L.L.L.L.1.] U G G G G G G G G G G G G K I 9 c b b b b b b B +.2.L.~.L.2.B < .                         3 ~ -X1X4X2X2X2X1X2X2X2X2X1X1X1X2X2X2X1X2X1X2X2X1X>X*X#X}.{.}.}.}.}.}.}. X X+X#X}.Q 4 o                         . - w b m m b b b b b b b b b b b b b b b b b b b b b b b b b b b b b b b b b b b b b b b b b b b b b a u t r r t t t t u a b b b b b b b b b b b m m c < @       & ` xXBXCXCXCXCXCXCXCXCXCXCXCXCXCXCXCXCXCXCXCXCXCXCXCXCXCXCXCXCXCXCXCXCXCXCXCXCXCXCXCXCXCXCXCXCXCXCXCXCX",
"CXCXCXCXCXCXCXCXCXCXCXCXCXCXMXjX8                           , N $.L.~.L.L.L.L.L.L.L.L.L.L.L.L.L.L.L.L.L.L.L.L.L.L.L.L.L.L.L.L.L.2.] U K K K K K K K K K K K K K U p c m N m m b m B +.2.L.~.L.2.B < .               . o o   o 5 .X-X2X3X2X2X1X1X2X2X2X2X1X1X2X2X2X2X2X2X2X2X2X1X>X*X$X}.}.}.}.}.}.}.}.{.[.{.}.].W 4 o                         O : w b m m b b b b b b b b b b b b b b b b b b b b b b b b b b b b b b b b b b b b b b b b b b b b b a u t t t t t t u u a b b b b b b b b b b b m m c < @       & ` xXBXCXCXCXCXCXCXCXCXCXCXCXCXCXCXCXCXCXCXCXCXCXCXCXCXCXCXCXCXCXCXCXCXCXCXCXCXCXCXCXCXCXCXCXCXCXCXCXCX",
"CXCXCXCXCXCXCXCXCXCXCXCXCXCXMXjX8                           , N $.L.~.L.L.L.L.L.L.L.L.L.L.L.L.L.L.L.L.L.L.L.L.L.L.L.L.L.L.L.L.L.2.1._ U U U U U U U U U U U U U ) _ A C o.C C C S o.#.G.L.~.L.2.B < .             # 3 P L P R Q @X;X2X2X2X2X1X1X2X2X1X1X1X1X2X2X2X1X2X2X2X2X2X1X>X*X$X}.}.}.}.}.}.{.].! Q W Q Q R 4 = @ @ @ @ @ @ @ @ @ @ @ @ = < e b m m b b b b b b b b b b b b b b b b b b b b b b b b b b b b b b b b b b b b b b b b b b b b b a p p u u u u u p p a b b b b b b b b b b b m m c < @       & ` xXBXCXCXCXCXCXCXCXCXCXCXCXCXCXCXCXCXCXCXCXCXCXCXCXCXCXCXCXCXCXCXCXCXCXCXCXCXCXCXCXCXCXCXCXCXCXCXCXCX",
"CXCXCXCXCXCXCXCXCXCXCXCXCXCXMXjX8                           : N $.L.R.L.L.L.L.L.L.L.L.L.L.L.L.L.L.L.L.L.L.L.L.L.L.L.L.L.L.L.L.L.U.1.1.] ] ] ] ] ] ] ] ] ] ] ] ] 1.1.#.#.#.#.#.#.#.#.2.J.L.~.L.2.B < .             3 R .X@X@X@X$X-X<X2X2X2X1X1X1X1X1X1X1X2X2X2X2X2X2X2X1X2X2X2X2X>X*X#X}.{.}.}.|.}.[.Q T 5 4 4 4 4 7 < 0 0 q q q q q q q 0 < 0 q e c b b b b b b b b b b b b b b b b b b b b b b b b b b b b b b b b b b b b b b b b b b b b b b b b b a a a a a a a a a b b b b b b b b b b b b m m c < @       & ` xXBXCXCXCXCXCXCXCXCXCXCXCXCXCXCXCXCXCXCXCXCXCXCXCXCXCXCXCXCXCXCXCXCXCXCXCXCXCXCXCXCXCXCXCXCXCXCXCXCX",
"CXCXCXCXCXCXCXCXCXCXCXCXCXCXMXjX8                           : N $.L.R.L.L.L.L.L.L.L.L.L.L.L.L.L.L.L.L.L.L.L.L.L.L.L.L.L.L.L.L.L.L.U.G.G.G.G.G.G.G.G.G.G.G.G.G.G.G.G.J.J.J.J.J.J.J.J.K.L.L.L.L.2.B < .           . 5 .X-X<X<X>X<X1X1X2X2X2X2X1X1X1X1X1X1X2X2X2X2X2X2X2X1X2X2X2X2X>X*X#X}.{.}.}.|. X[.Q 4 # . . o = < e c c c c c c c c c c c c c b b b b b b b b b b b b b b b b b b b b b b b b b b b b b b b b b b b b b b b b b b b b b b b b b b b b b b b b b b b b b b b b b b b b b b b b m m c < @       & ` xXBXCXCXCXCXCXCXCXCXCXCXCXCXCXCXCXCXCXCXCXCXCXCXCXCXCXCXCXCXCXCXCXCXCXCXCXCXCXCXCXCXCXCXCXCXCXCXCXCX",
"CXCXCXCXCXCXCXCXCXCXCXCXCXCXMXjX8                           , N $.L.R.L.L.L.L.L.L.L.L.L.L.L.L.L.L.L.L.L.L.L.L.L.L.L.L.L.L.L.L.L.L.L.L.L.L.L.L.L.L.L.~.~.L.L.L.L.L.L.L.L.L.L.L.L.L.L.L.L.L.~.~.G.B < X           o P @X>X4X4X2X2X2X2X2X2X2X2X2X2X2X2X1X1X1X1X1X1X2X2X1X1X1X2X2X1X>X*X#X}.{.}.}. X X].T 3         @ 0 c N N m m m m m m m m m m m b b b b b b b b b b b b b b b b b b b b b b b b b b b b b b b b b b b b b b b b b b b b b b b b b b b b b b b b b b b b b b b b b b b b m m m m N m c < +       % ` xXBXCXCXCXCXCXCXCXCXCXCXCXCXCXCXCXCXCXCXCXCXCXCXCXCXCXCXCXCXCXCXCXCXCXCXCXCXCXCXCXCXCXCXCXCXCXCXCXCX",
"CXCXCXCXCXCXCXCXCXCXCXCXCXCXMXjX8                           : N $.L.L.L.L.L.L.L.L.L.L.L.L.L.L.L.L.L.L.L.L.L.L.L.L.L.L.L.L.L.L.L.L.L.L.Q.Q.L.L.L.~.~.~.~.L.L.L.L.~.~.~.~.~.~.~.~.~.~.~.~.~.~.~.G.C < X           o P @X>X4X4X2X2X2X2X2X2X2X2X2X2X2X2X1X1X1X1X1X1X2X2X1X1X1X2X2X1X>X*X#X}.{.}.}. X X].T 3         @ 0 b N N m m m m m m m m m m m m b b b b b b b b b b b b b b b b b b b b b b b b b b b b b b b b b b b b b b b b b b b b b b b b b b b b b b b b b b b b b b b b b m m m m m m N N c < O       % _ xXBXCXCXCXCXCXCXCXCXCXCXCXCXCXCXCXCXCXCXCXCXCXCXCXCXCXCXCXCXCXCXCXCXCXCXCXCXCXCXCXCXCXCXCXCXCXCXCXCX",
"CXCXCXCXCXCXCXCXCXCXCXCXCXCXMXjX8                           , N $.L.R.L.L.L.L.L.L.L.L.L.L.L.L.L.L.L.L.L.L.L.L.L.L.L.L.L.L.L.L.L.L.L.L.L.L.L.L.L.L.L.L.L.L.L.L.L.L.L.K.K.K.K.K.K.K.K.K.K.K.L.L.2.B < .           o P @X:X2X3X2X2X1X1X2X2X2X2X2X2X1X1X1X2X2X2X1X1X2X2X1X1X2X2X2X1X>X*X#X}.{.}.}. X X[.T 3         @ 0 c m m b b b b b b b b b b b b b b b b b b b b b b b b b b b b b b b b b b b b b b b b b b b b b b b b b b b b b b b b b b b b b b b b b b b b b b b b b b b b b b b b b b b m b c < @       & ` xXBXCXCXCXCXCXCXCXCXCXCXCXCXCXCXCXCXCXCXCXCXCXCXCXCXCXCXCXCXCXCXCXCXCXCXCXCXCXCXCXCXCXCXCXCXCXCXCXCX",
"CXCXCXCXCXCXCXCXCXCXCXCXCXCXMXjX8                           : N $.L.~.L.L.L.L.L.L.L.L.L.L.L.L.L.L.L.L.L.L.L.L.L.L.L.L.L.L.L.L.L.L.L.L.L.L.L.L.L.L.L.L.L.L.L.L.L.J.$.#.@.@.@.@.@.@.@.@.@.@.#.#.o.c : .           o P .X:X2X2X2X2X1X1X2X2X2X2X2X2X1X1X1X2X2X2X1X1X2X2X1X1X2X2X2X1X>X*X#X}.{.}.}. X X[.T 3         @ q c m m b b b b b b b b b b b b b b b b b b b b b b b b b b b b b b b b b b b b b b b b b b b b b b b b b b b b b b b b b b b b b b b b b b b b b b b b b b b b b c e e w e e e e e w 8 8 8 8 ) | bXVXCXCXCXCXCXCXCXCXCXCXCXCXCXCXCXCXCXCXCXCXCXCXCXCXCXCXCXCXCXCXCXCXCXCXCXCXCXCXCXCXCXCXCXCXCXCXCXCX",
"CXCXCXCXCXCXCXCXCXCXCXCXCXCXMXjX8                           : N $.L.~.L.L.L.L.L.L.L.L.L.L.L.L.L.L.L.L.L.L.L.L.L.L.L.L.L.L.L.L.L.L.L.L.L.L.L.L.L.L.L.L.L.L.L.L.K.$.S b e e e c c c c c c c c c w < @             . P .X:X2X2X2X2X1X1X1X1X1X1X2X2X1X1X1X2X2X2X2X2X1X1X1X1X1X2X2X2X,X*X#X}.{.}.}. X|.[.T 3         @ q c m m b b b b b b b b b b b b b b b b b b b b b b b b b b b b b b b b b b b b b b b b b b b b b b b b b b b b b b b b b b b b b b b b b b b b b b b b b b m b c w < : : : : - - < _ } hXjXjXjXvXMXVXCXCXCXCXCXCXCXCXCXCXCXCXCXCXCXCXCXCXCXCXCXCXCXCXCXCXCXCXCXCXCXCXCXCXCXCXCXCXCXCXCXCXCXCXCXCXCXCX",
"CXCXCXCXCXCXCXCXCXCXCXCXCXCXMXjX8                           : N $.L.~.L.L.L.L.L.L.L.L.L.L.L.L.L.L.L.L.L.L.L.L.L.L.L.L.L.L.L.L.L.L.L.L.L.L.L.L.L.L.L.L.L.L.L.L.K.@.c : @ + @ @ @ @ @ @ @ @ @ @ @ O .             . P .X:X2X2X2X1X1X1X1X1X1X1X1X1X1X1X1X2X2X2X2X2X1X1X1X1X1X2X2X2X,X*X$X}.{.}.}.|.|.[.T 3         @ q c m m b b b b b b b b b b b b b b b b b b b b b b b b b b b b b b b b b b b b b b b b b b b b b b b b b b b b b b b b b b b b b b b b b b b b b b b b b b m b e < @ X X X X . . > { zXmXNXMXMXNXVXCXCXCXCXCXCXCXCXCXCXCXCXCXCXCXCXCXCXCXCXCXCXCXCXCXCXCXCXCXCXCXCXCXCXCXCXCXCXCXCXCXCXCXCXCXCXCXCXCX",
"CXCXCXCXCXCXCXCXCXCXCXCXCXCXMXjX8                           , N $.L.~.L.L.L.L.L.L.L.L.L.L.L.L.L.L.L.L.L.L.L.L.L.L.L.L.L.L.L.L.L.L.L.L.L.L.L.L.L.L.L.L.L.L.L.~.J.+.w +                                           o P .X:X2X4X2X2X1X1X1X1X1X1X1X1X2X2X2X2X1X1X2X2X2X2X1X1X1X1X2X2X>X*X#X}.}.}.}. X|.].T 3         @ q c m m b b b b b b b b b b b b b b b b b b b b b b b b b b b b b b b b b b b b b b b b b b b b b b b b b b b b b b b b b b b b b b b b b b b b b b b b b m N b e : X             * } nXCXCXCXCXCXCXCXCXCXCXCXCXCXCXCXCXCXCXCXCXCXCXCXCXCXCXCXCXCXCXCXCXCXCXCXCXCXCXCXCXCXCXCXCXCXCXCXCXCXCXCXCXCXCXCX",
"CXCXCXCXCXCXCXCXCXCXCXCXCXCXMXjX8                           , N $.L.~.L.L.L.L.L.L.L.L.L.L.L.L.L.L.L.L.L.L.L.L.L.L.L.L.L.L.L.L.L.L.L.L.L.L.L.L.L.L.L.L.L.L.L.~.J.O.w O                                           . P .X:X2X4X2X2X1X1X1X1X1X1X2X2X2X2X2X2X1X1X2X2X2X2X2X2X1X2X2X2X>X*X$X}.}.}.}.|.|.[.T 3         @ 0 c m m b b b b b b b b b b b b b b b b b b b b b b b b b b b b b b b b b b b b b b b b b b b b b b b b b b b b b b b b b b b b b b b b b b b b b b b b b m N b w : X             * } nXCXCXCXCXCXCXCXCXCXCXCXCXCXCXCXCXCXCXCXCXCXCXCXCXCXCXCXCXCXCXCXCXCXCXCXCXCXCXCXCXCXCXCXCXCXCXCXCXCXCXCXCXCXCXCX",
"CXCXCXCXCXCXCXCXCXCXCXCXCXCXMXjX8                           : N $.L.R.L.L.L.L.L.L.L.L.L.L.L.L.L.L.L.L.L.L.L.L.L.L.L.L.L.L.L.L.L.L.L.L.L.L.L.L.L.L.L.L.L.L.L.~.J.+.w +                                           . P .X:X2X3X2X2X1X1X2X2X2X2X2X2X2X2X1X1X1X1X2X2X2X2X2X2X1X2X2X1X>X*X#X}.}.}.}.|.|.].T 3         @ q c m m b b b b b b b b b b b b b b b b b b b b b b b b b b b b b b b b b b b b b b b b b b b b b b b b b b b b b b b b b b b b b b b b b b b b b b b b b m N b e : X             * } nXCXCXCXCXCXCXCXCXCXCXCXCXCXCXCXCXCXCXCXCXCXCXCXCXCXCXCXCXCXCXCXCXCXCXCXCXCXCXCXCXCXCXCXCXCXCXCXCXCXCXCXCXCXCXCX",
"CXCXCXCXCXCXCXCXCXCXCXCXCXCXMXjX8                           : N $.L.~.L.L.L.L.L.L.L.L.L.L.L.L.L.L.L.L.L.L.L.L.L.L.L.L.L.L.L.L.L.L.L.L.L.L.L.L.L.L.L.L.L.L.L.~.K.+.w +                                             P .X:X2X2X2X2X1X1X2X2X2X2X2X2X2X2X1X1X1X1X2X2X2X2X2X2X1X2X2X1X>X*X#X}.}.}.}.|. X[.T 3         @ q c m m b b b b b b b b b b b b b b b b b b b b b b b b b b b b b b b b b b b b b b b b b b b b b b b b b b b b b b b b b b b b b b b b b b b b b b b b b m N b e : X             * } bXCXCXCXCXCXCXCXCXCXCXCXCXCXCXCXCXCXCXCXCXCXCXCXCXCXCXCXCXCXCXCXCXCXCXCXCXCXCXCXCXCXCXCXCXCXCXCXCXCXCXCXCXCXCXCX",
"CXCXCXCXCXCXCXCXCXCXCXCXCXCXMXhX8                           , B 2.~.~.~.~.~.~.~.R.R.~.R.R.R.R.R.L.L.L.L.L.L.L.L.L.L.L.L.L.L.L.L.L.L.L.R.~.R.R.R.R.R.R.R.R.~.~.L.+.w +                                             5 .X:X2X3X2X2X1X1X2X2X2X2X1X1X1X1X1X1X2X2X2X2X1X1X1X1X2X2X2X1X>X*X$X X}.|. X+X+X[.Q 3         @ q b N N m m m m m m m m m m m m b b b b b b b b b b b b b b b b b b b b b b b b b b b b b b b b b b b b b b b b b b b b b b b b b m m m m m m m m m m m m N N m e - .             & { bXVXCXCXCXCXCXCXCXCXCXCXCXCXCXCXCXCXCXCXCXCXCXCXCXCXCXCXCXCXCXCXCXCXCXCXCXCXCXCXCXCXCXCXCXCXCXCXCXCXCXCXCXCXCXCX",
"CXCXCXCXCXCXCXCXCXCXCXCXCXCXMXjX8                           , N 2.~.~.L.L.L.L.L.L.L.L.L.L.L.L.L.L.L.L.L.L.L.L.L.L.L.L.L.L.L.L.L.L.L.L.L.L.L.L.L.L.L.L.L.L.~.~.K.+.w +                                             5 .X:X3X3X2X1X1X1X2X2X2X2X1X1X1X1X2X2X1X1X2X2X1X1X1X2X1X2X2X1X>X*X#X|.}.}.|.+X+X[.T 3         @ q c N N m m m m m m m m m m m b b b b b b b b b b b b b b b b b b b b b b b b b b b b b b b b b b b b b b b b b b b b b b b b b b b m m m m m m m m m m m m N b e - .             * { bXVXCXCXCXCXCXCXCXCXCXCXCXCXCXCXCXCXCXCXCXCXCXCXCXCXCXCXCXCXCXCXCXCXCXCXCXCXCXCXCXCXCXCXCXCXCXCXCXCXCXCXCXCXCXCX",
"CXCXCXCXCXCXCXCXCXCXCXCXCXCXMXlX_ 6 & * * * * * & %         : b @.2.2.$.$.$.$.$.$.$.$.$.$.$.$.$.2.G.J.L.L.L.L.L.L.L.L.L.L.L.L.L.K.G.2.$.$.$.$.$.$.$.$.$.$.2.G.#.C q +               o $ $ 2 $ $ $ $ $ $ $ $ $ # 3 R @X>X2X2X2X1X1X1X1X1X2X2X2X1X2X2X2X2X1X1X1X1X1X1X2X2X2X2X2X1X>X*X X].].].].].].! T 2         @ < e c c c c c c c c c c c c c c b b b b b b b b b b b b b b b b b b b b b b b b b b b b b b b b b b b b b b b b b b b b b b b b b b c c c c c c c c c c c c c c e < > * * * * & * 8 | nXCXCXCXCXCXCXCXCXCXCXCXCXCXCXCXCXCXCXCXCXCXCXCXCXCXCXCXCXCXCXCXCXCXCXCXCXCXCXCXCXCXCXCXCXCXCXCXCXCXCXCXCXCXCXCX",
"CXCXCXCXCXCXCXCXCXCXCXCXCXCXBXbXjX} { } } } } { ) 6 %       @ q b N B N N N N N N N N N N N N N B o.$.J.L.L.L.L.L.L.L.L.L.L.L.L.G.#.S N N N N N N N N N N N B N e : X             # 4 R W W Q Q W Q Q Q W W W Q Q .X=X<X2X2X2X1X1X1X1X1X2X2X2X1X2X2X2X2X1X1X1X1X1X1X2X2X2X2X2X1X:X$X! T T T T T T T 4 $         O = < < < < < < < < < < < < < q w c b b b b b b b b b b b b b b b b b b b b b b b b b b b b b b b b b b b b b b b b b b b b b m b b e q < < < < < < < < < < < < < w _ { } } } } { { | zXMXCXCXCXCXCXCXCXCXCXCXCXCXCXCXCXCXCXCXCXCXCXCXCXCXCXCXCXCXCXCXCXCXCXCXCXCXCXCXCXCXCXCXCXCXCXCXCXCXCXCXCXCXCXCXCX",
"CXCXCXCXCXCXCXCXCXCXCXCXCXCXVXNXnXnXbXbXnXnXnXvXhX9 %       X @ : , , , : : : : , , , : : : : : < c +.J.L.L.L.L.L.L.L.L.L.L.L.L.$.C w , : : : : , , : : : , , : = +               $ R .X%X=X=X%X%X%X=X%X%X%X%X%X=X-X>X1X2X2X1X1X2X2X2X2X1X1X1X2X2X2X1X1X2X2X1X1X1X2X2X2X1X3X3X1X;X.XR 2 $ 2 2 2 2 2 $ o           O + @ @ @ @ @ @ @ @ @ @ + @ = < e b m m b b b b b b b b b b b b b b b b b b b b b b b b b b b b b b b b b b b b b b b b b b m m c q : @ + @ @ @ @ @ @ @ @ + O @ 9 } zXnXnXnXbXbXbXnXMXBXCXCXCXCXCXCXCXCXCXCXCXCXCXCXCXCXCXCXCXCXCXCXCXCXCXCXCXCXCXCXCXCXCXCXCXCXCXCXCXCXCXCXCXCXCXCXCXCXCXCXCXCXCXCXCX",
"CXCXCXCXCXCXCXCXCXCXCXCXCXCXCXCXCXVXCXCXCXCXCXBXzX` &                                           O q S G.R.L.L.L.L.L.L.L.L.L.~.L.#.m : .                                           2 ~ =X1X2X1X1X1X1X1X1X1X1X1X1X1X1X1X1X1X1X1X2X2X2X2X2X1X1X1X2X2X2X1X1X2X2X2X2X1X2X2X2X1X2X3X2X-X].4                                                         X : w b m m b b b b b b b b b b b b b b b b b b b b b b b b b b b b b b b b b b b b b b b b b b m m c < @                           8 hXmXCXCXCXCXCXCXCXCXCXCXCXCXCXCXCXCXCXCXCXCXCXCXCXCXCXCXCXCXCXCXCXCXCXCXCXCXCXCXCXCXCXCXCXCXCXCXCXCXCXCXCXCXCXCXCXCXCXCXCXCXCXCXCXCX",
"CXCXCXCXCXCXCXCXCXCXCXCXCXCXCXCXCXCXCXCXCXCXCXVXvX` &                                             < C J.~.~.L.L.L.R.L.L.L.~.~.~.$.b =                                             3 ~ -X2X4X4X3X3X3X3X3X3X3X3X3X3X2X2X2X1X1X2X2X2X2X2X1X1X1X2X2X1X1X1X1X2X2X2X2X2X2X2X2X3X4X4X3X-X].3                                                         . - w b N N m m m m m m m m m m m m m m m m m m m m m m m m m m m m m m m m m m m m m m m m m m N N c < O                           8 jXNXCXCXCXCXCXCXCXCXCXCXCXCXCXCXCXCXCXCXCXCXCXCXCXCXCXCXCXCXCXCXCXCXCXCXCXCXCXCXCXCXCXCXCXCXCXCXCXCXCXCXCXCXCXCXCXCXCXCXCXCXCXCXCXCX",
"CXCXCXCXCXCXCXCXCXCXCXCXCXCXCXCXCXCXCXCXCXCXCXVXxX` &                                             < C J.~.~.R.L.~.~.L.L.L.~.~.~.$.m *                                             3 ~ -X2X4X4X2X2X2X3X3X2X2X2X2X2X2X2X2X2X1X1X2X2X2X2X1X1X1X2X2X1X1X1X1X2X2X2X2X2X2X2X2X3X4X4X3X-X].3                                                         X - w b N N m m m m m m m m m m m m m m m m m m m m m m m m m m m m m m m m m m m m m m m m m m N N c < O                           8 jXMXCXCXCXCXCXCXCXCXCXCXCXCXCXCXCXCXCXCXCXCXCXCXCXCXCXCXCXCXCXCXCXCXCXCXCXCXCXCXCXCXCXCXCXCXCXCXCXCXCXCXCXCXCXCXCXCXCXCXCXCXCXCXCXCX",
"CXCXCXCXCXCXCXCXCXCXCXCXCXCXCXCXCXCXCXCXCXCXCXBXxX` &                           o o # # # # # # & q S $.J.J.G.G.G.G.G.G.G.G.J.G.@.c =             o o o o o o o .                 2 ~ =X1X3X2X2X1X1X1X1X2X2X2X1X1X1X2X2X2X1X2X2X2X2X1X1X1X1X2X2X2X2X1X1X2X2X2X2X2X1X1X1X1X1X1X<X=X~ 3                   . o o o o o . . . . . . o .           X = w c b b c c c b b c c c b b b c c b b b b c c b b b b c c c c c c b b b b b b c c b b b b c b b c < * & % % & & & & & & & % % & ) jXMXCXCXCXCXCXCXCXCXCXCXCXCXCXCXCXCXCXCXCXCXCXCXCXCXCXCXCXCXCXCXCXCXCXCXCXCXCXCXCXCXCXCXCXCXCXCXCXCXCXCXCXCXCXCXCXCXCXCXCXCXCXCXCXCX",
"CXCXCXCXCXCXCXCXCXCXCXCXCXCXCXCXCXCXCXCXCXCXCXBXxX` &                         o 3 P R R R R R R R E Z S S C S S S S S S S S o.S N q @         # 2 3 4 4 4 4 4 4 2 #               2 ~ =X1X3X2X1X1X1X1X1X2X2X2X1X2X1X2X2X2X2X1X2X2X2X1X1X1X1X2X2X2X1X1X1X2X2X2X2X2X1X>X-X$X$X$X$X.XR $               # 2 3 4 4 4 4 4 4 4 4 4 4 4 4 3 $ .       . @ , q w q q q q q q q q q q q q q q q q q q q q q q q q q q q q q q q q q q q q q q q q q q q 0 q w v _ ` ` ` ` ` ` ` ` ` ` ` _ ` | vXNXCXCXCXCXCXCXCXCXCXCXCXCXCXCXCXCXCXCXCXCXCXCXCXCXCXCXCXCXCXCXCXCXCXCXCXCXCXCXCXCXCXCXCXCXCXCXCXCXCXCXCXCXCXCXCXCXCXCXCXCXCXCXCXCX",
"CXCXCXCXCXCXCXCXCXCXCXCXCXCXCXCXCXCXCXCXCXCXCXBXxX` &                         $ R .X$X$X$X$X$X$X@X^ E q < < < < < < < < < < q < < = X       o 3 L T W W W W Q Q L 3 o             2 ~ =X1X3X2X1X1X1X2X2X2X2X1X1X2X2X1X2X1X1X2X1X2X2X2X2X1X1X2X2X2X2X1X1X2X1X2X2X2X1X-X@XQ R R R P 3 #             . 2 L T Q W W Q Q Q W W W W W Q T 4 #         X @ = = = = = = = = = = = = = = = = = = = = = = = = = = = = = = = = = = = = = = = = = = = = = + = < ` hXzXvXxXxXxXxXxXxXxXxXxXxXxXbXMXVXCXCXCXCXCXCXCXCXCXCXCXCXCXCXCXCXCXCXCXCXCXCXCXCXCXCXCXCXCXCXCXCXCXCXCXCXCXCXCXCXCXCXCXCXCXCXCXCXCXCXCXCXCXCXCXCXCXCXCXCXCXCXCXCX",
"CXCXCXCXCXCXCXCXCXCXCXCXCXCXCXCXCXCXCXCXCXCXCXBXxX` &                         2 Q %X<X1X1X<X1X1X;X@XR & X X X X X X X X X X X X X           o 4 W ].[.[.[.[.{.].Q 4 #             2 ~ =X1X3X2X1X1X1X2X2X2X2X1X1X1X1X1X1X1X1X1X1X2X2X2X2X1X1X2X2X2X2X1X1X1X1X2X2X2X1X=X~ 3 o o # o o               o 4 W ].[.[.[.[.[.[.[.[.[.[.{.[.Q L $               . .                                             . .                                         > { vXNXVXVXBXBXBXBXBXBXBXBXBXBXVXVXCXCXCXCXCXCXCXCXCXCXCXCXCXCXCXCXCXCXCXCXCXCXCXCXCXCXCXCXCXCXCXCXCXCXCXCXCXCXCXCXCXCXCXCXCXCXCXCXCXCXCXCXCXCXCXCXCXCXCXCXCXCXCXCXCX",
"CXCXCXCXCXCXCXCXCXCXCXCXCXCXCXCXCXCXCXCXCXCXCXBXxX` &                         3 ~ -X2X4X4X3X4X4X1X$XR #                                     o 4 Q {.+X+X|.+X+X}.Q 5 #             3 ~ =X1X3X2X1X2X2X2X2X1X1X1X1X1X1X1X1X1X2X2X2X1X1X1X2X2X2X2X2X2X2X2X2X1X1X1X2X3X1X%XW $                         o 5 Q }.+X+X X X X|.|. X X X+X|.! L $                                                                                                           * } nXCXCXCXCXCXCXCXCXCXCXCXCXCXCXCXCXCXCXCXCXCXCXCXCXCXCXCXCXCXCXCXCXCXCXCXCXCXCXCXCXCXCXCXCXCXCXCXCXCXCXCXCXCXCXCXCXCXCXCXCXCXCXCXCXCXCXCXCXCXCXCXCXCXCXCXCXCXCXCXCX",
"CXCXCXCXCXCXCXCXCXCXCXCXCXCXCXCXCXCXCXCXCXCXCXBXxX` &                         3 ~ -X2X4X4X2X4X4X1X$XR #                                     o 4 Q {.+X+X|.+X+X}.Q 5 #             3 ~ =X1X2X2X1X2X2X2X2X2X2X1X1X1X1X1X1X1X2X2X2X1X1X1X2X2X2X2X2X2X2X1X2X1X1X1X2X3X1X%XW $                         o 4 Q }.+X+X X|. X|.}. X X X+X|.! L $                                                                                                           * } nXCXCXCXCXCXCXCXCXCXCXCXCXCXCXCXCXCXCXCXCXCXCXCXCXCXCXCXCXCXCXCXCXCXCXCXCXCXCXCXCXCXCXCXCXCXCXCXCXCXCXCXCXCXCXCXCXCXCXCXCXCXCXCXCXCXCXCXCXCXCXCXCXCXCXCXCXCXCXCXCX",
"CXCXCXCXCXCXCXCXCXCXCXCXCXCXCXCXCXCXCXCXCXCXCXBXxX` &                         3 ~ =X1X4X2X1X2X2X<X$XR #                                     o 4 W [. X X}.|.|.{.Q 5 #             3 ~ =X1X4X2X1X1X2X2X2X2X2X2X2X2X2X1X1X2X2X2X2X1X1X1X2X2X2X1X1X1X1X1X1X1X1X1X2X3X1X%XW $                         o 4 W [. X|.}.}.}.}.}.}.}.}.|.}.! L $                                                                                                           * } bXCXCXCXCXCXCXCXCXCXCXCXCXCXCXCXCXCXCXCXCXCXCXCXCXCXCXCXCXCXCXCXCXCXCXCXCXCXCXCXCXCXCXCXCXCXCXCXCXCXCXCXCXCXCXCXCXCXCXCXCXCXCXCXCXCXCXCXCXCXCXCXCXCXCXCXCXCXCXCXCX",
"CXCXCXCXCXCXCXCXCXCXCXCXCXCXCXCXCXCXCXCXCXCXCXBXxX` %                         3 ~ =X1X3X2X1X2X2X<X$XR o                                     o 4 W [.|.|.}.|.|.{.Q 5 #             3 ~ =X1X4X2X1X1X2X2X2X2X2X2X2X2X2X1X1X2X2X2X2X1X1X1X2X2X2X1X1X1X1X1X2X2X2X2X3X4X1X=XQ $                         o 4 W [. X|.}.}.}.}.}.}.}.}.}.}.! L $                                                                                                           * { bXCXCXCXCXCXCXCXCXCXCXCXCXCXCXCXCXCXCXCXCXCXCXCXCXCXCXCXCXCXCXCXCXCXCXCXCXCXCXCXCXCXCXCXCXCXCXCXCXCXCXCXCXCXCXCXCXCXCXCXCXCXCXCXCXCXCXCXCXCXCXCXCXCXCXCXCXCXCXCXCX",
"CXCXCXCXCXCXCXCXCXCXCXCXCXCXCXCXCXCXCXCXCXCXCXBXxX_ %                         3 ~ =X1X3X2X1X2X2X<X$XR o                                     o 4 W [.|.|.}.|. X{.Q 5 #             2 ! =X1X3X2X1X1X1X2X2X1X1X1X1X1X1X1X2X2X2X1X1X1X1X1X1X1X1X1X2X2X2X2X2X2X2X2X3X4X1X=XQ $                         o 4 W [.|.|.}.}.}.}.}.}.}.}. X}.! L #                                                                                                           & { bXVXCXCXCXCXCXCXCXCXCXCXCXCXCXCXCXCXCXCXCXCXCXCXCXCXCXCXCXCXCXCXCXCXCXCXCXCXCXCXCXCXCXCXCXCXCXCXCXCXCXCXCXCXCXCXCXCXCXCXCXCXCXCXCXCXCXCXCXCXCXCXCXCXCXCXCXCXCXCXCX",
"CXCXCXCXCXCXCXCXCXCXCXCXCXCXCXCXCXCXCXCXCXCXCXBXxX` &                         3 ~ =X1X3X2X1X2X2X<X$XR #                                     # 4 Q [. X X}.|. X{.Q 5 #             2 ! =X1X3X2X1X2X2X2X2X1X1X1X1X1X1X2X2X2X2X1X1X1X1X2X1X1X1X2X2X2X2X1X1X1X1X1X2X2X1X%XQ 2                         o 4 Q [. X|.}.}.}.}.}.}.}.}. X}.! L $                                                                                                           6 } nXVXCXCXCXCXCXCXCXCXCXCXCXCXCXCXCXCXCXCXCXCXCXCXCXCXCXCXCXCXCXCXCXCXCXCXCXCXCXCXCXCXCXCXCXCXCXCXCXCXCXCXCXCXCXCXCXCXCXCXCXCXCXCXCXCXCXCXCXCXCXCXCXCXCXCXCXCXCXCXCX",
"CXCXCXCXCXCXCXCXCXCXCXCXCXCXCXCXCXCXCXCXCXCXCXVXbX| ) 8 8 8 6 *               3 ~ =X1X3X2X1X2X2X1X%X~ P 4 4 5 5 4 5 4 4 4 5 5 5 4 3 2 2 $ $ 3 L Q {. X X}.|. X{.Q 5 #             2 ~ =X1X3X2X2X2X2X2X2X2X2X1X1X1X1X1X1X2X2X2X1X2X2X2X2X1X1X1X1X1X1X,X>X>X>X>X>X,X:X$X! 4 $ $ $ $ #               o 4 Q [. X|.|.}.}.}.}.}.}.}. X}.].T 4 2 $ $ $ # .               % 6 8 8 8 8 8 8 8 8 8 8 8 8 8 8 8 8 8 8 8 8 8 8 8 8 8 8 8 8 8 8 8 8 8 8 8 8 8 8 _ jXnXCXCXCXCXCXCXCXCXCXCXCXCXCXCXCXCXCXCXCXCXCXCXCXCXCXCXCXCXCXCXCXCXCXCXCXCXCXCXCXCXCXCXCXCXCXCXCXCXCXCXCXCXCXCXCXCXCXCXCXCXCXCXCXCXCXCXCXCXCXCXCXCXCXCXCXCXCXCXCXCX",
"CXCXCXCXCXCXCXCXCXCXCXCXCXCXCXCXCXCXCXCXCXCXCXVXMXvXjXjXjXhX} 8 &             3 ~ =X1X3X2X1X2X2X1X;X$X.X.X.X.X.X.X.X.X.X.X.X.X.X].~ T T L T T Q ].{.}.}.}.}. X{.Q 5 #             2 ~ =X1X4X2X2X2X2X2X2X2X1X1X1X1X1X1X2X2X2X2X2X2X2X2X2X1X1X2X2X1X>X;X*X*X*X*X*X*X*X$X].T T T T P 3 #             o 4 Q [.|.|.|.}.}.}.}.}.}.}.}.}.[.Q T T T T L 3 #               6 ` | jXjXjXjXjXjXjXjXjXjXjXjXjXjXjXjXjXjXjXjXjXjXjXjXjXjXjXjXjXjXjXjXjXjXjXhXjXlXbXNXCXCXCXCXCXCXCXCXCXCXCXCXCXCXCXCXCXCXCXCXCXCXCXCXCXCXCXCXCXCXCXCXCXCXCXCXCXCXCXCXCXCXCXCXCXCXCXCXCXCXCXCXCXCXCXCXCXCXCXCXCXCXCXCXCXCXCXCXCXCXCXCXCXCXCXCXCXCXCXCX",
"CXCXCXCXCXCXCXCXCXCXCXCXCXCXCXCXCXCXCXCXCXCXCXCXVXNXMXMXNXmXzX' *             3 ~ =X1X3X2X1X2X2X1X1X>X;X;X;X;X;X;X;X;X;X;X;X;X;X=X$X|.].! ! ].].[.}.}.}.}. X X{.Q 5 #             2 ~ =X1X3X2X2X2X2X1X1X2X2X2X2X2X2X2X2X1X1X2X2X2X2X1X1X1X2X2X2X1X;X%X#X#X#X#X#X#X#X+X[.].].].! Q P $             o 4 W [.|.|.}.}.}.}.}.}.}.}.}.}.{.[.].].].].Q L 2             % 8 jXnXMXNXMXMXMXMXMXMXMXMXMXMXMXMXMXMXMXMXMXMXMXMXMXMXMXMXMXMXMXMXMXMXMXMXMXMXMXMXBXVXCXCXCXCXCXCXCXCXCXCXCXCXCXCXCXCXCXCXCXCXCXCXCXCXCXCXCXCXCXCXCXCXCXCXCXCXCXCXCXCXCXCXCXCXCXCXCXCXCXCXCXCXCXCXCXCXCXCXCXCXCXCXCXCXCXCXCXCXCXCXCXCXCXCXCXCXCXCXCXCX",
"CXCXCXCXCXCXCXCXCXCXCXCXCXCXCXCXCXCXCXCXCXCXCXCXCXCXCXCXCXCXnX} *             3 ~ =X1X3X2X1X2X2X1X1X2X2X2X2X2X2X2X2X2X2X2X2X2X2X,X-X$X X}.}.}.}.}.}.}.}.}. X X{.Q 5 #             2 ~ =X1X3X2X1X2X2X2X1X2X2X2X2X2X2X2X2X1X1X1X2X2X2X1X1X2X2X2X2X1X;X$X X{.}.}.}.}.}.}.}.}.|.+X}.! L $             o 4 W [. X|.}.}.}.}.}.}.}.}.}.}.}.}.}.}. X X].T 2             % _ zXBXCXCXCXCXCXCXCXCXCXCXCXCXCXCXCXCXCXCXCXCXCXCXCXCXCXCXCXCXCXCXCXCXCXCXCXCXCXCXCXCXCXCXCXCXCXCXCXCXCXCXCXCXCXCXCXCXCXCXCXCXCXCXCXCXCXCXCXCXCXCXCXCXCXCXCXCXCXCXCXCXCXCXCXCXCXCXCXCXCXCXCXCXCXCXCXCXCXCXCXCXCXCXCXCXCXCXCXCXCXCXCXCXCXCXCXCXCXCXCXCX",
"CXCXCXCXCXCXCXCXCXCXCXCXCXCXCXCXCXCXCXCXCXCXCXCXCXCXCXCXCXCXnX} *             3 ~ =X1X3X2X2X2X1X1X2X2X3X3X3X3X3X3X3X3X3X2X3X4X3X1X;X$X+X}.|.|.|.}.}.}.}.}.|. X{.Q 5 #             2 ~ =X1X3X2X1X2X2X1X1X1X1X2X2X2X2X1X1X1X1X2X2X2X1X1X1X2X2X2X2X1X;X$X}.[.[.{.{.{.{.}.}.|.+X#X X! T $             o 4 W [. X|.}.}.}.}.}.}.}.}.}.}.}.|. X X#X+X].T 3             % _ zXVXCXCXCXCXCXCXCXCXCXCXCXCXCXCXCXCXCXCXCXCXCXCXCXCXCXCXCXCXCXCXCXCXCXCXCXCXCXCXCXCXCXCXCXCXCXCXCXCXCXCXCXCXCXCXCXCXCXCXCXCXCXCXCXCXCXCXCXCXCXCXCXCXCXCXCXCXCXCXCXCXCXCXCXCXCXCXCXCXCXCXCXCXCXCXCXCXCXCXCXCXCXCXCXCXCXCXCXCXCXCXCXCXCXCXCXCXCXCXCXCX",
"CXCXCXCXCXCXCXCXCXCXCXCXCXCXCXCXCXCXCXCXCXCXCXCXCXCXCXCXCXCXnX} *             3 ~ =X1X3X2X2X2X1X1X1X2X2X2X2X2X2X2X2X2X2X2X2X2X2X,X-X$X X{.}.}.}.}.}.}.}.}. X X{.Q 5 #             2 ~ =X1X3X2X1X2X2X1X1X1X1X1X2X2X2X2X1X1X1X2X2X1X1X1X1X2X2X2X2X1X;X$X X{.{.}.}.}.}.}.}.}.|. X}.! L $             o 4 W [. X|.}.}.}.}.}.}.}.}.}.}.}.}.}.}. X X].T 2             % _ zXBXCXCXCXCXCXCXCXCXCXCXCXCXCXCXCXCXCXCXCXCXCXCXCXCXCXCXCXCXCXCXCXCXCXCXCXCXCXCXCXCXCXCXCXCXCXCXCXCXCXCXCXCXCXCXCXCXCXCXCXCXCXCXCXCXCXCXCXCXCXCXCXCXCXCXCXCXCXCXCXCXCXCXCXCXCXCXCXCXCXCXCXCXCXCXCXCXCXCXCXCXCXCXCXCXCXCXCXCXCXCXCXCXCXCXCXCXCXCXCXCX",
"CXCXCXCXCXCXCXCXCXCXCXCXCXCXCXCXCXCXCXCXCXCXCXCXCXCXCXCXCXCXbX} *             3 ~ =X1X4X2X2X1X1X1X1X2X2X1X2X2X1X2X2X1X1X1X2X2X2X,X=X$X}.{.}.}.}.}.}.}.}.}. X X{.Q 5 #             2 ! =X1X4X2X2X2X2X2X1X1X1X1X1X1X1X1X2X2X2X2X2X2X2X2X2X2X2X2X2X1X;X$X X{.}.}.}.}.}.}.}.}.}.|.}.! L $             o 4 Q [. X|.}.}.}.}.}.}.}.}.}.}.}.}.}.}. X|.].T 2             % _ zXBXCXCXCXCXCXCXCXCXCXCXCXCXCXCXCXCXCXCXCXCXCXCXCXCXCXCXCXCXCXCXCXCXCXCXCXCXCXCXCXCXCXCXCXCXCXCXCXCXCXCXCXCXCXCXCXCXCXCXCXCXCXCXCXCXCXCXCXCXCXCXCXCXCXCXCXCXCXCXCXCXCXCXCXCXCXCXCXCXCXCXCXCXCXCXCXCXCXCXCXCXCXCXCXCXCXCXCXCXCXCXCXCXCXCXCXCXCXCXCXCX",
"CXCXCXCXCXCXCXCXCXCXCXCXCXCXCXCXCXCXCXCXCXCXCXCXCXCXCXCXCXCXbX} *             3 ~ =X1X4X2X2X1X1X1X1X2X2X1X2X2X2X2X2X2X2X2X2X2X2X,X-X$X}.{.}.}.}. X X X X X+X#X}.Q 5 o             $ ~ =X1X4X2X2X2X2X1X1X1X2X1X1X1X1X2X2X2X1X2X2X2X2X2X1X1X2X2X2X1X;X$X X{.}.}.}.}.}.}.}.{.}.}.{.! L $             o 4 W [. X X}.}.}.}.}.}.}.}.}.}.}.}.}.}. X|.].T 2             % _ zXBXCXCXCXCXCXCXCXCXCXCXCXCXCXCXCXCXCXCXCXCXCXCXCXCXCXCXCXCXCXCXCXCXCXCXCXCXCXCXCXCXCXCXCXCXCXCXCXCXCXCXCXCXCXCXCXCXCXCXCXCXCXCXCXCXCXCXCXCXCXCXCXCXCXCXCXCXCXCXCXCXCXCXCXCXCXCXCXCXCXCXCXCXCXCXCXCXCXCXCXCXCXCXCXCXCXCXCXCXCXCXCXCXCXCXCXCXCXCXCXCX",
"CXCXCXCXCXCXCXCXCXCXCXCXCXCXCXCXCXCXCXCXCXCXCXCXCXCXCXCXCXVXbX} *             3 ~ =X1X4X2X2X1X1X2X2X2X2X2X2X1X2X2X2X2X2X2X2X2X2X,X=X$X}.{.}.}.}.}.|.|.|.|. X+X}.Q 5 o             2 ! =X1X4X2X2X1X1X1X1X2X2X2X2X2X2X2X2X1X1X1X1X2X2X1X1X1X1X2X2X1X;X$X X{.}.}.}.}.}.}.}.}.}.|.}.! L $             o 4 W [. X}.}.}.}.}.}.}.}.}.}.}.}.}.}.}. X|.].T 2             % _ lXNXCXCXCXCXCXCXCXCXCXCXCXCXCXCXCXCXCXCXCXCXCXCXCXCXCXCXCXCXCXCXCXCXCXCXCXCXCXCXCXCXCXCXCXCXCXCXCXCXCXCXCXCXCXCXCXCXCXCXCXCXCXCXCXCXCXCXCXCXCXCXCXCXCXCXCXCXCXCXCXCXCXCXCXCXCXCXCXCXCXCXCXCXCXCXCXCXCXCXCXCXCXCXCXCXCXCXCXCXCXCXCXCXCXCXCXCXCXCXCXCX",
"CXCXCXCXCXCXCXCXCXCXCXCXCXCXCXCXCXCXCXCXCXCXCXCXCXCXCXCXCXCXbX} *             3 ~ =X1X4X2X2X1X1X2X2X2X2X2X2X1X1X1X1X,X1X,X,X1X,X>X*X$X}.}.}.}.[.[.].].].].].].].Q L 3 $ $ $ $ # $ 5 .X-X1X3X2X1X1X1X1X1X2X2X2X2X2X2X2X2X1X1X1X1X2X2X1X1X1X1X2X2X1X;X$X X{.}.}.}.}.}. X+X#X#X#X#X].T $             o 4 W [. X X}.}.}.}.}.}.}.}.}.}.}.}.}.}. X|.].T 2             % _ lXNXCXCXCXCXCXCXCXCXCXCXCXCXCXCXCXCXCXCXCXCXCXCXCXCXCXCXCXCXCXCXCXCXCXCXCXCXCXCXCXCXCXCXCXCXCXCXCXCXCXCXCXCXCXCXCXCXCXCXCXCXCXCXCXCXCXCXCXCXCXCXCXCXCXCXCXCXCXCXCXCXCXCXCXCXCXCXCXCXCXCXCXCXCXCXCXCXCXCXCXCXCXCXCXCXCXCXCXCXCXCXCXCXCXCXCXCXCXCXCXCX",
"CXCXCXCXCXCXCXCXCXCXCXCXCXCXCXCXCXCXCXCXCXCXCXCXCXCXCXCXCXVXbX} *             3 ~ =X1X3X2X2X1X1X2X2X2X2X2X2X1X1X>X;X;X-X;X;X;X;X*X$X#X}.}.}.{.! Q T T T T T T T T W W W W W W Q Q ~ $X;X1X2X2X1X1X2X2X1X1X1X2X2X2X2X1X2X2X2X1X1X2X1X1X1X1X1X2X2X1X;X$X X{.}.}.}.}.}.+X$X%X*X*X*X@XQ 2             o 4 W [. X}.}.}.}.}.}.}.}.}.}.}.}.}.}.}. X|.].T 2             % _ zXNXCXCXCXCXCXCXCXCXCXCXCXCXCXCXCXCXCXCXCXCXCXCXCXCXCXCXCXCXCXCXCXCXCXCXCXCXCXCXCXCXCXCXCXCXCXCXCXCXCXCXCXCXCXCXCXCXCXCXCXCXCXCXCXCXCXCXCXCXCXCXCXCXCXCXCXCXCXCXCXCXCXCXCXCXCXCXCXCXCXCXCXCXCXCXCXCXCXCXCXCXCXCXCXCXCXCXCXCXCXCXCXCXCXCXCXCXCXCXCXCX",
"CXCXCXCXCXCXCXCXCXCXCXCXCXCXCXCXCXCXCXCXCXCXCXCXCXCXCXCXCXVXbX} *             3 ~ =X1X3X2X2X1X1X1X1X1X1X2X2X1X>X-X$X$X$X$X$X$X$X#X#X X}.|.|.[.Q L 3 2 2 2 2 $ 3 L ~ $X=X=X=X%X%X%X=X;X1X1X2X2X1X2X2X2X2X1X1X2X2X1X2X1X1X2X2X1X2X2X2X1X1X1X1X2X2X1X;X$X X{.}.}.}.{.}.#X*X;X>X,X>X%X! 3             o 4 W [. X|.}.}.}.}.}.}.}.}.}.}.}.}.}.}.|.|.].T 2             % _ lXNXCXCXCXCXCXCXCXCXCXCXCXCXCXCXCXCXCXCXCXCXCXCXCXCXCXCXCXCXCXCXCXCXCXCXCXCXCXCXCXCXCXCXCXCXCXCXCXCXCXCXCXCXCXCXCXCXCXCXCXCXCXCXCXCXCXCXCXCXCXCXCXCXCXCXCXCXCXCXCXCXCXCXCXCXCXCXCXCXCXCXCXCXCXCXCXCXCXCXCXCXCXCXCXCXCXCXCXCXCXCXCXCXCXCXCXCXCXCXCXCX",
"CXCXCXCXCXCXCXCXCXCXCXCXCXCXCXCXCXCXCXCXCXCXCXCXCXCXCXCXCXCXbX} *             3 ~ =X1X3X2X2X2X2X1X1X1X1X2X2X1X>X*X#X}.}.}.|.|.}. X}.}.}. X|.].T 3 o           o P .X;X1X2X1X1X1X1X1X1X1X1X1X2X2X2X2X2X2X1X1X1X2X1X1X1X1X2X2X2X2X1X1X1X1X1X1X2X2X1X;X$X X{.{.}.}.{.}.$X-X1X2X3X1X-X~ 3             o 4 Q [.|.|.}.}.}.}.}.}.}.}.}.}.}.}.}.}. X|.].T 2             % _ zXBXCXCXCXCXCXCXCXCXCXCXCXCXCXCXCXCXCXCXCXCXCXCXCXCXCXCXCXCXCXCXCXCXCXCXCXCXCXCXCXCXCXCXCXCXCXCXCXCXCXCXCXCXCXCXCXCXCXCXCXCXCXCXCXCXCXCXCXCXCXCXCXCXCXCXCXCXCXCXCXCXCXCXCXCXCXCXCXCXCXCXCXCXCXCXCXCXCXCXCXCXCXCXCXCXCXCXCXCXCXCXCXCXCXCXCXCXCXCXCXCX",
"CXCXCXCXCXCXCXCXCXCXCXCXCXCXCXCXCXCXCXCXCXCXCXCXCXCXCXCXCXCXbX} *             3 ~ =X1X3X2X2X2X2X1X1X1X1X2X2X1X>X%X+X[.[.{.{.{.{.{.}.}.}. X X].T 3               5 @X<X4X4X4X3X3X3X3X2X2X1X1X2X2X2X2X2X2X1X1X1X1X1X1X1X1X2X2X2X2X2X1X1X1X1X1X2X2X1X;X$X|.[.[.{.{.[.}.$X;X1X3X4X2X-X].3             o 4 Q [. X|.}.}.}.}.}.}.}.}.}.}.}.}.}.}. X|.].T 2             % _ zXBXCXCXCXCXCXCXCXCXCXCXCXCXCXCXCXCXCXCXCXCXCXCXCXCXCXCXCXCXCXCXCXCXCXCXCXCXCXCXCXCXCXCXCXCXCXCXCXCXCXCXCXCXCXCXCXCXCXCXCXCXCXCXCXCXCXCXCXCXCXCXCXCXCXCXCXCXCXCXCXCXCXCXCXCXCXCXCXCXCXCXCXCXCXCXCXCXCXCXCXCXCXCXCXCXCXCXCXCXCXCXCXCXCXCXCXCXCXCXCXCX",
"CXCXCXCXCXCXCXCXCXCXCXCXCXCXCXCXCXCXCXCXCXCXCXCXCXCXCXCXCXCXbX} *             3 ~ =X1X2X2X1X1X2X1X1X1X1X2X2X1X:X%X+X{.[.}.}.}.}.}.}.}.}. X X].T 3               5 .X>X4X4X2X2X2X2X2X2X1X1X1X2X2X2X2X1X1X2X2X2X2X1X1X2X2X2X2X1X1X2X2X2X2X2X2X2X2X1X;X$X}.[.{.}.{.[.}.$X;X1X2X4X2X-X].4             o 4 W [. X X}.}.}.}.}.}.}.}.}.}.}.}.}.}. X|.].T 2             % _ lXNXCXCXCXCXCXCXCXCXCXCXCXCXCXCXCXCXCXCXCXCXCXCXCXCXCXCXCXCXCXCXCXCXCXCXCXCXCXCXCXCXCXCXCXCXCXCXCXCXCXCXCXCXCXCXCXCXCXCXCXCXCXCXCXCXCXCXCXCXCXCXCXCXCXCXCXCXCXCXCXCXCXCXCXCXCXCXCXCXCXCXCXCXCXCXCXCXCXCXCXCXCXCXCXCXCXCXCXCXCXCXCXCXCXCXCXCXCXCXCXCX",
"CXCXCXCXCXCXCXCXCXCXCXCXCXCXCXCXCXCXCXCXCXCXCXCXCXCXCXCXCXCXbX} *             3 ~ =X1X2X2X1X1X2X1X1X1X1X2X2X1X:X*X#X}.{.}.}.}.}.}.}.}.}. X|.].T 3 .             P .X:X2X3X2X2X2X1X1X1X1X1X1X2X2X2X2X2X1X1X2X2X2X1X1X1X2X2X1X1X1X2X2X2X2X2X2X2X2X1X;X$X#X X X+X X X+X$X;X,X2X4X1X-X].4             o 4 W [. X X}.}.}.}.}.}.}.}.}.}.}.}.}.}. X|.].T 2             % _ lXNXCXCXCXCXCXCXCXCXCXCXCXCXCXCXCXCXCXCXCXCXCXCXCXCXCXCXCXCXCXCXCXCXCXCXCXCXCXCXCXCXCXCXCXCXCXCXCXCXCXCXCXCXCXCXCXCXCXCXCXCXCXCXCXCXCXCXCXCXCXCXCXCXCXCXCXCXCXCXCXCXCXCXCXCXCXCXCXCXCXCXCXCXCXCXCXCXCXCXCXCXCXCXCXCXCXCXCXCXCXCXCXCXCXCXCXCXCXCXCXCX",
"CXCXCXCXCXCXCXCXCXCXCXCXCXCXCXCXCXCXCXCXCXCXCXCXCXCXCXCXCXVXbX} *             3 ~ =X1X3X2X1X1X2X2X2X1X1X2X2X1X>X*X#X}.{.}.}.}.}.}.}.}.}. X X].T 3 .             P .X:X2X2X2X1X1X2X2X2X2X1X2X2X2X2X2X1X1X1X1X2X2X1X1X2X2X2X2X1X1X1X1X2X2X2X2X2X2X1X:X*X$X$X$X$X$X$X$X*X:X1X2X4X1X-X].4             o 4 Q [. X X}.}.}.}.}.}.}.}.}.}.}.}.}.}. X|.].T 2             % _ zXNXCXCXCXCXCXCXCXCXCXCXCXCXCXCXCXCXCXCXCXCXCXCXCXCXCXCXCXCXCXCXCXCXCXCXCXCXCXCXCXCXCXCXCXCXCXCXCXCXCXCXCXCXCXCXCXCXCXCXCXCXCXCXCXCXCXCXCXCXCXCXCXCXCXCXCXCXCXCXCXCXCXCXCXCXCXCXCXCXCXCXCXCXCXCXCXCXCXCXCXCXCXCXCXCXCXCXCXCXCXCXCXCXCXCXCXCXCXCXCXCX",
"CXCXCXCXCXCXCXCXCXCXCXCXCXCXCXCXCXCXCXCXCXCXCXCXCXCXCXCXCXCXbX} *             3 ~ =X1X3X2X1X1X2X2X2X2X1X2X2X1X>X*X#X}.{.}.}.}.}.}.}.}.}. X X].T 3 .             P .X:X2X2X2X1X1X2X2X2X2X1X2X2X2X2X2X1X1X1X1X2X2X1X1X2X2X2X2X1X1X1X2X2X2X2X2X2X2X1X,X>X;X;X;X;X;X;X;X>X,X1X2X4X1X-X].4             o 4 Q [. X X}.}.}.}.}.}.}.}.}.}.}.}.}.}. X|.].T 2             % _ zXNXCXCXCXCXCXCXCXCXCXCXCXCXCXCXCXCXCXCXCXCXCXCXCXCXCXCXCXCXCXCXCXCXCXCXCXCXCXCXCXCXCXCXCXCXCXCXCXCXCXCXCXCXCXCXCXCXCXCXCXCXCXCXCXCXCXCXCXCXCXCXCXCXCXCXCXCXCXCXCXCXCXCXCXCXCXCXCXCXCXCXCXCXCXCXCXCXCXCXCXCXCXCXCXCXCXCXCXCXCXCXCXCXCXCXCXCXCXCXCXCX",
"CXCXCXCXCXCXCXCXCXCXCXCXCXCXCXCXCXCXCXCXCXCXCXCXCXCXCXCXCXVXbX} *             3 ~ =X1X3X2X1X2X1X2X2X2X2X2X2X1X>X*X#X}.{.}.}.}.}.}.}.}.}. X X[.T 3               P .X:X2X2X2X2X2X2X2X2X2X2X2X2X2X2X2X2X1X1X1X1X2X1X2X2X2X2X2X2X1X1X1X2X2X2X2X1X1X1X1X1X1X1X1X1X1X1X1X1X1X1X2X4X1X-X~ 4             o 4 W [. X X}.}.}.}.}.}.}.}.}.}.}.}.}.}. X|.].T 2             % _ zXBXCXCXCXCXCXCXCXCXCXCXCXCXCXCXCXCXCXCXCXCXCXCXCXCXCXCXCXCXCXCXCXCXCXCXCXCXCXCXCXCXCXCXCXCXCXCXCXCXCXCXCXCXCXCXCXCXCXCXCXCXCXCXCXCXCXCXCXCXCXCXCXCXCXCXCXCXCXCXCXCXCXCXCXCXCXCXCXCXCXCXCXCXCXCXCXCXCXCXCXCXCXCXCXCXCXCXCXCXCXCXCXCXCXCXCXCXCXCXCXCX",
"CXCXCXCXCXCXCXCXCXCXCXCXCXCXCXCXCXCXCXCXCXCXCXCXCXCXCXCXCXVXbX} *             3 ~ =X1X3X2X1X2X2X2X2X2X2X2X2X1X>X*X#X{.{.}.}.}.}.}.}.}.}. X X[.T 3               P .X:X2X2X2X2X2X1X1X2X2X2X2X2X2X2X2X1X1X1X1X2X2X1X1X2X2X2X2X1X1X1X1X2X2X2X2X1X1X1X2X2X2X2X2X2X2X2X2X2X2X2X2X3X2X-X~ 3             o 4 W [. X X}.}.}.}.}.}.}.}.}.}.}.}.}.}. X|.].T 2             % _ zXBXCXCXCXCXCXCXCXCXCXCXCXCXCXCXCXCXCXCXCXCXCXCXCXCXCXCXCXCXCXCXCXCXCXCXCXCXCXCXCXCXCXCXCXCXCXCXCXCXCXCXCXCXCXCXCXCXCXCXCXCXCXCXCXCXCXCXCXCXCXCXCXCXCXCXCXCXCXCXCXCXCXCXCXCXCXCXCXCXCXCXCXCXCXCXCXCXCXCXCXCXCXCXCXCXCXCXCXCXCXCXCXCXCXCXCXCXCXCXCXCX",
"CXCXCXCXCXCXCXCXCXCXCXCXCXCXCXCXCXCXCXCXCXCXCXCXCXCXCXCXCXCXbX} *             3 ~ =X1X3X2X2X2X2X1X1X2X2X2X2X1X:X&X#X{.{.}.}.}.}.}.}.}.}. X X[.T 3               P .X:X2X2X2X2X2X1X1X1X1X2X2X2X2X1X1X1X1X1X1X1X1X2X2X2X2X2X2X2X2X1X1X1X2X2X1X1X1X2X2X2X2X2X2X2X2X2X2X2X2X2X2X3X1X-X~ 3             o 4 W [. X X}.}.}.}.}.}.}.}.}.}.}.}.}.}. X|.].T 2             % _ zXBXCXCXCXCXCXCXCXCXCXCXCXCXCXCXCXCXCXCXCXCXCXCXCXCXCXCXCXCXCXCXCXCXCXCXCXCXCXCXCXCXCXCXCXCXCXCXCXCXCXCXCXCXCXCXCXCXCXCXCXCXCXCXCXCXCXCXCXCXCXCXCXCXCXCXCXCXCXCXCXCXCXCXCXCXCXCXCXCXCXCXCXCXCXCXCXCXCXCXCXCXCXCXCXCXCXCXCXCXCXCXCXCXCXCXCXCXCXCXCXCX",
"CXCXCXCXCXCXCXCXCXCXCXCXCXCXCXCXCXCXCXCXCXCXCXCXCXCXCXCXCXCXbX} *             3 ~ =X1X3X2X2X2X1X1X1X1X1X2X2X1X:X&X#X{.{.}.}.}.}.}.}.}.}. X X].T 3 .           . P .X:X2X2X2X1X2X1X1X1X1X1X1X2X2X1X1X1X1X1X1X1X2X2X2X2X2X2X2X2X2X1X1X2X2X2X2X1X1X2X2X1X1X1X2X2X2X1X1X2X2X2X2X3X1X-X~ 4             o 4 W [. X X}.}.}.}.}.}.}.}.}.}.}.}.}.}. X|.].T 2             % _ zXBXCXCXCXCXCXCXCXCXCXCXCXCXCXCXCXCXCXCXCXCXCXCXCXCXCXCXCXCXCXCXCXCXCXCXCXCXCXCXCXCXCXCXCXCXCXCXCXCXCXCXCXCXCXCXCXCXCXCXCXCXCXCXCXCXCXCXCXCXCXCXCXCXCXCXCXCXCXCXCXCXCXCXCXCXCXCXCXCXCXCXCXCXCXCXCXCXCXCXCXCXCXCXCXCXCXCXCXCXCXCXCXCXCXCXCXCXCXCXCXCX",
"CXCXCXCXCXCXCXCXCXCXCXCXCXCXCXCXCXCXCXCXCXCXCXCXCXCXCXCXCXCXbX} *             3 ~ -X2X4X2X2X2X2X2X2X2X2X2X2X1X>X*X#X}.{.}.}.}.}.}.}.}.}. X X[.T 3             . P .X:X2X4X2X2X2X1X1X1X1X1X1X1X1X1X2X2X1X1X1X1X1X2X2X2X2X2X2X1X2X1X1X1X1X2X2X1X1X2X1X2X2X2X2X2X2X2X2X2X2X2X3X4X2X-X].3             o 4 Q [. X X}.}.}.}.}.}.}.}.}.}.}.}.}.}. X|.].T 2             % _ lXNXCXCXCXCXCXCXCXCXCXCXCXCXCXCXCXCXCXCXCXCXCXCXCXCXCXCXCXCXCXCXCXCXCXCXCXCXCXCXCXCXCXCXCXCXCXCXCXCXCXCXCXCXCXCXCXCXCXCXCXCXCXCXCXCXCXCXCXCXCXCXCXCXCXCXCXCXCXCXCXCXCXCXCXCXCXCXCXCXCXCXCXCXCXCXCXCXCXCXCXCXCXCXCXCXCXCXCXCXCXCXCXCXCXCXCXCXCXCXCXCX",
"CXCXCXCXCXCXCXCXCXCXCXCXCXCXCXCXCXCXCXCXCXCXCXCXCXCXCXCXCXCXbX} *             3 ~ -X2X4X4X3X3X3X2X2X2X2X2X2X1X>X*X#X}.{.}.}.}.}.}.}.}.}. X X[.T 3             . P .X:X2X4X2X2X2X1X1X1X1X1X1X1X1X2X2X2X2X1X1X1X1X2X2X2X2X1X2X1X1X1X1X1X2X2X2X2X1X1X1X1X1X2X2X1X1X1X2X2X3X3X4X4X3X;X].3             o 4 Q [. X X}.}.}.}.}.}.}.}.}.}.}.}.}.}. X|.].T 2             % _ lXNXCXCXCXCXCXCXCXCXCXCXCXCXCXCXCXCXCXCXCXCXCXCXCXCXCXCXCXCXCXCXCXCXCXCXCXCXCXCXCXCXCXCXCXCXCXCXCXCXCXCXCXCXCXCXCXCXCXCXCXCXCXCXCXCXCXCXCXCXCXCXCXCXCXCXCXCXCXCXCXCXCXCXCXCXCXCXCXCXCXCXCXCXCXCXCXCXCXCXCXCXCXCXCXCXCXCXCXCXCXCXCXCXCXCXCXCXCXCXCXCX",
"CXCXCXCXCXCXCXCXCXCXCXCXCXCXCXCXCXCXCXCXCXCXCXCXCXCXCXCXCXVXbX} *             3 ~ =X1X2X1X1X1X1X1X1X1X2X2X2X1X>X*X#X{.{.}.}.}.}.}.}.}.}. X X].T 3 .             P .X:X2X3X2X2X1X2X2X1X1X1X1X2X2X2X2X2X2X2X2X1X1X2X2X1X1X1X1X1X1X1X1X2X2X2X2X1X1X1X1X2X2X1X1X1X1X1X1X1X1X1X1X2X1X-X~ 4             # 4 Q [.|. X}.}.}.}.}.}.}.}.}.}.}.}.}.}. X|.].T 2             % _ lXNXCXCXCXCXCXCXCXCXCXCXCXCXCXCXCXCXCXCXCXCXCXCXCXCXCXCXCXCXCXCXCXCXCXCXCXCXCXCXCXCXCXCXCXCXCXCXCXCXCXCXCXCXCXCXCXCXCXCXCXCXCXCXCXCXCXCXCXCXCXCXCXCXCXCXCXCXCXCXCXCXCXCXCXCXCXCXCXCXCXCXCXCXCXCXCXCXCXCXCXCXCXCXCXCXCXCXCXCXCXCXCXCXCXCXCXCXCXCXCXCX",
"CXCXCXCXCXCXCXCXCXCXCXCXCXCXCXCXCXCXCXCXCXCXCXCXCXCXCXCXCXCXbX} *             $ R @X=X-X=X=X=X=X-X;X<X1X2X2X1X>X&X#X{.{.}.}.}.}.}.}.}.}. X X].T 3               P .X:X2X3X2X2X1X2X2X1X1X1X1X2X2X2X2X2X2X2X2X2X1X2X1X1X1X1X1X1X1X1X1X2X2X2X2X1X1X1X1X2X2X1X2X1X2X2X1X1X;X-X=X-X=X$X! 5 2 $ $ 2 $ $ 3 L Q {.|.|.}.}.}.}.}.}.}.}.}.}.}.}.}.}. X|.].T 2             % _ lXNXCXCXCXCXCXCXCXCXCXCXCXCXCXCXCXCXCXCXCXCXCXCXCXCXCXCXCXCXCXCXCXCXCXCXCXCXCXCXCXCXCXCXCXCXCXCXCXCXCXCXCXCXCXCXCXCXCXCXCXCXCXCXCXCXCXCXCXCXCXCXCXCXCXCXCXCXCXCXCXCXCXCXCXCXCXCXCXCXCXCXCXCXCXCXCXCXCXCXCXCXCXCXCXCXCXCXCXCXCXCXCXCXCXCXCXCXCXCXCXCX",
"CXCXCXCXCXCXCXCXCXCXCXCXCXCXCXCXCXCXCXCXCXCXCXCXCXCXCXCXCXVXbX} *             # 4 R ~ ~ ~ ~ ~ ~ ~ @X-X1X2X3X1X>X*X#X}.{.}.}.}.}.}.}.}.}. X X].T 3 .             P .X:X2X3X2X1X1X2X2X1X1X1X1X2X2X2X2X2X2X2X2X2X2X1X1X1X1X1X1X1X1X1X2X2X2X2X1X1X1X1X1X1X1X1X2X2X2X2X1X;X$X.X~ ~ ~ Q Q T T T T T T T T W ].}.}.}.}.}.}.}.}.}.}.}.}.}.}.}.}.}. X|.].T 2             % _ lXNXCXCXCXCXCXCXCXCXCXCXCXCXCXCXCXCXCXCXCXCXCXCXCXCXCXCXCXCXCXCXCXCXCXCXCXCXCXCXCXCXCXCXCXCXCXCXCXCXCXCXCXCXCXCXCXCXCXCXCXCXCXCXCXCXCXCXCXCXCXCXCXCXCXCXCXCXCXCXCXCXCXCXCXCXCXCXCXCXCXCXCXCXCXCXCXCXCXCXCXCXCXCXCXCXCXCXCXCXCXCXCXCXCXCXCXCXCXCXCXCX",
"CXCXCXCXCXCXCXCXCXCXCXCXCXCXCXCXCXCXCXCXCXCXCXCXCXCXCXCXCXVXbX} *               # $ 3 3 3 3 2 $ 4 Q %X1X3X3X1X>X*X#X}.{.}.}.}.}.}.}.}.}. X X].T 3 .             P .X:X2X3X2X1X1X2X2X1X1X1X1X2X2X2X2X2X1X2X2X2X2X1X2X1X1X2X1X1X1X2X2X2X2X2X2X1X1X1X1X1X1X1X1X2X2X3X1X=X].5 2 $ 2 4 R Q ! ].].! ! ! ].].[.}.}.}.}.}.}.}.}.}.}.}.}.}.}.}.}.}. X|.].T 2             % _ lXNXCXCXCXCXCXCXCXCXCXCXCXCXCXCXCXCXCXCXCXCXCXCXCXCXCXCXCXCXCXCXCXCXCXCXCXCXCXCXCXCXCXCXCXCXCXCXCXCXCXCXCXCXCXCXCXCXCXCXCXCXCXCXCXCXCXCXCXCXCXCXCXCXCXCXCXCXCXCXCXCXCXCXCXCXCXCXCXCXCXCXCXCXCXCXCXCXCXCXCXCXCXCXCXCXCXCXCXCXCXCXCXCXCXCXCXCXCXCXCXCX",
"CXCXCXCXCXCXCXCXCXCXCXCXCXCXCXCXCXCXCXCXCXCXCXCXCXCXCXCXCXCXbX} *                               o R $X<X3X4X1X:X*X#X}.{.}.}.}.}.}.}.}.}. X X].T 3               5 .X:X2X3X2X1X1X2X2X2X1X1X2X2X2X2X2X1X1X1X1X2X1X2X2X2X2X2X2X1X1X2X2X2X2X2X2X2X2X1X2X1X1X2X2X2X2X3X1X%XW $       $ L !  X+X|.}.}.}.}.}.}.}.}.}.}.}.}.}.}.}.}.}.}.}.}.}.}.}. X|.].T 2             % _ lXNXCXCXCXCXCXCXCXCXCXCXCXCXCXCXCXCXCXCXCXCXCXCXCXCXCXCXCXCXCXCXCXCXCXCXCXCXCXCXCXCXCXCXCXCXCXCXCXCXCXCXCXCXCXCXCXCXCXCXCXCXCXCXCXCXCXCXCXCXCXCXCXCXCXCXCXCXCXCXCXCXCXCXCXCXCXCXCXCXCXCXCXCXCXCXCXCXCXCXCXCXCXCXCXCXCXCXCXCXCXCXCXCXCXCXCXCXCXCXCXCX",
"CXCXCXCXCXCXCXCXCXCXCXCXCXCXCXCXCXCXCXCXCXCXCXCXCXCXCXCXCXVXbX{ &                               . R $X<X4X4X1X>X*X#X}.{.}.}.}.}.}.}.}.}. X X].T 2               5 .X:X2X3X2X1X1X2X2X2X1X1X2X2X2X2X2X1X1X1X1X1X1X2X2X2X2X2X2X1X1X1X2X2X2X2X2X2X2X2X2X1X2X2X2X2X2X3X1X%XW #       # L !  X#X+X X X X X|.}.}.}.}.}.}.}.}.}.}.}.}.}.}.}.}.}.}. X|.].T 2             % _ lXNXCXCXCXCXCXCXCXCXCXCXCXCXCXCXCXCXCXCXCXCXCXCXCXCXCXCXCXCXCXCXCXCXCXCXCXCXCXCXCXCXCXCXCXCXCXCXCXCXCXCXCXCXCXCXCXCXCXCXCXCXCXCXCXCXCXCXCXCXCXCXCXCXCXCXCXCXCXCXCXCXCXCXCXCXCXCXCXCXCXCXCXCXCXCXCXCXCXCXCXCXCXCXCXCXCXCXCXCXCXCXCXCXCXCXCXCXCXCXCXCX",
"CXCXCXCXCXCXCXCXCXCXCXCXCXCXCXCXCXCXCXCXCXCXCXCXCXCXCXCXCXCXbX} *                               o R $X<X3X4X1X:X*X#X}.{.}.}.}.}.}.}.}.}.|.|.].T 3               5 .X:X2X2X2X1X1X1X1X1X1X2X2X2X2X2X2X1X2X2X2X2X2X1X2X2X2X2X2X1X1X1X1X1X2X2X2X2X2X2X2X1X1X1X2X2X2X3X1X%XW $       $ L ! }.+X|.}.}.}.}.}.}.}.}.}.}.}.}.}.}.}.}.}.}.}.}.}.}.}. X|.].T 2             % _ zXBXCXCXCXCXCXCXCXCXCXCXCXCXCXCXCXCXCXCXCXCXCXCXCXCXCXCXCXCXCXCXCXCXCXCXCXCXCXCXCXCXCXCXCXCXCXCXCXCXCXCXCXCXCXCXCXCXCXCXCXCXCXCXCXCXCXCXCXCXCXCXCXCXCXCXCXCXCXCXCXCXCXCXCXCXCXCXCXCXCXCXCXCXCXCXCXCXCXCXCXCXCXCXCXCXCXCXCXCXCXCXCXCXCXCXCXCXCXCXCXCX",
"CXCXCXCXCXCXCXCXCXCXCXCXCXCXCXCXCXCXCXCXCXCXCXCXCXCXCXCXCXCXnXhX8 6 * 6 6 6 6 6 & %             # R $X<X3X4X1X:X*X#X}.{.}.}.}.}.}.}.}.}.|.|.[.Q L 3 2 2 3 2 $ 3 R @X>X2X2X1X1X2X1X1X1X1X2X2X2X2X1X2X1X1X2X2X2X2X1X1X2X2X2X2X1X1X1X1X2X2X2X1X2X2X2X2X1X1X1X1X2X2X3X1X=XW $       $ L ! }. X}.}.}.}.}.}.}.}.}.}.}.}.}.}.}.}.}.}.}.}.}.}.}.}. X|.].T 2             % _ zXBXCXCXCXCXCXCXCXCXCXCXCXCXCXCXCXCXCXCXCXCXCXCXCXCXCXCXCXCXCXCXCXCXCXCXCXCXCXCXCXCXCXCXCXCXCXCXCXCXCXCXCXCXCXCXCXCXCXCXCXCXCXCXCXCXCXCXCXCXCXCXCXCXCXCXCXCXCXCXCXCXCXCXCXCXCXCXCXCXCXCXCXCXCXCXCXCXCXCXCXCXCXCXCXCXCXCXCXCXCXCXCXCXCXCXCXCXCXCXCXCX",
"CXCXCXCXCXCXCXCXCXCXCXCXCXCXCXCXCXCXCXCXCXCXCXCXCXCXCXCXCXCXMXxXhX| | | | | | { ) *             # R $X<X3X4X1X:X*X#X}.{.}.}.}.}.}.}.}.}.}.}.{.[.! ~ ~ ~ ~ ! ~ ~ @X=X1X2X2X1X2X2X2X2X1X1X2X2X2X2X1X1X1X1X1X1X2X2X1X1X1X1X2X2X2X1X2X2X2X2X1X1X1X1X2X1X1X1X2X2X2X2X3X1X%XW $       $ L ! }. X}.}.}.}.}.}.}.}.}.}.}.}.}.}.}.}.}.}.}.}.}.}.}.}. X|.].T 2             % _ zXBXCXCXCXCXCXCXCXCXCXCXCXCXCXCXCXCXCXCXCXCXCXCXCXCXCXCXCXCXCXCXCXCXCXCXCXCXCXCXCXCXCXCXCXCXCXCXCXCXCXCXCXCXCXCXCXCXCXCXCXCXCXCXCXCXCXCXCXCXCXCXCXCXCXCXCXCXCXCXCXCXCXCXCXCXCXCXCXCXCXCXCXCXCXCXCXCXCXCXCXCXCXCXCXCXCXCXCXCXCXCXCXCXCXCXCXCXCXCXCXCX",
"CXCXCXCXCXCXCXCXCXCXCXCXCXCXCXCXCXCXCXCXCXCXCXCXCXCXCXCXCXCXVXMXnXnXnXnXnXmXnXxX} 6             # R $X<X3X4X1X:X*X#X}.{.}.}.}.}.}.}.}.}.}.}. X$X%X=X=X=X=X=X=X=X-X>X1X2X2X1X2X2X2X2X1X1X2X2X1X1X1X1X1X1X1X2X2X2X1X1X1X1X2X2X1X1X2X2X2X2X1X1X1X1X2X2X1X1X2X2X2X2X3X1X%XW $       $ L ! }. X}.}.}.}.}.}.}.}.}.}.}.}.}.}.}.}.}.}.}.}.}.}.}.}. X|.].T 2             % _ zXBXCXCXCXCXCXCXCXCXCXCXCXCXCXCXCXCXCXCXCXCXCXCXCXCXCXCXCXCXCXCXCXCXCXCXCXCXCXCXCXCXCXCXCXCXCXCXCXCXCXCXCXCXCXCXCXCXCXCXCXCXCXCXCXCXCXCXCXCXCXCXCXCXCXCXCXCXCXCXCXCXCXCXCXCXCXCXCXCXCXCXCXCXCXCXCXCXCXCXCXCXCXCXCXCXCXCXCXCXCXCXCXCXCXCXCXCXCXCXCXCX",
"CXCXCXCXCXCXCXCXCXCXCXCXCXCXCXCXCXCXCXCXCXCXCXCXCXCXCXCXCXCXCXCXCXCXCXCXCXCXCXmXjX8             # R $X<X4X4X1X>X*X#X{.{.}.}.}.}.}.}.}.}.{.}.+X$X;X1X1X1X1X1X1X1X1X1X2X2X2X2X2X2X2X2X2X2X1X1X1X1X1X1X2X2X1X1X1X1X2X2X2X1X1X1X1X1X2X2X1X2X2X2X1X1X2X2X2X2X2X1X1X2X3X1X=XW $       $ L ! }. X}.}.}.}.}.}.}.}.}.}.}.}.}.}.}.}.}.}.}.}.}.}.}.}. X|.].T 2             % _ lXNXCXCXCXCXCXCXCXCXCXCXCXCXCXCXCXCXCXCXCXCXCXCXCXCXCXCXCXCXCXCXCXCXCXCXCXCXCXCXCXCXCXCXCXCXCXCXCXCXCXCXCXCXCXCXCXCXCXCXCXCXCXCXCXCXCXCXCXCXCXCXCXCXCXCXCXCXCXCXCXCXCXCXCXCXCXCXCXCXCXCXCXCXCXCXCXCXCXCXCXCXCXCXCXCXCXCXCXCXCXCXCXCXCXCXCXCXCXCXCXCX",
"CXCXCXCXCXCXCXCXCXCXCXCXCXCXCXCXCXCXCXCXCXCXCXCXCXCXCXCXCXCXCXCXCXCXCXCXCXCXCXNXjX8             # R $X<X4X4X1X>X*X#X{.{.}.}.}.}.}.}.}.}.{.{.#X&X>X2X4X4X2X2X3X2X2X2X2X2X2X2X2X2X2X2X2X2X1X1X1X1X1X1X1X2X1X1X1X1X2X2X2X2X1X1X1X2X1X2X1X1X2X2X1X2X2X2X2X2X2X1X1X2X3X1X%XW $       $ L ! }. X}.}.}.}.}.}.}.}.}.}.}.}.}.}.}.}.}.}.}.}.}.}.}.}. X|.].T 2             % _ lXNXCXCXCXCXCXCXCXCXCXCXCXCXCXCXCXCXCXCXCXCXCXCXCXCXCXCXCXCXCXCXCXCXCXCXCXCXCXCXCXCXCXCXCXCXCXCXCXCXCXCXCXCXCXCXCXCXCXCXCXCXCXCXCXCXCXCXCXCXCXCXCXCXCXCXCXCXCXCXCXCXCXCXCXCXCXCXCXCXCXCXCXCXCXCXCXCXCXCXCXCXCXCXCXCXCXCXCXCXCXCXCXCXCXCXCXCXCXCXCXCX",
"CXCXCXCXCXCXCXCXCXCXCXCXCXCXCXCXCXCXCXCXCXCXCXCXCXCXCXCXCXCXCXCXCXCXCXCXCXCXCXMXjX8             # R $X<X4X4X1X>X*X#X}.{.}.}.}.}.}.}.}.}.{.}.#X%X:X1X3X2X2X2X2X2X2X2X2X2X1X2X1X1X1X1X2X2X1X1X2X2X1X1X2X2X2X2X1X2X2X2X2X2X1X1X2X2X1X1X1X1X2X2X2X2X2X1X2X2X1X1X1X2X3X1X%XQ $       $ L ! }. X}.}.}.}.}.}.}.}.}.}.}.}.}.}.}.}.}.}.}.}.}.}.}.}. X|.].T 2             % _ lXNXCXCXCXCXCXCXCXCXCXCXCXCXCXCXCXCXCXCXCXCXCXCXCXCXCXCXCXCXCXCXCXCXCXCXCXCXCXCXCXCXCXCXCXCXCXCXCXCXCXCXCXCXCXCXCXCXCXCXCXCXCXCXCXCXCXCXCXCXCXCXCXCXCXCXCXCXCXCXCXCXCXCXCXCXCXCXCXCXCXCXCXCXCXCXCXCXCXCXCXCXCXCXCXCXCXCXCXCXCXCXCXCXCXCXCXCXCXCXCXCX",
"CXCXCXCXCXCXCXCXCXCXCXCXCXCXCXCXCXCXCXCXCXCXCXCXCXCXCXCXCXCXCXCXCXCXCXCXCXCXCXMXjX8             # R $X<X3X4X1X>X*X#X}.{.}.}.}.}.}.}.}.}.}.}.+X%X:X1X2X2X1X1X1X2X2X1X2X2X1X1X1X1X1X1X1X1X2X2X2X2X1X1X2X2X2X2X2X2X2X2X2X1X1X1X2X2X1X1X1X1X2X2X2X2X1X1X2X2X2X1X1X2X3X1X%XQ $       $ L ! }. X}.}.}.}.}.}.}.}.}.}.}.}.}.}.}.}.}.}.}.}.}.}.}.}. X|.].T 2             % _ lXNXCXCXCXCXCXCXCXCXCXCXCXCXCXCXCXCXCXCXCXCXCXCXCXCXCXCXCXCXCXCXCXCXCXCXCXCXCXCXCXCXCXCXCXCXCXCXCXCXCXCXCXCXCXCXCXCXCXCXCXCXCXCXCXCXCXCXCXCXCXCXCXCXCXCXCXCXCXCXCXCXCXCXCXCXCXCXCXCXCXCXCXCXCXCXCXCXCXCXCXCXCXCXCXCXCXCXCXCXCXCXCXCXCXCXCXCXCXCXCXCX",
"CXCXCXCXCXCXCXCXCXCXCXCXCXCXCXCXCXCXCXCXCXCXCXCXCXCXCXCXCXCXCXCXCXCXCXCXCXCXCXMXjX8             # R $X<X3X3X1X>X*X#X}.{.}.}.}.}.}.}.}.}.{.}.+X%X:X1X2X2X1X1X2X2X1X1X2X2X2X2X2X2X2X2X1X1X1X1X2X2X1X2X2X2X1X1X1X2X2X2X2X2X2X2X2X2X1X1X1X1X2X2X2X2X1X1X2X2X2X2X2X2X2X1X%XW $       $ L ! }. X}.}.}.}.}.}.}.}.}.}.}.}.}.}.}.}.}.}.}.}.}.}.}.}. X|.].T 2             % _ lXNXCXCXCXCXCXCXCXCXCXCXCXCXCXCXCXCXCXCXCXCXCXCXCXCXCXCXCXCXCXCXCXCXCXCXCXCXCXCXCXCXCXCXCXCXCXCXCXCXCXCXCXCXCXCXCXCXCXCXCXCXCXCXCXCXCXCXCXCXCXCXCXCXCXCXCXCXCXCXCXCXCXCXCXCXCXCXCXCXCXCXCXCXCXCXCXCXCXCXCXCXCXCXCXCXCXCXCXCXCXCXCXCXCXCXCXCXCXCXCXCX",
"CXCXCXCXCXCXCXCXCXCXCXCXCXCXCXCXCXCXCXCXCXCXCXCXCXCXCXCXCXCXCXCXCXCXCXCXCXCXCXMXjX8             # R $X<X3X3X1X:X*X#X}.{.}.}.}.}.}.}.}.}.{.}.+X%X:X1X2X2X1X1X2X2X1X1X2X2X2X2X2X2X2X2X1X1X1X1X2X2X1X1X2X2X1X1X2X2X2X2X2X2X2X2X2X2X1X1X1X1X2X2X2X2X1X1X2X2X2X2X2X2X2X1X%XW $       $ L ! }. X}.}.}.}.}.}.}.}.}.}.}.}.}.}.}.}.}.}.}.}.}.}.}.}. X|.].T 2             % _ lXNXCXCXCXCXCXCXCXCXCXCXCXCXCXCXCXCXCXCXCXCXCXCXCXCXCXCXCXCXCXCXCXCXCXCXCXCXCXCXCXCXCXCXCXCXCXCXCXCXCXCXCXCXCXCXCXCXCXCXCXCXCXCXCXCXCXCXCXCXCXCXCXCXCXCXCXCXCXCXCXCXCXCXCXCXCXCXCXCXCXCXCXCXCXCXCXCXCXCXCXCXCXCXCXCXCXCXCXCXCXCXCXCXCXCXCXCXCXCXCXCX",
"CXCXCXCXCXCXCXCXCXCXCXCXCXCXCXCXCXCXCXCXCXCXCXCXCXCXCXCXCXCXCXCXCXCXCXCXCXCXCXMXjX8             # R $X<X3X4X1X:X*X#X}.{.}.}.}.}.}.}.}.}.{.{.+X%X:X1X2X2X2X2X2X2X1X1X1X2X1X1X2X1X2X2X2X2X1X1X2X2X2X2X2X2X1X1X1X1X1X1X2X2X1X2X1X1X1X1X1X1X2X2X1X1X1X1X1X2X1X1X1X2X2X1X=XQ $       $ L ! }. X}.}.}.}.}.}.}.}.}.}.}.}.}.}.}.}.}.}.}.}.}.}.}.}. X|.].T 2             % _ lXNXCXCXCXCXCXCXCXCXCXCXCXCXCXCXCXCXCXCXCXCXCXCXCXCXCXCXCXCXCXCXCXCXCXCXCXCXCXCXCXCXCXCXCXCXCXCXCXCXCXCXCXCXCXCXCXCXCXCXCXCXCXCXCXCXCXCXCXCXCXCXCXCXCXCXCXCXCXCXCXCXCXCXCXCXCXCXCXCXCXCXCXCXCXCXCXCXCXCXCXCXCXCXCXCXCXCXCXCXCXCXCXCXCXCXCXCXCXCXCXCX",
"CXCXCXCXCXCXCXCXCXCXCXCXCXCXCXCXCXCXCXCXCXCXCXCXCXCXCXCXCXCXCXCXCXCXCXCXCXCXCXMXjX8             # R $X<X3X4X1X:X*X#X}.{.}.}.}.}.}.}.}.}.{.{.+X%X:X1X2X2X1X2X2X2X1X1X1X1X1X1X1X1X2X2X2X2X1X1X2X2X2X2X2X2X1X1X1X2X1X1X1X2X1X1X1X1X2X2X2X2X2X2X1X1X1X1X1X2X1X1X1X2X2X1X%XQ $       $ L ! }. X}.}.}.}.}.}.}.}.}.}.}.}.}.}.}.}.}.}.}.}.}.}.}.}. X|.].T 2             % _ lXNXCXCXCXCXCXCXCXCXCXCXCXCXCXCXCXCXCXCXCXCXCXCXCXCXCXCXCXCXCXCXCXCXCXCXCXCXCXCXCXCXCXCXCXCXCXCXCXCXCXCXCXCXCXCXCXCXCXCXCXCXCXCXCXCXCXCXCXCXCXCXCXCXCXCXCXCXCXCXCXCXCXCXCXCXCXCXCXCXCXCXCXCXCXCXCXCXCXCXCXCXCXCXCXCXCXCXCXCXCXCXCXCXCXCXCXCXCXCXCXCX"
};
