/* XPM */
static char *wall_anim_2[] = {
/* columns rows colors chars-per-pixel */
"128 128 231 2 ",
"   c #000000",
".  c #0C0B02",
"X  c #03020A",
"o  c #0A0A09",
"O  c #090604",
"+  c #100F0E",
"@  c #120E06",
"#  c #1F1B01",
"$  c #161208",
"%  c #090712",
"&  c #070518",
"*  c #161513",
"=  c #1B1915",
"-  c #221C07",
";  c #221E1A",
":  c #282409",
">  c #262208",
",  c #332E0B",
"<  c #3B3305",
"1  c #29231B",
"2  c #362814",
"3  c #382916",
"4  c #0C0735",
"5  c #0E0A2B",
"6  c #2C2A27",
"7  c #312D27",
"8  c #34302C",
"9  c #3B352C",
"0  c #3F3C38",
"q  c #3E3B37",
"w  c #463C03",
"e  c #413A0E",
"r  c #443219",
"t  c #49351B",
"y  c #4C381C",
"u  c #53351A",
"i  c #4B0C3A",
"p  c #4A3C28",
"a  c #413E39",
"s  c #433C33",
"d  c #552928",
"f  c #6D2E2F",
"g  c #71312F",
"h  c #723B2D",
"j  c #78382F",
"k  c #6D2F33",
"l  c #6F3133",
"z  c #703232",
"x  c #793D39",
"c  c #6C342B",
"v  c #6E3E0D",
"b  c #4D4203",
"n  c #5A4E03",
"m  c #4C4411",
"M  c #5A5011",
"N  c #645605",
"B  c #685C17",
"V  c #695D18",
"C  c #7A5C19",
"Z  c #795A19",
"A  c #7E6E0E",
"S  c #7F700D",
"D  c #786818",
"F  c #7E701C",
"G  c #4C453B",
"H  c #4C4439",
"J  c #564B3A",
"K  c #50422E",
"L  c #754626",
"P  c #785120",
"I  c #7B5028",
"U  c #7D433D",
"Y  c #110946",
"T  c #130A4D",
"R  c #150B5C",
"E  c #150B56",
"W  c #150E4A",
"Q  c #251457",
"!  c #2D194D",
"~  c #170D61",
"^  c #1C1165",
"/  c #1E1369",
"(  c #231970",
")  c #302966",
"_  c #312A68",
"`  c #312970",
"'  c #2D2C59",
"]  c #4F2543",
"[  c #633D74",
"{  c #532256",
"}  c #584E41",
"|  c #5D5344",
" . c #625748",
".. c #645949",
"X. c #615546",
"o. c #464E73",
"O. c #3C426E",
"+. c #925311",
"@. c #93591D",
"#. c #8E4F12",
"$. c #80710D",
"%. c #867405",
"&. c #84751D",
"*. c #806F0F",
"=. c #BF6C18",
"-. c #BA681A",
";. c #8F4F30",
":. c #8F7F20",
">. c #947336",
",. c #C26E17",
"<. c #C57017",
"1. c #C2701B",
"2. c #C87218",
"3. c #C57726",
"4. c #9B0F7E",
"5. c #8A5147",
"6. c #9D6B58",
"7. c #997D5F",
"8. c #987856",
"9. c #8B704E",
"0. c #BE7A4D",
"q. c #BD7053",
"w. c #967A68",
"e. c #AE6464",
"r. c #C57F50",
"t. c #A18B06",
"y. c #AB9306",
"u. c #968521",
"i. c #978031",
"p. c #A99625",
"a. c #B19D27",
"s. c #B29E28",
"d. c #A08A36",
"f. c #BAA629",
"g. c #8F831D",
"h. c #C1AC2B",
"j. c #CCB52D",
"k. c #CFB82E",
"l. c #C7B12C",
"z. c #D2BB2E",
"x. c #D6BE30",
"c. c #CDAF33",
"v. c #C99F3B",
"b. c #DBC231",
"n. c #D6C22D",
"m. c #B4955C",
"M. c #AA8757",
"N. c #BD9474",
"B. c #B28569",
"V. c #C68E4F",
"C. c #C39B75",
"Z. c #C59B6B",
"A. c #CAA57E",
"S. c #CAA175",
"D. c #342988",
"F. c #3D338B",
"G. c #403688",
"H. c #443789",
"J. c #453A9B",
"K. c #5C3F8B",
"L. c #493DA4",
"P. c #5D418D",
"I. c #4D5491",
"U. c #4E42AB",
"Y. c #4D41A4",
"T. c #5245AE",
"R. c #5948A6",
"E. c #5446B4",
"W. c #5549B5",
"Q. c #594EB6",
"!. c #5649B8",
"~. c #584BBB",
"^. c #5C57BA",
"/. c #5453A8",
"(. c #5D6DAF",
"). c #6776B9",
"_. c #66659C",
"`. c #6C79C5",
"'. c #6568C2",
"]. c #A30D86",
"[. c #AB1388",
"{. c #7280B8",
"}. c #6D82C2",
"|. c #7285C8",
" X c #768DCB",
".X c #7185C6",
"XX c #7790CC",
"oX c #7891CE",
"OX c #7A93D2",
"+X c #BF9C84",
"@X c #9096B4",
"#X c #CCA780",
"$X c #CEA981",
"%X c #C3A085",
"&X c #D0AC83",
"*X c #C7AD9B",
"=X c #DED6CC",
"-X c #DED6CB",
";X c #DDD5CC",
":X c #E1D9CE",
">X c #E0D7CE",
",X c #E5DDD5",
"<X c #E8DFD6",
"1X c #E7DFD8",
"2X c #E8DFD8",
"3X c #E0D7D0",
"4X c #E7E0D6",
"5X c #E8E0D7",
"6X c #E7E0D8",
"7X c #EAE3D9",
"8X c #EBE2D9",
"9X c #E9E2D8",
"0X c #ECE3DA",
"qX c #EBE4DA",
"wX c #EBE4DB",
"eX c #EAE5DA",
"rX c #ECE5DB",
"tX c #ECE4DB",
"yX c #ECE6DB",
"uX c #EBE5DC",
"iX c #EDE6DC",
"pX c #ECE7DD",
"aX c #EDE6DD",
"sX c #EAE3DB",
"dX c #EEE8DE",
"fX c #F0E9DF",
"gX c #EFE8E0",
"hX c #EFE7E0",
"jX c #F1EAE2",
"kX c #F2EBE5",
"lX c #F7F3ED",
/* pixels */
"8X,X<X,X<X8X5X8X8X4X,X5X5X8X8X,X,X8X<X,X,X<X<X,X,X,X,X<X8X5X5X8X8X8X8X8X8X8X4X8XdXgXdX8X8X8X5XdXdXdX8X8X8X8X8X8X8X8XdX8XdXdX8X4X5X5X,X:X,X,X,X5X<X<X<X<X<X,X,X<X,X<X<X<X,X<X5X5X8X4X4X5X5X8X5X8X5X8X8X8XdX8X8XdX8X8X8X8X8X8X8X8X8X8X8X8X8X8X8X4X8X8X8X8X8X5X8X8X",
"8X5X5X,X,X5X<X<X8X8X5X5X4X4X8X8X,X,X8X,X,X<X,X,X,X,X5X5X5X5X8X4X4X8X8X8X8X8X8X8XdXjXjXdX8X5X4X8X8XfXjX8XdX8X8X8X8X8XdX8XdXjXdX8X<X<X8X,X>X,X<X5X<X5X8X8X5X,X,X<X5X8X5X5X<X,X,X8X8X8X8X5X8X5X<X8X8X8X8X8X8X8X8XjX8X8X8X8X8X8X8XdX8X8X8X8X8X8X8X8X8X5X8X8X8X8X8X8X",
"8X8X8X5X,X,X<X<X8X4X8X8X8X8X8X8X8X8X8X8X,X<X,X,X,X,X<X<X5X5X5X5X5X,X4X,X5XdX8X2X,X,X5X8X5X8X8X8X8X5X8XdXdX8X8X8X8X8XdX8X8X8XdX8X8X8X,X,X,X5X<X<X<X5X8X8X5X,X<X<X8X8X<X5X,X,X=X,X8X8X8X8X8X5X,X8X,X4X8X8X8X8X8X8X8X8X4X4X4X5X5X8X8X8X8XdX8X8X8X8X8X8X8X8X8X8X8X8X",
"8X8X8X5X8X5X,X,X,X4X5X8X8X8X8X8X8XjX6X8X,X,X5X,X,X,X,X5X<X,X<X8X8X<X,X,X5X4X5X8X8X4X,X8X8X8X8X8X8X8X8X8X8X8X8X8X5X8XdX8X8X8X8X8X8X5X,X,X,X,X,X,X<X<X5X<X<X,X,X<X8X<X,X,X8X,X,X,X8X4X5X8X5X8X5X8X,X5X8X8X5X8X8X8X8X,X5X5X,X5X8X8X8XfX8XdXdX8X8X8X8X8X8X8X8X8X8X8X",
"dXgX8X8X8X<X,X,X,X4X4X8X8X8X8X8X8X6X8X8X8X6X<X,X,X,X,X,X,X<X8X5X5X5X8X8X8X8X8XdX8X5X8X8X8X6X8XjXfX8X8X8X8X8X8X8X8X4X,X8X8X8X8X8X8X8X8X8X,X<X,X<X<X<X5X<X,X,X,X<X<X<X<X5X8X5X,X,X,X4X5X,X8X8X8X8X8X8X4X,X,X8X8X8X8X5X8X8X5X8X8X8X8X8XdX8X8X8X8X8X8X8X8X8X8X8X8XdX",
"8X8X8X8X8X8X5X,X,X4X5X8X8X8X8X8X8X,X8XgX8X8X,X,X,X,X5X<X5X8X5X5X5X8X,X8X8X8X5X8X8X8X8X8X8X8X8X8X8X8X8X8XdX8X8X8X8X4X4X8X8X8X8X8X8XdX8X8X5X,X,X,X,X<X5X8X<X,X,X5X5X<X,X5X5X5X5X<X5X8X8X5X5X5X8X5X8X4X,X5X,X8X8X8X8X8X8X8X5X,X8X4XdX8X8X8X5X8X8X8X8X8X8X8X8X8X8X8X",
"8X8X8X8X5X4X5X,X,X5X8X4X8X8X8X8X8X8X8X8X8X8X8X,X,X,X,X,X5X8X8X8X4X8X<X<X8X<X8X5X8X8X8X4X8X8X8X8X8X8X8X8X8X8XdXdX5X4X8X4X8X8X8X8X8X8X8X8X8X5X<X<X8X,X<X5X8X5X5X5X,X<X,X<X<X<X5X<X5X8X8X8X<X<X8X5X8X,X,X<X8X8X8X8X8X8X8X8X8X4X8X5XdXfXdX8X8X8X8X8X8XdX8XdX8X8X8X8X",
"8X8X8X8X4X,X5X,X,X,X,X8X8X8X8X8X8X8X8X8X8X8X8X<X,X,X<X,X4X5X8X5X,X5X,X5X5X8X8X8X,X,X8X8X4X5X5X8X8X8X8X8X8X8X8X8X8X5X8X8X8X8X8X8X8X8X8X8X8X8X<X,X<X5X8X8X<X5X8X8X,X,X,X,X,X<X,X,X8X5X,X8X8X8X,X8X8X,X,X,X<X8X8X8X8X8X8X8X5X5X8X8X8X8X8X8X8X4X8X8X8X8XdX8X8XdX8X8X",
"gXjXdX8X8X8X<X,X,X,X,X,X8X8X8X8X8X8X8X8X,X,XgX8X,X,X,X5X4X4X8X8X,X,X5X5X,X8X8X8X,X,X8X8X8X8X5X8X8X8X8X8X8X8X8X8XdXdX8X8X8X8X5X4X8X8X8X8X5X8X8X5X,X5X5X8X5X8X8X5X,X5X,X,X,X<X5X8X5X<X<X5X5X5X8X8X8X8X8X5X8X8X5X8X8X8X,X5X8X8X8X8X8X8X8X8X5X5X8X8X8X8X8X8X8X8X8X8X",
"8X8X8X8X8X8X,X,X<X,X,X,X,X4X8X8X8X8X8X8X8X8X8X6X,X,X,X5X5X8X8X8X5X,X,X,X5X5X5X,X,X,X5X8X8X8X8X8X8X8X8X8X8X8X8X8X4X8X8X8X8X8X8X8X8XjX8X8X8X4X8X8X5X5X5X8X5X8X<X,X,X5X5X,X,X<X5X8X<X,X<X8X8X,X5X8X,X<X8X5X<X5X8X8X8X8X,X8X8X8X8X8X8X8X8X8X5X5X8X5X4X8X8X8X8X8X8XdX",
"hXjX8X8X8X8X8X8X,X=X,X5X4X,X4X5X4X8X8X8X8X8X8X6X4X,X,X8X8X8X8X,X5X,X,X,X<X8X<X,X<X,X4X8X8X8X8X8X8X8X8X8X8X6X8X8X<X,X8X8X8X8X8X8X8X8X6X8X8X8X4X8X8X8X8X,X,X5X<X,X,X,X<X5X<X,X,X,X8X,X<X5X8X<X,X8X5X<X,X,X,X,X8X8X,X5X8X8X8X5X8XdX8X,X,X4X,X,X,X5X5X8X8XdX8X8X8XdX",
"8X8X8X,X<X,X5X8X,X<X<X,X5X,X,X,X5X8X8X8X8X8X8X,X,X,X,X,X,X8X8X5X<X,X<X,X8X8X5X<X,X,X8X8X5X4X8X8X8X8X8X5X4X4X8X8X5X,X8X8X8X8X8XdX8X8X8X8X8X4X,X5X8X5X5X>X,X5X,X,X<X<X<X,X5X<X,X,X5X,X,X,X,X5X8X8X<X<X,X<X<X,X5X5X,X8X,X,X8X5X5XjX8X,X8X,X,X,X5X5X8X8X8X8X8X8X5X8X",
"gX8X8X8X5X<X,X,X,X8X,X,X,X,X,X,X,X,X8X5X,X,X,X<X<X,X,X,X:X,X8X8X8X,X,X<X8X5X8X8X,X,X,X<X8X8X5X8X8X8X4X8X,X8X4X5X8X8X8X8X8X8X8X8X8XdX8X8X8X4X8X8X5X5X,X>X,X5X,X<X,X8X8X5X5X<X,X<X8X5X<X5X5X8X8X5X5X,X<X<X,X<X,X5X<X8X8X<X8X8X8X8X8X,X4X8X,X,X<X5X8X8X8X8X,X,X,X8X",
"gX8X8X,X,X,X,X,X8X5X8X,X5X,X,X5X,X,X,X<X<X,X,X,X5X8X,X,X,X,X<X,X8X<X5X,X<X<X8X8X8X,X,X,X,X,X,X,X4X8X8X8X8X8X8X8X5X8X8X8X8X8X8X5X8X8X8X8X8X8X8X8X4X4X,X5X8X<X,X<X,X5X8X<X5X,X,X5X<X5X5X8X8X8X8X,X5X5X5X5X,X,X5X8X<X,X<X8X8X8X8X8X8X4X,X5X5X,X,X5X5X8X8X8X,X5X8X8X",
"6X,X8X2X8X,X,X,X,X5X8X4X,X8X:X,X8X,X,X,X,X<X4X5X4X5X,X,X,X,X,X,X,X5X5X<X,X<X<X8X,X,X5X,X,X,X,X5X,X8X8X8X8X8X8X5X5X5X8X8X8X8X8X8X8X4X,X4X8X8X5X4X8X8X5X5X8X5X,X,X,X8X8X,X4X4X<X<X8X5X5X8X8X8X5X8X5X8X8X4X5X5X,X5X<X5X5X8X5X8X8X8X8X8X5X4X8X5X4X4X,X,X8X8X8X8X4X8X",
"8X5X8X8X8X8X,X,X,X<X,X5X4X5X,X:X,X5X,X,X,X<X<X,X,X,X5X<X,X8X5X,X,X,X,X<X,X5X5X<X,X,X,X8X5X,X,X<X,X5X8X,X,X5X5X5X5X5X8X8X5X8X8X8X8X8X8X8X8X8X8X8X8X8X4X,X<X<X,X,X,X<X8X,X4X8X5X,X8X8X5X5X<X,X8X4X4X8X8X8X8X8X,X<X,X,X<X8X<X<X8X8X8X5X8X8X8X8X8X8X,X,X5X8X5X5X5X8X",
"6X8X8X8X8X8X5X5X8X8X8X8X8X4X8X,X,X8X5X,X,X:X,X,X:X,X<X,X,X,X<X,X,X,X8X8X8X8X8X8X5X,X,X,X8X8X<X,X,X<X8X,X,X5X<X5X8X8X8X8X8X8X8X8X8X8X8X8X8X8X8X8X8X8X8X5X8X5X,X<X8X5X5X,X8X4X,X5X8X8X8X5X5X,X,X5X4X5X8X8X8X4X4X<X<X,X,X8X8X8X5X8X5X5X8X8X8X4X8X8X,X,X5X8X5X8X8X5X",
"8XjXgX8X8X8X8X8X8X8X8X5X6X8X8X4X8X5X<X,X:X=X=X=X:X,X,X,X<X,X,X5X4X8X8X8X8X8X8X8X8X8X8X,X,X8X8X,X,X<X5X<X5X,X,X<X<X5X8X8X8X8X8X8X8X5X5X8X8X8X8X5X4X8X8X8X4X4X<X<X8X8X8X8X8X8X8X8X8X8X8X8X<X5X,X,X,X<X5X<X5X8X8X4X8X,X<X<X<X8X<X8X8X5X8X8X8X8X8X5X8X8X5X8X8X,X,X8X",
"8X8X8X6X8XdX8X8X8X8X8X8X8X8X4X,X,X5X8X5X5X,X,X,X,X:X,X,X5X,X,X4X,X4X1X8X8X8X8X8X8X8X8X8X8X,X8X5X5X,X,X,X,X,X,X,X,X<X,X8X8X8X8X5X8X8X8X8X8X8X8X8X4X8X4X,X8X5X5X,X,X8X8X8X8X8X8X8X8X8X8X8X,X,X5X8X,X<X<X,X4X4X5X5X8X8X8X<X,X5X5X8X8X8X5X8X8X8X8X8X8X8X8X8X8X8X,X8X",
"8X8X8X8X8XdXdX8X8X8X8X8X8X8X5X4X,X,X8X                                                                                                                                                                                    8X5X5X8X8X8X8X8XdX8X8X8X8X8X8X8X8X8X8X",
"8X8X5X5X8XdX8X8X8X8X8X8X8X8X5X8X,X4X8X                                                                                                                                                                                    <X5X<X,X5X8X8X8X8X8X8X8X8X8X8X8X8X8X8X",
"8X8X4X,X8X8X8X4X8X8X8X8X8X8X8X8X8X8X8X          . - # # # # # # # # # # # # # # # # # # # # # # # # # # # # # # # # # # # # # # # # # # # # # # # # # # # # # # # # # # # # # # # # # # # # # # # # # # # # - .           <X5X5X8X,X4X8X8X8X8X8X8X8X8X8X8X8X8X8X",
"8X8X5X8X8X8X8X8X4X5X8X8X8X8X8X8X8X5X8X          < t.t.t.t.t.t.t.t.t.t.t.t.t.t.t.t.t.t.t.t.t.t.t.t.t.t.t.t.t.t.t.t.t.t.t.t.t.t.t.t.t.t.t.t.t.t.t.t.t.t.t.t.t.t.t.t.t.t.t.t.t.t.t.t.t.t.t.t.t.t.t.t.t.t.t.t.t.t.<           5X5X5X8X,X5X8X8X4X4X5X8X8X8X8X8X8X8X8X",
"8X8X8X8X8X8X8X8X8X8X8X8X8X,X8X8X8X8X8X          < y.t.t.t.t.t.t.t.t.t.t.t.t.t.t.t.t.t.t.t.t.t.t.t.t.t.t.t.t.t.t.t.t.t.t.t.t.t.t.t.t.t.t.t.t.t.t.t.t.t.t.t.t.t.t.t.t.t.t.t.t.t.t.t.t.t.t.t.t.t.t.t.t.t.t.t.t.y.<           8X8X8X5X<X,X5X8X8X8X8X8X8X8X8X8X8X8X8X",
"8X8X8X8X8X8X8X8X4X8X8X8X8X8X4X5X5X8X8X    . < < b N N %.t.t.t.t.t.t.t.t.t.t.t.t.t.t.t.t.t.t.t.t.t.t.t.t.t.t.t.t.t.t.t.t.t.t.t.t.t.t.t.t.t.t.t.t.t.t.t.t.t.t.t.t.t.t.t.t.t.t.t.t.t.t.t.t.t.t.t.t.t.t.t.t.%.N N b < < .     8X8X8X5X5X,X<X8X8X8X8X8X8X8X8X8X8X8X8X",
"dX8X8X8X8X,X8X8X8X8X5X8X,X4X5X5X5X5X8X    - t.y.N     n t.t.t.t.t.t.t.t.t.t.t.t.t.t.t.t.t.t.t.t.t.t.t.t.t.t.t.t.t.t.t.t.t.t.t.t.t.t.t.t.t.t.t.t.t.t.t.t.t.t.t.t.t.t.t.t.t.t.t.t.t.t.t.t.t.t.t.t.t.t.t.t.n     N y.t.-     8X8X8X5X5X5X,X8X5X5X8X8X8X8X8X8XdX8X8X",
"8X8X8X8X8X8X8X8X5X8X8X8X8X8X8X4X8X8X8X    # t.t.N     n y.t.t.t.t.t.t.t.t.t.t.t.t.t.t.t.t.t.t.t.y.t.t.t.t.t.t.t.t.t.t.t.t.t.t.t.t.t.t.t.t.t.t.t.y.t.t.t.t.t.t.t.t.t.t.t.t.t.t.t.t.t.t.t.t.t.t.t.t.t.t.y.n     N t.t.#     8X8X8X8X8X8X<X8X8X5X,X4X8X8X8X8X8X8X8X",
"8X8X8X8X8X8X8X8X8X8X8X8X8X8X5X,X8X8X8X    # t.t.%.n n b w w w w w w w w w w w w w w w w w w w w w w w w w w w w w w w w w w w w w w w w w w w w w w w w w w w w w w w w w w w w w w w w w w w w w w w w b n n %.t.t.#     8X8X5X8X5X8X,X8X5X,X,X4X8X8X8X8X8X8X8X",
"jX8XdXgX8X8X8X8X8X5X8X8X8X5X8X5X5X5X4X    # t.t.t.t.y.w                                                                                                                                                 w y.t.t.t.t.#     8X8X,X4X4X8X,X4X5X,X8X8X8X8X8XdXgX8X8X",
"jXjXgXgX8XjXgX8X8X5X8X8X8X8X8X8X4X8X5X    # t.t.t.t.t.w                                                                                                                                                 w t.t.t.t.t.#     8X5X,X,X4X4X,X,X,X8X8X8X8X8X8XdXgX8X8X",
"jXgXgXgXdXgXjX8X8X8X8X8X8X8X8X8X5X8X8X    # t.t.t.t.t.w     v +.+.+.+.+.+.+.+.+.+.+.+.+.+.+.+.8.7.7.7.7.7.7.7.>.+.+.+.+.+.+.+.+.+.+.+.+.+.+.+.+.+.+.+.+.+.+.8.7.7.7.7.7.7.7.7.7.7.7.7.7.@.+.+.+.+.v     w t.t.t.t.t.#     8X,X,X,X4X5X,X,X5X5X8X8X8X8X8X8X8X8X8X",
"fXgXgXjXgX8X8XjXjXdX8X8X8X8X8X8X5X5X,X    # t.t.t.t.t.w     +.2.<.<.<.<.<.<.<.<.<.<.<.<.<.<.<.S.$X$X$X$X$X$X$XV.<.<.<.<.<.<.<.<.<.<.<.<.<.<.<.<.<.<.<.<.<.<.S.$X$X$X$X$X$X$X$X$X$X$X$X$X3.<.<.<.2.+.    w t.t.t.t.t.#     5X5X<X<X<X5X5X<X4X4X5X8X8X8X8XdX8X8X8X",
"8XdXjXjXjX8X8XgXhX8X8X8X8X8X8X5X5X,X,X    # t.t.t.t.t.w     +.<.<.<.<.<.<.<.1.<.<.1.<.<.<.<.<.C.#XA.A.A.A.A.A.V.=.=.=.=.=.=.=.=.=.=.=.=.=.1.<.<.<.1.=.=.=.=.C.A.A.A.A.A.A.A.A.A.A.A.A.A.3.1.<.<.<.+.    w t.t.t.t.t.#     5X8X8X8X8X8X<X5X8X5X8X8X8X8X8X8XgX8X8X",
"8X8X8X8X8X8X8XgXhX8X8X8X8X8X8X6X8X,X,X    # t.t.t.t.t.w     +.<.<.Z.S.S.S.S.V.<.<.V.A.S.C.C.S.A.A.C.U x x x x x j j j j j j j j h j h j z ;.<.<.@.h j j j x x x x x x x x x x x x B.$XA.S.C.Z.<.<.+.    w t.t.t.t.t.#     8X8X8X8X8X8X,X,X8X4X8X8X,X8X8X8X8XgXgX",
"8X8X8X8XhX8X8XgX8X8X8X8X8X8X8X8X8X8X8X    # t.t.t.t.t.w     +.<.<.S.#X#X#X#XV.<.<.V.$XA.A.A.A.#X#XC.z z z z z z z z z z z z z z z z z l k ;.<.<.;.k z z z z z z z z z z l z z z k B.$X#XA.#XS.<.<.+.    w t.t.t.t.t.#     8X8X8X5X4X<X<X,X8X4X8X8X8X,X8X8X8X8XjX",
"8X8XhX6X8X8X8XgX8X8X8XhX8X8X8X8X8X8X8X    # t.t.t.t.t.w     #.-.-.N.N.C.#X#XZ.3.3.V.$XA.C.N.N.N.N.B.h h h h h h h h h h h h h h z z z U U ;.3.3.;.h h h h h h h h h h h h h h h h M.S.C.A.A.S.3.3.@.    w t.t.t.t.t.#     5X4X8X5X,X,X,X=X5X4X8X8X8X8XgX8X8X8X8X",
"8X8XgX8X8X8X8X8X8XgX8X6X8X8X8XjXjX8X8X    # t.t.t.t.t.w     d z z z z U A.#X#XA.A.A.A.$X5.l z z z h A A A A A A A A A A A A A A z l 5.A.A.A.A.#Xd.A A A A A A A A A A A A A A A A *.$.*.C.#X#XA.$X7.    w t.t.t.t.t.#     8XdX8X8X8X,X8X=X=X8X8X8X8XhX8XgXjX8X8X",
"8X8X8X8X8XgX8X8X8X8X8X6X8XgX8X8X8XjXgX    # t.t.t.t.t.w     d z z z l U #X#X#X#X$X$X#X$X5.k z z z h A A A A S S S S S S S A A A g f 5.A.A.#X$X&Xd.A S S A S S S S S S S S S S S S S S $.C.#X#X#X&X7.    w t.t.t.t.t.#     8XdX8X,X8X4X5X8X,X8X8X8X8X8X8XgX8X8X8X",
"8X8X8X8X8X8X8X8X8X8X8X8X8X8X8X8XgXgXhX    # t.t.t.t.t.w     u L L L L I m.m.m.m.m.m.m.m.;.L L L L P A S A Z Z Z Z Z Z Z Z >.i.>.5.5.6.A.#XC.B.B.>.Z Z Z Z Z Z Z Z Z Z Z Z Z Z Z Z Z Z Z M.m.m.m.m.9.    w t.t.t.t.t.#     8X8X8X8X8X8X,X4X,X8X,X8X8X8X8XgX8X8X8X",
"8X8X8X8X8X8X8X8XjXhX8X8X,X,X,X5XjXgX8X    # t.t.t.t.t.w     N $.S S S S A A A A A A A A S S S S S S A S Z k z z z z z z l N.$X$X$X$X#XA.$X7.f k l z z z z z z z z z z z z z z z z z z z D A A A A N     w t.t.t.t.t.#     dX8X8X8X8X8X8X8X6X8X8X8XhXhXgX8X8X8X8X",
"8X8X8X8X8X8XgX8X8X8X8X8X,X,X,X,X8X8X8X    # t.t.t.t.y.w     N $.$.$.$.$.$.$.S A A S $.$.$.$.$.$.*.*.$.$.D z z l f f f f f N.$X$X$X$X$X$X&X7.k z l l l z z z h h h h h h z z z z z z z z A $.S A $.N     w t.t.t.t.t.#     8X8X8X8X8X8X8X8X8X,X6X8XgX8XgX8X8X8X8X",
"8X8X8X8X8X8X8X8X8X8X8X8X8X8X,X8X4X8X8X    # t.t.t.t.t.w     u P P P P P P P Z S S D P P P P P P P P P P P z l 5.6.6.6.6.6.6.6.6.6.6.6.6.6.5.z z l l z ] ] ] [ [ [ [ [ [ z z z z z z z z P P Z A $.N     w t.t.t.t.t.#     8X8XdX8X8X8X8X8X8X8X,X8X8XgX8XhXjX8X8X",
"8X8X8X8X8X8X8X8X8X8X8X,X5X8X8X8X8X5X4X    # t.t.t.t.t.w     d z l l l l l k L S $.P k l l l l l k k k k l z k 6.&X$X$X$X$X;.f f f f f f f l z z z z z ! R ~ T.!.!.!.!.P.h z z z z z z z z l h A $.N     w t.t.t.t.t.#     8X8X8XgX8XdX8X8X8X8X6X8X8X8X8XgX8X8X8X",
"8XgX8X8X8X8X8X8X8X8X8X=X,XdX8X8X8X4X,X    # t.t.t.t.t.w     d z z z z z k k L $.$.P l z z z z z z z h h h h f 6.&XA.A.A.A.;.h h h h h h h h h h z z z ! R ~ U.W.W.W.!.K.g g h z z z z z z z h A $.N     w t.t.t.t.t.#     gX8X8XgX8XjX8X8X8X8X,X8X8X8XgX8X6X8X8X",
"8X8X8X8X8X8X8X6X6X6X8X,X,X8X8XgX8X8X,X    # t.t.t.t.t.w     d z z z z x B.B.6.L L h z z z z l ! ! ! P.P.P.P.K._.@X@X@X@X@XP.P.P.P.P.P.P.P.P.P.P._ ! ! R R ~ U.W.W.W.W./._._.o.! ! k z z z z z L L u     w t.t.t.t.t.#     jX8X8XgXdX8X8X8X8X8X4X8X8X8X8X8X,X6X8X",
"8X8X8X8X6X8X8X8X8X8X6X6X6X8X8XhXgXjX8X    # t.t.t.t.t.w     d z z z l U #X$XB.k z z z z z z l Q R ^ W.!.!.!.W.'.XX X X X X^.!.!.!.!.!.!.!.!.!.~.D.R R R R ~ U.W.W.W.W.^.XXOXI.R R ] z z z z z z z d     w t.t.t.t.t.#     8X8X8XjX8X8X8X8X8X8X5X8X8X8X8X8X8X6X8X",
"8X8X8X8X8X8X,X4X,X1X,X,X6X8X8X8X8X8X8X    # t.t.t.t.t.w     d z z z z U A.$XB.k l l l l l z l Q R ^ W.W.W.W.W.).XX X X X X^.W.W.W.W.W.W.W.W.W.W.D.R R R R ~ U.W.W.W.W.^.XXoXI.R ~ ] z z z z z z z d     w t.t.t.t.t.#     8X8X8XgX8X8X8X8X8X8X5X8X8X8X8X8X8X8X8X",
"8X8X8X8X8X4X,X,X4X,X,X,X8X8X8X8X8X8X8X    # t.t.t.t.t.w     9.C.N.N.N.C.A.$Xw.E Q Q Q Q H.R.R.Y.L.U.W.W.^.|.|. X X X X X X|.|.|.|.|.`.W.W.J.^ ( ^ R R R R ~ U.W.W.W.W.^.XX X.X).).).{.{.R.R.P.l z d     w y.t.t.t.t.#     gXgXgXgX8X8X8X8X8X8X8X,X8X8X8X8X8X8X8X",
"8X6X8X,X<X8X,X,X,X8X,X8X8X8X8X6X8X8X8X    # t.t.t.t.t.w     7.$XA.A.#X#XA.$Xw.R R R R R J.!.W.W.W.W.W.W.^.XX X X X X X X X X X XXXoX.XW.!.F.R R R R R R R ~ U.W.W.W.W.^. X X X X X X X X^.W.R.l z d     w t.t.t.t.t.#     gXjX8X8X8X8X8X8X8X6X8X4X4X8X8X8X8X8X8X",
"8X,X6X,X,X8X=X,X,X8X8X,X8X8X8X8X8X8X8X    # t.t.t.t.t.w     w.%X+X+X+X+X+X%Xw.~ ^ ^ ^ ^ J.^.Q.Q.Q.Q.Q.Q.^. X X.X}.}..X|.|.|.|.|.}.}.).Y.Y.D.E E E E E E E E J.Y.Y.Y.L./.}.}.}.|.|.|.|.|.^.Q.R.k k d     w t.t.t.t.t.#     8X8X8X8X8X8X8X8X4X8X8X8X,X8X8X8X8X8X8X",
"8X,X4X5X,X,X,X,X,X,X8X8X8X8X8X8X8X8X8X    # t.t.t.t.t.w     H.Q.Q.Q.Q.Q.Q.Q.W.W.W.W.W.W.`. X X X X X X X X XoXI.R ~ J.~.W.W.W.W./ ^ E                           X X   & ^ R F.~.W.W.W.W..X X`.^ R Y     w t.t.t.t.t.#     8X8X8X8X8X8X8X8X8X8X4X6X5XdX8X8X8X8X8X",
"8X8X<X5X,X,X,X<X8X4X5X8X8X8X8X8X8X8X8X    # t.t.t.t.t.w     G.!.W.W.W.W.W.W.W.W.W.W.W.W.`.XX XXXoXXX X X X XoXI.E R F.W.W.W.W.W.^ ~ T                                 & ~ R D.~.W.W.W.W.|.XX}.^ R Y     w t.t.t.t.t.#     8XgX8X8X8X8X8X6X8X8X8X4X,X8X8X8X8X5X8X",
"8X8X5X8X5X5X5X8X8X8X8X8X8X8X8X8X8X8X8X    # t.t.t.t.t.w     ` L.J.J.J.L.W.W.W.W.W.^.^.^.`.`.`.(.(.(.`.`.`.`.|./.( ( J.W.W.L.J.J.T Y 4 , , , , , , , , , , , , , , , , 1 Y Y ` L.J.T.W.W.|. X}.( ( E     w y.t.t.t.t.#     8XgXgX8X8XdXgX8X8X8X8X,X,X8X8X8XdX8X8X",
"8X5X5X8X8X8X,X,X8X8X8X8X8X8X8X8X8X5X4X    # t.t.t.t.t.w     Y R R R R / W.W.W.W.W.'.oXXX^.W.W./ R ^ W.W.W.W.W.W.!.W.W.W.W.( R E     : z.z.z.z.z.z.z.z.z.z.z.z.z.x.x.x.u.    4 R R J.W.W.|. X|.!.!.G.    w t.t.t.t.t.#     8XhX8X8X8X8X8XdX8X8X8X,X,X8X8X8X8XdX8X",
"8X8X8X8X8X8X8X8X8X8X5X8X8X8X8X8X8X8X8X    # t.t.t.t.t.w     Y R R R R ^ W.W.W.!.W.'.OXOX'.!.~.( R / W.W.W.~.~.~.~.~.~.~.~.( R R     : z.k.k.k.k.k.k.k.k.k.k.k.k.k.k.z.:.    4 ~ R J.~.~.|.oX XW.!.G.    w t.t.t.t.t.#     jXjXgX8X8X,X8X8X8X8X4X<X,X,X8X8X8X8X8X",
"8X8X8X,X8X8X8X8X8X8X8X6X8X6X8X8X8X8X8X    # t.t.t.t.t.w     Y R R ` D.D.W.W.U.F.F.F.o.o._ ) ) 4 4 Y W.W.Y.) ) ) ) ) ) ) ) 4 4 4     : z.k.k.k.k.k.k.k.k.k.k.k.k.k.k.z.:.    & 4 4 Q ) ) I.I.I.W.!.G.    w t.t.t.t.t.#     8X8XgX8X6X8X8X8X4X8X4X,X,X5X8X8X8XdX8X",
"8X8X8X8X8X8X5X8X8X5X5X4X8X8X8X8X8X8X8X    # t.t.t.t.t.w     Y R ~ T.!.!.W.!.J.R R 4               % T.!.F.                          : z.k.k.k.k.k.k.k.k.k.k.k.k.k.k.z.:.                T R ~ W.!.G.    w t.t.t.t.t.#     8X,X8X8X8X8X8X8X8X8X4X,X4X,X8X5X8XdXdX",
"5X8X8X8X8X8X5X5X8X8X4X5X8X5X5X8X8X5X8X    # t.t.t.t.t.w     Y R R U.W.W.~.~.J.R ~ 4               X T.W.F.                          - z.k.k.k.k.k.k.k.k.k.k.k.k.k.k.z.&.                E ~ / W.~.G.    w t.t.t.t.t.#     8X8X8X8X8X8XjXjX8X8X8X8X5X,X8X8X5X4X8X",
",X5X8X8X5X8X,X4X8X5X8X,X,X8X8X5X4X6X8X    # t.t.t.t.t.w     ` J.F.W.W.Y.! ! 4 & 5 X     ' I.o.o.I.I.`.`./.4 4 &               . D &.u.k.k.k.k.k.k.k.k.k.k.k.k.k.k.k.z.f.&.&.e     M &.&.= 5 4 ` D.Q     w t.t.t.t.t.#     8X8X8X8X8X8XgXdX8X8X8X8X8X4X,X8X5X,X5X",
"8X8X,X,X8X,X,X4X8X8X8X8X5X4X8X5X4X1X8X    # t.t.t.t.t.w     G.~.W.W.W.J.                I.OXOXOXOXOXXXoX(.R ~ 4               . l.z.z.k.k.k.k.k.k.k.k.k.k.k.k.k.k.k.k.z.z.b.V     u.b.z.#     E R Y     w t.t.t.t.t.#     8X5X8X8X8X8X8X8X8X8X8X8X8X8X8X8X5X5X5X",
"8X8X8X<X5X5X4X4X,X8X5X8X4X4X8X8X8X8X8X    # t.t.t.t.t.w     G.~.W.W.W.J.                I.OX X X X X XoX(.R ~ 4               . h.k.k.k.k.k.z.z.k.k.k.k.k.k.z.z.z.k.k.k.k.x.V     :.x.j.#   X R R Y     w t.t.t.t.t.#     ,X5X8X4X5X8X8X8X8X8X8X8X8X8X8X8X,X8X8X",
"5X8X8X,X,X5X,X,X5X,X8X5X5X5X8X8X4X,X5X    # t.t.t.t.t.w     & 5 5 5 5 &           ! J.J./.^.^.^.^.^. XoX(.R ~ 4     V p.p.-   . h.k.k.k.z.u.- - &.z.k.k.k.j., : e j.k.k.k.x.V     :.z.j.#   X R R Y     w t.t.t.t.t.#     ,X8X8X8X5X8X4X8XdX8X8X8X8X8X8X8X8X8X8X",
"<X5X8X,X,X8X8X,X5X5X5X5X5X5X4X4X,X5X8X    # t.t.t.t.t.w                           ' ~.W.W.W.W.W.W.Q. XoX(.R ~ 4     &.x.z.:   . h.k.k.k.z.&.    D z.k.k.k.l.$   # j.k.k.k.x.V     :.z.j.#   X R R Y     w t.t.t.t.t.#     ,X,X8X8X8X8X8X8X8X8X8X8XdX8X8X5X8X8X8X",
",X8X8X<X5X,X8X5X,X4X5X5X8X5X4X4X5X5X4X    # t.t.t.t.t.w                           ' T.U.U.U.U.W.W.Q. XoX(.~ ^ 4     &.z.z.:   . h.k.j.h.l.D     D z.k.k.k.l.$   # f.h.l.k.x.V     :.z.j.#   X R R Y     w t.t.t.t.t.#     ,X<X8X8X8X8X8X8X8X8X8X8X8X8X8X8X,X5X8X",
"1X8X8X8X5X,X<X<X,X<X5X8X8X5X<X,X<X:X8X    # t.t.t.t.t.w     2 r r } | | | | 9       X X X X X J.W.Q. X X`.T.W.)     &.z.z.:   . h.z.p.. . .     D z.k.k.k.l.$     . . m z.x.B     :.z.j.#   X R R Y     w t.t.t.t.t.#     <X<X8X8X<X8X8X8X8X8X8X8X,X8X8X8X,X8X8X",
",X,X,X,X,X<X,X,X8X5X8X8X<X8X8X5X,X5X5X    # t.t.t.t.t.w     2 t y X. . . ...s                 J.W.^. XoX`.W.!.)     &.z.z.:   . h.z.p.          D z.k.k.k.l.$         , z.x.B     :.z.j.#   X R R Y     w t.t.t.t.t.#     ,X<X8X8X8X8X8X8X8X8X8X<X5X8X<X<X5X8X8X",
",X4X8X,X,X,X,X,X8X4X5X8X8X8X8X8X8X8X4X    # t.t.t.t.t.w     : 3 3 } | |  ...H + + + + +       F.L.U. XXX}.^.^._     &.z.z.:   . h.z.p.: : : : - &.z.k.k.k.j., : : : : M x.x.V     :.z.j.#   X ( ( E     w y.t.t.t.t.#     ,X,X,X,X,X,X,X4X8X8X8X<X8X8X5X,X,X8X8X",
",X2X8X,X,X,X8X<X,X8X8X8X8X2X8X8X2X8X8X    # t.t.t.t.t.w           s G G  . . . . . . ...=     T R / .X X X XOXo.    &.z.z.:   . h.k.k.z.z.z.z.z.k.k.k.k.k.k.z.z.z.z.z.k.z.x.V     :.z.j.#   % T.!.G.    w t.t.t.t.t.#     ,X<X,X,X,X,X,X<X<X8X8X8X8X8X5X,X,X8X8X",
",X,X,X:X,X<X,X,X4X8X8X8X8X,X,X2X8X8X8X    # t.t.t.t.t.w           s G G  . . . ... . ...=     E ~ /  XoXoXXXOXo.    &.z.z.:   . h.z.z.z.z.z.k.k.k.k.k.k.k.k.k.k.k.z.z.z.z.n.V     :.z.j.#   % T.!.G.    w t.t.t.t.t.#     ,X,X,X,X,X,X,X,X,X8X<X,X5X5X<X,X,X5X8X",
",X,X<X4X,X,X<X8X8X,X4X,X<X,X,X,X,X5X,X    # t.t.t.t.t.w           s p H | | | | | |  ...=     4 4 W /./.(.`.`.O.    &.z.z.:   . 0.0.0.0.0.V.z.k.k.k.k.k.k.k.k.k.c.0.0.0.0.r.c     :.z.j.#   % T.!.G.    w t.t.t.t.t.#     ,X,X,X,X,X,X,X,X,X8X,X:X5X5X5X<X5X8X8X",
",X,X8X8X,X,X<X,X5X<X<X8X<X,X,X,X,X,X<X    # t.t.t.t.t.w           r t t G G G G G } ....=           E E ( W.!.)     &.z.z.:   O 4.].].].].e.z.k.k.k.k.k.k.k.k.k.v.].].].].].i     :.z.j.#   % T.!.G.    w t.t.t.t.t.#     ,X,X,X<X,X,X,X,X,X5X<X8X<X,X<X8X<X8X8X",
",X6X8X8X8X5X,X,X<X<X,X8X8X,X,X5X<X,X,X    # t.t.t.t.t.w           r t p G G G G G } ....=         X R R ( ~.~._     &.x.z.-     4.[.[.].].e.k.k.k.k.k.k.k.k.k.k.v.].].].[.[.i     :.z.j.#   % T.!.G.    w t.t.t.t.t.#     8X,X,X,X,X8X8X<X<X,X<X,X,X,X,X<X<X,X8X",
",X,X8X8XdX8X,X8X8X4X4X8X5X8X8X<X,X2X<X    # t.t.t.t.t.w           $ $ - ; ; 1 p p J ....s 8 8 O     & & 4 D.D.W     &.x.k.&.D D i i i q.q.V.z.k.k.k.k.k.k.k.k.k.c.q.q.5.i i c D D s.z.j.#   % T.!.G.    w t.t.t.t.t.#     8X8X1X,X,X,X,X,X,X4X5X,X,X,X,X,X5X8X8X",
",X6X8X8X5X8X8X8X8X8X5X8X<X5X5X5X,X,X2X    # t.t.t.t.t.w                     @ t r K .. .......o         X R R 4     &.x.k.z.z.l..   > z.z.z.k.k.k.k.k.k.k.k.k.k.k.z.n.g.    V b.z.z.k.j.#   % T.!.G.    w t.t.t.t.t.#     8X8X6X6X6X8X,X,X,X4X8X5X5X5X,X,X5X8X8X",
",X6X8X8X8X8X8X8X8X8X4X8X5X5X5X8X,X,X,X    # t.t.t.t.t.w                     + t t K ........ .o         X ~ ~ 4     &.x.k.k.k.h..   : k.k.k.k.k.k.k.k.k.k.k.k.k.k.k.z.:.    V x.k.z.z.k.#   % T.!.G.    w t.t.t.t.t.#     8X8X8X8X6X,X,X,X,X8X5X,X8X8X,X5X,X5X8X",
",X8X8X8X8X8X8X8X8X8X8X8X5X4X8X8X8X6X,X    # t.t.t.t.t.w     - 2 2 2 2 3 9 9 6 @ @ 2 p p p p p 3 2 2 2 2 ; X & X     &.x.k.k.k.h..   : k.k.k.k.k.k.k.k.k.k.k.k.k.k.k.z.:.    V x.z.B , ,     % T.!.G.    w t.t.t.t.t.#     8X8X8X8X8X6X,X,X,X,X,X,X4X8X5X8X5X4X8X",
"<X,X4X8X4X8X4X4X8X8X8X,X,X,X8X8X8X8X6X    # t.t.t.t.t.w     2 t t t t p G J 8     - t t t t t t t t t t 2           &.z.k.k.k.h..   : z.k.k.k.k.k.k.k.k.k.k.k.k.k.k.z.:.    V x.z.,         % T.!.G.    w t.t.t.t.t.#     8XgX8X8X8X8X6X8X8X>X=X5X4X,X8X8X8X8X4X",
"8X8X8X8X8X4X,X8X8X8X5X:X=X4X,X8X8X8X8X    # t.t.t.t.t.w     2 t t t t p G G 8     - t r t t t t t t t t 2           F j.l.j.k.h..   : j.l.j.k.k.k.k.k.k.k.k.k.k.j.l.j.&.    V z.z.e         & T.!.G.    w t.t.t.t.t.#     8XgXgX8X8X8X8X8X4X8X,X,X,X,X8X8X8X8X,X",
"8X8X8X8X8X8X8X8X<X5X,X,X,X5X,X,X8X8X8X    # t.t.t.t.t.w     s X.| | | | G G 8       O   2 t t t t t t t 2           . $ $ p.z.h..     $ @ M z.k.k.k.k.k.k.k.k.z.f.$ @ m f.f.h.z.z.e     G.Y.Y.W.!.G.    w t.t.t.t.t.#     8X8X8X8X8X8X8X8X1X,X,X,X,X,X,X8X8X,X,X",
",X5X5X4X8X8X8X4X8X8X5X8X8X8X,X,X,X8X8X    # t.t.t.t.t.w     H .... . .| G G 8           2 t t t t t t t 2                 p.z.h..         m z.k.z.z.z.z.z.z.k.z.a.    e z.z.k.k.z.e     J.!.W.W.!.G.    w t.t.t.t.t.#     8X8X8X8X8X8X8X8X8X,X,X,X,X8X=X=X,X,X,X",
"5X8X5X4X8X8X8X8X8X8X5X,X8X5X,X,X>X,X8X    # t.t.t.t.t.w     9 J J X. .| G G 9 . o o o o : 3 3 3 3 3 3 3 2 o o o o o       p.z.h.: # $     m z.z.f.a.a.a.a.s.j.z.a.    e z.k.k.z.z.e     F.J.J.L.U.`     w t.t.t.t.t.#     6X,X8X8X8X8X8XhXhX8X,X,X,X,X,X,X,X;X3X",
"5X8X8X8X8X8X8X8X8X8X5X<X<X8X,X,X,X<X8X    # t.t.t.t.t.w           }  .| G G G G G G G G *               + 0 q q q a *     p.z.k.j.j.p.    m z.x.M         . f.z.a.    e z.k.z.z.z.e         X R ~ Y     w t.t.t.t.t.#     ,X5X5X8X8X8X8X8XgXgX8X8X6X6X1X8X,X,X,X",
"<X5X5X8X8X8X8X8X8X8X8X8X<X<X<X,X8X8X8X    # t.t.t.t.t.w           }  .| G G G G G G G G *               + a 0 0 0 a *     p.z.k.k.z.p.    m z.x.m           f.z.a.    e z.k.z.z.b.e         X R R Y     w t.t.t.t.t.#     ,X,X4X8X8X6X8X8X8X8X8X8X8X6X8X6X,X,X8X",
"<X8X8X8X8X8X8X8X4X8X8X5X5X5X,X5X,X8X8X    # t.t.t.t.t.w           }  .X.} } } J J G G G 1 * *           + a 0 0 0 a *     p.z.k.k.z.p.    m z.z.F , e e e e h.z.a.    e z.z.p.&.u.:         X R R Y     w t.t.t.t.t.#     ,X,X,X8X6X8X8X8X8X8X8X6X,X,X8X,X,X,X1X",
"8X8X8X8X8X8X8X8X8X8X4X8X8X8X8X8X,X,X2X    # t.t.t.t.t.w           }  . . . . . ...} G G G G G o         + a 0 0 0 a *     p.z.k.k.z.p.    m z.k.z.z.z.z.z.z.z.z.a.    e z.x.B               X R R Y     w t.t.t.t.t.#     8X8X6X6X6X8X8X8X8X8X6X6X8X8X6X1X1X1X,X",
"8X1X8X5X8X8X8X8X8X8X5X8X8X8X8X4X5X,X,X    # t.t.t.t.t.w           | ..............} G G G G G o         + a 0 0 0 a *     p.b.x.x.b.p.    m b.x.x.x.x.x.x.x.x.x.f.    e b.b.V               X R R Y     w t.t.t.t.t.#     ,X8X,X6X8X8X8X8X8X8X8X8X8X,X6X6X8X8X8X",
"2X,X8X8X8X4X8X8X8X8X8X8X8X,X8X,X8X,X,X    # t.t.t.t.t.w     $ - - 7 7 7 7 7 9 K K K p p p p p ; - -     + a 0 0 0 a *     m V V V V m     : V V V V V V V V V V M     - V V ,     * ; =     X R R Y     w t.t.t.t.t.#     6X8X,X8X8X8X8X8X8X8XhX8X8X,X8X8X8X8X8X",
",X,X,X6X,X,X6X8X8X8X8X8X,X,X1X1X8X,X8X    # t.t.t.t.t.w     3 y r           @ t r r t t t t t t t r     + a 0 0 0 a *                                                             7 a a o   X R R Y     w t.t.t.t.t.#     ,X8X,X8X8X8X8X8X8XhX8X8X8X8X8X8X8X8X,X",
"8X,X,X,X,X6X8X8X6X8X6X8X8X8X,X,X8X8X6X    # t.t.t.t.t.w     2 t r           @ y t t t t t t t t t r     + a 0 0 0 a *                                                             6 a q o   X R R Y     w t.t.t.t.t.#     8X8X,X8XjX8X8X8X8X8XhX8X8X8X8X8X8X8X8X",
",X,X,X1X8X,X,X8X8X8X8X8X8X8X1X2X8X8X2X    # t.t.t.t.t.w     s J J s s s 8 8 1 @ + + + + 3 t t t t r     + a 0 0 0 a *     1 6 6 6 6 1     , u.u.,           &.u.D     o 7 7 *     6 a q o   X R R Y     w t.t.t.t.t.#     8X8X8X8X8X8X8X8XgXhX8X8X8X8X8X8X8X8X8X",
"6X6X6X8X8X,X,X,X,X,X6X8X1X,X,X8X2X,X2X    # t.t.t.t.t.w     H ........ .G J 8           2 t t t t r     + a 0 0 0 a *     8 a a a a 8     m b.b.M         O f.z.f.    * a a ;     6 a q o   X R R Y     w t.t.t.t.t.#     ,X8X8X8X8X8X8X8X8X8X,X8X8X8X8X8X8X8X8X",
"8X8X,X6X8X,X1X,X,X,X,X8X8X6X,X2X2X2X2X    # t.t.t.t.t.w     H ..X. . .| G G 8           2 t r t t r     + a 0 0 0 a *     8 a 0 0 a 8     m z.x.M         . f.z.a.    * a a ;     6 a q o   X R R Y     w t.t.t.t.t.#     6X8X8X8X8X8X6X8X8X8X8X8X8X8X8X8X8X8X8X",
"2X,X,X,X,X2X,X,X,X,X,X6X,X,X,X8X8X8X2X    # t.t.t.t.t.w     3 p p X. .| G G G s s s s s * O . 3 t r     + a 0 0 0 a *     8 a 0 0 a 8     m z.z.f.a.a.a.a.s.j.z.a.    * a a ;     6 a q o   X R R Y     w t.t.t.t.t.#     8X6X,X8X8X6X,X6X6X8X8X8XhX8X8X8X8X2X8X",
",X,X8X8X,X,X,X,X,X,X,X,X,X6X2X,X8X2X8X    # t.t.t.t.t.w     2 t t |  .| G G G G G G G G *     3 t r     + a 0 0 0 a *     8 a 0 0 a 8     m x.k.z.z.z.z.z.z.z.z.a.    * a a ;     6 a q o   X R R Y     w t.t.t.t.t.#     8X,X2X8X8X6X,X,X8X8X8X8X8X8X8X8X8X8X8X",
"2X,X1X1X8X,X,X8X8X6X6X,X8X8X,X,X,X8X8X    # t.t.t.t.t.w     2 r r |  .| G G G G G G G G *     2 r 3     + a 0 0 0 a *     8 a 0 0 a 8     e h.f.l.z.k.k.z.k.f.f.u.    * a a ;     6 a q o   X ^ / T     w t.t.t.t.t.#     8X,X2X2X2X8X8X8X8X8X8X8X8X8X8X8X8X8X2X",
"2X2X2X8X1X,X8X,X8X6X6X8X,X2X6X,X,X8X6X    # t.t.t.t.t.w           }  . . . .J r t p G G *               + a 0 0 0 a *     8 a 0 0 a 8       O   D z.k.k.z.j.#         * a a ;     6 a q o   % U.W.F.    w t.t.t.t.t.#     8X,X1X,X2X1X,X2X8X8X8X8X8X8X1X6X6X8X8X",
"8X2X8X8X2X,X8X8X8X,X,X8X8X2X8X,X,X,X,X    # t.t.t.t.t.w           } ........J t t p G G *               + a a a a a *     8 a a a a 8           D b.z.z.z.j.$         * a a ;     6 a 0 o   % W.~.G.    w t.t.t.t.t.#     8X6X,X,X8X,X,X,X,X,X8X8X,X,X,X6X6X6X8X",
"8X8X,X,X,X8X8X8X8X8X8X8X8X8X,X1X8X6X6X    # t.t.t.t.t.w           s H H H H s 2 2 7 9 9 +               o 7 7 7 7 7 *     6 7 7 7 7 6           M p.u.u.u.u.@         o 7 7 *     ; 7 7     X F.G.)     w t.t.t.t.t.#     6X,X8X1X1X6X,X,X,X8X8X,X6X,X,X6X6X,X6X",
"8X8X,X8X8X8X8X8X8X8X8X6X8X8X1X6X6X8X8X    # t.t.t.t.t.w                                                                                                                                                 w t.t.t.t.t.#     8X,X8X,X,X,X,X,X6X8X6X8X8X8X8X1X8X8X8X",
"8X6X6X8X8X8X8X8X8XhX8X8X,X,X6X8X8X8X8X    # t.t.t.t.y.w                                                                                                                                                 w y.t.t.t.t.#     8X8X8X,X1X1X,X6X8X6X8X6X8X8X6X6X8X8X8X",
"6X8X8X8X8X8X8X8X8X8X8X8X,X,X,X8X,X8X6X    # t.t.%.n n b w w w w w w w w w w w w w w w w w w w w w w w w w w w w w w w w w w w w w w w w w w w w w w w w w w w w w w w w w w w w w w w w w w w w w w w w b n n %.t.t.#     8X6X8X,X,X4X8X8X6X8X,X,X8X8X8X8X8X8XgX",
"8X8X6X6X8X8X8X8X6X8X6X,X6X8X<X,X,X,X8X    # t.t.N     n y.t.t.t.t.t.t.t.t.t.t.y.t.t.t.t.t.t.t.t.t.t.t.t.t.t.t.t.t.t.t.t.t.t.t.y.t.t.t.t.t.t.t.y.t.t.t.t.t.t.t.t.t.t.t.t.t.t.t.t.t.t.t.t.t.t.t.y.t.t.t.y.n     N t.t.#     8X8X8X8X8X,X4X8X6X,X,X1X,X8X6X8X8X8X8X",
"8X8XhX8X8X8X8X8X8X8X,X,X,X6X,X,X,X8X8X    - t.y.N     n t.t.t.t.t.t.t.t.t.t.t.t.t.t.t.t.t.t.t.t.t.t.t.t.t.t.t.t.t.t.t.t.t.t.t.t.t.t.t.t.t.t.t.t.t.t.t.t.t.t.t.t.t.t.t.t.t.t.t.t.t.t.t.t.t.t.t.t.t.t.t.t.n     N y.t.-     8X8X8X6X8X8X,X,X8X1X,X,X,X1X6X8X8X6X8X",
"2X2X8X8X6X,X8X,X,X8X,X,X,X,X,X1X8X,X6X    . < < b N N %.t.t.t.t.t.t.t.t.t.t.t.t.t.t.t.t.t.t.t.t.t.t.t.t.t.t.t.t.t.t.t.t.t.t.t.t.t.t.t.t.t.t.t.t.t.t.t.t.t.t.t.t.t.t.t.t.t.t.t.t.t.t.t.t.t.t.t.t.t.t.t.t.%.N N b < < .     8X8X8X8X8X8X8X,X6X8X,X6X6X8X8X,X,X,X8X",
"8X8X8X8X6X,X8X,X,X,X8X6X,X,X,X2X2X8X6X          < y.t.t.t.t.t.t.t.t.t.t.t.t.t.t.t.t.t.t.t.t.t.t.t.t.t.t.t.t.t.t.t.t.t.t.t.t.t.t.t.t.t.t.t.t.t.t.t.t.t.t.t.t.t.t.t.t.t.t.t.t.t.t.t.t.t.t.t.t.t.t.t.t.t.t.t.t.y.<           8X8X8X8X8X8X8X1X8X8X1X,X1X8X8X8X,X,X8X",
"8X2X,X8X8X1X8X8X2X,X,X6X,X,X,X8X1X,X,X          < t.t.t.t.t.t.t.t.t.t.t.t.t.t.t.t.t.t.t.t.t.t.t.t.t.t.t.t.t.t.t.t.t.t.t.t.t.t.t.t.t.t.t.t.t.t.t.t.t.t.t.t.t.t.t.t.t.t.t.t.t.t.t.t.t.t.t.t.t.t.t.t.t.t.t.t.t.t.<           8X8X8XhX8X8X8X8X,X1X8X8X6X8X8X6X,X,X8X",
"8X8X8X8X8X1X8X8X8X,X8X,X6X8X,X,X8X8X8X          . - # # # # # # # # # # # # # # # # # # # # # # # # # # # # # # # # # # # # # # # # # # # # # # # # # # # # # # # # # # # # # # # # # # # # # # # # # # # # - .           8X8X8X8XgX8X8X8X6X,X8X8X6X6X8X,X,X6X8X",
"8X8X8X8X6X6X8X8X8X8X8X8X8X8X8X8X,X8X8X                                                                                                                                                                                    8X8X8X8XgX8X8X6X6X8X6X6X6X8X8X1X8X1X8X",
"8X,X8X8X6X8X8X8X8XjX8X3X8X8X8X8X6X8X8X                                                                                                                                                                                    hX8X8X8X,X6X8X,X,X8X8X1X1X6X6X6X8X6X8X",
"8X,X6X8X8X8X8X8X6X8X8X8X8X8X8X8X8X8X8X8X8X8X8X8X8X8X8XjXjX8X6X8X8X8X8X8X8X8X8X8X8X5X,X<X8X,X,X,X2X,X,X,X8X6X1X,X6X8X8X8X8X8XgX8X8X8X8X8X8X8X8X8X8X8X8X2X8X8X8X5X<X8X8X,X,X,X1X2X8X8X8X8X2X2X8X8X8X8X<X8X8X8XgXhX8X8X8X8X6X8X8X8X8X6X8X8X6X,X6X8X,X,X8X8XhX8X,X8X",
"6X1X8X8X8X8X8X8XgX8X1X,X,X,X8X8X8X8X8X8X8X8X8X8X8X8X8X8X8X8X6X8XhX8X8X8X8X8X8X8X5X,X,X<X5X,X,X,X8X8X,X6X6X,X,X6X8X8X8X8X8X8X8XhX8X8X8X8X6X8X8X6X8X8X8X1X,X,X5X8X8X8X8X2X,X,X1X,X8X8X8X8X8X2X8X8X8X8X8X8X8X8X8X8X8X8X6X8X,X8X8X8X8X6XgX8X6X,X6X8X6X6X8X8XgX8X8X8X",
"8X8X8X8X8X8X8X8X8X8X8X,X,X,X,X4X8X1X8X8X8X8X8X8X8X8X8X8X8X8XgXgXgX8X8X8XjX8X8X8X,X,X,X,X,X8X,X,X6X,X,X8X,X6X1X,X,X,X8X8X8X8X8X8X8X8X8X8X8X8X8X,X6X8X8X,X,X2X8X8X,X5X8X,X<X<X8X<X,X,X8X8X8X5X8X8X8X8X8X8X8X8X8X8X8X,X6X8X8X8X6X8X6X1X8X8X8X,X8X8X,X6X8X6X1X8X8X8X",
"8X8X8X8X8X8X8X8X8X8X6X,X>X,X,X8X8X6X,XgXhX8XgX8X6X8X8X8XhXhX8X8XdXgXgX8X8X8X8X8X8X1X1X,X6X8X2X1X6X,X,X8X8X8X8X,X,X<X8X8X8X8X8X8X8X8X8X8X8X8X8X8X8X8X8X8X2X8X5X,X,X,X<X<X5X<X,X<X,X8X8X8X,X4X8X,X8X8X8X8X8X8X8X8X2X8X1X8X8X8X8X8X6X1X8X8X8X8X8X8X,X,X8X8X,X,X,X1X",
"6X,X8X8X8X8XgX8X8XjX8X,X,X,X8X8X8X8X8X8XhX8X8X6X8X8X8X8X8X8X8X8X8X8XgXgX,X8XhX8X8X8X8X6X8X8X1X6X,X,X,X8X,X8X6X,X,X5X1X1X6X8X8X8X8X8X8X8X8X8X8X8X8X8X6X8X8X8X8X8X5X8X8X,X8X,X,X<X5X<X2X8X4X8X8X6X8X6X8X8X8X8X8X8X8X8X8X,X6XhX8X8X8X8X8X8X6X,X,X8X,X,X6X6X,X,X,X8X",
",X,X8X8X8X8X8X8X8X8X8X,X8X,X6X8X8X8X8X8X8X8X8X8X8X8X8XgX8X8XgX8X8X8X8XgXhX8X8X6X6X8X8X8X8X8X8X,X,X,X,X8X,X,X8X8X,X,X,X,X,X6X8X8X8X8X8X8XgX8X8X2X8X8X8X4X8X8X8X8X8X5X8X<X,X,X8X8X8X8X1X8X4X5X5X8X8X8X8X,X2X8X8X8X8X8X8X8X8X8X8X8X8X8X8XhX6X,X,X,X,X4X8X1X,X1X8X8X",
"8X8X8X8X8X8X8X8X8X8X1X,X8X8X8X8X8XgX8X8X8X8X,X8XhXjX8X8X8X8XgX8X8X8X8X8XgX8X8X8X8X8X8X8X8X8X8X2X2X,X6X8X3X,X1X,X,X,X8X,X,X,X8X8X8X8X8X8X8X8X8X8X6X8X8X8X8X8X8X,X,X5X8X8X,X,X,X8X8X6X6X6X,X8X8X5X,X8X6X8X8X8X8X8X8X8X1X8X8XhX8X8X8X8X8X8X8X,X,X,X,X,X,X8X,X,X,X8X",
"8X,X8X8X8X6X8X6X8X8X,X6XgXgX8X8XgXgX8X8X8X8X8XhX8XhXgX8X8X6X8X8X8X8X8X8X8X8X8XgX8X8X8X8X8X<X<X8X6X,X,X,X,X6X6X,X1X,X8X8X8X6X6X8X8X1X1X6X8X8X1X8X8X8X8X8X4X8X5X,X:X,X8X8X,X8X<X,X1X6X1X8X8X4X4X8X8X4X8X6X1X8X8X,XhX8X8X8X8X8X8X8X8X8X8X8X8X4X,X,X,X,X,X1X,X6X4X6X",
",X,X1X,X,X8X8X8X8X8X8X8X8X8X8X8XgXgX8XgX6X8XjXkXgX8X8X8XgX8X8X8X8X8X8X8X8X8X8X8X8X8X8X8X8X6X,X8X6X,X,X8X8X8X6X8X,X8X8X,X8X8X8X8X6X,X6X6X8X8X8X8X8X8X8X8X8X8X5X<X5X5X5X8X8X8X8X2X,X6X8X8X8X8X,X8X8X8X8X8X8X4X4X8XgX8X8XgX8X8X8X8XgX8X1X6X8X8X6X,X,X,X<X=X,X6X6X8X",
",X8X8X,X,X,X8X6X8X8XhX8XgX8X8X8X8XgXgXjX8X6XhXkXhX8X8X8X8XhXhXgXgX8X8X8X8X8X8XhX8X8X8X8X8X,X8X8X6X6X,X8X,X,X,X,X4X8X,X8X8X8X8X8X8X8X3X6X8X8X8X8X8X8X8X8X8X2X8X5X,X,X4X8X8X8X8X2X8X8X8X6X4X8X8X8X8X8X2X,X4X5X8X8X8X8X8XjX8X8X8X8X8X8X6X8X8X8X8X4X,X,X,X=X,X,X8X8X",
",X8X8X,X2X1X8X8X8XgXgX8X8X8X8X8X8XjX8X8XjX8X8X8X8X8X8X8X8XjX8X8X8X8X8X8XjX8X8X8X8X8X8X8X8X4X4X8X6X6X,X,X,X8X3X,X8X,X,X6X6X8X8X8X8X8X6X1X,X8X8X8X8X8X8X8X8X8X,X8X<X8X8X8X8X2X8X8X8X8X8X,X8X8X8X8X8X8X8X,X,X5X8X8X8X8X6XjXgX8X8X1X8X8X6X8X8X8X8X8X,X,X,X,X8X,X,X,X",
"8X8X8X8X,X8X8X8X8X8X8X8X8X8X8X8X6X8XhX8X,X8X8X8X8X8X8X8X8X8XjX8X6X8X8X8X8X8X8X,X6X8X8XhX8X8X5X,X8X,X,X,X,X1X,X,X,X,X6X8X8X8X8X8X8X8XgX8X8X8X6X6X8X8X8X8X5X8X8X8X8X8X8X8X8X8X8X8X8X8X8X4X8X4X8X8X8X8X8X8X8X8X<X8X8X5X,X8X8XhX8X8X8X6X8X8X8X,X,X8X8X8X8X6X8X,X:X8X",
",X6X8X2X8XhXhX8X8X8X8XhX6X,XjXhX8X8X8X8X1X,X8X8XgXgX8XgX8X8X8X8X8XhX8X8X,X8X8X8X8X8X8X8X5X5X5X<X,X,X3X,X,X,X2X,X,X8X8X8X8X8X8X8X8X8X8XhXjXhXhXhX8X8X8X8X,X,X4X6X8X8X8X,X8X8X8X8X6X4X8X4X8X,X6X8X8X8X8X8X<X,X8X8X8X8X6X8X8X8X8X8X8X8X8X1X8X8X6X8X6X6X8X8X8X8X4X4X",
"2X8X8X8X8X8X8X,X8X8X,X1X8XhXgX8XhX8X8X8X8X8X8X8X8X8XhXjX8X8X8X8X8X8X8X8X6X8X8X8X8X8X,X8X,X,X,X,X,X,X,X,X,X,X8X6X8X8X8X8X8X8X6X8X8X8X8X8X8X8X8X8X8XhX8X4X4X,X,X,X8X8X8X,X6X8X8X8X6X8X8X8X8X8X,X8X8X8X8X8X8X8X8X8X8X8X8X8X8X,X8X1X8X8X8X8X8XgXhX8X6X,X,X,X,X8X6X,X",
"1X,X8X8X8X8X6X8X8X8XhX8X8XgXjX8XhX8XgXjX8X8X8X8X8X8X8X8X8X8X8X8X6X8X8X8X8X8X8X,X,X,X8X8X,X,X,X,X,X,X:X,X5X,X6X8X8X,X8X8X8X8X8X8X8X8X8X8X8X8X8X8X8X8X8X8X5X6X6X,X6X5X5X8X8X8X8X8X8X8X8X8X8X8X8X8X8X6X4X8X2X8X8X8X8X8X8X8X8X8X8X,X,X8X8X8X8X8X8X8X8X8X8X8X6X8X8X8X",
",X,X8X8X2X1X,X,X8X8X8X8X1XgXjXgXhXjXgXhXgX8X,X8X8X8X8X8X8X8X8X8X8X8X8X8X8X8X,X8X,X,X,X8X,X,X,X,X,X,X,X,X,X8X8X6X8X8X8X8X8X8X6X8X8X8X6X8X8XhX8X6X,X8X8X8X4X4X6X6X,X4X4X8X8X6X8X8X8X8X8X8X8XgX8X,X8X8X8X8X8X2X8X8X8X8X8X8X8XgX8X6X6X8X,X,X8X8X8X8X8X8X8X8X1X,X,X,X",
",X,X,X,X,X,X8X8XgXjXjX6X1X8XkXgXjX8XgX8X8X8X8X,X,X,X8X8X8X8X8X8X8X8X6XdX8X6X8X8X8X8X6X4X8X8X,X=X:X,X,X>X,X,X8X8X6X6X8X6X8X8X,X6X8XgXgXgX8X8X8X8X1X8XjXgX8X,X2X,X,X2X,X,X8X,X,X6X8X4X8X8X8X8X8X,X8X8X8X8X8X8X8X8X8X8X8X8X8X8X8X,X4X8X6X8X8X8X8X8X8X8X8X8X,X8X8X3X",
",X,X,X>X,X,X8X8X6X1XjXgX8X8XgXkXjX8X8X8X8X,X6X8X8X8X8X8X,X6X6X8XgX8X,X8X,X,X,X8X2X8X8X8X8X2X,X-X*X>X,X=X,X,X8X8X8X6X8X8X8X8X8X1X6X8XgXgX8X6XgXgX8X8XgXdX8X8X,X,X2X8X,X,X8X2X1X6X,X4X8X8X5X4X8X8X8X8X8X8X8X8X8X8X8X8XhX8X8X8X8X4X4X8X8X8X6X8X8X8X8X8X8X8X,X6X8X,X",
"<X,X,X,X<X,X,X,X8X8XdXgXjX8X8XgXhX8X8X8X8X8X,X6X8X6XgX8X8X8X8X6X8X8X,X,X,X8X6X8X8X8X,X,X8X8X,X:X;X:X<X>X,X,X8X,X6X8X6X6X8X8X8X1X,X6X8X8X8X8XjXgX8XhX8X8X8X8X8X8X2X8X8X,X,X,X1X,X,X4X,X8X8X5X8X6X8X8X,X2X2X8X2X6X6X8XjX8X8XgX8X8X4X8X8X,X6X8X8X8X8X8X8X8X8X1X6X6X"
};
