/* XPM */
static char *palett_1[] = {
/* columns rows colors chars-per-pixel */
"300 300 249 2 ",
"   c #010000",
".  c #0E0A05",
"X  c #090708",
"o  c #0A030D",
"O  c #120D07",
"+  c #130F08",
"@  c #161109",
"#  c #1B150B",
"$  c #0F0411",
"%  c #150519",
"&  c #0F1011",
"*  c #121212",
"=  c #181614",
"-  c #1D1D1D",
";  c #231A0D",
":  c #271C0D",
">  c #281E11",
",  c #2E2310",
"<  c #2E2312",
"1  c #2B241C",
"2  c #372915",
"3  c #1D0723",
"4  c #24092B",
"5  c #2C0936",
"6  c #320B3C",
"7  c #292929",
"8  c #343029",
"9  c #363636",
"0  c #3A393A",
"q  c #402F18",
"w  c #44331A",
"e  c #4A381C",
"r  c #523D1F",
"t  c #540B2A",
"y  c #57092C",
"u  c #581729",
"i  c #6B0F35",
"p  c #553227",
"a  c #613827",
"s  c #6F2832",
"d  c #094E16",
"f  c #0A5217",
"g  c #0A5718",
"h  c #19521A",
"j  c #364F1E",
"k  c #0C671D",
"l  c #116B1F",
"z  c #0E7922",
"x  c #326523",
"c  c #564323",
"v  c #5D4523",
"b  c #545134",
"n  c #664C26",
"m  c #694D27",
"M  c #664B28",
"N  c #695425",
"B  c #6D5129",
"V  c #72552B",
"C  c #795B2D",
"Z  c #7B5931",
"A  c #6B6926",
"S  c #081557",
"D  c #0F1757",
"F  c #05125B",
"G  c #08145B",
"H  c #3A0A47",
"J  c #3C1447",
"K  c #1F2257",
"L  c #302E4F",
"P  c #10176F",
"I  c #480D58",
"U  c #491756",
"Y  c #50355B",
"T  c #571469",
"R  c #5A106E",
"E  c #64137B",
"W  c #662178",
"Q  c #3B6E5B",
"!  c #327667",
"~  c #494949",
"^  c #534E4D",
"/  c #545454",
"(  c #5C5B5A",
")  c #6B5750",
"_  c #5A644F",
"`  c #74577B",
"'  c #656565",
"]  c #6A6A6A",
"[  c #777776",
"{  c #89393D",
"}  c #856628",
"|  c #846332",
" . c #8B6835",
".. c #906C37",
"X. c #926E38",
"o. c #867430",
"O. c #99733A",
"+. c #A37A3E",
"@. c #A87A3E",
"#. c #8E1347",
"$. c #B21959",
"%. c #A92B51",
"&. c #C5345E",
"*. c #C71964",
"=. c #C91B65",
"-. c #D01B68",
";. c #C72562",
":. c #BC5A52",
">. c #97744D",
",. c #A77D42",
"<. c #BB7A4B",
"1. c #AD7354",
"2. c #916C65",
"3. c #C14E57",
"4. c #C26653",
"5. c #109028",
"6. c #30922E",
"7. c #13A72E",
"8. c #0EB832",
"9. c #13B532",
"0. c #15B833",
"q. c #33AC36",
"w. c #25B134",
"e. c #5E9D3A",
"r. c #739A3D",
"t. c #52A53A",
"y. c #1F857E",
"u. c #29857A",
"i. c #4A8B74",
"p. c #768C62",
"a. c #7B9260",
"s. c #8D8C16",
"d. c #928F18",
"f. c #8F9014",
"g. c #919116",
"h. c #9B9918",
"j. c #B6B419",
"k. c #9F9525",
"l. c #AB8E35",
"z. c #C1A330",
"x. c #CAA93B",
"c. c #D3B836",
"v. c #D7D51C",
"b. c #E1DF1D",
"n. c #ECEA1E",
"m. c #F7F51F",
"M. c #F8F71F",
"N. c #FAF91E",
"B. c #DAC530",
"V. c #E7DA29",
"C. c #F2EC23",
"Z. c #8F9346",
"A. c #AD8242",
"S. c #AA8949",
"D. c #B28644",
"F. c #B68946",
"G. c #B98B47",
"H. c #B88648",
"J. c #B68A49",
"K. c #BC9346",
"L. c #BF9049",
"P. c #A59351",
"I. c #989A65",
"U. c #93A56C",
"Y. c #C28B47",
"T. c #C39A42",
"R. c #C1914A",
"E. c #1B1A8B",
"W. c #221D99",
"Q. c #32298A",
"!. c #271EA9",
"~. c #291DB7",
"^. c #3829A9",
"/. c #2C20B4",
"(. c #2E21B9",
"). c #6D0E88",
"_. c #6D1585",
"`. c #73168D",
"'. c #7E0F9C",
"]. c #771691",
"[. c #7A1795",
"{. c #7B1896",
"}. c #7E189A",
"|. c #4C3899",
" X c #732589",
".X c #4533A0",
"XX c #654D87",
"oX c #800F9F",
"OX c #81199E",
"+X c #8211A1",
"@X c #8A1AA9",
"#X c #931CB4",
"$X c #8B27A6",
"%X c #902EAB",
"&X c #9725B6",
"*X c #942FB0",
"=X c #9F2AC0",
"-X c #A62AC8",
";X c #AA34CB",
":X c #AF2FD2",
">X c #B437D6",
",X c #BE3BE2",
"<X c #C53CEA",
"1X c #CC3EF2",
"2X c #C840EE",
"3X c #CD41F4",
"4X c #D745FF",
"5X c #DA46FF",
"6X c #DC47FE",
"7X c #E249FF",
"8X c #EB4BFF",
"9X c #158987",
"0X c #1A8A85",
"qX c #158C8A",
"wX c #17938E",
"eX c #159490",
"rX c #25998E",
"tX c #1DA59B",
"yX c #21B3A6",
"uX c #50A98A",
"iX c #76B988",
"pX c #27C8B5",
"aX c #2DD2BA",
"sX c #5CC69D",
"dX c #67C397",
"fX c #54CDA7",
"gX c #45DBB9",
"hX c #2DDEC4",
"jX c #2EE7CC",
"kX c #38E4C5",
"lX c #30EACD",
"zX c #2CEDD2",
"xX c #2FEFD2",
"cX c #838383",
"vX c #8B8B8B",
"bX c #999999",
"nX c #A3A3A3",
"mX c #ABABAB",
"MX c #AFB0B0",
"NX c #B3B3B3",
"BX c #BFBEBE",
"VX c #C5C5C5",
"CX c #D3D3D3",
"ZX c #DADADA",
"AX c #E3E3E3",
"SX c #EDEDED",
"DX c #EFEFF0",
"FX c #F3F3F3",
"GX c #FFFFFF",
/* pixels */
"GXGXGXGXGXGXGXGXGXGXGXGXGXGXGXGXGXGXGXGXGXGXGXGXGXGXGXGXGXGXGXGXGXGXGXGXGXGXGXGXGXGXGXGXGXGXGXGXGXGXGXGXGXGXGXGXGXGXGXGXGXGXGXGXGXGXGXGXGXGXGXGXGXGXGXGXGXGXGXGXGXGXGXGXGXGXGXGXGXGXGXGXGXGXGXGXGXGXGXGXGXGXGXGXGXGXGXGXGXGXGXGXGXGXGXGXGXGXGXGXGXGXGXGXGXGXGXGXGXGXGXGXGXGXGXGXGXGXGXGXGXGXGXGXGXGXGXGXGXGXGXGXGXGXGXGXGXGXGXGXGXGXGXGXGXGXGXGXGXGXGXGXGXGXGXGXGXGXGXGXGXGXGXGXGXGXGXGXGXGXGXGXGXGXGXGXGXGXGXGXGXGXGXGXGXGXGXGXGXGXGXGXGXGXGXGXGXGXGXGXGXGXGXGXGXGXGXGXGXGXGXGXGXGXGXGXGXGXGXGXGXGXGXGXGXGXGXGXGXGXGXGXGXGXGXGXGXGXGXGXGXGXGXGXGXGXGXGXGXGXGXGXGXGXGXGXGXGXGXGXGXGXGXGXGXGXGXGXGXGXGXGXGXGXGXGXGXGXGXGX",
"GXGXGXGXGXGXGXGXGXGXGXGXGXGXGXGXGXGXGXGXGXGXGXGXGXGXGXGXGXGXGXGXGXGXGXGXGXGXGXGXGXGXGXGXGXGXGXGXGXGXGXGXGXGXGXGXGXGXGXGXGXGXGXGXGXGXGXGXGXGXGXGXGXGXGXGXGXGXGXGXGXGXGXGXGXGXGXGXGXGXGXGXGXGXGXGXGXGXGXGXGXGXGXGXGXGXGXGXGXGXGXGXGXGXGXGXGXGXGXGXGXGXGXGXGXGXGXGXGXGXGXGXGXGXGXGXGXGXGXGXGXGXGXGXGXGXGXGXGXGXGXGXGXGXGXGXGXGXGXGXGXGXGXGXGXGXGXGXGXGXGXGXGXGXGXGXGXGXGXGXGXGXGXGXGXGXGXGXGXGXGXGXGXGXGXGXGXGXGXGXGXGXGXGXGXGXGXGXGXGXGXGXGXGXGXGXGXGXGXGXGXGXGXGXGXGXGXGXGXGXGXGXGXGXGXGXGXGXGXGXGXGXGXGXGXGXGXGXGXGXGXGXGXGXGXGXGXGXGXGXGXGXGXGXGXGXGXGXGXGXGXGXGXGXGXGXGXGXGXGXGXGXGXGXGXGXGXGXGXGXGXGXGXGXGXGXGXGXGXGX",
"GXGXGXGXGXGXGXGXGXGXGXGXGXGXGXGXGXGXGXGXGXGXGXGXGXGXGXGXGXGXGXGXGXGXGXGXGXGXGXGXGXGXGXGXGXGXGXGXGXGXGXGXGXGXGXGXGXGXGXGXGXGXGXGXGXGXGXGXGXGXGXGXGXGXGXGXGXGXGXGXGXGXGXGXGXGXGXGXGXGXGXGXGXGXGXGXGXGXGXGXGXGXGXGXGXGXGXGXGXGXGXGXGXGXGXGXGXGXGXGXGXGXGXGXGXGXGXGXGXGXGXGXGXGXGXGXGXGXGXGXGXGXGXGXGXGXGXGXGXGXGXGXGXGXGXGXGXGXGXGXGXGXGXGXGXGXGXGXGXGXGXGXGXGXGXGXGXGXGXGXGXGXGXGXGXGXGXGXGXGXGXGXGXGXGXGXGXGXGXGXGXGXGXGXGXGXGXGXGXGXGXGXGXGXGXGXGXGXGXGXGXGXGXGXGXGXGXGXGXGXGXGXGXGXGXGXGXGXGXGXGXGXGXGXGXGXGXGXGXGXGXGXGXGXGXGXGXGXGXGXGXGXGXGXGXGXGXGXGXGXGXGXGXGXGXGXGXGXGXGXGXGXGXGXGXGXGXGXGXGXGXGXGXGXGXGXGXGXGXGX",
"GXGXGXGXGXGXGXGXGXGXGXGXGXGXGXGXGXGXGXGXGXGXGXGXGXGXGXGXGXGXGXGXGXGXGXGXGXGXGXGXGXGXGXGXGXGXGXGXGXGXGXGXGXGXGXGXGXGXGXGXGXGXGXGXGXGXGXGXGXGXGXGXGXGXGXGXGXGXGXGXGXGXGXGXGXGXGXGXGXGXGXGXGXGXGXGXGXGXGXGXGXGXGXGXGXGXGXGXGXGXGXGXGXGXGXGXGXGXGXGXGXGXGXGXGXGXGXGXGXGXGXGXGXGXGXGXGXGXGXGXGXGXGXGXGXGXGXGXGXGXGXGXGXGXGXGXGXGXGXGXGXGXGXGXGXGXGXGXGXGXGXGXGXGXGXGXGXGXGXGXGXGXGXGXGXGXGXGXGXGXGXGXGXGXGXGXGXGXGXGXGXGXGXGXGXGXGXGXGXGXGXGXGXGXGXGXGXGXGXGXGXGXGXGXGXGXGXGXGXGXGXGXGXGXGXGXGXGXGXGXGXGXGXGXGXGXGXGXGXGXGXGXGXGXGXGXGXGXGXGXGXGXGXGXGXGXGXGXGXGXGXGXGXGXGXGXGXGXGXGXGXGXGXGXGXGXGXGXGXGXGXGXGXGXGXGXGXGXGXGX",
"GXGXGXGXGXGXGXGXGXGXGXGXGXGXGXGXGXGXGXGXGXGXGXGXGXGXGXGXGXGXGXGXGXGXGXGXGXGXGXGXGXGXGXGXGXGXGXGXGXGXGXGXGXGXGXGXGXGXGXGXGXGXGXGXGXGXGXGXGXGXGXGXGXGXGXGXGXGXGXGXGXGXGXGXGXGXGXGXGXGXGXGXGXGXGXGXGXGXGXGXGXGXGXGXGXGXGXGXGXGXGXGXGXGXGXGXGXGXGXGXGXGXGXGXGXGXGXGXGXGXGXGXGXGXGXGXGXGXGXGXGXGXGXGXGXGXGXGXGXGXGXGXGXGXGXGXGXGXGXGXGXGXGXGXGXGXGXGXGXGXGXGXGXGXGXGXGXGXGXGXGXGXGXGXGXGXGXGXGXGXGXGXGXGXGXGXGXGXGXGXGXGXGXGXGXGXGXGXGXGXGXGXGXGXGXGXGXGXGXGXGXGXGXGXGXGXGXGXGXGXGXGXGXGXGXGXGXGXGXGXGXGXGXGXGXGXGXGXGXGXGXGXGXGXGXGXGXGXGXGXGXGXGXGXGXGXGXGXGXGXGXGXGXGXGXGXGXGXGXGXGXGXGXGXGXGXGXGXGXGXGXGXGXGXGXGXGXGXGXGX",
"GXGXGXGXGXGXGXGXGXGXGXGXGXGXGXGXGXGXGXGXGXGXGXGXGXGXGXGXGXGXGXGXGXGXGXGXGXGXGXGXGXGXGXGXGXGXGXGXGXGXGXGXGXGXGXGXGXGXGXGXGXGXGXGXGXGXGXGXGXGXGXGXGXGXGXGXGXGXGXGXGXGXGXGXGXGXGXGXGXGXGXGXGXGXGXGXGXGXGXGXGXGXGXGXGXGXGXGXGXGXGXGXGXGXGXGXGXGXGXGXGXGXGXGXGXGXGXGXGXGXGXGXGXGXGXGXGXGXGXGXGXGXGXGXGXGXGXGXGXGXGXGXGXGXGXGXGXGXGXGXGXGXGXGXGXGXGXGXGXGXGXGXGXGXGXGXGXGXGXGXGXGXGXGXGXGXGXGXGXGXGXGXGXGXGXGXGXGXGXGXGXGXGXGXGXGXGXGXGXGXGXGXGXGXGXGXGXGXGXGXGXGXGXGXGXGXGXGXGXGXGXGXGXGXGXGXGXGXGXGXGXGXGXGXGXGXGXGXGXGXGXGXGXGXGXGXGXGXGXGXGXGXGXGXGXGXGXGXGXGXGXGXGXGXGXGXGXGXGXGXGXGXGXGXGXGXGXGXGXGXGXGXGXGXGXGXGXGXGXGX",
"GXGXGXGXGXGXGXGXGXGXGXGXGXGXGXGXGXGXGXGXGXGXGXGXGXGXGXGXGXGXGXGXGXGXGXGXGXGXGXGXGXGXGXGXGXGXGXGXGXGXGXGXGXGXGXGXGXGXGXGXGXGXGXGXGXGXGXGXGXGXGXGXGXGXGXGXGXGXGXGXGXGXGXGXGXGXGXGXGXGXGXGXGXGXGXGXGXGXGXGXGXGXGXGXGXGXGXGXGXGXGXGXGXGXGXGXGXGXGXGXGXGXGXGXGXGXGXGXGXGXGXGXGXGXGXGXGXGXGXGXGXGXGXGXGXGXGXGXGXGXGXGXGXGXGXGXGXGXGXGXGXGXGXGXGXGXGXGXGXGXGXGXGXGXGXGXGXGXGXGXGXGXGXGXGXGXGXGXGXGXGXGXGXGXGXGXGXGXGXGXGXGXGXGXGXGXGXGXGXGXGXGXGXGXGXGXGXGXGXGXGXGXGXGXGXGXGXGXGXGXGXGXGXGXGXGXGXGXGXGXGXGXGXGXGXGXGXGXGXGXGXGXGXGXGXGXGXGXGXGXGXGXGXGXGXGXGXGXGXGXGXGXGXGXGXGXGXGXGXGXGXGXGXGXGXGXGXGXGXGXGXGXGXGXGXGXGXGXGXGX",
"GXGXGXGXGXGXGXGXGXGXGXGXGXGXGXGXGXGXGXGXGXGXGXGXGXGXGXGXGXGXGXGXGXGXGXGXGXGXGXGXGXGXGXGXGXGXGXGXGXGXGXGXGXGXGXGXGXGXGXGXGXGXGXGXGXGXGXGXGXGXGXGXGXGXGXGXGXGXGXGXGXGXGXGXGXGXGXGXGXGXGXGXGXGXGXGXGXGXGXGXGXGXGXGXGXGXGXGXGXGXGXGXGXGXGXGXGXGXGXGXGXGXGXGXGXGXGXGXGXGXGXGXGXGXGXGXGXGXGXGXGXGXGXGXGXGXGXGXGXGXGXGXGXGXGXGXGXGXGXGXGXGXGXGXGXGXGXGXGXGXGXGXGXGXGXGXGXGXGXGXGXGXGXGXGXGXGXGXGXGXGXGXGXGXGXGXGXGXGXGXGXGXGXGXGXGXGXGXGXGXGXGXGXGXGXGXGXGXGXGXGXGXGXGXGXGXGXGXGXGXGXGXGXGXGXGXGXGXGXGXGXGXGXGXGXGXGXGXGXGXGXGXGXGXGXGXGXGXGXGXGXGXGXGXGXGXGXGXGXGXGXGXGXGXGXGXGXGXGXGXGXGXGXGXGXGXGXGXGXGXGXGXGXGXGXGXGXGXGXGX",
"GXGXGXGXGXGXGXGXGXGXGXGXGXGXGXGXGXGXGXGXGXGXGXGXGXGXGXGXGXGXGXGXGXGXGXGXGXGXGXGXGXGXGXGXGXGXGXGXGXGXGXGXGXGXGXGXGXGXGXGXGXGXGXGXGXGXGXGXGXGXGXGXGXGXGXGXGXGXGXGXGXGXGXGXGXGXGXGXGXGXGXGXGXGXGXGXGXGXGXGXGXGXGXGXGXGXGXGXGXGXGXGXGXGXGXGXGXGXGXGXGXGXGXGXGXGXGXGXGXGXGXGXGXGXGXGXGXGXGXGXGXGXGXGXGXGXGXGXGXGXGXGXGXGXGXGXGXGXGXGXGXGXGXGXGXGXGXGXGXGXGXGXGXGXGXGXGXGXGXGXGXGXGXGXGXGXGXGXGXGXGXGXGXGXGXGXGXGXGXGXGXGXGXGXGXGXGXGXGXGXGXGXGXGXGXGXGXGXGXGXGXGXGXGXGXGXGXGXGXGXGXGXGXGXGXGXGXGXGXGXGXGXGXGXGXGXGXGXGXGXGXGXGXGXGXGXGXGXGXGXGXGXGXGXGXGXGXGXGXGXGXGXGXGXGXGXGXGXGXGXGXGXGXGXGXGXGXGXGXGXGXGXGXGXGXGXGXGXGXGX",
"GXGXGXGXGXGXGXGXGXGXGXGXGXGXGXGXGXGXGXGXGXGXGXGXGXGXGXGXGXGXGXGXGXGXGXGXGXGXGXGXGXGXGXGXGXGXGXGXGXGXGXGXGXGXGXGXGXGXGXGXGXGXGXGXGXGXGXGXGXGXGXGXGXGXGXGXGXGXGXGXGXGXGXGXGXGXGXGXGXGXGXGXGXGXGXGXGXGXGXGXGXGXGXGXGXGXGXGXGXGXGXGXGXGXGXGXGXGXGXGXGXGXGXGXGXGXGXGXGXGXGXGXGXGXGXGXGXGXGXGXGXGXGXGXGXGXGXGXGXGXGXGXGXGXGXGXGXGXGXGXGXGXGXGXGXGXGXGXGXGXGXGXGXGXGXGXGXGXGXGXGXGXGXGXGXGXGXGXGXGXGXGXGXGXGXGXGXGXGXGXGXGXGXGXGXGXGXGXGXGXGXGXGXGXGXGXGXGXGXGXGXGXGXGXGXGXGXGXGXGXGXGXGXGXGXGXGXGXGXGXGXGXGXGXGXGXGXGXGXGXGXGXGXGXGXGXGXGXGXGXGXGXGXGXGXGXGXGXGXGXGXGXGXGXGXGXGXGXGXGXGXGXGXGXGXGXGXGXGXGXGXGXGXGXGXGXGXGXGXGX",
"GXGXGXGXGXGXGXGXGXGXGXGXGXGXGXGXGXGXGXGXGXGXGXGXGXGXGXGXGXGXGXGXGXGXGXGXGXGXGXGXGXGXGXGXGXGXGXGXGXGXGXGXGXGXGXGXGXGXGXGXGXGXGXGXGXGXGXGXGXGXGXGXGXGXGXGXGXGXGXGXGXGXGXGXGXGXGXGXGXGXGXGXGXGXGXGXGXGXGXGXGXGXGXGXGXGXGXGXGXGXGXGXGXGXGXGXGXGXGXGXGXGXGXGXGXGXGXGXGXGXGXGXGXGXGXGXGXGXGXGXGXGXGXGXGXGXGXGXGXGXGXGXGXGXGXGXGXGXGXGXGXGXGXGXGXGXGXGXGXGXGXGXGXGXGXGXGXGXGXGXGXGXGXGXGXGXGXGXGXGXGXGXGXGXGXGXGXGXGXGXGXGXGXGXGXGXGXGXGXGXGXGXGXGXGXGXGXGXGXGXGXGXGXGXGXGXGXGXGXGXGXGXGXGXGXGXGXGXGXGXGXGXGXGXGXGXGXGXGXGXGXGXGXGXGXGXGXGXGXGXGXGXGXGXGXGXGXGXGXGXGXGXGXGXGXGXGXGXGXGXGXGXGXGXGXGXGXGXGXGXGXGXGXGXGXGXGXGXGXGX",
"GXGXGXGXGXGXGXGXGXGXGXGXGXGXGXGXGXGXGXGXGXGXGXGXGXGXGXGXGXGXGXGXGXGXGXGXGXGXGXGXGXGXGXGXGXGXGXGXGXGXGXGXGXGXGXGXGXGXGXGXGXGXGXGXGXGXGXGXGXGXGXGXGXGXGXGXGXGXGXGXGXGXGXGXGXGXGXGXGXGXGXGXGXGXGXGXGXGXGXGXGXGXGXGXGXGXGXGXGXGXGXGXGXGXGXGXGXGXGXGXGXGXGXGXGXGXGXGXGXGXGXGXGXGXGXGXGXGXGXGXGXGXGXGXGXGXGXGXGXGXGXGXGXGXGXGXGXGXGXGXGXGXGXGXGXGXGXGXGXGXGXGXGXGXGXGXGXGXGXGXGXGXGXGXGXGXGXGXGXGXGXGXGXGXGXGXGXGXGXGXGXGXGXGXGXGXGXGXGXGXGXGXGXGXGXGXGXGXGXGXGXGXGXGXGXGXGXGXGXGXGXGXGXGXGXGXGXGXGXGXGXGXGXGXGXGXGXGXGXGXGXGXGXGXGXGXGXGXGXGXGXGXGXGXGXGXGXGXGXGXGXGXGXGXGXGXGXGXGXGXGXGXGXGXGXGXGXGXGXGXGXGXGXGXGXGXGXGXGXGX",
"GXGXGXGXGXGXGXGXGXGXGXGXGXGXGXGXGXGXGXGXGXGXGXGXGXGXGXGXGXGXGXGXGXGXGXGXGXGXGXGXGXGXGXGXGXGXGXGXGXGXGXGXGXGXGXGXGXGXGXGXGXGXGXGXGXGXGXGXGXGXGXGXGXGXGXGXGXGXGXGXGXGXGXGXGXGXGXGXGXGXGXGXGXGXGXGXGXGXGXGXGXGXGXGXGXGXGXGXGXGXGXGXGXGXGXGXGXGXGXGXGXGXGXGXGXGXGXGXGXGXGXGXGXGXGXGXGXGXGXGXGXGXGXGXGXGXGXGXGXGXGXGXGXGXGXGXGXGXGXGXGXGXGXGXGXGXGXGXGXGXGXGXGXGXGXGXGXGXGXGXGXGXGXGXGXGXGXGXGXGXGXGXGXGXGXGXGXGXGXGXGXGXGXGXGXGXGXGXGXGXGXGXGXGXGXGXGXGXGXGXGXGXGXGXGXGXGXGXGXGXGXGXGXGXGXGXGXGXGXGXGXGXGXGXGXGXGXGXGXGXGXGXGXGXGXGXGXGXGXGXGXGXGXGXGXGXGXGXGXGXGXGXGXGXGXGXGXGXGXGXGXGXGXGXGXGXGXGXGXGXGXGXGXGXGXGXGXGXGXGX",
"GXGXGXGXGXGXGXGXGXGXGXGXGXGXGXGXGXGXGXGXGXGXGXGXGXGXGXGXGXGXGXGXGXGXGXGXGXGXGXGXGXGXGXGXGXGXGXGXGXGXGXGXGXGXGXGXGXGXGXGXGXGXGXGXGXGXGXGXGXGXGXGXGXGXGXGXGXGXGXGXGXGXGXGXGXGXGXGXGXGXGXGXGXGXGXGXGXGXGXGXGXGXGXGXGXGXGXGXGXGXGXGXGXGXGXGXGXGXGXGXGXGXGXGXGXGXGXGXGXGXGXGXGXGXGXGXGXGXGXGXGXGXGXGXGXGXGXGXGXGXGXGXGXGXGXGXGXGXGXGXGXGXGXGXGXGXGXGXGXGXGXGXGXGXGXGXGXGXGXGXGXGXGXGXGXGXGXGXGXGXGXGXGXGXGXGXGXGXGXGXGXGXGXGXGXGXGXGXGXGXGXGXGXGXGXGXGXGXGXGXGXGXGXGXGXGXGXGXGXGXGXGXGXGXGXGXGXGXGXGXGXGXGXGXGXGXGXGXGXGXGXGXGXGXGXGXGXGXGXGXGXGXGXGXGXGXGXGXGXGXGXGXGXGXGXGXGXGXGXGXGXGXGXGXGXGXGXGXGXGXGXGXGXGXGXGXGXGXGXGX",
"GXGXGXGXGXGXGXGXGXGXGXGXGXGXGXGXGXGXGXGXGXGXGXGXGXGXGXGXGXGXGXGXGXGXGXGXGXGXGXGXGXGXGXGXGXGXGXGXGXGXGXGXGXGXGXGXGXGXGXGXGXGXGXGXGXGXGXGXGXGXGXGXGXGXGXGXGXGXGXGXGXGXGXGXGXGXGXGXGXGXGXGXGXGXGXGXGXGXGXGXGXGXGXGXGXGXGXGXGXGXGXGXGXGXGXGXGXGXGXGXGXGXGXGXGXGXGXGXGXGXGXGXGXGXGXGXGXGXGXGXGXGXGXGXGXGXGXGXGXGXGXGXGXGXGXGXGXGXGXGXGXGXGXGXGXGXGXGXGXGXGXGXGXGXGXGXGXGXGXGXGXGXGXGXGXGXGXGXGXGXGXGXGXGXGXGXGXGXGXGXGXGXGXGXGXGXGXGXGXGXGXGXGXGXGXGXGXGXGXGXGXGXGXGXGXGXGXGXGXGXGXGXGXGXGXGXGXGXGXGXGXGXGXGXGXGXGXGXGXGXGXGXGXGXGXGXGXGXGXGXGXGXGXGXGXGXGXGXGXGXGXGXGXGXGXGXGXGXGXGXGXGXGXGXGXGXGXGXGXGXGXGXGXGXGXGXGXGXGXGX",
"GXGXGXGXGXGXGXGXGXGXGXGXGXGXGXGXGXGXGXGXGXGXGXGXGXGXGXGXGXGXGXGXGXGXGXGXGXGXGXGXGXGXGXGXGXGXGXGXGXGXGXGXGXGXGXGXGXGXGXGXGXGXGXGXGXGXGXGXGXGXGXGXGXGXGXGXGXGXGXGXGXGXGXGXGXGXGXGXGXGXGXGXGXGXGXGXGXGXGXGXGXGXGXGXGXGXGXGXGXGXGXGXGXGXGXGXGXGXGXGXGXGXGXGXGXGXGXGXGXGXGXGXGXGXGXGXGXGXGXGXGXGXGXGXGXGXGXGXGXGXGXGXGXGXGXGXGXGXGXGXGXGXGXGXGXGXGXGXGXGXGXGXGXGXGXGXGXGXGXGXGXGXGXGXGXGXGXGXGXGXGXGXGXGXGXGXGXGXGXGXGXGXGXGXGXGXGXGXGXGXGXGXGXGXGXGXGXGXGXGXGXGXGXGXGXGXGXGXGXGXGXGXGXGXGXGXGXGXGXGXGXGXGXGXGXGXGXGXGXGXGXGXGXGXGXGXGXGXGXGXGXGXGXGXGXGXGXGXGXGXGXGXGXGXGXGXGXGXGXGXGXGXGXGXGXGXGXGXGXGXGXGXGXGXGXGXGXGXGXGX",
"GXGXGXGXGXGXGXGXGXGXGXGXGXGXGXGXGXGXGXGXGXGXGXGXGXGXGXGXGXGXGXGXGXGXGXGXGXGXGXGXGXGXGXGXGXGXGXGXGXGXGXGXGXGXGXGXGXGXGXGXGXGXGXGXGXGXGXGXGXGXGXGXGXGXGXGXGXGXGXGXGXGXGXGXGXGXGXGXGXGXGXGXGXGXGXGXGXGXGXGXGXGXGXGXGXGXGXGXGXGXGXGXGXGXGXGXGXGXGXGXGXGXGXGXGXGXGXGXGXGXGXGXGXGXGXGXGXGXGXGXGXGXGXGXGXGXGXGXGXGXGXGXGXGXGXGXGXGXGXGXGXGXGXGXGXGXGXGXGXGXGXGXGXGXGXGXGXGXGXGXGXGXGXGXGXGXGXGXGXGXGXGXGXGXGXGXGXGXGXGXGXGXGXGXGXGXGXGXGXGXGXGXGXGXGXGXGXGXGXGXGXGXGXGXGXGXGXGXGXGXGXGXGXGXGXGXGXGXGXGXGXGXGXGXGXGXGXGXGXGXGXGXGXGXGXGXGXGXGXGXGXGXGXGXGXGXGXGXGXGXGXGXGXGXGXGXGXGXGXGXGXGXGXGXGXGXGXGXGXGXGXGXGXGXGXGXGXGXGXGX",
"GXGXGXGXGXGXGXGXGXGXGXGXGXGXGXGXGXGXGXGXGXGXGXGXGXGXGXGXGXGXGXGXGXGXGXGXGXGXGXGXGXGXGXGXGXGXGXGXGXGXGXGXGXGXGXGXGXGXGXGXGXGXGXGXGXGXGXGXGXGXGXGXGXGXGXGXGXGXGXGXGXGXGXGXGXGXGXGXGXGXGXGXGXGXGXGXGXGXGXGXGXGXGXGXGXGXGXGXGXGXGXGXGXGXGXGXGXGXGXGXGXGXGXGXGXGXGXGXGXGXGXGXGXGXGXGXGXGXGXGXGXGXGXGXGXGXGXGXGXGXGXGXGXGXGXGXGXGXGXGXGXGXGXGXGXGXGXGXGXGXGXGXGXGXGXGXGXGXGXGXGXGXGXGXGXGXGXGXGXGXGXGXGXGXGXGXGXGXGXGXGXGXGXGXGXGXGXGXGXGXGXGXGXGXGXGXGXGXGXGXGXGXGXGXGXGXGXGXGXGXGXGXGXGXGXGXGXGXGXGXGXGXGXGXGXGXGXGXGXGXGXGXGXGXGXGXGXGXGXGXGXGXGXGXGXGXGXGXGXGXGXGXGXGXGXGXGXGXGXGXGXGXGXGXGXGXGXGXGXGXGXGXGXGXGXGXGXGXGXGX",
"GXGXGXGXGXGXGXGXGXGXGXGXGXGXGXGXGXGXGXGXGXGXGXGXGXGXGXGXGXGXGXGXGXGXGXGXGXGXGXGXGXGXGXGXGXGXGXGXGXGXGXGXGXGXGXGXGXGXGXGXGXGXGXGXGXGXGXGXGXGXGXGXGXGXGXGXGXGXGXGXGXGXGXGXGXGXGXGXGXGXGXGXGXGXGXGXGXGXGXGXGXGXGXGXGXGXGXGXGXGXGXGXGXGXGXGXGXGXGXGXGXGXGXGXGXGXGXGXGXGXGXGXGXGXGXGXGXGXGXGXGXGXGXGXGXGXGXGXGXGXGXGXGXGXGXGXGXGXGXGXGXGXGXGXGXGXGXGXGXGXGXGXGXGXGXGXGXGXGXGXGXGXGXGXGXGXGXGXGXGXGXGXGXGXGXGXGXGXGXGXGXGXGXGXGXGXGXGXGXGXGXGXGXGXGXGXGXGXGXGXGXGXGXGXGXGXGXGXGXGXGXGXGXGXGXGXGXGXGXGXGXGXGXGXGXGXGXGXGXGXGXGXGXGXGXGXGXGXGXGXGXGXGXGXGXGXGXGXGXGXGXGXGXGXGXGXGXGXGXGXGXGXGXGXGXGXGXGXGXGXGXGXGXGXGXGXGXGXGXGX",
"GXGXGXGXGXGXGXGXGXGXGXGXGXGXGXGXGXGXGXGXGXGXGXGXGXGXGXGXGXGXGXGXGXGXGXGXGXGXGXGXGXGXGXGXGXGXGXGXGXGXGXGXGXGXGXGXGXGXGXGXGXGXGXGXGXGXGXGXGXGXGXGXGXGXGXGXGXGXGXGXGXGXGXGXGXGXGXGXGXGXGXGXGXGXGXGXGXGXGXGXGXGXGXGXGXGXGXGXGXGXGXGXGXGXGXGXGXGXGXGXGXGXGXGXGXGXGXGXGXGXGXGXGXGXGXGXGXGXGXGXGXGXGXGXGXGXGXGXGXGXGXGXGXGXGXGXGXGXGXGXGXGXGXGXGXGXGXGXGXGXGXGXGXGXGXGXGXGXGXGXGXGXGXGXGXGXGXGXGXGXGXGXGXGXGXGXGXGXGXGXGXGXGXGXGXGXGXGXGXGXGXGXGXGXGXGXGXGXGXGXGXGXGXGXGXGXGXGXGXGXGXGXGXGXGXGXGXGXGXGXGXGXGXGXGXGXGXGXGXGXGXGXGXGXGXGXGXGXGXGXGXGXGXGXGXGXGXGXGXGXGXGXGXGXGXGXGXGXGXGXGXGXGXGXGXGXGXGXGXGXGXGXGXGXGXGXGXGXGXGX",
"GXGXGXGXGXGXGXGXGXGXGXGXGXGXGXGXGXGXGXGXGXGXGXGXGXGXGXGXGXGXGXGXGXGXGXGXGXGXGXGXGXGXGXGXGXGXGXGXGXGXGXGXGXGXGXGXGXGXGXGXGXGXGXGXGXGXGXGXGXGXGXGXGXGXGXGXGXGXGXGXGXGXGXGXGXGXGXGXGXGXGXGXGXGXGXGXGXGXGXGXGXGXGXGXGXGXGXGXGXGXGXGXGXGXGXGXGXGXGXGXGXGXGXGXGXGXGXGXGXGXGXGXGXGXGXGXGXGXGXGXGXGXGXGXGXGXGXGXGXGXGXGXGXGXGXGXGXGXGXGXGXGXGXGXGXGXGXGXGXGXGXGXGXGXGXGXGXGXGXGXGXGXGXGXGXGXGXGXGXGXGXGXGXGXGXGXGXGXGXGXGXGXGXGXGXGXGXGXGXGXGXGXGXGXGXGXGXGXGXGXGXGXGXGXGXGXGXGXGXGXGXGXGXGXGXGXGXGXGXGXGXGXGXGXGXGXGXGXGXGXGXGXGXGXGXGXGXGXGXGXGXGXGXGXGXGXGXGXGXGXGXGXGXGXGXGXGXGXGXGXGXGXGXGXGXGXGXGXGXGXGXGXGXGXGXGXGXGXGXGX",
"GXGXGXGXGXGXGXGXGXGXGXGXGXGXGXGXGXGXGXGXGXGXGXGXGXGXGXGXGXGXGXGXGXGXGXGXGXGXGXGXGXGXGXGXGXGXGXGXGXGXGXGXGXGXGXGXGXGXGXGXGXGXGXGXGXGXGXGXGXGXGXGXGXGXGXGXGXGXGXGXGXGXGXGXGXGXGXGXGXGXGXGXGXGXGXGXGXGXGXGXGXGXGXGXGXGXGXGXGXGXGXGXGXGXGXGXGXGXGXGXGXGXGXGXGXGXGXGXGXGXGXGXGXGXGXGXGXGXGXGXGXGXGXGXGXGXGXGXGXGXGXGXGXGXGXGXGXGXGXGXGXGXGXGXGXGXGXGXGXGXGXGXGXGXGXGXGXGXGXGXGXGXGXGXGXGXGXGXGXGXGXGXGXGXGXGXGXGXGXGXGXGXGXGXGXGXGXGXGXGXGXGXGXGXGXGXGXGXGXGXGXGXGXGXGXGXGXGXGXGXGXGXGXGXGXGXGXGXGXGXGXGXGXGXGXGXGXGXGXGXGXGXGXGXGXGXGXGXGXGXGXGXGXGXGXGXGXGXGXGXGXGXGXGXGXGXGXGXGXGXGXGXGXGXGXGXGXGXGXGXGXGXGXGXGXGXGXGXGXGX",
"GXGXGXGXGXGXGXGXGXGXGXGXGXGXGXGXGXGXGXGXGXGXGXGXGXGXGXGXGXGXGXGXGXGXGXGXGXGXGXGXGXGXGXGXGXGXGXGXGXGXGXGXGXGXGXGXGXGXGXGXGXGXGXGXGXGXGXGXGXGXGXGXGXGXGXGXGXGXGXGXGXGXGXGXGXGXGXGXGXGXGXGXGXGXGXGXGXGXGXGXGXGXGXGXGXGXGXGXGXGXGXGXGXGXGXGXGXGXGXGXGXGXGXGXGXGXGXGXGXGXGXGXGXGXGXGXGXGXGXGXGXGXGXGXGXGXGXGXGXGXGXGXGXGXGXGXGXGXGXGXGXGXGXGXGXGXGXGXGXGXGXGXGXGXGXGXGXGXGXGXGXGXGXGXGXGXGXGXGXGXGXGXGXGXGXGXGXGXGXGXGXGXGXGXGXGXGXGXGXGXGXGXGXGXGXGXGXGXGXGXGXGXGXGXGXGXGXGXGXGXGXGXGXGXGXGXGXGXGXGXGXGXGXGXGXGXGXGXGXGXGXGXGXGXGXGXGXGXGXGXGXGXGXGXGXGXGXGXGXGXGXGXGXGXGXGXGXGXGXGXGXGXGXGXGXGXGXGXGXGXGXGXGXGXGXGXGXGXGXGX",
"GXGXGXGXGXGXGXGXGXGXGXGXGXGXGXGXGXGXGXGXGXGXGXGXGXGXGXGXGXGXGXGXGXGXGXGXGXGXGXGXGXGXGXGXGXGXGXGXGXGXGXGXGXGXGXGXGXGXGXGXGXGXGXGXGXGXGXGXGXGXGXGXGXGXGXGXGXGXGXGXGXGXGXGXGXGXGXGXGXGXGXGXGXGXGXGXGXGXGXGXGXGXGXGXGXGXGXGXGXGXGXGXGXGXGXGXGXGXGXGXGXGXFXSXSXSXSXSXSXSXSXSXSXSXSXSXSXSXSXSXSXSXSXSXSXSXSXSXSXSXSXSXSXSXSXSXSXSXSXSXSXSXSXSXSXSXSXSXSXSXSXSXSXSXSXSXSXSXSXSXSXSXSXSXSXSXFXFXGXGXGXGXGXGXGXGXGXGXGXGXGXGXGXGXGXGXGXGXGXGXGXGXGXGXGXGXGXGXGXGXGXGXGXGXGXGXGXGXGXGXGXGXGXGXGXGXGXGXGXGXGXGXGXGXGXGXGXGXGXGXGXGXGXGXGXGXGXGXGXGXGXGXGXGXGXGXGXGXGXGXGXGXGXGXGXGXGXGXGXGXGXGXGXGXGXGXGXGXGXGXGXGXGXGXGXGXGXGXGXGX",
"GXGXGXGXGXGXGXGXGXGXGXGXGXGXGXGXGXGXGXGXGXGXGXGXGXGXGXGXGXGXGXGXGXGXGXGXGXGXGXGXGXGXGXGXGXGXGXGXGXGXGXGXGXGXGXGXGXGXGXGXGXGXGXGXGXGXGXGXGXGXGXGXGXGXGXGXGXGXGXGXGXGXGXGXGXGXGXGXGXGXGXGXGXGXGXGXGXGXGXGXGXGXGXGXGXGXGXGXGXGXGXGXGXGXGXGXGXGXGXGXFXAXVXmXmXmXmXmXmXmXmXmXmXmXmXmXmXmXmXmXmXmXmXmXmXmXmXmXmXmXmXmXmXmXmXmXmXmXmXmXmXmXmXmXmXmXmXmXmXmXmXmXmXmXmXmXmXmXmXmXmXmXmXmXmXmXBXZXFXGXGXGXGXGXGXGXGXGXGXGXGXGXGXGXGXGXGXGXGXGXGXGXGXGXGXGXGXGXGXGXGXGXGXGXGXGXGXGXGXGXGXGXGXGXGXGXGXGXGXGXGXGXGXGXGXGXGXGXGXGXGXGXGXGXGXGXGXGXGXGXGXGXGXGXGXGXGXGXGXGXGXGXGXGXGXGXGXGXGXGXGXGXGXGXGXGXGXGXGXGXGXGXGXGXGXGXGXGXGXGX",
"GXGXGXGXGXGXGXGXGXGXGXGXGXGXGXGXGXGXGXGXGXGXGXGXGXGXGXGXGXGXGXGXGXGXGXGXGXGXGXGXGXGXGXGXGXGXGXGXGXGXGXGXGXGXGXGXGXGXGXGXGXGXGXGXGXGXGXGXGXGXGXGXGXGXGXGXGXGXGXGXGXGXGXGXGXGXGXGXGXGXGXGXGXGXGXGXGXGXGXGXGXGXGXGXGXGXGXGXGXGXGXGXGXGXGXGXGXGXGXGXFXVXcX( ^ / / / / / / / / / / / / / / / / / / / / / / / / / / / / / / / / / / / / / / / / / / / / / / / / / / / / / / / / / / / ^ / [ mXAXGXGXGXGXGXGXGXGXGXGXGXGXGXGXGXGXGXGXGXGXGXGXGXGXGXGXGXGXGXGXGXGXGXGXGXGXGXGXGXGXGXGXGXGXGXGXGXGXGXGXGXGXGXGXGXGXGXGXGXGXGXGXGXGXGXGXGXGXGXGXGXGXGXGXGXGXGXGXGXGXGXGXGXGXGXGXGXGXGXGXGXGXGXGXGXGXGXGXGXGXGXGXGXGXGXGXGXGXGXGXGX",
"GXGXGXGXGXGXGXGXGXGXGXGXGXGXGXGXGXGXGXGXGXGXGXGXGXGXGXGXGXGXGXGXGXGXGXGXGXGXGXGXGXGXGXGXGXGXGXGXGXGXGXGXGXGXGXGXGXGXGXGXGXGXGXGXGXGXGXGXGXGXGXGXGXGXGXGXGXGXGXGXGXGXGXGXGXGXGXGXGXGXGXGXGXGXGXGXGXGXGXGXGXGXGXGXGXGXGXGXGXGXGXGXGXGXGXGXGXGXGXGXSXnX/ - & & * * * * * * * * * * * * * * * * * * * * * * * * * * * * * * * * * * * * * * * * * * * * * * * * * * * * * * * * * & & * 9 vXCXGXGXGXGXGXGXGXGXGXGXGXGXGXGXGXGXGXGXGXGXGXGXGXGXGXGXGXGXGXGXGXGXGXGXGXGXGXGXGXGXGXGXGXGXGXGXGXGXGXGXGXGXGXGXGXGXGXGXGXGXGXGXGXGXGXGXGXGXGXGXGXGXGXGXGXGXGXGXGXGXGXGXGXGXGXGXGXGXGXGXGXGXGXGXGXGXGXGXGXGXGXGXGXGXGXGXGXGXGXGXGX",
"GXGXGXGXGXGXGXGXGXGXGXGXGXGXGXGXGXGXGXGXGXGXGXGXGXGXGXGXGXGXGXGXGXGXGXGXGXGXGXGXGXGXGXGXGXGXGXGXGXGXGXGXGXGXGXGXGXGXGXGXGXGXGXGXGXGXGXGXGXGXGXGXGXGXGXGXGXGXGXGXGXGXGXGXGXGXGXGXGXGXGXGXGXGXGXGXGXGXGXGXGXGXGXGXGXGXGXGXGXGXGXGXGXGXGXGXGXGXGXGXSXnX~                                                                                                                               7 [ CXGXGXGXGXGXGXGXGXGXGXGXGXGXGXGXGXGXGXGXGXGXGXGXGXGXGXGXGXGXGXGXGXGXGXGXGXGXGXGXGXGXGXGXGXGXGXGXGXGXGXGXGXGXGXGXGXGXGXGXGXGXGXGXGXGXGXGXGXGXGXGXGXGXGXGXGXGXGXGXGXGXGXGXGXGXGXGXGXGXGXGXGXGXGXGXGXGXGXGXGXGXGXGXGXGXGXGXGXGXGXGX",
"GXGXGXGXGXGXGXGXGXGXGXGXGXGXGXGXGXGXGXGXGXGXGXGXGXGXGXGXGXGXGXGXGXGXGXGXGXGXGXGXGXGXGXGXGXGXGXGXGXGXGXGXGXGXGXGXGXGXGXGXGXGXGXGXGXGXGXGXGXGXGXGXGXGXGXGXGXGXGXGXGXGXGXGXGXGXGXGXGXGXGXGXGXGXGXGXGXGXGXGXGXGXGXGXGXGXGXGXGXGXGXGXGXGXGXGXGXGXGXGXDXnX~                                                                                                                               7 XXCXGXGXGXGXGXGXGXGXGXGXGXGXGXGXGXGXGXGXGXGXGXGXGXGXGXGXGXGXGXGXGXGXGXGXGXGXGXGXGXGXGXGXGXGXGXGXGXGXGXGXGXGXGXGXGXGXGXGXGXGXGXGXGXGXGXGXGXGXGXGXGXGXGXGXGXGXGXGXGXGXGXGXGXGXGXGXGXGXGXGXGXGXGXGXGXGXGXGXGXGXGXGXGXGXGXGXGXGXGXGXGX",
"GXGXGXGXGXGXGXGXGXGXGXGXGXGXGXGXGXGXGXGXGXGXGXGXGXGXGXGXGXGXGXGXGXGXGXGXGXGXGXGXGXGXGXGXGXGXGXGXGXGXGXGXGXGXGXGXGXGXGXGXGXGXGXGXGXGXGXGXGXGXGXGXGXGXGXGXGXGXGXGXGXGXGXGXGXGXGXGXGXGXGXGXGXGXGXGXGXGXGXFXGXGXFXFXGXGXFXGXFXFXGXGXGXGXFXGXFXGXGXGXAXbX^ @                                                                                                                             8 [ VXFXGXGXGXGXFXGXFXFXGXGXGXGXFXGXFXFXGXGXGXGXFXGXFXFXGXFXGXGXGXGXGXGXGXGXGXGXGXGXGXGXGXGXGXGXGXGXGXGXGXGXGXGXGXGXGXGXGXGXGXGXGXGXGXGXGXGXGXGXGXGXGXGXGXGXGXGXGXGXGXGXGXGXGXGXGXGXGXGXGXGXGXGXGXGXGXGXGXGXGXGXGXGXGXGXGXGXGXGXGXGX",
"GXGXGXGXGXGXGXGXGXGXGXGXGXGXGXGXGXGXGXGXGXGXGXGXGXGXGXGXGXGXGXGXGXGXGXGXGXGXGXGXGXGXGXGXGXGXGXGXGXGXGXGXGXGXGXGXGXGXGXGXGXGXGXGXGXGXGXGXGXGXGXGXGXGXGXGXGXGXGXGXGXGXGXGXGXGXGXGXGXGXGXGXGXGXGXGXAXCXVXBXBXBXBXBXBXBXBXBXBXBXBXBXBXBXBXBXBXVXVXVXNXI.^ 2 > > < < < < 2 < 2 < < < 2 2 < < < < 2 < 2 < < < 2 2 < < < < 2 < 2 < < < 2 2 < < < < 2 < 2 < < < 2 2 < < < < 2 < < < < < > 2 r [ nXBXVXVXBXBXBXBXBXBXBXBXBXBXBXBXBXBXBXBXBXBXBXBXBXBXBXBXBXVXZXSXGXGXGXGXGXGXGXGXGXGXGXGXGXGXGXGXGXGXGXGXGXGXGXGXGXGXGXGXGXGXGXGXGXGXGXGXGXGXGXGXGXGXGXGXGXGXGXGXGXGXGXGXGXGXGXGXGXGXGXGXGXGXGXGXGXGXGXGXGXGXGXGXGXGXGXGXGXGXGXGX",
"GXGXGXGXGXGXGXGXGXGXGXGXGXGXGXGXGXGXGXGXGXGXGXGXGXGXGXGXGXGXGXGXGXGXGXGXGXGXGXGXGXGXGXGXGXGXGXGXGXGXGXGXGXGXGXGXGXGXGXGXGXGXGXGXGXGXGXGXGXGXGXGXGXGXGXGXGXGXGXGXGXGXGXGXGXGXGXGXGXGXGXGXGXGXGXFXVXvX[ ' ' ] ] ] ] ] ] ] ] ] ] ] ] ] ] ] ] ] ] ] ] ) Z B B B B B B B B B B B B B B B B B B B B B B B B B B B B B B B B B B B B B B B B B B B B B B B B B B B B B B B B B B B B B B B V ) ' ] ] ] ] ] ] ] ] ] ] ] ] ] ] ] ] ] ] ] ] ] ] ] ] ] ] ' ' [ mXZXGXGXGXGXGXGXGXGXGXGXGXGXGXGXGXGXGXGXGXGXGXGXGXGXGXGXGXGXGXGXGXGXGXGXGXGXGXGXGXGXGXGXGXGXGXGXGXGXGXGXGXGXGXGXGXGXGXGXGXGXGXGXGXGXGXGXGXGXGXGXGXGXGXGXGXGXGXGXGXGX",
"GXGXGXGXGXGXGXGXGXGXGXGXGXGXGXGXGXGXGXGXGXGXGXGXGXGXGXGXGXGXGXGXGXGXGXGXGXGXGXGXGXGXGXGXGXGXGXGXGXGXGXGXGXGXGXGXGXGXGXGXGXGXGXGXGXGXGXGXGXGXGXGXGXGXGXGXGXGXGXGXGXGXGXGXGXGXGXGXGXGXGXGXGXGXGXSXmX( 8 * - - - - - - - - - - - - - - - - - - - - 7 c Z O.,.,.+.+.+.+.+.+.+.+.+.+.+.+.+.+.+.+.+.+.+.+.+.+.+.+.+.+.+.+.+.+.+.+.+.+.+.+.+.+.+.+.+.+.+.+.+.+.+.+.+.+.+.+.+.+.+.+.+.,.,.+...m 8 - - - - - - - - - - - - - - - - - - - - - - - - - - * - 9 [ VXGXGXGXGXGXGXGXGXGXGXGXGXGXGXGXGXGXGXGXGXGXGXGXGXGXGXGXGXGXGXGXGXGXGXGXGXGXGXGXGXGXGXGXGXGXGXGXGXGXGXGXGXGXGXGXGXGXGXGXGXGXGXGXGXGXGXGXGXGXGXGXGXGXGXGXGXGXGXGXGX",
"GXGXGXGXGXGXGXGXGXGXGXGXGXGXGXGXGXGXGXGXGXGXGXGXGXGXGXGXGXGXGXGXGXGXGXGXGXGXGXGXGXGXGXGXGXGXGXGXGXGXGXGXGXGXGXGXGXGXGXGXGXGXGXGXGXGXGXGXGXGXGXGXGXGXGXGXGXGXGXGXGXGXGXGXGXGXGXGXGXGXGXGXGXGXGXSXbX~ &                                           . w | D.R.R.G.G.G.G.G.G.G.G.G.G.G.G.G.G.G.G.G.G.G.G.G.G.G.G.G.G.G.G.G.G.G.G.G.G.G.G.G.G.G.G.G.G.G.G.G.G.G.G.G.G.G.G.G.G.G.G.G.L.R.G.O.c #                                                         - ' BXGXGXGXGXGXGXGXGXGXGXGXGXGXGXGXGXGXGXGXGXGXGXGXGXGXGXGXGXGXGXGXGXGXGXGXGXGXGXGXGXGXGXGXGXGXGXGXGXGXGXGXGXGXGXGXGXGXGXGXGXGXGXGXGXGXGXGXGXGXGXGXGXGXGXGXGXGXGXGXGX",
"GXGXGXGXGXGXGXGXGXGXGXGXGXGXGXGXGXGXGXGXGXGXGXGXGXGXGXGXGXGXGXGXGXGXGXGXGXGXGXGXGXGXGXGXGXGXGXGXGXGXGXGXGXGXGXGXGXGXGXGXGXGXGXGXGXGXGXGXGXGXGXGXGXGXGXGXGXGXGXGXGXGXGXGXGXGXGXGXGXGXGXGXGXGXGXAXbX~                                             X w | F.R.R.R.R.L.L.R.L.L.L.L.L.L.R.R.R.R.R.L.R.L.L.G.G.L.R.R.R.R.R.L.R.L.L.L.L.R.R.R.R.L.L.L.L.L.R.R.R.R.R.L.R.L.L.L.L.L.R.R.R.R.L.O.c #                                                         * ' BXFXGXGXGXGXGXGXGXGXGXGXGXGXGXGXGXGXGXGXGXGXGXGXGXGXGXGXGXGXGXGXGXGXGXGXGXGXGXGXGXGXGXGXGXGXGXGXGXGXGXGXGXGXGXGXGXGXGXGXGXGXGXGXGXGXGXGXGXGXGXGXGXGXGXGXGXGXGXGXGX",
"GXGXGXGXGXGXGXGXGXGXGXGXGXGXGXGXGXGXGXGXGXGXGXGXGXGXGXGXGXGXGXGXGXGXGXGXGXGXGXGXGXGXGXGXGXGXGXGXGXGXGXGXGXGXGXGXGXGXGXGXGXGXGXGXGXGXGXGXGXGXGXGXGXGXGXGXGXGXGXGXGXGXGXGXGXGXGXGXGXGXGXGXGXGXGXSXnX^ &                                           O w | D.R.G.G.G.G.G.G.G.G.G.G.G.G.G.G.G.G.G.G.G.G.G.G.G.G.G.G.G.G.G.G.G.G.G.G.G.G.G.G.G.G.G.G.G.G.G.G.G.G.G.G.G.G.G.G.G.G.G.G.G.R.G.O.c ;                                                         - ] BXGXGXGXGXGXGXGXGXGXGXGXGXGXGXGXGXGXGXGXGXGXGXGXGXGXGXGXGXGXGXGXGXGXGXGXGXGXGXGXGXGXGXGXGXGXGXGXGXGXGXGXGXGXGXGXGXGXGXGXGXGXGXGXGXGXGXGXGXGXGXGXGXGXGXGXGXGXGXGXGX",
"GXGXGXGXGXGXGXGXGXGXGXGXGXGXGXGXGXGXGXGXGXGXGXGXGXGXGXGXGXGXGXGXGXGXGXGXGXGXGXGXGXGXGXGXGXGXGXGXGXGXGXGXGXGXGXGXGXGXGXGXGXGXGXGXGXGXGXGXGXGXGXGXGXGXGXGXGXGXGXGXGXGXGXGXGXGXGXGXGXGXGXGXGXGXGXSXnX^ &                                           O w | D.L.G.G.G.G.G.G.G.G.G.G.G.G.G.G.G.G.G.G.G.G.G.G.G.G.G.G.G.G.G.G.G.G.G.G.G.G.G.G.G.G.G.G.G.G.G.G.G.G.G.G.G.G.G.G.G.G.G.G.G.R.G.O.c ;                                                         - ] VXGXGXGXGXGXGXGXGXGXGXGXGXGXGXGXGXGXGXGXGXGXGXGXGXGXGXGXGXGXGXGXGXGXGXGXGXGXGXGXGXGXGXGXGXGXGXGXGXGXGXGXGXGXGXGXGXGXGXGXGXGXGXGXGXGXGXGXGXGXGXGXGXGXGXGXGXGXGXGXGX",
"GXGXGXGXGXGXGXGXGXGXGXGXGXGXGXGXGXGXGXGXGXGXGXGXGXGXGXGXGXGXGXGXGXGXGXGXGXGXGXGXGXGXGXGXGXGXGXGXGXGXGXGXGXGXGXGXGXGXGXGXGXGXGXGXGXGXGXGXGXGXGXGXGXGXGXGXGXGXGXGXGXGXGXGXGXGXGXGXGXGXGXGXGXGXGXFXnX^ &                                           . w | D.R.G.G.G.G.G.G.G.G.G.G.G.G.G.G.G.G.G.G.G.G.G.G.G.G.G.G.G.G.G.G.G.G.G.G.G.G.G.G.G.G.G.G.G.G.G.G.G.G.G.G.G.G.G.G.G.G.G.G.G.R.G.O.c #                                                         7 ] VXGXGXGXGXGXGXGXGXGXGXGXGXGXGXGXGXGXGXGXGXGXGXGXGXGXGXGXGXGXGXGXGXGXGXGXGXGXGXGXGXGXGXGXGXGXGXGXGXGXGXGXGXGXGXGXGXGXGXGXGXGXGXGXGXGXGXGXGXGXGXGXGXGXGXGXGXGXGXGXGX",
"GXGXGXGXGXGXGXGXGXGXGXGXGXGXGXGXGXGXGXGXGXGXGXGXGXGXGXGXGXGXGXGXGXGXGXGXGXGXGXGXGXGXGXGXGXGXGXGXGXGXGXGXGXGXGXGXGXGXGXGXGXGXGXGXGXGXGXGXGXGXGXGXGXGXGXGXGXGXGXGXGXGXGXGXGXGXGXGXGXGXGXGXGXGXGXSXnX^ &                                           O w | D.L.G.G.G.G.G.G.G.G.G.G.G.G.G.G.G.G.G.G.G.G.G.G.G.G.G.G.G.G.G.G.G.G.G.G.G.G.G.G.G.G.G.G.G.G.G.G.G.G.G.G.G.G.G.G.G.G.G.G.G.R.G.O.c ;                                                         - ] VXGXGXGXGXGXGXGXGXGXGXGXGXGXGXGXGXGXGXGXGXGXGXGXGXGXGXGXGXGXGXGXGXGXGXGXGXGXGXGXGXGXGXGXGXGXGXGXGXGXGXGXGXGXGXGXGXGXGXGXGXGXGXGXGXGXGXGXGXGXGXGXGXGXGXGXGXGXGXGXGX",
"GXGXGXGXGXGXGXGXGXGXGXGXGXGXGXGXGXGXGXGXGXGXGXGXGXGXGXGXGXGXGXGXGXGXGXGXGXGXGXGXGXGXGXGXGXGXGXGXGXGXGXGXGXGXGXGXGXGXGXGXGXGXGXGXGXGXGXGXGXGXGXGXGXGXGXGXGXGXGXGXFXSXZXZXZXZXZXZXZXZXZXZXZXAXAXVXvX9 &             X O # # # # # # # # # # # @ # < c  .D.G.G.G.G.G.G.G.G.G.G.G.G.G.G.G.G.G.G.G.G.G.G.G.G.G.G.G.G.G.G.G.G.G.G.G.G.G.G.G.G.G.G.G.G.G.G.G.G.G.G.G.G.G.G.G.G.G.G.G.G.L.G.O.B 2 # @ # # # # # # # # # # # # # # # # # @ .               - ( nXCXAXZXZXZXZXZXAXFXGXGXGXGXGXGXGXGXGXGXGXGXGXGXGXGXGXGXGXGXGXGXGXGXGXGXGXGXGXGXGXGXGXGXGXGXGXGXGXGXGXGXGXGXGXGXGXGXGXGXGXGXGXGXGXGXGXGXGXGXGXGXGXGXGXGXGXGXGXGXGX",
"GXGXGXGXGXGXGXGXGXGXGXGXGXGXGXGXGXGXGXGXGXGXGXGXGXGXGXGXGXGXGXGXGXGXGXGXGXGXGXGXGXGXGXGXGXGXGXGXGXGXGXGXGXGXGXGXGXGXGXGXGXGXGXGXGXGXGXGXGXGXGXGXGXGXGXGXGXGXGXGXAXBXbXvXcXvXvXvXvXvXvXvXvXvXvX[ / 8               @ 2 e c c c c c c c c r c r r c C O.F.G.G.G.G.G.G.G.G.G.G.G.G.G.G.G.G.G.G.G.G.G.G.G.G.G.G.G.G.G.G.G.G.G.G.G.G.G.G.G.G.G.G.G.G.G.G.G.G.G.G.G.G.G.G.G.G.G.G.G.G.G.G.,.| m c r r c c c c r c c c c c c c c c c r w > .             * 9 ] cXvXvXvXvXcXvXmXCXFXGXGXGXGXGXGXGXGXGXGXGXGXGXGXGXGXGXGXGXGXGXGXGXGXGXGXGXGXGXGXGXGXGXGXGXGXGXGXGXGXGXGXGXGXGXGXGXGXGXGXGXGXGXGXGXGXGXGXGXGXGXGXGXGXGXGXGXGXGXGX",
"GXGXGXGXGXGXGXGXGXGXGXGXGXGXGXGXGXGXGXGXGXGXGXGXGXGXGXGXGXGXGXGXGXGXGXGXGXGXGXGXGXGXGXGXGXGXGXGXGXGXGXGXGXGXGXGXGXGXGXGXGXGXGXGXGXGXGXGXGXGXGXGXGXGXGXGXGXGXGXGXVXvX^ 9 9 9 9 9 9 9 9 9 9 9 9 9 7 &               ; c | O.O.X.X.X.X.X.X.X.X...X.O.+.A.F.G.G.G.G.G.G.G.G.G.G.G.G.G.G.G.G.G.G.G.G.G.G.G.G.G.G.G.G.G.G.G.G.G.G.G.G.G.G.G.G.G.G.G.G.G.G.G.G.G.G.G.G.G.G.G.G.G.G.G.G.G.G.D.,.O.X.X.X.X.X.X.X.X.X.X.X.X.X.X.X.X.X.O...V w @               - 8 9 9 9 9 9 9 ~ [ NXSXGXGXGXGXGXGXGXGXGXGXGXGXGXGXGXGXGXGXGXGXGXGXGXGXGXGXGXGXGXGXGXGXGXGXGXGXGXGXGXGXGXGXGXGXGXGXGXGXGXGXGXGXGXGXGXGXGXGXGXGXGXGXGXGXGXGXGXGXGXGX",
"GXGXGXGXGXGXGXGXGXGXGXGXGXGXGXGXGXGXGXGXGXGXGXGXGXGXGXGXGXGXGXGXGXGXGXGXGXGXGXGXGXGXGXGXGXGXGXGXGXGXGXGXGXGXGXGXGXGXGXGXGXGXGXGXGXGXGXGXGXGXGXGXGXGXGXGXGXGXGXGXVX] 7                                             < B +.G.G.G.F.F.F.F.F.F.F.F.F.F.G.G.G.G.G.G.G.G.G.G.G.G.G.G.G.G.G.G.G.G.G.G.G.G.G.G.G.G.G.G.G.G.G.G.G.G.G.G.G.G.G.G.G.G.G.G.G.G.G.G.G.G.G.G.G.G.G.G.G.G.G.G.G.G.G.G.G.F.F.F.F.F.F.F.F.F.F.F.F.F.F.F.F.F.G.G.D...r #                               * ^ nXSXGXGXGXGXGXGXGXGXGXGXGXGXGXGXGXGXGXGXGXGXGXGXGXGXGXGXGXGXGXGXGXGXGXGXGXGXGXGXGXGXGXGXGXGXGXGXGXGXGXGXGXGXGXGXGXGXGXGXGXGXGXGXGXGXGXGXGXGXGXGX",
"GXGXGXGXGXGXGXGXGXGXGXGXGXGXGXGXGXGXGXGXGXGXGXGXGXGXGXGXGXGXGXGXGXGXGXGXGXGXGXGXGXGXGXGXGXGXGXGXGXGXGXGXGXGXGXGXGXGXGXGXGXGXGXGXGXGXGXGXGXGXGXGXGXGXGXGXGXGXGXFXBX' *                                             2 V ,.R.R.R.R.R.R.R.R.R.R.R.R.L.G.G.G.G.G.G.G.G.G.G.G.G.G.G.G.G.G.G.G.G.G.G.G.G.G.G.G.G.G.G.G.G.G.G.G.G.G.G.G.G.G.G.G.G.G.G.G.G.G.G.G.G.G.G.G.G.G.G.G.G.G.G.G.G.G.G.G.G.R.R.R.R.R.R.R.R.L.R.R.R.R.R.R.R.R.R.G.O.c #                                 ~ bXAXGXGXGXGXGXGXGXGXGXGXGXGXGXGXGXGXGXGXGXGXGXGXGXGXGXGXGXGXGXGXGXGXGXGXGXGXGXGXGXGXGXGXGXGXGXGXGXGXGXGXGXGXGXGXGXGXGXGXGXGXGXGXGXGXGXGXGXGXGXGX",
"GXGXGXGXGXGXGXGXGXGXGXGXGXGXGXGXGXGXGXGXGXGXGXGXGXGXGXGXGXGXGXGXGXGXGXGXGXGXGXGXGXGXGXGXGXGXGXGXGXGXGXGXGXGXGXGXGXGXGXGXGXGXGXGXGXGXGXGXGXGXGXGXGXGXGXGXGXGXGXGXBX] -                                             2 B ,.R.R.G.G.G.G.G.G.G.G.G.G.G.G.G.G.G.G.G.G.G.G.G.G.G.G.G.G.G.G.G.G.G.G.G.G.G.G.G.G.G.G.G.G.G.G.G.G.G.G.G.G.G.G.G.G.G.G.G.G.G.G.G.G.G.G.G.G.G.G.G.G.G.G.G.G.G.G.G.G.G.G.G.G.G.G.G.G.G.G.G.G.G.G.G.G.G.G.R.G.X.c #                               & ~ bXAXGXGXGXGXGXGXGXGXGXGXGXGXGXGXGXGXGXGXGXGXGXGXGXGXGXGXGXGXGXGXGXGXGXGXGXGXGXGXGXGXGXGXGXGXGXGXGXGXGXGXGXGXGXGXGXGXGXGXGXGXGXGXGXGXGXGXGXGXGXGX",
"GXGXGXGXGXGXGXGXGXGXGXGXGXGXGXGXGXGXGXGXGXGXGXGXGXGXGXGXGXGXGXGXGXGXGXGXGXGXGXGXGXGXGXGXGXGXGXGXGXGXGXGXGXGXGXGXGXGXGXGXGXGXGXGXGXGXGXGXGXGXGXGXGXGXGXGXGXGXGXGXBX] -                                             < B +.G.L.G.G.G.G.G.G.G.G.G.G.G.G.G.G.G.G.G.G.G.G.G.G.G.G.G.G.G.G.G.G.G.G.G.G.G.G.G.G.G.G.G.G.G.G.G.G.G.G.G.G.G.G.G.G.G.G.G.G.G.G.G.G.G.G.G.G.G.G.G.G.G.G.G.G.G.G.G.G.G.G.G.G.G.G.G.G.G.G.G.G.G.G.G.G.G.G.R.F.X.c #                               & ^ nXSXGXGXGXGXGXGXGXGXGXGXGXGXGXGXGXGXGXGXGXGXGXGXGXGXGXGXGXGXGXGXGXGXGXGXGXGXGXGXGXGXGXGXGXGXGXGXGXGXGXGXGXGXGXGXGXGXGXGXGXGXGXGXGXGXGXGXGXGXGXGX",
"GXGXGXGXGXGXGXGXGXGXGXGXGXGXGXGXGXGXGXGXGXGXGXGXGXGXGXGXGXGXGXGXGXGXGXGXGXGXGXGXGXGXGXGXGXGXGXGXGXGXGXGXGXGXGXGXGXGXGXGXGXGXGXGXGXGXGXGXGXGXGXGXGXGXGXGXGXGXGXGXVX] -                                             < B +.G.L.G.G.G.G.G.G.G.G.G.G.G.G.G.G.G.G.G.G.G.G.G.G.G.G.G.G.G.G.G.G.G.G.G.G.G.G.G.G.G.G.G.G.G.G.G.G.G.G.G.G.G.G.G.G.G.G.G.G.G.G.G.G.G.G.G.G.G.G.G.G.G.G.G.G.G.G.G.G.G.G.G.G.G.G.G.G.G.G.G.G.G.G.G.G.G.G.R.F.X.r #                               & ^ nXSXGXGXGXGXGXGXGXGXGXGXGXGXGXGXGXGXGXGXGXGXGXGXGXGXGXGXGXGXGXGXGXGXGXGXGXGXGXGXGXGXGXGXGXGXGXGXGXGXGXGXGXGXGXGXGXGXGXGXGXGXGXGXGXGXGXGXGXGXGXGX",
"GXGXGXGXGXGXGXGXGXGXGXGXGXGXGXGXGXGXGXGXGXGXGXGXGXGXGXGXGXGXGXGXGXGXGXGXGXGXGXGXGXGXGXGXGXGXGXGXGXGXGXGXGXGXGXGXGXGXGXGXGXGXGXGXGXGXGXGXGXGXGXGXGXGXGXGXGXGXGXGXVX] -                                             < B +.G.L.G.G.G.G.G.G.G.G.G.G.G.G.G.G.G.G.G.G.G.G.G.G.G.G.G.G.G.G.G.G.G.G.G.G.G.G.G.G.G.G.G.G.G.G.G.G.G.G.G.G.G.G.G.G.G.G.G.G.G.G.G.G.G.G.G.G.G.G.G.G.G.G.G.G.G.G.G.G.G.G.G.G.G.G.G.G.G.G.G.G.G.G.G.G.G.G.L.F.X.r #                               & ^ nXSXGXGXGXGXGXGXGXGXGXGXGXGXGXGXGXGXGXGXGXGXGXGXGXGXGXGXGXGXGXGXGXGXGXGXGXGXGXGXGXGXGXGXGXGXGXGXGXGXGXGXGXGXGXGXGXGXGXGXGXGXGXGXGXGXGXGXGXGXGXGX",
"GXGXGXGXGXGXGXGXGXGXGXGXGXGXGXGXGXGXGXGXGXGXGXGXGXGXGXGXGXGXGXGXGXGXGXGXGXGXGXGXGXGXGXGXGXGXGXGXGXGXGXGXGXGXGXGXGXGXGXGXGXGXGXGXGXGXGXGXGXGXGXGXFXSXSXSXSXFXFXAXNX' -                 . . . . . . . . . . . . X + 2 V +.G.G.G.G.G.G.G.G.G.G.G.G.G.G.G.G.G.G.G.G.G.G.G.G.G.G.G.G.G.G.G.G.G.G.G.G.G.G.G.G.G.G.G.G.G.G.G.G.G.G.G.G.G.H.H.J.P.P.P.J.H.H.G.G.G.G.G.G.G.G.G.G.G.G.G.G.G.G.G.G.G.G.G.G.G.G.G.G.G.G.G.G.G.G.G.G.G.G.L.F.X.c ;       X X X X X X X X X X     @ ^ bXZXFXFXSXSXSXSXSXSXSXSXSXSXFXFXGXGXGXGXGXGXGXGXGXGXGXGXGXGXGXGXGXGXGXGXGXGXGXGXGXGXGXGXGXGXGXGXGXGXGXGXGXGXGXGXGXGXGXGXGXGXGXGXGXGXGXGXGXGXGXGX",
"GXGXGXGXGXGXGXGXGXGXGXGXGXGXGXGXGXGXGXGXGXGXGXGXGXGXGXGXGXGXGXGXGXGXGXGXGXGXGXGXGXGXGXGXGXGXGXGXGXGXGXGXGXGXGXGXGXGXGXGXGXGXGXGXGXGXGXGXGXGXFXAXVXmXmXmXmXmXNXnXcX~ *             . # 2 2 w 2 2 2 2 2 2 2 2 2 2 w c | A.G.G.G.G.G.G.G.G.G.G.G.G.G.G.G.G.G.G.G.G.G.G.G.G.G.G.G.G.G.G.G.G.G.G.G.G.G.G.G.G.G.G.G.G.G.G.G.G.G.G.G.G.G.J.I.U.U.U.U.U.I.P.G.G.G.G.G.G.G.G.G.G.G.G.G.G.G.G.G.G.G.G.G.G.G.G.G.G.G.G.G.G.G.G.G.G.G.G.G.F.O.n 2 ; # ; ; ; ; ; ; ; ; ; ; ; # # < b [ bXmXMXmXmXmXmXmXmXmXmXmXmXNXVXSXGXGXGXGXGXGXGXGXGXGXGXGXGXGXGXGXGXGXGXGXGXGXGXGXGXGXGXGXGXGXGXGXGXGXGXGXGXGXGXGXGXGXGXGXGXGXGXGXGXGXGXGXGXGXGX",
"GXGXGXGXGXGXGXGXGXGXGXGXGXGXGXGXGXGXGXGXGXGXGXGXGXGXGXGXGXGXGXGXGXGXGXGXGXGXGXGXGXGXGXGXGXGXGXGXGXGXGXGXGXGXGXGXGXGXGXGXGXGXGXGXGXGXGXGXGXGXFXVXcX( ^ / / / ( / ~ 7 &             + 2 n C | Z C C C C C C C C C C  .+.D.G.G.G.G.G.G.G.G.G.G.G.G.G.G.G.G.G.G.G.G.G.G.G.G.G.G.G.G.G.G.G.G.G.G.G.G.G.G.G.G.G.G.G.G.G.G.G.G.G.G.G.G.G.P.U.iXfXfXfXdXU.I.H.G.G.G.G.G.G.G.G.G.G.G.G.G.G.G.G.G.G.G.G.G.G.G.G.G.G.G.G.G.G.G.G.G.G.G.G.F.+.C c w w w w w w w w w w w w w w w w r b / / / / / / / / / / / ^ / ] bXCXGXGXGXGXGXGXGXGXGXGXGXGXGXGXGXGXGXGXGXGXGXGXGXGXGXGXGXGXGXGXGXGXGXGXGXGXGXGXGXGXGXGXGXGXGXGXGXGXGXGXGXGXGXGXGX",
"GXGXGXGXGXGXGXGXGXGXGXGXGXGXGXGXGXGXGXGXGXGXGXGXGXGXGXGXGXGXGXGXGXGXGXGXGXGXGXGXGXGXGXGXGXGXGXGXGXGXGXGXGXGXGXGXGXGXGXGXGXGXGXGXGXGXGXGXGXGXSXnX/ - & & * * * * & &               # r  .A.F.D.A.A.A.A.A.A.A.A.A.A.D.F.G.G.G.G.G.G.G.G.G.G.G.G.G.G.G.G.G.G.G.G.G.G.G.G.G.G.G.G.G.G.G.G.G.G.G.G.G.G.G.G.G.G.G.G.G.G.G.G.G.G.G.G.G.G.I.iXfXkXlXkXgXiXI.H.G.G.G.G.G.G.G.G.G.G.G.G.G.G.G.G.G.G.G.G.G.G.G.G.G.G.G.G.G.G.G.G.G.G.G.G.G.+. .B c c c n n c c c c c n c n n n c e 1 = * & * * * * * * * * & & 8 [ VXGXGXGXGXGXGXGXGXGXGXGXGXGXGXGXGXGXGXGXGXGXGXGXGXGXGXGXGXGXGXGXGXGXGXGXGXGXGXGXGXGXGXGXGXGXGXGXGXGXGXGXGXGXGXGX",
"GXGXGXGXGXGXGXGXGXGXGXGXGXGXGXGXGXGXGXGXGXGXGXGXGXGXGXGXGXGXGXGXGXGXGXGXGXGXGXGXGXGXGXGXGXGXGXGXGXGXGXGXGXGXGXGXGXGXGXGXGXGXGXGXGXGXGXGXGXGXSXnX~                                 # c O.G.R.R.G.L.R.L.L.L.L.L.L.G.G.G.G.G.G.G.G.G.G.G.G.G.G.G.G.G.G.G.G.G.G.G.G.G.G.G.G.G.G.G.G.G.G.G.G.G.G.G.G.G.G.G.G.G.G.G.G.G.G.G.G.G.G.G.Y.G.I.iXgXzXzXzXkXdXU.H.G.G.G.G.G.G.G.G.G.G.G.G.G.G.G.G.G.G.G.G.G.G.G.G.G.G.G.G.G.G.G.G.G.G.G.G.G.,. .V n n n m m n m m m m m m m B B n w ;                           - ' VXGXGXGXGXGXGXGXGXGXGXGXGXGXGXGXGXGXGXGXGXGXGXGXGXGXGXGXGXGXGXGXGXGXGXGXGXGXGXGXGXGXGXGXGXGXGXGXGXGXGXGXGXGXGXGX",
"GXGXGXGXGXGXGXGXGXGXGXGXGXGXGXGXGXGXGXGXGXGXGXGXGXGXGXGXGXGXGXGXGXGXGXGXGXGXGXGXGXGXGXGXGXGXGXGXGXGXGXGXGXGXGXGXGXGXGXGXGXGXGXGXGXGXGXGXGXGXFXnX^                                 @ r O.G.R.R.G.G.G.G.G.G.G.G.G.G.G.G.G.G.G.G.G.G.G.G.G.G.G.G.G.G.G.G.G.G.G.G.G.G.G.G.G.G.G.G.G.G.G.G.G.G.G.G.G.G.G.G.G.G.G.G.G.G.G.G.G.G.G.Y.Y.G.I.iXgXzXzXzXkXdXU.H.G.G.G.G.G.G.G.G.G.G.G.G.G.G.G.G.G.G.G.G.G.G.G.G.G.G.G.G.G.G.G.G.G.G.G.G.G.,. .V n n n n n n n m m m m m m B B n w ;                           - ] VXGXGXGXGXGXGXGXGXGXGXGXGXGXGXGXGXGXGXGXGXGXGXGXGXGXGXGXGXGXGXGXGXGXGXGXGXGXGXGXGXGXGXGXGXGXGXGXGXGXGXGXGXGXGXGX",
"GXGXGXGXGXGXGXGXGXGXGXGXGXGXGXGXGXGXGXGXGXGXGXGXGXGXGXGXGXGXGXGXGXGXGXGXGXGXGXGXGXGXGXGXGXGXGXGXGXGXGXGXGXGXGXGXGXGXGXGXGXGXGXGXGXGXGXGXGXGXAXbX^ &                               ; c X.F.R.G.G.G.G.G.G.G.G.G.G.G.G.G.G.G.G.G.G.G.G.G.G.G.G.G.G.G.G.G.G.G.G.G.G.G.G.G.G.G.G.G.G.G.G.G.G.G.G.G.G.G.G.G.G.G.G.G.G.G.H.H.H.H.H.H.G.H.I.iXgXlXzXzXgXdXU.H.G.G.G.G.G.G.G.G.G.G.G.G.G.G.G.G.G.G.G.G.G.G.G.G.G.G.G.G.G.G.G.G.G.G.G.G.G.,. .V m n m m m m m m m n n n n m m n e > .                         - ' BXFXGXGXGXGXGXGXGXGXGXGXGXGXGXGXGXGXGXGXGXGXGXGXGXGXGXGXGXGXGXGXGXGXGXGXGXGXGXGXGXGXGXGXGXGXGXGXGXGXGXGXGXGXGXGX",
"GXGXGXGXGXGXGXGXGXGXGXGXGXGXGXGXGXGXGXGXGXGXGXGXGXGXGXGXGXGXGXGXGXGXGXGXGXGXGXGXGXGXGXGXGXGXGXGXGXGXGXGXGXGXGXGXGXGXGXGXGXGXGXGXFXAXVXVXVXVXmX[ 9 &             . # > < 2 < < < < w B O.F.G.G.G.G.G.G.G.G.G.G.G.G.G.G.G.G.G.G.G.G.G.G.G.G.G.G.G.G.G.G.G.G.G.G.G.G.G.G.G.G.G.G.G.G.G.G.G.G.G.G.G.G.G.G.G.G.G.G.H.J.I.I.U.U.U.U.I.U.U.sXgXlXzXzXgXdXU.H.G.G.G.G.G.G.G.G.G.G.G.G.G.G.G.G.G.G.G.G.G.G.G.G.G.G.G.G.G.G.G.G.G.G.G.G.G.A.O.| C C C C C C C V B n n n n n m n r 2 ; # # # @ .               * ^ vXBXVXVXVXCXSXGXGXGXGXGXGXGXGXGXGXGXGXGXGXGXGXGXGXGXGXGXGXGXGXGXGXGXGXGXGXGXGXGXGXGXGXGXGXGXGXGXGXGXGXGXGXGXGXGX",
"GXGXGXGXGXGXGXGXGXGXGXGXGXGXGXGXGXGXGXGXGXGXGXGXGXGXGXGXGXGXGXGXGXGXGXGXGXGXGXGXGXGXGXGXGXGXGXGXGXGXGXGXGXGXGXGXGXGXGXGXGXGXGXGXSXBXvX] ' ] ' ~ 7               # w n B V B B B B C ..,.G.G.G.G.G.G.G.G.G.G.G.G.G.G.G.G.G.G.G.G.G.G.G.G.G.G.G.G.G.G.G.G.G.G.G.G.G.G.G.G.G.G.G.G.G.G.G.G.G.G.G.G.G.G.G.G.G.G.G.H.I.U.iXdXsXdXdXdXdXsXgXkXlXzXzXgXdXU.H.G.G.G.G.G.G.G.G.G.G.G.G.G.G.G.G.G.G.G.G.G.G.G.G.G.G.G.G.G.G.G.G.G.G.G.G.G.D.,.O.O.O.O.O.O.O...| V n n n n n n n c e w 2 2 2 < # X             & 8 ^ ' ] ] [ bXVXFXGXGXGXGXGXGXGXGXGXGXGXGXGXGXGXGXGXGXGXGXGXGXGXGXGXGXGXGXGXGXGXGXGXGXGXGXGXGXGXGXGXGXGXGXGXGXGXGX",
"GXGXGXGXGXGXGXGXGXGXGXGXGXGXGXGXGXGXGXGXGXGXGXGXGXGXGXGXGXGXGXGXGXGXGXGXGXGXGXGXGXGXGXGXGXGXGXGXGXGXGXGXGXGXGXGXGXGXGXGXGXGXGXGXZXbX^ 7 * - - * &               < n X.,.,.+.+.+.+.,.A.F.G.G.G.G.G.G.G.G.G.G.G.G.G.G.G.G.G.G.G.G.G.G.G.G.G.G.G.G.G.G.G.G.G.G.G.G.G.G.G.G.G.G.G.G.G.G.G.G.G.G.G.G.G.G.G.G.G.G.G.H.U.iXgXkXkXgXgXgXgXkXkXlXlXzXzXgXdXU.H.G.G.G.G.G.G.G.G.G.G.G.G.G.G.G.G.G.G.G.G.G.G.G.G.G.G.G.G.G.G.G.G.G.G.G.G.G.F.D.D.D.A.D.A.D.D.,...C m n n n n n n n c c c c c w > .               & * - - - 8 ] NXSXGXGXGXGXGXGXGXGXGXGXGXGXGXGXGXGXGXGXGXGXGXGXGXGXGXGXGXGXGXGXGXGXGXGXGXGXGXGXGXGXGXGXGXGXGXGXGXGX",
"GXGXGXGXGXGXGXGXGXGXGXGXGXGXGXGXGXGXGXGXGXGXGXGXGXGXGXGXGXGXGXGXGXGXGXGXGXGXGXGXGXGXGXGXGXGXGXGXGXGXGXGXGXGXGXGXGXGXGXGXGXGXGXGXZXvX9                           2 B ,.R.R.G.G.G.G.G.G.G.G.G.G.G.G.G.G.G.G.G.G.G.G.G.G.G.G.G.G.G.G.G.G.G.G.G.G.G.G.G.G.G.G.G.G.G.G.G.G.G.G.G.G.G.G.G.G.G.G.G.G.G.G.G.G.G.G.G.G.H.U.sXkXzXzXzXlXlXzXlXlXlXlXzXzXaXdXU.H.G.G.G.G.G.G.G.G.G.G.G.G.G.G.G.G.G.G.G.G.G.G.G.G.G.G.G.G.G.G.G.G.G.G.G.G.G.G.G.G.G.G.G.G.G.G.D.O.C m n n n n n n n m m m B n r 2 O                         & / mXSXGXGXGXGXGXGXGXGXGXGXGXGXGXGXGXGXGXGXGXGXGXGXGXGXGXGXGXGXGXGXGXGXGXGXGXGXGXGXGXGXGXGXGXGXGXGXGXGX",
"GXGXGXGXGXGXGXGXGXGXGXGXGXGXGXGXGXGXGXGXGXGXGXGXGXGXGXGXGXGXGXGXGXGXGXGXGXGXGXGXGXGXGXGXGXGXGXGXGXGXGXGXGXGXGXGXGXGXGXGXGXGXGXGXZXcX9                           2 V ,.R.R.R.G.L.L.G.G.G.G.G.G.G.G.G.G.G.G.G.G.G.G.G.G.G.G.G.G.G.G.G.G.G.G.G.G.G.G.G.G.G.G.G.G.G.G.G.G.G.G.G.G.G.G.G.G.G.G.G.G.G.G.G.G.G.G.G.G.H.U.sXkXzXzXzXzXzXzXzXlXlXlXzXzXgXdXU.H.G.G.G.G.G.G.G.G.G.G.G.G.G.G.G.G.G.G.G.G.G.G.G.G.G.G.G.G.G.G.G.G.G.G.G.G.G.G.G.G.G.G.G.G.G.G.D.O.C m n n n n n n n m m B B m r 2 O                         & ^ mXSXGXGXGXGXGXGXGXGXGXGXGXGXGXGXGXGXGXGXGXGXGXGXGXGXGXGXGXGXGXGXGXGXGXGXGXGXGXGXGXGXGXGXGXGXGXGXGXGX",
"GXGXGXGXGXGXGXGXGXGXGXGXGXGXGXGXGXGXGXGXGXGXGXGXGXGXGXGXGXGXGXGXGXGXGXGXGXGXGXGXGXGXGXGXGXGXGXGXGXGXGXGXGXGXGXGXGXGXGXGXGXGXGXGXZXvX9                           2 B +.G.R.G.G.G.G.G.G.G.G.G.G.G.G.G.G.G.G.G.G.G.G.G.G.G.G.G.G.G.G.G.G.G.G.G.G.G.G.G.G.G.G.G.G.G.G.G.G.G.G.G.G.G.G.G.G.G.G.G.G.G.G.G.G.G.G.G.G.H.U.sXkXzXzXlXlXlXlXlXlXlXlXzXlXgXdXU.H.G.G.G.G.G.G.G.G.G.G.G.G.G.G.G.G.G.G.G.G.G.G.G.G.G.G.G.G.G.G.G.G.G.G.G.G.G.G.G.G.G.G.G.G.G.G.D.O.C m n n n n n n n m n m B n r < O                         * / mXSXGXGXGXGXGXGXGXGXGXGXGXGXGXGXGXGXGXGXGXGXGXGXGXGXGXGXGXGXGXGXGXGXGXGXGXGXGXGXGXGXGXGXGXGXGXGXGXGX",
"GXGXGXGXGXGXGXGXGXGXGXGXGXGXGXGXGXGXGXGXGXGXGXGXGXGXGXGXGXGXGXGXGXGXGXGXGXGXGXGXGXGXGXGXGXGXGXGXGXGXGXGXGXGXGXGXGXGXGXGXGXGXGXGXZXvX9                           < B +.G.L.G.G.G.G.G.G.G.G.G.G.G.G.G.G.G.G.G.G.G.G.G.G.G.G.G.G.G.G.G.G.G.G.G.G.G.G.G.G.G.G.G.G.G.G.G.G.G.G.G.G.G.G.G.G.G.G.G.G.G.G.G.G.G.G.G.G.H.U.sXkXzXzXlXlXlXlXlXlXlXlXzXlXgXdXU.H.G.G.G.G.G.G.G.G.G.G.G.G.G.G.G.G.G.G.G.G.G.G.G.G.G.G.G.G.G.G.G.G.G.G.G.G.G.G.G.G.G.G.G.G.G.G.A.O.C n n n n n n n n n n m m n r < .                         * / mXFXGXGXGXGXGXGXGXGXGXGXGXGXGXGXGXGXGXGXGXGXGXGXGXGXGXGXGXGXGXGXGXGXGXGXGXGXGXGXGXGXGXGXGXGXGXGXGXGX",
"GXGXGXGXGXGXGXGXGXGXGXGXGXGXGXGXGXGXGXGXGXGXGXGXGXGXGXGXGXGXGXGXGXGXGXGXGXGXGXGXGXGXGXGXGXGXGXGXGXGXGXGXGXGXGXGXGXGXGXGXGXGXGXGXZXvX9                           < B +.G.R.G.G.G.G.G.G.G.G.G.G.G.G.G.G.G.G.G.G.G.G.G.G.G.G.G.G.G.G.G.G.G.G.G.G.G.G.G.G.G.G.G.G.G.G.G.G.G.G.G.G.G.G.G.G.G.G.G.G.G.G.G.G.G.G.Y.Y.G.U.sXkXzXzXlXlXlXlXlXlXlXlXzXlXgXdXU.H.G.G.G.G.G.G.G.G.G.G.G.G.G.G.G.G.G.G.G.G.G.G.G.G.G.G.G.G.G.G.G.G.G.G.G.G.G.G.G.G.G.G.G.G.G.G.A.O.C n n n n n n n n n n m m n e < .                         * ( NXFXGXGXGXGXGXGXGXGXGXGXGXGXGXGXGXGXGXGXGXGXGXGXGXGXGXGXGXGXGXGXGXGXGXGXGXGXGXGXGXGXGXGXGXGXGXGXGXGX",
"GXGXGXGXGXGXGXGXGXGXGXGXGXGXGXGXGXGXGXGXGXGXGXGXGXGXGXGXGXGXGXGXGXGXGXGXGXGXGXGXGXGXGXGXGXGXGXGXGXGXGXGXGXGXGXGXGXGXGXGXGXGXGXGXZXvX9                           < B +.G.L.G.G.G.G.G.G.G.G.G.G.G.G.G.G.G.G.G.G.G.G.G.G.G.G.G.G.G.G.G.G.G.G.G.G.G.G.G.G.G.G.G.G.G.G.G.G.G.G.G.G.G.G.G.G.G.G.G.G.G.G.G.G.G.G.G.Y.H.U.sXkXzXzXlXlXlXlXlXlXlXlXzXlXgXdXU.H.G.G.G.G.G.G.G.G.G.G.G.G.G.G.G.G.G.G.G.G.G.G.G.G.G.G.G.G.G.G.G.G.G.G.G.G.G.G.G.G.G.G.G.G.G.G.A.O.C n n n n n n n n n n m m n r < .                         * / mXFXGXGXGXGXGXGXGXGXGXGXGXGXGXGXGXGXGXGXGXGXGXGXGXGXGXGXGXGXGXGXGXGXGXGXGXGXGXGXGXGXGXGXGXGXGXGXGXGX",
"GXGXGXGXGXGXGXGXGXGXGXGXGXGXGXGXGXGXGXGXGXGXGXGXGXGXGXGXGXGXGXGXGXGXGXGXGXGXGXGXGXGXGXGXGXGXGXGXGXGXGXGXGXGXGXGXGXGXGXGXGXGXGXGXZXvX9         . @ # # # # # @ ; w C ,.G.G.G.G.G.G.G.G.G.G.G.G.G.G.G.G.G.G.G.G.G.G.G.G.G.G.G.G.G.G.G.G.G.G.G.G.G.G.G.G.G.G.G.G.G.G.G.H.S.P.P.P.P.P.P.P.P.I.I.I.I.I.I.I.I.I.P.P.I.U.fXkXzXzXlXlXlXlXlXlXlXlXzXzXgXdXU.H.G.G.G.G.G.G.G.G.G.G.G.G.G.G.G.G.G.G.G.G.G.G.G.G.G.G.G.G.G.G.G.G.G.G.G.G.G.G.G.G.G.G.G.G.G.G.D.O.| V V V V V V V B B m n m n r 2 # . . . O O O . X         & ^ vXVXAXAXZXZXZXZXAXSXGXGXGXGXGXGXGXGXGXGXGXGXGXGXGXGXGXGXGXGXGXGXGXGXGXGXGXGXGXGXGXGXGXGXGXGXGXGXGXGX",
"GXGXGXGXGXGXGXGXGXGXGXGXGXGXGXGXGXGXGXGXGXGXGXGXGXGXGXGXGXGXGXGXGXGXGXGXGXGXGXGXGXGXGXGXGXGXGXGXGXGXGXGXGXGXGXGXGXGXGXGXGXGXGXGXZXvX9       X ; 2 r c c c r r c B ..A.G.G.G.G.G.G.G.G.G.G.G.G.G.G.G.G.G.G.G.G.G.G.G.G.G.G.G.G.G.G.G.G.G.G.G.G.G.G.G.G.G.G.G.G.G.G.H.S.Z.p.p.p.p.p.a.a.iXiXiXiXiXiXiXiXiXiXiXiXiXsXgXkXlXlXlXlXlXlXlXlXlXlXzXzXgXdXU.H.G.G.G.G.G.G.G.G.G.G.G.G.G.G.G.G.G.G.G.G.G.G.G.G.G.G.G.G.G.G.G.G.G.G.G.G.G.G.G.G.G.G.G.G.G.G.D.,.O. . . . . . . .| V m n n n c e 2 < < < < 2 2 > # .       & 8 ( cXvXvXvXvXcXvXnXVXSXGXGXGXGXGXGXGXGXGXGXGXGXGXGXGXGXGXGXGXGXGXGXGXGXGXGXGXGXGXGXGXGXGXGXGXGXGXGXGX",
"GXGXGXGXGXGXGXGXGXGXGXGXGXGXGXGXGXGXGXGXGXGXGXGXGXGXGXGXGXGXGXGXGXGXGXGXGXGXGXGXGXGXGXGXGXGXGXGXGXGXGXGXGXGXGXGXGXGXGXGXGXGXGXGXZXvX9       . 2 m  .O.O.X.X.X.X.O.,.D.G.G.G.G.G.G.G.G.G.G.G.G.G.G.G.G.G.G.G.G.G.G.G.G.G.G.G.G.G.G.G.G.G.G.G.G.G.G.G.G.G.G.G.G.G.G.H.P.p.i.u.u.u.uXuXfXfXgXgXgXgXfXfXgXfXgXgXfXgXgXkXkXlXlXlXlXlXlXlXlXlXlXzXzXgXdXU.H.G.G.G.G.G.G.G.G.G.G.G.G.G.G.G.G.G.G.G.G.G.G.G.G.G.G.G.G.G.G.G.G.G.G.G.G.G.G.G.G.G.G.G.G.G.G.F.D.A.,.,.,.,.,.,.+.X.C B n n n n c r r r r r r r w < @         * 7 9 9 9 9 9 9 9 ' nXAXGXGXGXGXGXGXGXGXGXGXGXGXGXGXGXGXGXGXGXGXGXGXGXGXGXGXGXGXGXGXGXGXGXGXGXGXGXGXGX",
"GXGXGXGXGXGXGXGXGXGXGXGXGXGXGXGXGXGXGXGXGXGXGXGXGXGXGXGXGXGXGXGXGXGXGXGXGXGXGXGXGXGXGXGXGXGXGXGXGXGXGXGXGXGXGXGXGXGXGXGXGXGXGXGXZXvX9       + w | A.G.G.F.F.F.F.F.G.G.G.G.G.G.G.G.G.G.G.G.G.G.G.G.G.G.G.G.G.G.G.G.G.G.G.G.G.G.G.G.G.G.G.G.G.G.G.G.G.G.G.G.G.G.G.Y.H.Z.i.0XqXqXqXtXyXaXlXlXlXkXkXlXlXlXlXlXlXkXkXlXlXlXlXlXlXlXlXlXlXlXlXlXzXzXgXdXU.H.G.G.G.G.G.G.G.G.G.G.G.G.G.G.G.G.G.G.G.G.G.G.G.G.G.G.G.G.G.G.G.G.G.G.G.G.G.G.G.G.G.G.G.G.G.G.G.G.G.G.G.G.G.G.G.F.+.| B n n n n n n n n n n n n c 2 #                         & 9 vXZXGXGXGXGXGXGXGXGXGXGXGXGXGXGXGXGXGXGXGXGXGXGXGXGXGXGXGXGXGXGXGXGXGXGXGXGXGXGXGX",
"GXGXGXGXGXGXGXGXGXGXGXGXGXGXGXGXGXGXGXGXGXGXGXGXGXGXGXGXGXGXGXGXGXGXGXGXGXGXGXGXGXGXGXGXGXGXGXGXGXGXGXGXGXGXGXGXGXGXGXGXGXGXGXGXAXvX9       + e  .F.R.R.R.R.R.L.G.G.G.G.G.G.G.G.G.G.G.G.G.G.G.G.G.G.G.G.G.G.G.G.G.G.G.G.G.G.G.G.G.G.G.G.G.G.G.G.G.G.G.G.G.G.G.Y.Y.G.Z.i.0XqXqXqXtXpXhXzXzXzXzXzXzXzXzXzXzXzXzXzXzXlXlXlXlXlXlXlXlXlXlXlXzXzXzXgXdXI.G.Y.G.G.G.G.G.G.G.G.G.G.G.G.G.G.G.G.G.G.G.G.G.G.G.G.G.G.G.G.G.G.G.G.G.G.G.G.G.G.G.G.G.G.G.G.G.G.G.G.G.G.G.G.G.G.F.+.| B n n n n n m m m m m B B c 2 #                           9 cXZXGXGXGXGXGXGXGXGXGXGXGXGXGXGXGXGXGXGXGXGXGXGXGXGXGXGXGXGXGXGXGXGXGXGXGXGXGXGXGX",
"GXGXGXGXGXGXGXGXGXGXGXGXGXGXGXGXGXGXGXGXGXGXGXGXGXGXGXGXGXGXGXGXGXGXGXGXGXGXGXGXGXGXGXGXGXGXGXGXGXGXGXGXGXGXGXGXGXGXGXGXGXGXGXGXZXvX9       O w | D.R.R.G.G.G.G.G.G.G.G.G.G.G.G.G.G.G.G.G.G.G.G.G.G.G.G.G.G.G.G.G.G.G.G.G.G.G.G.G.G.G.G.G.G.G.G.G.G.G.G.G.G.G.G.Y.H.Z.i.0XqXqXqXtXyXhXzXzXzXzXzXlXlXlXlXzXzXzXzXzXlXlXlXlXlXlXlXlXlXlXlXzXzXlXgXdXI.G.Y.G.G.G.G.G.G.G.G.G.G.G.G.G.G.G.G.G.G.G.G.G.G.G.G.G.G.G.G.G.G.G.G.G.G.G.G.G.G.G.G.G.G.G.G.G.G.G.G.G.G.G.G.G.G.F.+.| B n n n n n n m m n m B m c 2 #                           9 vXZXGXGXGXGXGXGXGXGXGXGXGXGXGXGXGXGXGXGXGXGXGXGXGXGXGXGXGXGXGXGXGXGXGXGXGXGXGXGXGX",
"GXGXGXGXGXGXGXGXGXGXGXGXGXGXGXGXGXGXGXGXGXGXGXGXGXGXGXGXGXGXGXGXGXGXGXGXGXGXGXGXGXGXGXGXGXGXGXGXGXGXGXGXGXGXGXGXFXSXAXAXAXSXFXSXVX[ 9       O w | D.L.G.G.G.G.G.G.G.G.G.G.G.G.G.G.G.G.G.G.G.G.G.G.G.G.G.G.G.G.G.G.G.G.G.G.G.G.G.G.G.G.G.G.G.G.G.G.H.S.S.S.S.S.S.H.S.Z.i.0XqXqXqXtXyXaXjXjXjXjXjXjXjXkXkXjXjXjXjXjXjXlXlXlXlXlXlXlXlXlXlXlXzXzXaXsXU.S.D.S.S.S.S.S.S.H.G.G.G.G.G.G.G.G.G.G.G.G.G.G.G.G.G.G.G.G.G.G.G.G.G.G.G.G.G.G.G.G.G.G.G.G.G.G.G.G.G.G.G.G.G.G.G.F.+. .V B B B B m n n n n n m m c w ; . X X X                   9 vXZXGXGXGXGXGXGXGXGXGXGXGXGXGXGXGXGXGXGXGXGXGXGXGXGXGXGXGXGXGXGXGXGXGXGXGXGXGXGXGX",
"GXGXGXGXGXGXGXGXGXGXGXGXGXGXGXGXGXGXGXGXGXGXGXGXGXGXGXGXGXGXGXGXGXGXGXGXGXGXGXGXGXGXGXGXGXGXGXGXGXGXGXGXGXGXGXAXVXmXbXbXnXnXnXnXvX( 7       O w | D.L.G.G.G.G.G.G.G.G.G.G.G.G.G.G.G.G.G.G.G.G.G.G.G.G.G.G.G.G.G.G.G.G.G.G.G.G.G.G.G.G.G.G.G.G.G.H.P.Z.Z.p.p.p.a.Z.p.p.i.0XqXqXqXeXtXyXpXpXpXpXpXpXpXpXpXpXpXpXpXaXhXkXlXlXlXlXlXlXlXlXlXlXzXlXkXsXa.p.Z.a.p.p.p.Z.Z.P.H.G.G.G.G.G.G.G.G.G.G.G.G.G.G.G.G.G.G.G.G.G.G.G.G.G.G.G.G.G.G.G.G.G.G.G.G.G.G.G.G.G.G.G.G.G.G.F.,.O. .| | | C V B n n n n m m c e 2 > ; ; ; # .               9 vXZXGXGXGXGXGXGXGXGXGXGXGXGXGXGXGXGXGXGXGXGXGXGXGXGXGXGXGXGXGXGXGXGXGXGXGXGXGXGXGX",
"GXGXGXGXGXGXGXGXGXGXGXGXGXGXGXGXGXGXGXGXGXGXGXGXGXGXGXGXGXGXGXGXGXGXGXGXGXGXGXGXGXGXGXGXGXGXGXGXGXGXGXGXGXGXGXCXvX' ~ ~ ^ ^ ^ ^ ~ 8 *       O w | D.G.G.G.G.G.G.G.G.G.G.G.G.G.G.G.G.G.G.G.G.G.G.G.G.G.G.G.G.G.G.G.G.G.G.G.G.G.G.G.G.G.G.G.G.G.G.H.Z.p.i.i.i.i.i.i.i.u.0X0XqXqXqXwXtXtXtXtXtXtXtXtXtXtXtXtXtXtXtXyXaXjXlXlXlXlXlXlXlXlXlXlXzXlXhXpXuXi.i.i.i.i.i.i.p.Z.S.G.G.G.G.G.G.G.G.G.G.G.G.G.G.G.G.G.G.G.G.G.G.G.G.G.G.G.G.G.G.G.G.G.G.G.G.G.G.G.G.G.G.G.G.G.G.G.D.A.+.+.+.+.O.| B n n n n n n n c r e e e w 2 #               9 vXZXGXGXGXGXGXGXGXGXGXGXGXGXGXGXGXGXGXGXGXGXGXGXGXGXGXGXGXGXGXGXGXGXGXGXGXGXGXGXGX",
"GXGXGXGXGXGXGXGXGXGXGXGXGXGXGXGXGXGXGXGXGXGXGXGXGXGXGXGXGXGXGXGXGXGXGXGXGXGXGXGXGXGXGXGXGXGXGXGXGXGXGXGXGXGXGXVX[ 8 &   & & & & & &         O w | D.L.G.G.G.G.G.G.G.G.G.G.G.G.G.G.G.G.G.G.G.G.G.G.G.G.G.G.G.G.G.G.G.G.G.G.G.G.G.G.G.G.G.G.G.G.G.S.Z.i.0XqXqX0X0XqXqXqXqXqXqXqXqXqXqXqXeXwXwXwXwXeXeXeXeXwXqXqXwXtXpXjXlXlXlXlXlXlXlXlXlXlXlXlXhXpXtXqX0X0X0X0XqX0Xi.p.S.G.G.G.G.G.G.G.G.G.G.G.G.G.G.G.G.G.G.G.G.G.G.G.G.G.G.G.G.G.G.G.G.G.G.G.G.G.G.G.G.G.G.G.G.G.G.G.G.F.F.F.G.F.+. .V n n n n n n n n n n n n c w ; X             9 vXZXGXGXGXGXGXGXGXGXGXGXGXGXGXGXGXGXGXGXGXGXGXGXGXGXGXGXGXGXGXGXGXGXGXGXGXGXGXGXGX",
"GXGXGXGXGXGXGXGXGXGXGXGXGXGXGXGXGXGXGXGXGXGXGXGXGXGXGXGXGXGXGXGXGXGXGXGXGXGXGXGXGXGXGXGXGXGXGXGXGXGXGXGXGXGXFXBX' *                         O w | D.L.G.G.G.G.G.G.G.G.G.G.G.G.G.G.G.G.G.G.G.G.G.G.G.G.G.G.G.G.G.G.G.G.G.G.G.G.G.G.G.G.G.G.G.G.G.S.p.i.qXqXqXqXqXqXqXqXqXqXqXqXqXqXqX9X9X9X9X9X9X9X9X9X9X9X9X9XqXtXpXjXlXlXlXlXlXlXlXlXlXlXlXlXhXpXtXqXqXqXqXqXqXqXi.p.S.G.G.G.G.G.G.G.G.G.G.G.G.G.G.G.G.G.G.G.G.G.G.G.G.G.G.G.G.G.G.G.G.G.G.G.G.G.G.G.G.G.G.G.G.G.G.G.G.G.G.G.L.G.,. .V n n n n n n n n m m B B n w ; X             9 vXZXGXGXGXGXGXGXGXGXGXGXGXGXGXGXGXGXGXGXGXGXGXGXGXGXGXGXGXGXGXGXGXGXGXGXGXGXGXGXGX",
"GXGXGXGXGXGXGXGXGXGXGXGXGXGXGXGXGXGXGXGXGXGXGXGXGXGXGXGXGXGXGXGXGXGXGXGXGXGXGXGXGXGXGXGXGXGXGXGXGXGXGXGXGXGXFXBX' -                         O w | D.L.G.G.G.G.G.G.G.G.G.G.G.G.G.G.G.G.G.G.G.G.G.G.G.G.G.G.G.G.G.G.G.G.G.G.G.G.G.G.G.G.G.G.G.G.G.S.p.i.qXqXqXqXqXqXqXqXqXqXqXqXqXqXqXqX9X9X9X9X9X9X9X9X9XqX9X9XqXtXpXjXlXlXlXlXlXlXlXlXlXlXlXlXhXpXtXqXqXqXqXqXqXqXi.p.S.G.G.G.G.G.G.G.G.G.G.G.G.G.G.G.G.G.G.G.G.G.G.G.G.G.G.G.G.G.G.G.G.G.G.G.G.G.G.G.G.G.G.G.G.G.G.G.G.G.G.G.G.G.,. .V n n n n n n n n m m B B n w ; X             9 vXZXGXGXGXGXGXGXGXGXGXGXGXGXGXGXGXGXGXGXGXGXGXGXGXGXGXGXGXGXGXGXGXGXGXGXGXGXGXGXGX",
"GXGXGXGXGXGXGXGXGXGXGXGXGXGXGXGXGXGXGXGXGXGXGXGXGXGXGXGXGXGXGXGXGXGXGXGXGXGXGXGXGXGXGXGXGXGXGXGXGXGXGXGXGXGXGXBX] -                         O w | D.L.G.G.G.G.G.G.G.G.G.G.G.G.G.G.G.G.G.G.G.G.G.G.G.G.G.G.G.G.G.G.G.G.G.G.G.G.G.G.G.G.G.G.G.G.G.S.p.i.0XqXqXqXqXqXqXqXqXqXqXqXqXqXqXqXqXqXqXqXqXqXqXqXqXqX9X9XwXtXpXjXlXlXlXlXlXlXlXlXlXlXlXlXhXpXtXqX9XqXqXqXqX0Xi.p.S.G.G.G.G.G.G.G.G.G.G.G.G.G.G.G.G.G.G.G.G.G.G.G.G.G.G.G.G.G.G.G.G.G.G.G.G.G.G.G.G.G.G.G.G.G.G.G.G.G.G.G.G.G.,. .V n n n n n n n n m m m m c w ; X             9 vXZXGXGXGXGXGXGXGXGXGXGXGXGXGXGXGXGXGXGXGXGXGXGXGXGXGXGXGXGXGXGXGXGXGXGXGXGXGXGXGX",
"GXGXGXGXGXGXGXGXGXGXGXGXGXGXGXGXGXGXGXGXGXGXGXGXGXGXGXGXGXGXGXGXGXGXGXGXGXGXGXGXGXGXGXGXGXGXGXGXGXGXGXGXGXGXGXVX] -                         . w | D.L.G.G.G.G.G.G.G.G.G.G.G.G.G.G.G.G.G.G.G.G.G.G.G.G.G.G.G.G.G.G.G.G.G.G.G.G.G.G.G.G.G.G.G.G.G.S.p.i.0XqXqXqXqXqXqXqXqXqXqXqXqXqX9XqXqXqXqXqXqX9X9X9X9XqX9X9XqXtXpXjXzXzXlXlXlXlXlXlXlXlXzXzXjXpXtXqX9XqXqXqXqX0Xi.p.S.Y.Y.G.G.G.G.G.G.G.G.G.G.G.G.G.G.G.G.G.G.G.G.G.G.G.G.G.G.G.G.G.G.G.G.G.G.G.G.G.G.G.G.G.G.G.G.G.G.G.G.G.G.G.,. .V n n n n n n n n n n m m c w ; X             9 vXZXGXGXGXGXGXGXGXGXGXGXGXGXGXGXGXGXGXGXGXGXGXGXGXGXGXGXGXGXGXGXGXGXGXGXGXGXGXGXGX",
"GXGXGXGXGXGXGXGXGXGXGXGXGXGXGXGXGXGXGXGXGXGXGXGXGXGXGXGXGXGXGXGXGXGXGXGXGXGXGXGXGXGXGXGXGXGXGXGXGXGXGXGXGXGXGXVX] -                         . w | D.R.G.G.G.G.G.G.G.G.G.G.G.G.G.G.G.G.G.G.G.G.G.G.G.G.G.G.G.G.G.G.G.G.G.G.G.G.G.G.G.G.G.G.G.G.G.S.p.i.0XqXqXqXqXqXqXqX9X9X9X9X9X9X9X9X9X9X9X9X9X9X9X9X9X9X9X9XqXtXpXjXxXzXzXzXzXxXxXlXlXzXzXzXjXpXtXqX9XqXqXqXqX0Xi.p.S.Y.Y.G.G.G.G.G.G.G.G.G.G.G.G.G.G.G.G.G.G.G.G.G.G.G.G.G.G.G.G.G.G.G.G.G.G.G.G.G.G.G.G.G.G.G.G.G.G.G.G.G.G.G.,. .V n n n n n n n n n n m m c w ; X             9 vXAXGXGXGXGXGXGXGXGXGXGXGXGXGXGXGXGXGXGXGXGXGXGXGXGXGXGXGXGXGXGXGXGXGXGXGXGXGXGXGX",
"GXGXGXGXGXGXGXGXGXGXGXGXGXGXGXGXGXGXGXGXGXGXGXGXGXGXGXGXGXGXGXGXGXGXGXGXGXGXGXGXGXGXGXGXGXGXGXGXGXGXGXGXGXGXFXBX' -                         @ e | D.L.G.G.G.G.G.G.G.G.G.G.G.G.G.G.G.G.G.G.G.G.G.G.G.G.G.G.G.G.G.G.G.G.G.G.G.G.G.G.G.G.G.G.G.G.G.S.p.i.0XqXqXqXqXqXqXqXqXqXqXqXqXqXqXqXqXqXqXqXqXqXqXqXqXqXqXqXwXtXpXhXlXlXjXkXkXjXjXkXjXkXlXlXhXpXtXqX9XqXqXqXqX0Xi.a.S.G.G.G.G.F.F.F.G.G.G.G.G.G.G.G.G.G.G.G.G.G.G.G.G.G.G.G.G.G.G.G.G.G.G.G.G.G.G.G.G.G.G.G.G.G.G.G.G.G.G.G.G.G.,. .V n n n n n n n n n n m m c w ; X             9 cXCXGXGXGXGXFXGXGXGXGXGXGXGXGXGXGXGXGXGXGXGXGXGXGXGXGXGXGXGXGXGXGXGXGXGXGXGXGXGXGX",
"GXGXGXGXGXGXGXGXGXGXGXGXGXGXGXGXGXGXGXGXGXGXGXGXGXGXGXGXGXGXGXGXGXGXGXGXGXGXGXGXGXGXGXGXGXGXGXGXGXSXCXVXVXVXBXvX/ *             X @ ; < < < 2 n X.D.G.G.G.G.G.G.G.G.G.G.G.G.G.G.G.G.G.G.G.G.G.G.G.G.G.G.G.G.G.G.G.G.G.G.G.G.G.G.G.G.G.G.G.G.G.G.S.p.i.0XqXqXqXqXqXqXwXtXtXtXtXtXtXtXtXtXtXtXtXtXtXtXtXtXtXtXtXtXyXpXaXaXaXaXaXaXaXaXaXaXaXaXaXpXyXtXqX9XqXqXqXqX0Xu.p.>.+.@.+.+.+.+.@.A.F.G.G.G.G.G.G.G.G.G.G.G.G.G.G.G.G.G.G.G.G.G.G.G.G.G.G.G.G.G.G.G.G.G.G.G.G.G.G.G.G.G.G.G.G.,. .V n n n n n n n n n n m m n w ;               8 ] nXVXVXVXBXBXBXVXZXSXGXGXGXGXGXGXGXGXGXGXGXGXGXGXGXGXGXGXGXGXGXGXGXGXGXGXGXGXGXGX",
"GXGXGXGXGXGXGXGXGXGXGXGXGXGXGXGXGXGXGXGXGXGXGXGXGXGXGXGXGXGXGXGXGXGXGXGXGXGXGXGXGXGXGXGXGXGXGXGXFXVXbX[ ] ] ' / 8 &             O 2 c B B B V  .+.F.G.G.G.G.G.G.G.G.G.G.G.G.G.G.G.G.G.G.G.G.G.G.G.G.G.G.G.G.G.G.G.G.G.G.G.G.G.G.G.G.G.G.G.G.G.G.S.p.i.0XqXqXqXqX9XqXtXyXyXpXpXpXpXpXpXpXpXpXpXpXpXpXpXpXpXpXpXpXyXyXyXyXyXyXyXyXyXyXyXyXyXyXyXyXtXeXqXqXqXqXqXqX0Xu._ Z  . . . .|  ...+.D.G.G.G.G.G.G.G.G.G.G.G.G.G.G.G.G.G.G.G.G.G.G.G.G.G.G.G.G.G.G.G.G.G.G.G.G.G.G.G.G.G.G.G.G.,. .V n n n n n n n n n n m m n w ; X             - 9 ( ] ] ] ] ' ] [ nXZXGXGXGXGXGXGXGXGXGXGXGXGXGXGXGXGXGXGXGXGXGXGXGXGXGXGXGXGXGXGX",
"GXGXGXGXGXGXGXGXGXGXGXGXGXGXGXGXGXGXGXGXGXGXGXGXGXGXGXGXGXGXGXGXGXGXGXGXGXGXGXGXGXGXGXGXGXGXGXGXSXNX] 8 - - - * &               # e | +.,.,.,.A.D.G.G.G.G.G.G.G.G.G.G.G.G.G.G.G.G.G.G.G.G.G.G.G.G.G.G.G.G.G.G.G.G.G.G.G.G.G.G.G.G.G.G.G.G.G.G.G.S.p.i.0XqXqXqXqX9XqXtXyXaXjXjXhXhXhXhXhXhXhXhXhXhXhXhXhXhXhXjXhXpXyXtXwXwXeXeXeXeXeXeXeXeXeXeXeXwXqXqXqXqXqXqXqX0X! _ B V V V V B V C X.A.G.G.G.G.G.G.G.G.G.G.G.G.G.G.G.G.G.G.G.G.G.G.G.G.G.G.G.G.G.G.G.G.G.G.G.G.G.G.G.G.G.G.G.G.,. .V n n n n n n n n n n m m n w ; X               * - - - - - * - 9 [ VXGXGXGXGXGXGXGXGXGXGXGXGXGXGXGXGXGXGXGXGXGXGXGXGXGXGXGXGXGXGX",
"GXGXGXGXGXGXGXGXGXGXGXGXGXGXGXGXGXGXGXGXGXGXGXGXGXGXGXGXGXGXGXGXGXGXGXGXGXGXGXGXGXGXGXGXGXGXGXGXSXmX/ &                         # c O.G.R.R.G.G.G.G.G.G.G.G.G.G.G.G.G.G.G.G.G.G.G.G.G.G.G.G.G.G.G.G.G.G.G.G.G.G.G.G.G.G.G.G.G.G.G.G.G.G.G.G.G.G.S.p.i.0XqXqXqXqX9XqXtXpXjXzXzXlXlXlXlXlXlXlXlXlXlXlXlXlXlXlXzXjXaXyXwX9X9X9X9X9XqXqXqXqX9X9X9XqXqXqXqXqXqXqXqXqX0X! Q M n m n n n n V  .A.G.G.G.G.G.G.G.G.G.G.G.G.G.G.G.G.G.G.G.G.G.G.G.G.G.G.G.G.G.G.G.G.G.G.G.G.G.G.G.G.G.G.G.G.,. .V n n n n n n n n n n m m c w ; X                               - ' BXFXGXGXGXGXGXGXGXGXGXGXGXGXGXGXGXGXGXGXGXGXGXGXGXGXGXGXGXGXGX",
"GXGXGXGXGXGXGXGXGXGXGXGXGXGXGXGXGXGXGXGXGXGXGXGXGXGXGXGXGXGXGXGXGXGXGXGXGXGXGXGXGXGXGXGXGXGXGXGXSXmX^ &                         # c O.G.R.R.G.G.G.G.G.G.G.G.G.G.G.G.G.G.G.G.G.G.G.G.G.G.G.G.G.G.G.G.G.G.G.G.G.G.G.G.G.G.G.G.G.G.G.G.G.G.G.G.G.G.S.p.i.0XqXqXqXqX9XqXtXpXjXzXzXlXlXlXlXlXlXlXlXlXlXlXlXlXlXzXzXlXaXyXeX9X9X9X9X9X9X9X9X9X9X9X9X9XqXqXqXqXqXqXqXqX0X! Q M n n n n n n V  .,.G.G.G.G.G.G.G.G.G.G.G.G.G.G.G.G.G.G.G.G.G.G.G.G.G.G.G.G.G.G.G.G.G.G.G.G.G.G.G.G.G.G.G.G.,. .V n n n n n n n n n n m m c w ; X                               * ' BXGXGXGXGXGXGXGXGXGXGXGXGXGXGXGXGXGXGXGXGXGXGXGXGXGXGXGXGXGXGX",
"GXGXGXGXGXGXGXGXGXGXGXGXGXGXGXGXGXGXGXGXGXGXGXGXGXGXGXGXGXGXGXGXGXGXGXGXGXGXGXGXGXGXGXGXGXGXGXGXSXmX/ *                         # c X.F.R.G.G.G.G.G.G.G.G.G.G.G.G.G.G.G.G.G.G.G.G.G.G.G.G.G.G.G.G.G.G.G.G.G.G.G.G.G.G.G.G.G.G.G.G.G.G.G.G.G.G.G.S.p.i.0XqXqXqXqX9XqXtXpXhXlXlXlXlXlXlXlXlXlXlXlXlXlXlXlXlXlXzXjXaXyXeX9X9XqXqXqXqXqXqXqXqXqXqXqXqXqXqXqXqXqXqXqX0X! Q M n n n n n n V  .A.G.G.G.G.G.G.G.G.G.G.G.G.G.G.G.G.G.G.G.G.G.G.G.G.G.G.G.G.G.G.G.G.G.G.G.G.G.G.G.G.G.G.G.G.,. .V n n n n n n n n n n m m c w ; X                               - ] BXGXGXGXGXGXGXGXGXGXGXGXGXGXGXGXGXGXGXGXGXGXGXGXGXGXGXGXGXGXGX",
"GXGXGXGXGXGXGXGXGXGXGXGXGXGXGXGXGXGXGXGXGXGXGXGXGXGXGXGXGXGXGXGXGXGXGXGXGXGXGXGXGXGXGXGXGXGXGXGXSXmX/ *                         # c X.F.R.G.G.G.G.G.G.G.G.G.G.G.G.G.G.G.G.G.G.G.G.G.G.G.G.G.G.G.G.G.G.G.G.G.G.G.G.G.G.G.G.G.G.G.G.G.G.G.G.G.G.G.S.p.i.0XqXqXqXqX9XqXtXpXhXlXlXlXlXlXlXlXlXlXlXlXlXlXlXlXlXlXzXjXaXyXwX9X9XqXqXqXqXqXqXqXqXqXqXqXqXqXqXqXqXqXqXqX0X! _ M m m n n n n V  .A.G.G.G.G.G.G.G.G.G.G.G.G.G.G.G.G.G.G.G.G.G.G.G.G.G.G.G.G.G.G.G.G.G.G.G.G.G.G.G.G.G.G.G.G.,. .V n n n n n n n n n n m m c w ;                                 - ] BXGXGXGXGXGXGXGXGXGXGXGXGXGXGXGXGXGXGXGXGXGXGXGXGXGXGXGXGXGXGX",
"GXGXGXGXGXGXGXGXGXGXGXGXGXGXGXGXGXGXGXGXGXGXGXGXGXGXGXGXGXGXGXGXGXGXGXGXGXGXGXGXGXGXGXGXGXGXGXGXSXmX/ *                         # c X.F.R.G.G.G.G.G.G.G.G.G.G.G.G.G.H.H.H.H.H.H.H.H.H.H.H.H.H.H.H.H.H.H.H.H.H.H.H.H.G.G.G.G.G.G.G.G.G.G.G.G.G.G.S.p.i.qXqXqXqXqX9XqXtXpXhXlXlXlXlXlXlXlXlXlXlXlXlXlXlXlXlXxXzXlXaXyXwX9X9XqXqXqXqXqXqXqXqXqXqXqXqXqXqXqXqXqXeXeX9X! Q M m m n n n n V ..A.G.G.G.G.G.G.G.G.G.G.G.G.G.G.G.G.G.G.G.G.G.G.G.G.G.G.G.G.G.G.G.G.G.G.G.G.G.G.G.G.G.G.G.G.,. .V n n n n n n n n n n m m c w ;                                 - ] BXGXGXGXGXGXGXGXGXGXGXGXGXGXGXGXGXGXGXGXGXGXGXGXGXGXGXGXGXGXGX",
"GXGXGXGXGXGXGXGXGXGXGXGXGXGXGXGXGXGXGXGXGXGXGXGXGXGXGXGXGXGXGXGXGXGXGXGXGXGXGXGXGXGXGXGXGXGXGXGXSXmX/ *                         # c X.F.R.G.G.G.G.G.G.G.G.G.G.G.G.G.G.G.G.G.G.G.G.G.G.G.G.G.G.G.G.G.G.G.G.G.G.G.G.G.G.G.G.G.G.G.G.G.G.G.G.G.G.G.S.p.i.0XqXqXqXqX9XqXtXpXhXlXzXlXlXlXlXlXlXlXlXlXlXlXlXlXlXlXzXjXaXyXwX9X9XqXqXqXqXqXqXqXqXqXqXqXqXqXqXqXqXqXqXqX0X! _ M n m n n n n V ..A.G.G.G.G.G.G.G.G.G.G.G.G.G.G.G.G.G.G.G.G.G.G.G.G.G.G.G.G.G.G.G.G.G.G.G.G.G.G.G.G.G.G.G.G.,. .V n n n n n n n n n n m m n w ;                                 - ] BXGXGXGXGXGXGXGXGXGXGXGXGXGXGXGXGXGXGXGXGXGXGXGXGXGXGXGXGXGXGX",
"GXGXGXGXGXGXGXGXGXGXGXGXGXGXGXGXGXGXGXGXGXGXGXGXGXGXGXGXGXGXGXGXGXGXGXGXGXGXGXGXGXGXGXGXGXGXGXGXSXmX/ *                         # c X.F.R.G.G.G.G.G.G.G.G.G.G.G.K.K.T.T.T.T.T.T.T.T.T.T.T.T.T.T.T.T.T.T.T.T.T.T.T.T.K.G.G.G.G.G.G.G.G.G.G.G.G.G.S.Z.i.u.0X0XrXu.u.0XrXpXhXlXzXlXlXlXlXlXlXlXlXlXlXkXjXhXhXhXhXhXpXtXwX9X9XqXqXqXqXqXqXqXqXqXqXqX0Xy.y.y.y.y.y.y.u.! _ M m m n n n n V ..A.G.G.G.G.G.G.G.G.G.G.G.G.G.G.G.G.G.G.G.F.S.S.S.S.S.S.Z.Z.S.S.F.G.G.G.G.G.G.G.G.G.G.G.G.G.,. .V n n n n n n n n n n m m n e < @ . . O O O O . X               - ] BXFXGXGXGXGXGXGXGXGXGXGXGXGXGXGXGXGXGXGXGXGXGXGXGXGXGXGXGXGXGX",
"GXGXGXGXGXGXGXGXGXGXGXGXGXGXGXGXGXGXGXGXGXGXGXGXGXGXGXGXGXGXGXGXGXGXGXGXGXGXGXGXGXGXGXGXGXGXGXGXSXmX/ *                         # c X.F.R.G.G.G.G.G.G.G.G.G.G.G.T.x.c.c.c.c.c.c.c.c.c.c.c.c.c.c.c.c.c.c.c.c.c.c.c.x.T.K.G.G.G.G.G.G.G.G.G.G.G.G.H.P.p.p.i.i.p.p.p.p.uXfXhXlXzXlXlXlXlXlXlXlXlXlXlXjXhXpXpXyXyXyXyXtXwXqXqXqXqXqXqXqXqXqXqXqXqX0Xu.! Q Q Q Q Q Q Q Q b m n n n n n n V ..A.G.G.G.G.G.G.G.G.G.G.G.G.G.G.G.G.G.G.G.S.Z.r.r.r.r.r.r.r.r.Z.S.G.G.G.G.G.G.G.G.G.G.G.G.G.,. .V n n n n n n n n n n n m n r w 2 < < < 2 2 < ; @ X             - ] BXGXGXGXGXGXGXGXGXGXGXGXGXGXGXGXGXGXGXGXGXGXGXGXGXGXGXGXGXGXGX",
"GXGXGXGXGXGXGXGXGXGXGXGXGXGXGXGXGXGXGXGXGXGXGXGXGXGXGXGXGXGXGXGXGXGXGXGXGXGXGXGXGXGXGXGXGXGXGXGXSXmX/ *                         # c X.F.R.G.G.G.G.G.G.G.G.G.H.G.x.c.V.V.V.V.V.V.V.V.V.V.V.V.V.V.V.V.V.V.V.V.V.V.V.B.x.K.G.H.G.G.G.G.G.G.G.G.G.G.H.S.P.P.Z.Z.Z.P.P.Z.a.sXaXlXzXlXlXlXlXlXlXlXlXlXlXjXaXyXtXtXtXtXtXwXqXqXqXqXqXqXqXqXqXqXqXqXqX0X! Q b b b b b b b b M m n n n n n n V ..A.G.G.G.G.G.G.G.G.G.G.G.G.G.G.G.G.G.G.G.Z.r.t.q.q.q.q.q.q.t.r.Z.F.G.G.G.G.G.G.G.G.G.G.G.G.,. .V n n n n n n n n n n n n n n c r r r r r r e 2 ; .             - ] BXGXGXGXGXGXGXGXGXGXGXGXGXGXGXGXGXGXGXGXGXGXGXGXGXGXGXGXGXGXGX",
"GXGXGXGXGXGXGXGXGXGXGXGXGXGXGXGXGXGXGXGXGXGXGXGXGXGXGXGXGXGXGXGXGXGXGXGXGXGXGXGXGXGXGXGXGXGXGXGXSXmX/ *                         # c X.F.R.G.G.G.G.G.G.G.G.G.H.G.x.B.V.m.M.m.m.m.m.m.m.m.m.m.m.m.m.m.m.m.m.m.m.M.m.V.c.T.G.H.G.G.G.G.G.G.G.G.G.G.G.G.G.H.F.H.H.G.G.H.U.dXaXlXzXlXlXlXlXlXlXlXlXlXlXjXpXtXwX9XqXqXqXqXqXqXqXqXqXqXqXqXqXqXqXqXqXy.! _ m m n m m m n n n n n n n n n n V  .A.G.G.G.G.G.G.G.G.G.G.G.G.G.G.G.G.G.R.G.Z.e.q.9.9.9.9.9.9.w.e.Z.F.G.G.G.G.G.G.G.G.G.G.G.F.,. .V n n n n n n n n n n n n n n n n n n n n m n e < .             - ] VXGXGXGXGXGXGXGXGXGXGXGXGXGXGXGXGXGXGXGXGXGXGXGXGXGXGXGXGXGXGX",
"GXGXGXGXGXGXGXGXGXGXGXGXGXGXGXGXGXGXGXGXGXGXGXGXGXGXGXGXGXGXGXGXGXGXGXGXGXGXGXGXGXGXGXGXGXGXGXGXFXNX/ *                         @ r X.F.R.G.G.G.G.G.G.G.G.G.H.G.x.B.C.N.N.N.N.N.N.N.N.N.N.N.N.N.N.N.N.N.N.N.N.N.M.V.c.T.G.H.G.G.G.G.G.G.G.G.G.G.G.G.G.G.Y.G.G.Y.Y.G.U.dXgXlXzXlXlXlXlXlXlXlXlXlXlXhXpXtXqX9X9X9X9X9XqXqXqXqXqXqXqXqXqXqXqXqXqXy.Q b n m m m m m m n n n n n n n n n V  .A.G.G.G.G.G.G.G.G.G.G.G.G.G.G.G.G.R.R.G.Z.e.w.8.8.8.8.8.8.w.t.Z.F.G.G.G.G.G.G.G.G.G.G.G.F.+. .V n n n n n n n n n n n n n n m m m m m m B m r 2 O             - ] VXGXGXGXGXGXGXGXGXGXGXGXGXGXGXGXGXGXGXGXGXGXGXGXGXGXGXGXGXGXGX",
"GXGXGXGXGXGXGXGXGXGXGXGXGXGXGXGXGXGXGXGXGXGXGXGXGXGXGXGXGXGXGXGXGXGXGXGXGXGXGXGXGXGXGXGXGXGXGXGXFXmX/ *                         # r X.F.R.G.G.G.G.G.G.G.G.G.G.G.x.B.C.N.N.M.M.M.M.M.M.M.M.M.N.N.M.M.M.M.M.M.N.N.m.V.c.T.G.H.G.G.G.G.G.G.G.G.G.G.G.G.G.G.G.G.G.G.Y.H.U.dXgXlXzXlXlXlXlXlXlXlXlXlXlXhXpXtXqX9X9X9X9X9XqXqXqXqXqXqXqXqXqXqXqXqXqXy.Q b n m m n n n n n n n n n n n n n V  .A.G.G.G.G.G.G.G.G.G.G.G.G.G.G.G.G.R.R.G.Z.e.w.9.8.9.9.8.8.w.t.Z.F.G.G.G.G.G.G.G.G.G.G.G.F.+. .V n n n n n n n n n n n n n n n n m m n m B n r 2 O             - ] VXGXGXGXGXGXGXGXGXGXGXGXGXGXGXGXGXGXGXGXGXGXGXGXGXGXGXGXGXGXGX",
"GXGXGXGXGXGXGXGXGXGXGXGXGXGXGXGXGXGXGXGXGXGXGXGXGXGXGXGXGXGXGXGXGXGXGXGXGXGXGXGXFXSXSXAXSXSXSXSXZXbX^ *         . . O O O O . O < c O.F.L.G.G.G.G.G.G.G.G.G.H.G.x.B.C.M.N.m.m.m.m.m.m.m.m.m.m.M.m.m.m.m.m.m.M.N.m.V.c.T.G.H.G.G.G.G.G.G.G.G.G.G.G.G.G.G.G.G.G.G.G.H.U.dXgXlXzXlXlXlXlXlXlXlXlXlXlXjXpXyXtXwXwXwXwXqXqXqXqXqXqXqXqXqXqXqXqXqXqXy.Q b m m m n n n n m m B B B B B m B C X.A.G.G.G.G.G.G.G.G.G.G.G.G.G.F.F.S.S.S.S.Z.e.w.9.8.9.9.8.9.w.e.Z.F.G.G.G.G.G.G.G.G.G.G.G.F.,. .C B m B B B B B B B B B B B B m n n n n n m n r < O             - ' mXAXFXSXSXFXFXGXGXGXGXGXGXGXGXGXGXGXGXGXGXGXGXGXGXGXGXGXGXGXGX",
"GXGXGXGXGXGXGXGXGXGXGXGXGXGXGXGXGXGXGXGXGXGXGXGXGXGXGXGXGXGXGXGXGXGXGXGXGXGXGXFXCXNXnXbXbXnXnXnXvX] 9 &       O > 2 w e w w w w c C +.F.G.G.G.G.G.G.G.G.G.G.H.G.x.B.C.M.N.m.m.m.m.m.m.m.m.m.m.m.m.m.m.m.m.m.M.N.m.V.c.T.G.H.G.G.G.G.G.G.G.G.G.G.G.G.G.G.G.G.G.G.G.H.U.dXgXlXzXlXlXlXlXlXlXlXlXlXlXjXaXyXyXyXyXyXtXtXqXqXqXqXqXqXqXqXqXqXqXqXqXy.! b m m n n n n n B C | | | | | | |  .O.D.G.G.G.G.G.G.G.G.G.G.G.G.F.S.Z.Z.r.r.r.e.t.w.9.9.9.9.8.9.w.e.Z.F.G.G.G.G.G.G.G.G.G.G.G.G.A.O. .| | | | | | | | | | | | | C V m n n n n m n r < O             * ~ [ bXnXnXnXBXAXGXGXGXGXGXGXGXGXGXGXGXGXGXGXGXGXGXGXGXGXGXGXGXGX",
"GXGXGXGXGXGXGXGXGXGXGXGXGXGXGXGXGXGXGXGXGXGXGXGXGXGXGXGXGXGXGXGXGXGXGXGXGXGXGXAXmX[ ^ ~ ^ ^ ^ ^ ~ 9 -         ; e V |  .| | | |  .O.A.G.G.G.G.G.G.G.G.G.G.G.H.G.x.B.C.M.N.m.m.m.m.m.m.m.m.m.m.m.m.m.m.m.m.m.M.N.m.V.c.T.G.H.G.G.G.G.G.G.G.G.G.G.G.G.G.G.G.G.G.G.G.H.U.dXgXlXzXlXlXlXlXlXlXlXlXlXlXjXhXaXaXaXaXpXyXtXeX9X9XqXqXqXqXqXqXqXqXqXqXy.! b m m n n n n m V  .O.+.+.+.+.+.+.+.A.F.G.G.G.G.G.G.G.G.G.G.G.G.F.Z.r.t.t.t.t.q.w.0.9.9.9.9.8.9.w.e.Z.F.R.G.G.G.G.G.G.G.G.G.G.G.D.A.+.+.+.+.+.+.+.+.+.+.+.+.+.O. .C m n n n n m n r < O             & - 9 ^ ^ ~ / cXVXFXGXGXGXGXGXGXGXGXGXGXGXGXGXGXGXGXGXGXGXGXGXGXGX",
"GXGXGXGXGXGXGXGXGXGXGXGXGXGXGXGXGXGXGXGXGXGXGXGXGXGXGXGXGXGXGXGXGXGXGXGXGXGXGXZXvX~ *   & & & & & &           < m O.F.F.D.D.D.D.D.F.F.G.G.G.G.G.G.G.G.G.G.G.H.G.x.B.C.M.N.M.m.m.m.m.m.m.m.m.m.m.m.m.m.m.m.m.M.N.m.V.c.T.H.H.G.G.G.G.G.G.G.G.G.G.G.G.G.G.G.G.G.G.G.H.U.dXgXlXzXlXlXlXlXlXlXlXlXlXlXlXjXjXjXjXlXjXpXyXeX9X9XqXqXqXqXqXqXqXqXqXqXy.! b m m n n n n m C O.A.F.G.F.F.F.F.F.F.G.G.G.G.G.G.G.G.G.G.G.G.G.F.Z.t.w.9.9.0.0.0.9.9.9.9.9.8.9.w.e.Z.F.G.G.G.G.G.G.G.G.G.G.G.G.G.G.F.F.F.F.F.F.F.F.F.F.F.G.G.D.O.| B n n n n m n r < O                 & &     - ( mXSXGXGXGXGXGXGXGXGXGXGXGXGXGXGXGXGXGXGXGXGXGXGXGX",
"GXGXGXGXGXGXGXGXGXGXGXGXGXGXGXGXGXGXGXGXGXGXGXGXGXGXGXGXGXGXGXGXGXGXGXGXGXGXGXZXcX9                           2 V ,.R.R.R.L.R.R.G.G.G.G.G.G.G.G.G.G.G.G.G.G.H.G.x.B.C.M.N.m.m.m.m.m.m.m.m.m.m.m.m.m.m.m.m.m.M.N.m.V.c.T.H.H.G.G.G.G.G.G.G.G.G.G.G.G.G.G.G.G.G.G.G.H.U.dXgXlXzXlXlXlXlXlXlXlXlXlXlXlXlXlXlXzXzXlXaXyXwX9X9XqXqXqXqXqXqXqXqXqXqXy.! b m m n n n n m C O.D.G.G.G.G.G.G.G.G.G.G.G.G.G.G.G.G.G.G.G.G.G.F.Z.t.0.8.8.8.9.9.9.9.9.9.9.8.9.w.e.Z.F.G.G.G.G.G.G.G.G.G.G.G.G.G.G.G.G.G.G.G.G.G.G.G.G.G.G.G.F.+.| B n n n m m n r < O                         & ^ mXSXGXGXGXGXGXGXGXGXGXGXGXGXGXGXGXGXGXGXGXGXGXGXGX",
"GXGXGXGXGXGXGXGXGXGXGXGXGXGXGXGXGXGXGXGXGXGXGXGXGXGXGXGXGXGXGXGXGXGXGXGXGXGXGXZXvX9                           2 V ,.R.R.G.G.G.G.G.G.G.G.G.G.G.G.G.G.G.G.G.G.H.G.x.B.C.M.N.m.M.M.m.m.m.m.m.m.m.m.m.m.m.m.m.m.M.N.m.V.c.T.H.H.G.G.G.G.G.G.G.G.G.G.G.G.G.G.G.G.G.G.G.H.U.dXaXlXzXlXlXlXlXlXlXlXlXlXlXlXlXlXlXzXzXkXaXyXwX9X9XqXqXqXqXqXqXqXqXqXqXy.! b n m n n n n m C O.D.G.G.G.G.G.G.G.G.G.G.G.G.G.G.G.G.G.G.G.G.G.F.Z.t.0.8.8.9.9.9.9.9.9.9.9.8.9.w.e.Z.F.G.G.G.G.G.G.G.G.G.G.G.G.G.G.G.G.G.G.G.G.G.G.G.G.G.G.G.F.O.| B n n n m m n r < O                         & / mXSXGXGXGXGXGXGXGXGXGXGXGXGXGXGXGXGXGXGXGXGXGXGXGX",
"GXGXGXGXGXGXGXGXGXGXGXGXGXGXGXGXGXGXGXGXGXGXGXGXGXGXGXGXGXGXGXGXGXGXGXGXGXGXGXZXvX9                           < B +.G.L.G.G.G.G.G.G.G.G.G.G.G.G.G.G.G.G.G.G.H.G.x.B.C.M.N.M.m.M.m.m.m.m.m.m.m.m.m.m.m.m.m.m.M.N.m.V.c.T.H.H.G.G.G.G.G.G.G.G.G.G.G.G.G.G.G.G.G.G.G.H.U.dXaXzXzXlXlXlXlXlXlXlXlXlXlXlXlXlXlXlXlXjXaXyXwX9X9XqXqXqXqXqXqXqXqXqXqXy.! _ m m m n n n m C O.D.G.G.G.G.G.G.G.G.G.G.G.G.G.G.G.G.G.G.G.G.G.F.Z.t.w.9.8.9.9.9.9.9.9.9.9.8.9.w.e.Z.F.G.G.G.G.G.G.G.G.G.G.G.G.G.G.G.G.G.G.G.G.G.G.G.G.G.G.G.D.O.| B n n n m m n r < O                         * / mXSXGXGXGXGXGXGXGXGXGXGXGXGXGXGXGXGXGXGXGXGXGXGXGX",
"GXGXGXGXGXGXGXGXGXGXGXGXGXGXGXGXGXGXGXGXGXGXGXGXGXGXGXGXGXGXGXGXGXGXGXGXGXGXGXZXvX9                           < B +.G.R.G.G.G.G.G.G.G.G.G.G.G.G.G.G.G.G.G.G.H.G.x.B.C.N.N.M.N.N.M.M.M.M.m.m.m.m.m.m.m.m.m.m.M.N.m.V.c.K.H.H.H.G.G.G.G.G.G.G.G.G.G.G.G.G.G.G.G.G.G.H.U.dXgXzXzXlXlXlXlXlXlXlXlXlXlXlXlXlXlXlXlXjXaXyXwX9X9XqXqXqXqXqXqXqXqXeXqXy.! b m m n n n n B C O.D.G.G.G.G.G.G.G.G.G.G.G.G.G.G.G.G.G.G.G.G.G.F.Z.t.w.9.8.9.9.9.9.9.9.9.9.8.9.w.e.Z.F.R.Y.G.G.G.G.G.G.G.G.G.G.G.G.G.G.G.G.G.G.G.G.G.G.G.G.G.D.O.| B n n n n m n r < .                         * / mXSXGXGXGXGXGXGXGXGXGXGXGXGXGXGXGXGXGXGXGXGXGXGXGX",
"GXGXGXGXGXGXGXGXGXGXGXGXGXGXGXGXGXGXGXGXGXGXGXGXGXGXGXGXGXGXGXGXGXGXGXGXGXGXGXZXvX9                           < B +.G.R.G.G.G.G.G.G.G.G.G.G.G.G.G.G.G.G.G.H.H.G.x.B.C.N.N.N.N.N.N.N.M.M.m.m.m.m.m.m.m.m.m.m.M.N.m.V.c.K.H.H.H.H.G.G.G.G.G.G.G.G.G.G.G.G.G.G.G.G.G.H.U.dXgXzXzXlXlXlXlXlXlXlXlXlXlXlXlXlXlXlXlXjXaXyXwX9X9XqXqXqXqXqXqXqXqXeXeX0X! _ m m n n n n m C O.D.G.G.G.G.G.G.G.G.G.G.G.G.G.G.G.G.G.G.G.G.G.F.Z.t.w.9.8.9.9.9.9.9.9.9.9.8.9.w.e.Z.G.R.R.G.R.R.G.G.G.G.G.G.G.G.G.R.G.G.G.G.G.G.G.G.G.G.G.G.D.O.| B n n n n m n r < .                         * / mXSXGXGXGXGXGXGXGXGXGXGXGXGXGXGXGXGXGXGXGXGXGXGXGX",
"GXGXGXGXGXGXGXGXGXGXGXGXGXGXGXGXGXGXGXGXGXGXGXGXGXGXGXGXGXGXGXGXGXGXGXGXGXGXGXZXvX9                         . 2 B +.G.G.G.G.G.G.G.G.G.G.G.G.G.G.G.G.G.G.G.G.H.G.x.B.V.m.m.m.m.m.m.m.m.m.m.m.m.m.m.m.m.m.m.m.M.N.m.V.c.T.G.G.G.G.G.G.G.G.G.G.G.G.G.G.G.G.G.G.G.G.G.H.U.dXgXzXzXlXlXlXlXlXlXlXlXlXlXlXlXlXlXlXlXjXaXyXeX9X9XqXqXqXqX9X0X0X9XqXqXy.Q b m m n n n n m C O.D.G.G.G.G.G.G.G.G.G.G.G.G.G.G.G.G.G.G.G.G.G.F.Z.t.w.8.8.9.9.9.9.9.9.9.9.8.9.w.t.Z.S.G.G.F.F.F.F.F.F.F.F.F.F.F.F.F.F.F.F.F.F.F.F.F.G.G.G.G.D.O.| B n n n m m n r 2 O                         * / mXSXGXGXGXGXGXGXGXGXGXGXGXGXGXGXGXGXGXGXGXGXGXGXGX",
"GXGXGXGXGXGXGXGXGXGXGXGXGXGXGXGXGXGXGXGXGXGXGXGXGXGXGXGXGXGXGXGXGXGXGXGXGXGXGXZXvX9               O ; < < < 2 r | ,.G.G.G.G.G.G.G.G.G.G.G.G.G.G.G.G.G.G.G.G.G.G.T.c.v.b.b.b.b.b.b.b.n.C.m.M.m.m.m.m.m.m.m.m.M.N.m.V.B.x.x.x.x.x.T.K.G.G.G.G.G.G.G.G.G.G.G.G.G.G.G.H.U.dXgXlXzXlXlXlXlXlXlXlXlXlXlXlXlXlXlXlXlXjXaXyXwX9X9XqXqXqXqX0Xy.! ! ! ! ! Q b m m n n n n m C O.D.G.G.G.G.G.G.G.G.G.G.G.G.G.G.G.G.G.G.G.G.G.F.Z.t.w.8.8.9.9.9.9.9.9.9.9.9.9.w.t.r.Z.Z.Z.Z.Z.Z.Z.Z.Z.Z.Z.Z.Z.Z.Z.Z.Z.Z.Z.Z.Z.Z.Z.S.F.G.G.G.D.O.| B n n n m m n c 2 ; # # # # # # @ O X       * / mXSXGXGXGXGXGXGXGXGXGXGXGXGXGXGXGXGXGXGXGXGXGXGXGX",
"GXGXGXGXGXGXGXGXGXGXGXGXGXGXGXGXGXGXGXGXGXGXGXGXGXGXGXGXGXGXGXGXGXGXGXGXGXGXGXZXvX9             X ; e m B B B | O.D.G.G.G.G.G.G.G.G.G.G.G.G.G.G.G.G.G.G.G.G.G.G.l.z.j.j.j.j.j.j.j.v.v.n.m.M.M.m.m.m.m.m.m.m.M.M.m.C.V.B.B.B.B.c.x.K.G.H.G.G.G.G.G.G.G.G.G.G.G.G.G.H.U.dXgXlXzXlXlXlXlXlXlXlXlXlXlXlXlXlXlXlXlXjXaXyXeX9X9XqXqXqXqX0X! Q Q Q Q _ b b n n n n n n B C O.D.G.G.G.G.G.G.G.G.G.G.G.G.G.G.G.G.G.G.G.G.G.F.Z.t.w.8.8.9.9.9.9.9.9.9.9.9.9.0.q.t.t.e.e.e.e.e.e.e.e.e.e.e.e.e.e.e.e.e.e.e.t.t.e.Z.S.G.G.G.D.O.| B n n n n m n c r w 2 2 2 2 2 2 2 ; O       * / mXSXGXGXGXGXGXGXGXGXGXGXGXGXGXGXGXGXGXGXGXGXGXGXGX",
"GXGXGXGXGXGXGXGXGXGXGXGXGXGXGXGXGXGXGXGXGXGXGXGXGXGXGXGXGXGXGXGXGXGXGXGXGXGXGXZXvX9             . 2 B O.,.,.,.,.D.F.G.G.G.G.G.G.G.G.G.G.G.G.G.G.G.G.G.G.G.G.G.G.l.l.h.h.h.h.h.h.h.j.v.b.m.N.M.m.m.m.m.m.m.m.m.m.m.m.C.C.C.C.C.V.c.T.G.H.G.G.G.G.G.G.G.G.G.G.G.G.G.H.U.dXgXzXzXlXlXlXlXlXlXlXlXlXlXlXlXlXlXlXlXjXaXyXeX9X9XqXqXqXqXy.Q _ b M b b M m n n n n n n B C O.D.G.G.G.G.G.G.G.G.G.G.G.G.G.G.G.G.G.G.G.G.G.F.Z.t.w.9.8.9.9.9.9.9.9.9.9.9.9.9.0.w.w.w.w.w.w.w.w.w.w.w.w.w.w.w.w.w.w.w.w.w.w.w.q.e.Z.F.R.R.D.O.| B n n n n n n n n c c c c c c c r 2 #       * / mXSXGXGXGXGXGXGXGXGXGXGXGXGXGXGXGXGXGXGXGXGXGXGXGX",
"GXGXGXGXGXGXGXGXGXGXGXGXGXGXGXGXGXGXGXGXGXGXGXGXGXGXGXGXGXGXGXGXGXGXGXGXGXGXGXZXvX9             . w Z D.R.R.G.G.G.G.G.G.G.G.G.G.G.G.G.G.G.G.G.G.G.G.G.G.G.G.G.F.l.k.d.f.f.f.f.f.f.h.j.b.m.N.M.m.m.m.m.m.m.m.m.m.m.M.M.N.N.N.M.V.B.T.G.H.G.G.G.G.G.G.G.G.G.G.G.G.G.H.U.dXgXzXzXlXlXlXlXlXlXlXlXlXlXlXlXlXlXlXlXjXaXyXeXqX9XqXqXqXqXu.Q b m m m m n n n n n n n n B C O.D.G.G.G.G.G.G.G.G.G.G.G.G.G.G.G.G.G.G.G.G.G.F.Z.t.w.9.9.9.9.9.9.9.9.9.9.9.9.9.9.9.9.9.9.9.9.9.9.9.9.9.9.9.8.8.8.9.9.9.9.9.8.8.w.e.Z.F.R.R.D.O.| B n n n n n n n n m m m m m B m c 2 #       * / mXSXGXGXGXGXGXGXGXGXGXGXGXGXGXGXGXGXGXGXGXGXGXGXGX",
"GXGXGXGXGXGXGXGXGXGXGXGXGXGXGXGXGXGXGXGXGXGXGXGXGXGXGXGXGXGXGXGXGXGXGXGXGXGXGXAXvX9             . w | D.R.R.L.G.G.G.G.G.G.G.G.G.G.G.G.G.G.G.G.G.G.H.H.H.H.H.H.D.l.k.d.f.f.f.f.f.f.h.j.b.m.N.M.m.m.m.m.m.m.m.m.m.m.M.N.N.N.N.N.V.B.T.G.H.G.G.G.G.G.G.G.G.G.G.G.G.G.H.U.sXkXzXzXzXzXzXzXzXzXzXzXzXzXzXzXlXlXlXlXjXaXyXwXqX9XqXqXqXqX! Q b m m m m m n n n n n n n B | O.F.G.G.G.G.G.G.G.G.G.G.G.G.G.G.G.G.G.G.G.G.G.F.Z.t.w.9.9.9.9.9.8.8.8.8.8.8.8.8.8.9.8.8.9.9.8.8.8.8.8.8.8.8.8.8.8.8.8.8.8.8.8.8.w.e.Z.G.Y.R.G.+.| B n n n n n n n m m m m m m B B c 2 #       * / mXSXGXGXGXGXGXGXGXGXGXGXGXGXGXGXGXGXGXGXGXGXGXGXGX",
"GXGXGXGXGXGXGXGXGXGXGXGXGXGXGXGXGXGXGXGXGXGXGXGXGXGXGXGXGXGXGXGXGXGXGXGXGXGXGXZXvX9             . 2 C A.R.L.G.G.G.G.G.G.G.G.G.G.G.G.G.G.G.G.G.G.G.G.G.G.G.G.G.G.l.k.d.f.f.g.g.f.f.h.j.b.m.N.M.m.m.m.m.m.m.m.m.m.m.m.M.M.M.N.M.V.B.T.G.H.G.G.G.G.G.G.G.G.G.G.G.G.G.H.U.dXgXlXzXlXlXlXlXlXlXlXlXlXlXlXlXlXlXlXlXjXaXyXwXqX9XqXqXqX9X! Q b n m m n n n n n n n n n m C O.D.G.G.G.G.G.G.G.G.G.G.G.G.G.G.G.G.G.G.G.G.G.F.Z.t.w.9.9.9.9.9.9.9.9.9.9.9.9.9.9.9.9.9.9.9.9.9.9.9.9.9.9.9.9.9.9.9.9.9.9.9.8.9.w.t.Z.F.R.G.D.O.| B n n n n n n n n n n n n m m m c 2 #       * / mXSXGXGXGXGXGXGXGXGXGXGXGXGXGXGXGXGXGXGXGXGXGXGXGX",
"GXGXGXGXGXGXGXGXGXGXGXGXGXGXGXGXGXGXGXGXGXGXGXGXGXGXGXGXGXGXFXAXCXCXCXCXCXZXCXNX[ 8             . 2 C A.G.G.G.G.G.G.G.G.G.G.G.G.G.G.G.G.G.G.G.K.T.T.T.T.T.T.T.T.l.k.d.g.f.g.g.f.g.h.j.b.m.N.M.m.m.m.m.m.m.m.m.m.m.m.M.m.M.N.m.V.B.T.G.H.G.G.G.G.G.G.G.G.G.G.G.G.G.H.I.iXfXgXgXgXgXgXgXgXgXgXgXgXgXgXaXkXlXlXlXjXaXyXwX9X9XqXqXqX9Xy.Q _ b b b b b M n n n n n n m C ..+.A.A.A.A.,.A.A.D.F.G.G.G.G.G.G.G.G.G.G.G.G.F.Z.t.w.9.9.9.9.7.7.7.7.7.7.7.7.7.7.9.9.9.9.9.9.9.9.9.7.7.7.7.7.7.7.7.7.7.7.7.7.7.w.t.r.Z.S.Z.Z.o.C B n n n n n n n n n n n n n m m c 2 #       * / mXSXGXGXGXGXGXGXGXGXGXGXGXGXGXGXGXGXGXGXGXGXGXGXGX",
"GXGXGXGXGXGXGXGXGXGXGXGXGXGXGXGXGXGXGXGXGXGXGXGXGXGXGXGXGXGXZXNXvX[ [ cXcXcXcX] ~ -             . 2 C A.L.G.G.G.G.G.G.G.G.G.G.G.G.G.G.G.G.G.K.T.x.c.B.B.B.B.B.c.c.j.h.f.f.g.g.f.g.h.j.b.m.M.M.m.m.m.m.m.m.m.m.m.m.m.m.m.M.N.m.V.B.T.G.H.G.G.G.G.G.G.G.G.G.G.G.G.G.G.P.U.iXiXiXiXiXiXiXiXiXiXiXiXiXiXfXgXkXzXzXjXaXyXwX9X9XqXqXqXqX0X! ! Q Q Q Q _ b n n n n n n m V |  ....... . ...O.+.D.G.G.G.G.G.G.G.G.G.G.G.G.F.Z.t.w.9.8.9.7.7.5.5.5.5.5.z 5.5.5.7.9.9.9.9.9.9.9.7.5.5.5.5.5.5.5.5.5.5.5.5.5.5.5.6.t.e.r.r.e.r.A n n n n n n n n n n n n n n m m c 2 #       * / mXSXGXGXGXGXGXGXGXGXGXGXGXGXGXGXGXGXGXGXGXGXGXGXGX",
"GXGXGXGXGXGXGXGXGXGXGXGXGXGXGXGXGXGXGXGXGXGXGXGXGXGXGXGXGXGXVXcX~ 8 8 8 8 8 8 7 - &             . 2 C A.R.G.G.G.G.G.G.G.G.G.G.G.G.G.G.G.H.G.K.x.B.V.V.V.V.V.C.V.v.j.h.f.f.g.g.f.g.h.j.b.m.M.M.M.m.m.m.m.m.m.m.m.m.m.m.m.M.N.m.V.B.T.G.H.G.G.G.G.G.G.G.G.G.G.G.G.G.G.H.P.I.I.I.I.I.I.I.I.I.I.I.I.I.U.iXfXkXzXzXjXaXyXwX9X9XqXqXqXqX0X0Xy.y.y.y.! Q b m m n n n n n m V V V V V V V V | O.A.G.G.G.G.G.G.G.G.G.G.G.G.F.Z.t.w.8.8.9.7.5.l k k k k g k l 5.7.9.8.9.9.9.9.9.7.5.l k k k k k k k k k k k k l 5.6.q.q.q.q.6.A n m m n n n n n n n n n n n m m c 2 #       * / mXSXGXGXGXGXGXGXGXGXGXGXGXGXGXGXGXGXGXGXGXGXGXGXGX",
"GXGXGXGXGXGXGXGXGXGXGXGXGXGXGXGXGXGXGXGXGXGXGXGXGXGXGXGXGXGXBX] -                               . 2 C A.L.G.G.G.G.G.G.G.G.G.G.G.G.G.G.G.H.H.K.c.V.C.N.M.m.N.N.m.b.j.h.f.f.g.g.f.g.h.v.b.m.N.N.M.m.m.m.m.m.m.m.m.m.m.m.m.M.N.m.V.B.T.G.H.G.G.G.G.G.G.G.G.G.G.G.G.G.G.G.G.G.G.G.G.G.G.G.G.G.G.G.G.G.P.U.fXkXzXzXjXaXyXwX9X9XqXqXqXqXqXqXqXqXqXqXy.Q b m m n n n n n n n n n n n n n n V ..A.G.G.G.G.G.G.G.G.G.G.G.G.F.Z.t.w.8.8.9.7.z g d d f f d d g z 7.9.8.9.9.9.8.9.5.z g f d f f f f f f f f d d g z 7.9.8.8.7.6.x n m n m n n n n n n n n n n m m c 2 #       * / mXSXGXGXGXGXGXGXGXGXGXGXGXGXGXGXGXGXGXGXGXGXGXGXGX",
"GXGXGXGXGXGXGXGXGXGXGXGXGXGXGXGXGXGXGXGXGXGXGXGXGXGXGXGXGXFXBX' *                               . 2 C A.L.G.G.G.G.G.G.G.G.G.G.G.G.G.G.G.H.H.K.c.V.m.N.N.N.N.N.m.b.j.h.f.f.g.g.f.g.h.v.b.m.N.M.M.m.m.m.m.m.m.m.m.m.m.m.m.M.N.m.V.B.T.G.G.G.G.G.G.G.G.G.G.G.G.G.G.G.G.G.G.G.G.G.G.G.Y.G.G.G.G.G.Y.Y.J.U.fXkXzXzXjXaXyXwX9X9XqXqXqXqXqXqXqXqXeXqX0X! b m m m n n n n n n n n n n n n n V  .A.G.G.G.G.G.G.G.G.G.G.G.G.F.Z.t.w.8.8.9.7.z g d d d d d d g z 7.9.8.9.9.9.8.9.5.z f d d d d d d d d f f d d g z 7.8.8.8.9.6.x n m n n n n n n n n n n n n m m c 2 #       * / mXSXGXGXGXGXGXGXGXGXGXGXGXGXGXGXGXGXGXGXGXGXGXGXGX",
"GXGXGXGXGXGXGXGXGXGXGXGXGXGXGXGXGXGXGXGXGXGXGXGXGXGXGXGXGXFXBX] -                               . 2 C A.L.G.G.G.G.G.G.G.G.G.G.G.G.G.G.G.H.G.K.c.V.m.N.N.M.N.N.m.b.j.h.f.f.g.g.f.g.h.j.b.m.N.m.m.m.m.m.m.m.m.m.m.m.m.m.m.m.N.m.V.B.T.G.H.G.G.G.G.G.G.G.G.G.G.G.G.G.G.G.G.G.G.G.G.G.G.G.G.G.G.G.G.G.P.U.fXkXzXzXjXaXyXwX9X9XqXqXqXqXqXqXqXqXeXqXy.! b m m m n n n n n n n n n n n n n V  .A.G.G.G.G.G.G.G.G.G.G.G.G.F.Z.t.w.8.8.9.7.z g d d f f d d g z 7.9.8.9.9.9.8.9.7.z g d d d d d d f f f f d d g z 7.9.8.8.7.6.x n m m n n n n n n n n n n n m m c 2 #       * / mXSXGXGXGXGXGXGXGXGXGXGXGXGXGXGXGXGXGXGXGXGXGXGXGX",
"GXGXGXGXGXGXGXGXGXGXGXGXGXGXGXGXGXGXGXGXGXGXGXGXGXGXGXGXGXFXBX] -                               . 2 C A.L.G.G.G.G.G.G.G.G.G.G.G.G.G.G.G.H.H.K.c.V.m.N.M.m.M.N.m.b.j.h.f.f.g.g.f.g.h.j.b.m.N.M.m.m.m.m.m.m.m.m.m.m.m.M.M.M.N.m.V.B.T.G.H.G.G.G.G.G.G.G.G.G.G.G.G.G.G.G.G.G.G.G.G.G.G.G.G.G.G.G.G.G.P.U.fXkXzXzXjXaXyXeX9X9XqXqXqXqXqXqXqXqXqXqXy.! b m m m n n n n n n n n n n n n n V  .A.G.G.G.G.G.G.G.G.G.G.G.G.F.Z.t.w.8.8.9.7.z k f d f f d d g z 7.9.8.9.9.9.8.9.7.z g f d f f f f f d f f d d g z 7.9.8.8.7.6.x n m m n n n n n n n n n n n m m c 2 #       * / mXSXGXGXGXGXGXGXGXGXGXGXGXGXGXGXGXGXGXGXGXGXGXGXGX",
"GXGXGXGXGXGXGXGXGXGXGXGXGXGXGXGXGXGXGXGXGXGXGXGXGXGXGXGXGXGXBX] -                               X 2 C A.L.G.G.G.G.G.G.G.G.G.G.G.G.G.G.G.H.H.K.c.V.m.N.M.m.M.N.m.b.j.h.f.f.g.g.f.g.h.j.b.M.N.N.N.N.N.N.N.N.N.N.N.N.N.N.N.N.N.M.V.B.T.G.H.G.G.G.G.G.G.G.G.G.G.G.G.G.G.G.G.G.G.G.G.G.G.G.G.G.G.G.G.G.P.U.fXlXzXzXlXaXyXeXqXqXqXqXqXqXqXqXqXqXeXqXy.! _ m m n n n n n n n n n n n n n n V  .,.G.G.G.G.G.G.G.G.G.G.R.R.F.Z.t.w.8.8.9.7.5.k f d f f d d g z 7.9.8.8.9.8.8.9.7.z g d d f f f f d d d d d d g z 7.8.8.8.9.6.x n n n n n n n n n n n n n n m m c 2 #       & / MXFXGXGXGXGXGXGXGXGXGXGXGXGXGXGXGXGXGXGXGXGXGXGXGX",
"GXGXGXGXGXGXGXGXGXGXGXGXGXGXGXGXGXGXGXGXGXGXGXGXGXGXGXGXGXGXBX] -                               X 2 C A.L.G.G.G.G.G.G.G.G.G.G.G.G.G.G.G.H.H.K.c.V.m.N.M.m.M.N.m.b.j.h.f.f.g.g.f.g.h.j.b.M.N.N.M.M.M.N.N.N.N.N.N.N.N.N.N.N.N.N.V.B.T.G.H.G.G.G.G.G.G.G.G.G.G.G.G.G.G.G.G.G.G.G.G.G.G.G.G.G.G.G.G.G.P.U.fXlXzXzXlXaXyXeXqXqXqXqXqXqXqXqXqXqXeXqXy.! b m m n n n n n n n n n n n n n n V ..A.G.G.G.G.G.G.G.G.G.G.R.R.F.Z.t.w.8.8.9.7.5.k f d f f d d g z 7.9.8.8.9.8.8.9.7.z g d d f f f f d d d d d f g z 7.8.8.8.9.6.x n n n n n n n n n n n n n n m m c 2 #       * / mXFXGXGXGXGXGXGXGXGXGXGXGXGXGXGXGXGXGXGXGXGXGXGXGX",
"GXGXGXGXGXGXGXGXGXGXGXGXGXGXGXGXGXGXGXGXGXGXGXGXGXGXGXGXGXGXBX] -               X . O O + O . . # e | A.G.G.G.G.G.G.G.G.G.G.G.G.G.G.G.G.H.H.K.c.V.m.N.N.m.M.N.m.b.j.h.f.f.g.g.f.g.h.j.v.n.C.n.n.n.n.n.n.n.n.n.n.n.n.n.n.n.C.n.V.c.l.F.F.F.F.F.F.F.F.G.G.G.G.G.G.G.G.G.G.G.G.G.G.G.G.G.G.G.G.G.G.G.P.U.sXgXkXkXaXpXtXrX0X0X0X0X0X0X0X0X0X0X0X0X! Q b m m m n n n n n n n n n n n n n V ..A.G.G.G.F.F.S.S.S.S.S.S.S.S.r.t.w.7.9.7.7.z g f d f f d f g z 5.7.9.9.9.9.9.7.5.z g f f f f f h h h h f h h h z 5.w.w.w.w.6.A B B B B B B B B m n n n n n m n c w ; .     = ^ bXZXSXSXSXAXAXSXSXFXGXGXGXGXGXGXGXGXGXGXGXGXGXGXGX",
"GXGXGXGXGXGXGXGXGXGXGXGXGXGXGXGXGXGXGXGXGXGXGXGXGXGXGXGXGXGXBX] -             . ; 2 w e w w w w e B X.D.G.G.G.G.G.G.G.G.G.G.G.G.G.G.G.G.H.H.K.c.V.m.N.N.m.M.N.m.b.j.h.g.f.g.g.f.g.h.j.v.v.v.v.v.v.v.v.v.v.v.v.v.v.v.v.v.v.v.v.B.z.l.l.l.l.l.l.l.l.l.F.G.G.G.G.G.G.G.G.G.G.G.G.G.G.G.G.G.G.G.G.G.G.J.I.iXdXsXsXsXuXuXi.i.i.i.i.i.i.i.i.! ! ! ! Q _ b m m n n n n n n n n n n n n n n V ..A.G.G.G.F.Z.Z.r.r.r.r.r.r.r.e.6.5.5.5.5.5.l g f f f f f f g l 5.5.5.5.5.5.5.5.z l g f f f h h h j j j j j j x x t.t.t.t.t.e.A | | | | | | | C V B n n n n m n c e 2 > ; ; 1 b [ bXnXnXnXbXbXnXNXCXFXGXGXGXGXGXGXGXGXGXGXGXGXGXGX",
"GXGXGXGXGXGXGXGXGXGXGXGXGXGXGXGXGXGXGXGXGXGXGXGXGXGXGXGXGXFXBX] -             + 2 m |  .| | | |  .O.,.F.G.G.G.G.G.G.G.G.G.G.G.G.G.G.G.G.H.H.K.c.V.C.N.M.m.M.N.m.b.j.h.f.f.g.g.g.g.g.h.h.j.j.j.j.j.j.j.j.j.j.j.j.j.j.j.j.j.j.j.h.h.k.k.k.k.k.k.k.k.l.l.F.G.G.G.G.G.G.G.G.G.G.G.G.G.G.G.G.G.G.G.G.G.H.P.I.U.U.U.U.U.I.Z.Z.Z.Z.Z.Z.Z.Z._ _ _ _ _ b b M n n n n n n n n n n n n n n n n V ..A.G.R.G.S.Z.e.t.t.t.t.t.t.t.6.6.z l l l l g f f f f f f f f g k l l l l l l l k g f f f f h j c c c c c c c b A r.Z.Z.Z.Z.Z.A.+.+.+.O.+.+.+.X.| B n n n n n n n c r e e e e r b ^ ^ ^ ^ ~ ~ ^ [ mXAXGXGXGXGXGXGXGXGXGXGXGXGXGXGX",
"GXGXGXGXGXGXGXGXGXGXGXGXGXGXGXGXGXGXGXGXGXGXGXGXGXGXGXGXGXFXBX] -             # r  .A.F.D.D.D.D.D.D.F.G.G.G.G.G.G.G.G.G.G.G.G.G.G.G.G.G.H.H.K.c.V.C.N.M.m.M.N.m.b.j.h.f.f.g.g.g.g.g.g.g.g.g.g.g.g.g.g.g.g.g.g.g.g.g.g.g.g.g.g.g.g.d.d.d.d.d.g.g.d.k.l.F.G.G.G.G.G.G.G.G.G.G.G.G.G.G.G.G.G.G.G.G.G.G.H.J.J.J.H.H.H.H.H.H.H.H.H.H.H.A...V m m m m m n n n n n n n n n n n n n n n n n V ..,.G.R.G.S.r.t.w.9.0.0.0.0.0.7.z g f f f f f f f f f f f f f f f f f f f f f f f f f f d f h j c n n n n v n B | O.S.F.F.F.F.F.F.F.F.F.F.G.F.+. .V n n n n n n n n n n n n c w < @ & & & &   * ~ vXZXGXGXGXGXGXGXGXGXGXGXGXGXGXGX",
"GXGXGXGXGXGXGXGXGXGXGXGXGXGXGXGXGXGXGXGXGXGXGXGXGXGXGXGXGXGXBX] -             # c O.G.R.R.G.R.R.L.G.G.G.G.G.G.G.G.G.G.G.G.G.G.G.G.G.G.G.H.H.K.c.V.C.M.M.m.M.N.m.b.j.h.f.f.g.g.g.g.g.f.f.f.f.f.f.f.f.f.f.f.f.f.f.f.f.f.f.f.f.f.f.f.g.g.g.g.f.f.f.d.k.l.G.G.G.G.G.G.G.G.G.G.G.G.G.G.G.G.G.G.G.G.G.G.G.G.G.G.G.G.G.G.G.G.G.Y.Y.Y.R.G.@...C m n n m n n n n n n n n n n n n n n n n n n V  .A.G.R.G.S.r.q.9.8.8.8.8.8.8.7.z g d d d d f f f f f f f f f f f d d d d d d f f f f f d f h j v m m m m n n V  .,.G.R.R.G.G.G.G.G.G.G.G.G.G.,. .V n n n n n n n n m m B B n w #               9 cXZXGXGXGXGXGXGXGXGXGXGXGXGXGXGX",
"GXGXGXGXGXGXGXGXGXGXGXGXGXGXGXGXGXGXGXGXGXGXGXGXGXGXGXGXGXGXBX] -             # c O.G.R.R.G.G.G.G.G.G.G.G.G.G.G.G.G.G.G.G.G.G.G.G.G.G.G.H.H.K.c.V.m.N.M.m.M.N.m.b.j.h.g.f.g.g.g.g.g.g.f.f.f.f.f.f.f.f.f.f.f.f.f.f.f.f.f.f.f.f.f.g.g.g.g.g.g.f.f.d.k.l.F.G.G.G.G.G.G.G.G.G.G.G.G.G.G.G.G.G.G.G.G.G.G.G.G.G.G.G.G.G.G.G.G.G.G.G.R.G.@...V m n n m n n n n n n n n n n n n n n n n n n V  .A.G.R.G.S.r.q.9.8.8.9.8.8.9.7.z g d d f f f f f f f f f f f f f f f f f f f f f f f f d f h j v m m m m n n V  .@.G.R.G.G.G.G.G.G.G.G.G.G.G.,. .V n n n n n n n n n m B B n w #               9 vXZXGXGXGXGXGXGXGXGXGXGXGXGXGXGX",
"GXGXGXGXGXGXGXGXGXGXGXGXGXGXGXGXGXGXGXGXGXGXGXGXGXGXGXGXGXGXBX] -             # c X.F.R.G.G.G.G.G.G.G.G.G.G.G.G.G.G.G.G.G.G.G.G.G.G.G.G.H.H.K.c.V.m.N.M.m.M.N.m.b.j.h.g.f.g.g.g.g.g.g.g.g.g.g.g.g.g.g.g.g.g.g.g.g.g.g.g.g.g.g.g.g.g.g.g.g.g.g.g.d.k.l.G.G.G.G.G.G.G.G.G.G.G.G.G.G.G.G.G.G.G.G.G.G.G.G.G.G.G.G.G.G.G.G.G.G.G.G.G.G.,. .V n n n n n n n n n n n n n n n n n n n n n n V ..A.G.R.G.S.r.q.0.8.9.9.9.9.9.7.z g f f f f f f f f f f f f f f f f f f f f f f f f f f d f h j v n m n n n n B | +.G.G.G.G.G.G.G.G.G.G.G.G.G.,. .V n n n n n n n n n n m m n w ;               9 vXZXGXGXGXGXGXGXGXGXGXGXGXGXGXGX",
"GXGXGXGXGXGXGXGXGXGXGXGXGXGXGXGXGXGXGXGXGXGXGXGXGXGXGXGXGXGXVX] -             # c X.G.R.R.G.G.G.G.G.G.G.G.G.G.G.G.G.G.G.G.G.G.G.G.G.G.G.H.H.K.c.V.m.N.M.m.M.N.m.b.j.h.g.f.g.g.g.g.g.g.g.g.g.g.g.g.g.g.g.g.g.g.g.g.g.g.g.g.g.g.g.g.g.g.g.g.g.g.g.d.k.l.G.G.G.G.G.G.G.G.G.G.G.G.G.G.G.G.G.G.G.G.G.G.G.G.G.G.G.G.G.G.G.G.G.G.G.G.G.G.,. .V n n n n n n n n n n n n n n n n n n n n n n V ..A.G.R.G.S.r.q.0.8.9.9.9.8.9.7.z g f d f f f f f f f f f f f f f f f f f f f f f f f f d f h j v n m n n n n B | +.G.G.G.G.G.G.G.G.G.G.G.G.G.,. .V n n n n n n n n n n m m n w ;               9 vXZXGXGXGXGXGXGXGXGXGXGXGXGXGXGX",
"GXGXGXGXGXGXGXGXGXGXGXGXGXGXGXGXGXGXGXGXGXGXGXGXGXGXGXGXGXGXVX] -             # c O.G.R.R.L.R.R.L.G.G.G.G.G.G.G.G.G.G.G.G.G.G.G.G.G.G.G.H.H.K.c.V.m.N.M.m.M.N.m.b.j.h.f.f.g.g.g.g.g.g.g.g.g.g.g.g.g.g.g.g.g.g.g.g.g.g.g.g.g.g.g.g.g.g.g.g.g.g.g.d.k.l.G.G.G.G.G.G.G.G.G.G.G.G.G.G.G.G.G.G.G.G.G.G.G.G.G.G.G.G.G.G.G.G.G.G.G.G.G.G.,. .V n n n n n n n n n n n n n n n n n n n n n n V  .A.G.R.G.S.r.q.0.8.8.8.8.8.9.7.z g d d f f d d d d d d d d d f f f f f f f f f f f f f d f h j v m m n n n n V  .+.F.G.G.G.G.G.G.G.G.G.G.G.G.,. .V n n n n n n n n n n m m c w ; X             9 vXZXGXGXGXGXGXGXGXGXGXGXGXGXGXGX",
"GXGXGXGXGXGXGXGXGXGXGXGXGXGXGXGXGXGXGXGXGXGXGXGXGXGXGXGXGXFXBX' -             # r  .D.G.F.D.D.D.F.F.G.G.G.G.G.G.G.G.G.G.G.G.G.G.G.G.G.G.H.H.K.c.V.m.N.M.m.M.N.m.b.j.h.f.f.g.g.g.g.g.g.g.g.g.g.g.g.g.g.g.g.g.g.g.g.g.g.g.g.g.g.g.g.g.g.g.g.g.g.g.d.k.l.F.G.F.F.F.F.F.G.G.G.G.G.G.G.G.G.G.G.G.G.G.G.G.G.G.G.G.G.G.G.G.G.G.G.G.G.G.G.A...V m n n m m m m m m m m m m m m m m m m n n m V ..A.G.R.G.S.r.q.0.8.9.9.9.9.9.5.z g d d f f f f f f f f f f f f f f f f f f f f f f f f d f h j v m m n n n n V  .+.F.G.G.G.G.G.G.G.G.G.G.G.G.,. .V m n m m m m m n n n m m c w ; X             9 vXZXGXGXGXGXGXGXGXGXGXGXGXGXGXGX",
"GXGXGXGXGXGXGXGXGXGXGXGXGXGXGXGXGXGXGXGXGXGXGXGXSXCXVXVXVXBXvX^ *             @ w B  ... . . . . .O.A.F.G.G.G.G.G.G.G.G.G.G.G.G.G.G.G.G.H.H.K.c.V.m.N.M.m.M.N.m.b.j.h.f.f.g.g.g.g.g.g.g.g.g.g.g.g.g.g.g.g.g.g.g.g.g.s.s.s.o.o.s.s.f.g.g.g.g.g.g.d.k.l.+.,.,.+.+.+.+.,.D.F.G.G.G.G.G.G.G.G.G.G.G.G.G.G.G.G.G.G.G.G.G.G.G.G.G.G.G.G.A.O.| C C C C C C C C C C C C C C C C C C C C C C | O.A.G.R.G.S.r.6.7.7.7.7.7.7.7.5.l g f d f f g k l l l l l l l k g f f f f f f f f f f f d f h j v m m m n n n V  .+.F.G.G.G.G.G.G.G.G.G.G.G.G.A.O.| C C C C C C C V B n m m n w ; X             9 vXZXGXGXGXGXGXGXGXGXGXGXGXGXGXGX",
"GXGXGXGXGXGXGXGXGXGXGXGXGXGXGXGXGXGXGXGXGXGXGXFXVXbX[ ' ] ' ^ 8 &             . ; 2 e r e e e e r V O.D.G.G.G.G.G.G.G.G.G.G.G.G.G.G.G.G.H.H.K.c.V.m.N.M.m.M.N.m.b.j.h.f.f.g.g.g.g.g.g.g.g.g.g.g.g.g.g.g.g.g.g.g.g.s.o.A A A A A o.s.g.g.g.g.g.g.d.o.o. . . . . .|  .X.+.D.G.G.G.G.G.G.G.G.G.G.G.G.G.G.G.G.G.G.G.G.G.G.G.G.G.G.G.G.D.,.O.O.O.O.O.O.O.O.O.O.O.O.O.O.O.O.O.O.O.O.O.O.O.O.,.D.G.R.G.S.r.x z z z z z z z l k f f d f g l 5.5.5.5.5.5.5.5.z k f f f f f f f f f f f d f h j v m m m n n n V  .+.F.G.G.G.G.G.G.G.G.G.G.G.G.D.,.O.O.O.O.O.O.O...| V m n m n w ; X             9 vXZXGXGXGXGXGXGXGXGXGXGXGXGXGXGX",
"GXGXGXGXGXGXGXGXGXGXGXGXGXGXGXGXGXGXGXGXGXGXGXFXNX' 8 * - - * &                 . + @ # @ @ + O ; e | A.G.G.G.G.G.G.G.G.G.G.G.G.G.G.G.G.H.H.K.c.V.m.N.M.m.M.N.m.b.j.h.f.f.g.g.g.g.g.g.g.g.d.g.g.g.g.g.g.g.g.g.g.g.s.A V m m m V A s.g.g.g.g.g.g.f.o.C V B B V B B V | O.D.G.G.G.G.G.G.G.G.G.G.G.G.G.G.G.G.G.G.G.G.G.G.G.G.G.G.G.G.G.F.D.A.A.A.A.A.A.D.D.D.D.A.A.D.D.D.D.A.A.A.A.A.D.D.D.G.G.R.G.A.A x k g g g g g g g f f f d f k 5.7.7.9.7.7.9.7.7.5.l f d f f f f f f f f f d f h j v n m n n n n B  .+.F.G.G.G.G.G.G.G.G.G.G.G.G.F.D.D.A.A.A.A.D.D.,...C m n m c w ;               9 vXZXGXGXGXGXGXGXGXGXGXGXGXGXGXGX",
"GXGXGXGXGXGXGXGXGXGXGXGXGXGXGXGXGXGXGXGXGXGXGXSXmX/ &                                           X 2 C A.G.G.G.G.G.G.G.G.G.G.G.G.G.G.G.G.H.H.K.c.V.m.N.N.M.N.N.m.b.j.h.f.f.g.g.g.g.g.g.g.g.g.g.g.g.g.g.g.g.g.g.g.g.o.A m n n n N A s.g.g.g.g.g.g.f.} V n n n n n n n C O.A.G.G.G.G.G.G.G.G.G.G.G.G.G.G.G.G.G.G.G.G.G.G.G.G.G.G.G.G.G.G.G.G.G.G.G.G.G.G.G.G.G.G.G.G.G.G.G.G.G.G.G.G.G.G.G.G.G.G.G.A.A x f d d d d d d f f f f d f l 5.7.8.8.8.8.8.8.7.5.l f d f f f f f f f f d d f h j v n m n n n n B  .+.F.G.G.G.G.G.G.G.G.G.G.G.G.G.G.G.G.G.G.G.G.G.D.O.C m n n c w ; X             9 vXZXGXGXGXGXGXGXGXGXGXGXGXGXGXGX",
"GXGXGXGXGXGXGXGXGXGXGXGXGXGXGXGXGXGXGXGXGXGXGXSXmX^ &                                             2 C A.G.G.G.G.G.G.G.G.G.G.G.G.G.G.G.G.H.H.K.c.V.m.N.N.N.N.N.m.b.j.h.f.f.f.f.f.f.f.f.f.g.g.g.g.g.g.g.g.g.g.g.g.g.s.A m n n n m A s.g.g.g.g.g.g.f.A N n c c n c c n V O.A.G.G.G.G.G.G.G.G.G.G.G.G.G.G.G.G.G.G.G.G.G.G.G.G.G.G.G.G.G.G.G.G.G.G.G.G.G.G.G.G.G.G.G.G.G.G.G.G.G.G.G.G.G.G.G.G.G.R.G.A.A x d d d d d d d d f f f d f l 5.7.8.8.8.8.8.8.7.5.l d d d d d d d d d d d d f h j v n m n n n n B  .+.F.G.G.G.G.G.G.G.G.G.G.G.G.G.G.G.G.G.G.G.G.G.D.O.C m n n c w ; X             9 vXZXGXGXGXGXGXGXGXGXGXGXGXGXGXGX",
"GXGXGXGXGXGXGXGXGXGXGXGXGXGXGXGXGXGXGXGXGXGXGXSXmX/ &                                           . 2 C A.G.G.G.G.G.G.G.G.G.G.G.G.G.G.G.G.H.H.K.x.V.C.M.M.m.M.N.m.b.j.h.f.f.g.g.g.g.g.g.g.g.g.d.g.g.g.g.g.g.g.g.g.g.o.A m n n n N A s.g.g.g.g.g.g.f.} V m n n n n n m C O.D.G.G.G.G.G.G.G.G.G.G.G.G.G.G.G.G.G.G.G.G.G.G.G.G.G.G.G.G.G.G.G.G.G.G.G.G.G.G.G.G.G.G.G.G.G.G.G.G.G.G.G.G.G.G.G.G.G.R.G.A.A x h d f f f f f f f f f d f k 5.7.9.8.9.9.8.9.7.5.l f d f f f f f f f f f d f h j v n m n n n n B  .+.F.G.G.G.G.G.G.G.G.G.G.G.G.G.G.G.G.G.G.G.G.G.D.O.C m n m c w ; X             9 vXZXGXGXGXGXGXGXGXGXGXGXGXGXGXGX",
"GXGXGXGXGXGXGXGXGXGXGXGXGXGXGXGXGXGXGXGXGXGXGXSXmX/ *       X + # ; ; ; ; ; ; ; ; ; ; ; ; ; # # < r | A.G.G.G.G.G.G.G.G.G.G.G.G.G.G.G.G.H.G.K.x.B.V.V.V.V.V.V.V.v.j.k.d.d.d.k.k.k.k.k.k.k.k.d.d.d.s.s.s.s.s.s.s.s.} A m n n n m A o.s.s.s.s.s.s.s.} C V V V V V V V | O.D.G.G.G.G.G.G.G.G.G.G.G.G.G.G.G.G.G.G.G.G.G.G.G.G.G.G.G.G.G.G.G.G.G.G.G.G.G.G.G.G.G.G.G.G.G.G.G.G.G.G.G.G.G.G.G.G.G.R.G.A.A x k k k k k k k g f f d d f k 5.q.q.q.q.q.q.q.q.6.l h h h h h h h h h h h h h j c v n m n n n n V  .+.F.G.G.G.G.G.G.G.G.G.G.G.G.G.G.G.G.G.G.G.G.G.A.O.C m n m n w ; X             9 vXZXGXGXGXGXGXGXGXGXGXGXGXGXGXGX",
"GXGXGXGXGXGXGXGXGXGXGXGXGXGXGXGXGXGXGXGXGXGXGXSXmX/ *       @ 2 r c n c c c c c c c c c c c c c n C O.D.G.G.G.G.G.G.G.G.G.G.G.G.G.G.G.G.G.G.K.T.x.c.B.B.B.B.B.B.c.z.l.k.k.k.l.l.k.k.l.l.k.l.k.k.d.} A A A A A A A A N m n n n m V A A A A A A A A }  . ....... . ...O.,.D.G.G.G.G.G.G.G.G.G.G.G.G.G.G.G.G.G.G.G.G.G.G.G.G.G.G.G.G.G.G.G.G.G.G.G.G.G.G.G.G.G.G.G.G.G.G.G.G.G.G.G.G.G.G.G.G.G.R.G.S.r.6.5.5.5.5.5.5.5.z k f d d f l x e.e.r.e.e.r.e.e.A x j j j j j j j j j j j j j c c v n n n n n n V  .+.F.G.G.G.G.G.G.G.G.G.G.G.G.G.G.G.G.G.G.G.G.G.A.O.C m n m n w ; X             9 vXZXGXGXGXGXGXGXGXGXGXGXGXGXGXGX",
"GXGXGXGXGXGXGXGXGXGXGXGXGXGXGXGXGXGXGXGXGXGXGXSXmX/ *       ; c | O.O.O.O.O.O.O.O.O.O.O.O.O.O.O.O.+.A.F.G.G.G.G.G.G.G.G.G.G.G.G.G.G.G.G.G.G.G.K.T.T.T.T.T.x.x.T.T.l.l.l.l.l.F.l.l.l.l.l.l.F.l.l.O.| V m m V N N N m m n n n m m m m N N N V N N V | O.,.A.A.A.A.A.A.A.D.F.G.G.G.G.G.G.G.G.G.G.G.G.G.G.G.G.G.G.G.G.G.G.G.G.G.G.G.G.G.G.G.G.G.G.G.G.G.G.G.G.G.G.G.G.G.G.G.G.G.G.G.G.G.G.G.G.G.G.G.S.r.6.7.7.7.7.7.7.7.5.l g d d f x A Z.Z.S.Z.Z.Z.Z.Z.A N v c c c c c c c c c c c c v v n n n n n n n V  .+.F.G.G.G.G.G.G.G.G.G.G.G.G.G.G.G.G.G.G.G.G.G.A.O.C m n m n w ; X             9 vXZXGXGXGXGXGXGXGXGXGXGXGXGXGXGX",
"GXGXGXGXGXGXGXGXGXGXGXGXGXGXGXGXGXGXGXGXGXGXGXSXmX/ *       < B +.G.L.G.G.G.G.G.G.G.G.G.G.G.G.G.G.G.G.G.G.G.G.G.G.G.G.G.G.G.G.G.G.G.G.G.G.G.G.G.G.G.G.G.G.G.G.G.G.G.G.G.G.G.G.G.G.G.G.G.G.G.G.D.O.C m n n m m m n n n n n n n n n n n n m m n n B | +.F.G.G.G.G.G.G.G.G.G.G.G.G.G.G.G.G.G.G.G.G.G.G.G.G.G.G.G.G.G.G.G.G.G.G.G.G.G.G.G.G.G.G.G.G.G.G.G.G.G.G.G.G.G.G.G.G.G.G.G.G.G.G.G.G.G.G.G.G.S.r.q.0.8.9.9.9.8.9.7.z g d d f x A A.G.G.G.G.G.G.D.O.C m n n n n n n n n n n n n n n n n n n n n n V  .+.F.G.G.G.G.G.G.G.G.G.G.G.G.G.G.G.G.G.G.G.G.G.A.O.C m n n n w ; X             9 vXZXGXGXGXGXGXGXGXGXGXGXGXGXGXGX",
"GXGXGXGXGXGXGXGXGXGXGXGXGXGXGXGXGXGXGXGXGXGXGXSXmX/ *       2 V ,.R.R.R.R.R.R.R.R.R.R.R.R.R.R.R.L.G.G.G.G.G.G.G.G.G.G.G.G.G.G.G.G.G.G.G.G.G.G.G.H.H.H.H.H.H.H.H.G.G.G.G.G.G.G.G.G.G.G.G.G.G.G.D.O.C m n n n n n n n n n n n n n n n n n n n n n B | +.G.L.G.G.G.G.G.G.G.G.G.G.G.G.G.G.G.G.G.G.G.G.G.G.G.G.G.G.G.G.G.G.G.G.G.G.G.G.G.G.G.G.G.G.G.G.G.G.G.G.G.G.G.G.G.G.G.G.G.G.G.G.G.G.G.G.G.G.G.S.r.q.0.8.8.8.8.8.9.7.z g d d f x A A.R.R.R.R.R.R.D.O.C m n n m m m m m m m m m m n n n n n n n n n B  .+.F.G.G.G.G.G.G.G.G.G.G.G.G.G.G.G.G.G.G.G.G.G.D.O.C m n n c w ; X             9 vXZXGXGXGXGXGXGXGXGXGXGXGXGXGXGX",
"GXGXGXGXGXGXGXGXGXGXGXGXGXGXGXGXGXGXGXGXGXGXGXSXmX/ *       2 B ,.G.R.G.G.G.G.G.G.G.G.G.G.G.G.G.G.G.G.G.G.G.G.G.G.G.G.G.G.G.G.G.G.G.G.G.G.G.G.G.G.G.G.G.G.G.G.G.G.G.G.G.G.G.G.G.G.G.G.G.G.G.G.D.O.C m n n n n m n n n n n n n n n n n n m n n n B | +.F.G.G.G.G.G.G.G.G.G.G.G.G.G.G.G.G.G.G.G.G.G.G.G.G.G.G.G.G.G.G.G.G.G.G.G.G.G.G.G.G.G.G.G.G.G.G.G.G.G.G.G.G.G.G.G.G.G.G.G.G.G.G.G.G.G.G.G.G.S.r.q.0.8.9.9.8.8.9.7.z g d d f x A A.G.R.G.G.G.G.D.O.C m n n n n n n n n n n n n n n n n n n n n n B  .+.F.G.G.G.G.G.G.G.G.G.G.G.G.G.G.G.G.G.G.G.G.G.D.O.C m n n c w ;               9 vXZXGXGXGXGXGXGXGXGXGXGXGXGXGXGX",
"GXGXGXGXGXGXGXGXGXGXGXGXGXGXGXGXGXGXGXGXGXGXGXSXmX/ *       < B +.G.L.G.G.G.G.G.G.G.G.G.G.G.G.G.G.G.G.G.G.G.G.G.G.G.G.G.G.G.G.G.G.G.G.G.G.G.G.G.G.G.G.G.G.G.G.G.G.G.G.G.G.G.G.G.G.G.G.G.G.G.G.D.O.C m n n n n n n n n n n n n n n n n n n n n n B | +.F.G.G.G.G.G.G.G.G.G.G.G.G.G.G.G.G.G.G.G.G.G.G.G.G.G.G.G.G.G.G.G.G.G.G.G.G.G.G.G.G.G.G.G.G.G.G.G.G.G.G.G.G.G.G.G.G.G.G.G.G.G.G.G.G.G.G.G.G.S.r.q.0.8.9.9.9.8.9.7.z g d d f x A A.G.G.G.G.G.G.D.O.C m n n n n n n n n n n n n n n n n n n n n n B  .+.F.G.G.G.G.G.G.G.G.G.G.G.G.G.G.G.G.G.G.G.G.G.D.O.C m n m n w ;               9 vXZXGXGXGXGXGXGXGXGXGXGXGXGXGXGX",
"GXGXGXGXGXGXGXGXGXGXGXGXGXGXGXGXGXGXGXGXGXGXGXSXmX/ *       < B +.G.L.G.G.G.G.G.G.G.G.G.G.G.G.G.G.G.G.G.G.G.G.G.G.G.G.G.G.G.G.G.G.G.G.G.G.G.G.G.G.G.G.G.G.G.G.G.G.G.G.G.G.G.G.G.G.G.G.G.G.G.G.D.O.C m n n n n n n n n n n n n n n n n n n n n n B | +.F.G.G.G.G.G.G.G.G.G.G.G.G.G.G.G.G.G.G.G.G.G.G.G.G.G.G.G.G.G.G.G.G.G.G.G.G.G.G.G.G.G.G.G.G.G.G.G.G.G.G.G.G.G.G.G.G.G.G.G.G.G.G.G.G.G.G.G.G.S.r.q.9.8.8.8.8.8.8.7.z g d d d x A A.G.R.G.G.G.G.D.O.C n n n n n n n n n n n n n n n n n n n n n n B | +.F.G.G.G.G.G.G.G.G.G.G.G.G.G.G.G.G.G.G.G.G.G.D.O.C m n m n w ;               9 vXZXGXGXGXGXGXGXGXGXGXGXGXGXGXGX",
"GXGXGXGXGXGXGXGXGXGXGXGXGXGXGXGXGXGXGXGXGXGXGXSXmX/ *       < B +.G.R.G.G.G.G.G.G.G.G.G.G.G.G.G.G.G.G.G.G.G.G.G.G.G.G.G.G.G.G.G.G.G.G.G.G.G.G.G.G.G.G.G.G.G.G.G.G.G.G.G.G.G.G.G.G.G.G.G.G.G.G.D.O.C m n n n n n n n n n n n n n n n n n n n n n B | +.F.G.G.G.G.G.G.G.G.G.G.G.G.G.G.G.G.G.G.G.G.G.G.G.G.G.G.G.G.G.G.G.G.G.G.G.G.G.G.G.G.G.G.G.G.G.G.G.G.G.G.G.G.G.G.G.G.G.G.G.G.G.G.G.G.G.G.G.G.S.r.q.9.8.8.9.8.8.8.7.z g d d f x A A.G.G.G.G.G.G.A.O.C n n n n n n n n n n n n n n n n n n n n n n B | +.F.G.G.G.G.G.G.G.G.G.G.G.G.G.G.G.G.G.G.G.G.G.A.O.C m n m n w ; X             9 vXZXGXGXGXGXGXGXGXGXGXGXGXGXGXGX",
"GXGXGXGXGXGXGXGXGXGXGXGXGXGXGXGXGXGXGXGXGXGXGXSXmX/ *       < B +.G.R.G.G.G.G.G.G.G.G.G.G.G.G.G.G.G.G.G.G.G.G.G.G.G.G.G.G.G.G.G.G.G.G.G.G.G.G.G.G.G.G.G.G.G.G.G.G.G.G.G.G.G.G.G.G.G.G.G.G.G.G.D.O.| V B B B B B B B B B B B B B B B B B B B B B V  .+.F.G.G.G.G.G.G.G.G.G.G.G.G.G.G.G.G.G.G.G.G.G.G.G.G.G.G.G.G.G.G.G.G.G.G.G.G.G.G.G.G.G.G.G.G.G.G.G.G.G.G.G.G.G.G.G.G.G.G.G.G.G.G.G.G.G.G.G.G.S.r.t.w.0.w.w.w.w.w.5.z h h h h x A A.G.G.G.G.G.G.D.O.| V B B B B B B B B B B B B B B B B B B B m B V  .,.F.G.G.G.G.G.G.G.G.G.G.G.G.G.G.G.G.G.G.G.G.G.A.O.C m n m n w ;               9 vXZXGXGXGXGXGXGXGXGXGXGXGXGXGXGX",
"GXGXGXGXGXGXGXGXGXGXGXGXGXGXGXGXGXGXGXGXGXGXGXSXmX/ *       < B +.G.R.G.G.G.G.G.G.G.G.G.G.G.G.G.G.G.G.G.G.G.G.G.G.G.G.G.G.G.G.G.G.G.G.G.G.G.G.G.G.G.G.G.G.G.G.G.G.G.G.G.G.G.G.G.G.G.G.G.G.G.G.D.+.X. .| | | | | | | | | | | | | | | | | | | | |  .O.,.F.G.G.G.G.G.G.G.G.G.G.G.G.G.G.G.G.G.G.G.G.G.G.G.G.G.G.G.G.G.G.G.G.G.G.G.G.G.G.G.G.G.G.G.G.G.G.G.G.G.G.G.G.G.G.G.G.G.G.G.G.G.G.G.G.G.G.G.G.S.Z.r.t.t.t.t.t.t.t.e.A x x x x A o.A.G.G.G.G.G.G.D.+.X.| | | | | | | | | | | | | | | | | | | | | |  .O.A.G.G.G.G.G.G.G.G.G.G.G.G.G.G.G.G.G.G.G.G.G.G.A.O.C m n m c w ;               9 vXZXGXGXGXGXGXGXGXGXGXGXGXGXGXGX",
"GXGXGXGXGXGXGXGXGXGXGXGXGXGXGXGXGXGXGXGXGXGXGXSXmX/ *       < B +.G.R.G.G.G.G.G.G.G.G.G.G.G.G.G.G.G.G.G.G.G.G.G.G.G.G.G.G.G.G.G.G.G.G.G.G.G.G.G.G.G.G.G.G.G.G.G.G.G.G.G.G.G.G.G.G.G.G.G.G.G.G.F.D.,.+.+.+.+.+.+.+.+.+.+.+.+.+.+.+.+.+.+.+.+.+.+.+.,.D.F.G.G.G.G.G.G.G.G.G.G.G.G.G.G.G.G.G.G.G.G.G.G.G.G.G.G.G.G.G.G.G.G.G.G.G.G.G.G.G.G.G.G.G.G.G.G.G.G.G.G.G.G.G.G.G.G.G.G.G.G.G.G.G.G.G.G.G.G.F.S.Z.Z.Z.Z.Z.Z.Z.Z.Z.Z.o.o.o.o.O.A.F.G.G.G.G.G.G.F.A.,.+.+.+.+.+.+.+.+.+.+.+.+.+.+.+.+.+.+.+.+.+.+.+.A.D.G.G.G.G.G.G.G.G.G.G.G.G.G.G.G.G.G.G.G.G.G.G.A.O.C m n m n w ;               9 vXZXGXGXGXGXGXGXGXGXGXGXGXGXGXGX",
"GXGXGXGXGXGXGXGXGXGXGXGXGXGXGXGXGXGXGXGXGXGXGXSXmX/ *       < B +.G.R.G.G.G.G.G.G.G.G.G.G.G.G.G.G.G.G.G.G.G.G.G.G.G.G.G.G.G.G.G.G.G.G.G.G.G.G.G.G.G.G.G.G.G.G.G.G.G.G.G.G.G.G.G.G.G.G.G.G.G.G.G.G.F.F.F.F.F.F.F.F.F.F.F.F.F.F.F.F.F.F.F.F.F.F.F.F.F.G.G.G.G.G.G.G.G.G.G.G.G.G.G.G.G.G.G.G.G.G.G.G.G.G.G.G.G.G.G.G.G.G.G.G.G.G.G.G.G.G.G.G.G.G.G.G.G.G.G.G.G.G.G.G.G.G.G.G.G.G.G.G.G.G.G.G.G.G.G.G.F.F.F.F.F.F.F.F.F.F.F.F.F.F.F.F.F.G.G.G.G.G.G.G.G.G.F.F.F.F.F.F.F.F.F.F.F.F.F.F.F.F.F.F.F.F.F.F.F.F.F.G.G.G.G.G.G.G.G.G.G.G.G.G.G.G.G.G.G.G.G.G.G.G.D.O.C m n n c w ;               9 vXZXGXGXGXGXGXGXGXGXGXGXGXGXGXGX",
"GXGXGXGXGXGXGXGXGXGXGXGXGXGXGXGXGXGXGXGXGXGXGXSXmX/ *       < B +.G.R.G.G.G.G.G.G.G.G.G.G.G.G.G.G.G.G.G.G.G.G.G.G.G.G.G.G.G.G.G.G.G.G.G.G.G.G.G.G.G.G.G.G.G.G.G.G.G.G.G.G.G.G.G.G.G.G.G.G.G.G.G.G.G.G.G.G.G.G.G.G.G.G.G.G.G.G.G.G.G.G.G.G.G.G.G.G.G.G.G.G.G.G.G.G.G.G.G.G.G.G.G.G.G.G.G.G.G.G.G.G.G.G.G.G.G.G.G.G.G.G.G.G.G.G.G.G.G.G.G.G.G.G.G.G.G.G.G.G.G.G.G.G.G.G.G.G.G.G.G.G.G.G.G.G.G.G.G.G.G.G.G.G.G.G.G.G.G.G.G.G.G.G.G.G.G.G.G.G.G.G.G.G.G.G.G.G.G.G.G.G.G.G.G.G.G.G.G.G.G.G.G.G.G.G.G.G.G.G.G.G.G.G.G.G.G.G.G.G.G.G.G.G.G.G.G.G.G.G.G.G.G.G.D.O.C m n n c w ;               9 vXZXGXGXGXGXGXGXGXGXGXGXGXGXGXGX",
"GXGXGXGXGXGXGXGXGXGXGXGXGXGXGXGXGXGXGXGXGXGXGXSXmX/ *       < B +.G.L.G.G.G.G.G.G.G.G.G.G.G.G.G.G.G.G.G.G.G.G.G.G.G.G.G.G.G.G.G.G.G.G.G.G.G.G.G.G.G.G.G.G.G.G.G.G.G.G.G.G.G.G.G.G.G.G.G.G.G.G.G.G.G.G.G.G.G.G.G.G.G.G.G.G.G.G.G.G.G.G.G.G.G.G.G.G.G.G.G.G.G.G.G.G.G.G.G.G.G.G.G.G.G.G.G.G.G.G.G.G.G.G.G.G.G.G.G.G.G.G.G.G.G.G.G.G.G.G.G.G.G.G.G.G.G.G.G.G.G.G.G.G.G.G.G.G.G.G.G.G.G.G.G.G.G.G.G.G.G.G.G.G.G.G.G.G.G.G.G.G.G.G.G.G.G.G.G.G.G.G.G.G.G.G.G.G.G.G.G.G.G.G.G.G.G.G.G.G.G.G.G.G.G.G.G.G.G.G.G.G.G.G.G.G.G.G.G.G.G.G.G.G.G.G.G.G.G.G.G.G.G.G.D.O.C m n m n w ;               9 vXZXGXGXGXGXGXGXGXGXGXGXGXGXGXGX",
"GXGXGXGXGXGXGXGXGXGXGXGXGXGXGXGXGXGXGXGXGXGXGXSXmX/ *       < B +.G.R.G.G.G.G.G.G.G.G.G.G.G.G.G.G.G.G.G.G.G.G.G.G.G.G.G.G.G.G.G.G.G.G.G.G.G.G.G.G.G.G.G.G.G.G.G.G.G.G.G.G.G.G.G.G.G.G.G.G.G.G.G.G.G.G.G.G.G.G.G.G.G.G.G.G.G.G.G.G.G.G.G.G.G.G.G.G.G.G.G.G.G.G.G.G.G.G.G.G.G.G.G.G.F.F.F.F.F.F.F.F.F.F.F.F.F.F.F.F.F.F.F.F.F.F.F.F.F.F.F.F.F.F.F.F.F.F.F.F.F.F.F.F.F.F.F.F.F.F.F.F.F.F.F.F.F.F.F.F.F.G.G.G.G.G.G.G.G.G.G.G.G.G.G.G.G.G.G.G.G.G.G.G.G.G.G.G.G.G.G.G.G.G.G.G.G.G.G.G.G.G.G.G.G.G.G.G.G.G.G.G.G.G.G.G.G.G.H.H.H.H.H.H.H.H.G.G.G.G.G.G.G.G.D.O.C m n m n w ;               9 vXZXGXGXGXGXGXGXGXGXGXGXGXGXGXGX",
"GXGXGXGXGXGXGXGXGXGXGXGXGXGXGXGXGXGXGXGXGXGXGXSXmX/ *       < B +.G.L.G.G.G.G.G.G.G.G.G.G.G.G.G.G.G.G.G.G.G.G.G.G.G.G.G.G.G.G.G.G.G.G.G.G.G.G.G.G.G.G.G.G.G.G.G.G.G.G.G.G.G.G.G.G.G.G.G.G.G.G.G.G.G.G.G.G.G.G.G.G.G.G.G.G.G.G.G.G.G.G.G.G.G.G.G.G.G.G.G.G.G.G.G.G.G.G.G.G.G.G.G.F.A.+.+.+.+.+.+.+.+.+.+.+.+.+.+.+.+.+.+.+.+.+.+.+.+.+.+.+.+.+.+.+.+.+.+.+.+.+.+.+.+.+.+.+.+.+.+.+.+.+.+.+.+.+.+.+.A.D.G.G.G.G.G.G.G.G.G.G.G.G.G.G.G.G.G.G.G.G.G.G.G.G.G.G.G.G.G.G.G.G.G.G.G.G.G.G.G.G.G.G.G.G.G.G.G.G.G.G.G.G.G.G.H.<.<.:.:.<.<.:.<.<.<.H.G.G.G.G.G.G.A.O.C m n m n w ;               9 vXZXGXGXGXGXGXGXGXGXGXGXGXGXGXGX",
"GXGXGXGXGXGXGXGXGXGXGXGXGXGXGXGXGXGXGXGXGXGXGXSXmX/ *       < B +.G.L.G.G.G.G.G.G.G.G.G.G.G.G.G.G.G.G.G.G.G.G.G.G.G.G.G.G.G.G.G.G.G.G.G.G.G.G.G.G.G.G.G.G.G.G.G.G.G.G.G.G.G.G.G.G.G.G.G.G.G.G.G.G.G.G.G.G.G.G.G.G.G.G.G.G.G.G.G.G.G.G.G.G.G.G.G.G.G.G.G.G.G.G.G.G.G.G.G.G.G.G.G.D.+. .| | | | | | | | | | | | | | | | | | | | | | | | | | | | | | | | | | | | | | | | | | | | | | | | | | | | |  .O.A.G.G.G.G.G.G.G.G.G.G.G.G.G.G.G.G.G.G.G.G.G.G.G.G.G.G.G.G.G.G.G.G.G.G.G.G.G.G.G.G.G.G.G.G.G.G.G.G.G.G.G.G.G.H.<.4.3.3.3.3.3.3.3.3.<.H.G.G.G.G.G.G.A.O.C m n m n w ;               9 vXZXGXGXGXGXGXGXGXGXGXGXGXGXGXGX",
"GXGXGXGXGXGXGXGXGXGXGXGXGXGXGXGXGXGXGXGXGXGXGXSXmX/ *       < B +.G.L.G.G.G.G.G.G.G.G.G.G.G.G.G.G.G.G.G.G.G.G.G.G.G.G.G.G.G.G.G.G.G.G.G.G.G.G.G.G.G.G.G.G.G.G.G.G.G.G.G.G.G.G.G.G.G.G.G.G.G.G.G.G.G.G.G.G.G.G.G.G.G.G.G.G.G.G.G.G.G.G.G.G.G.G.G.G.G.G.G.G.G.G.G.G.G.G.G.G.G.G.G.A.X.C B m B B B B B B B B B B B B B B B B B B B B B B B B B B B B B B B B B B B B B B B B B B B B B B B B B B B V  .,.F.G.G.G.G.G.G.G.G.G.G.G.G.G.G.G.G.G.G.G.G.G.G.G.G.G.G.G.G.G.G.G.G.G.G.G.G.G.G.G.G.G.G.G.G.G.G.G.G.G.G.G.G.H.:.3.;.;.;.;.;.;.;.&.:.<.G.G.G.G.G.G.A.O.C m n n c w ;               9 vXZXGXGXGXGXGXGXGXGXGXGXGXGXGXGX",
"GXGXGXGXGXGXGXGXGXGXGXGXGXGXGXGXGXGXGXGXGXGXGXSXmX/ *       < B +.G.L.G.G.G.G.G.G.G.G.G.G.G.G.G.G.G.G.G.G.G.G.G.G.G.G.G.G.G.G.G.G.G.G.G.G.G.G.G.G.G.G.G.G.G.G.G.G.G.G.G.G.G.G.G.G.G.G.G.G.G.G.G.G.G.G.G.G.G.G.G.G.G.G.G.G.G.G.G.G.G.G.G.G.G.G.G.G.G.G.G.G.G.G.G.G.G.G.G.G.G.G.G.A...V n n n n n n n n n n n n n n n n n n n n n n n n n n n n n n n n n n n n n n n n n n n n n n n n n n n n n B  .+.F.G.G.G.G.G.G.G.G.G.G.G.G.G.G.G.G.G.G.G.G.G.G.G.G.G.G.G.G.G.G.G.G.G.G.G.G.G.G.G.G.G.G.G.G.G.G.G.G.G.G.G.G.H.:.&.;.*.*.*.*.*.*.&.3.<.G.G.G.G.G.G.A.O.C m n n c w ;               9 vXZXGXGXGXGXGXGXGXGXGXGXGXGXGXGX",
"GXGXGXGXGXGXGXGXGXGXGXGXGXGXGXGXGXGXGXGXGXGXGXSXmX/ *       < B +.G.L.G.G.G.G.G.G.G.G.G.G.G.G.G.G.G.G.G.G.G.G.G.G.G.G.G.G.G.G.G.G.G.G.G.G.G.G.G.G.G.G.G.G.G.G.G.G.G.G.G.G.G.G.G.G.G.G.G.G.G.G.G.G.G.G.G.G.G.G.G.G.G.G.G.G.G.G.G.G.G.G.G.G.G.G.G.G.G.G.G.G.G.G.G.G.G.G.G.G.G.G.G.,. .V n n n n n n n n n n n n n n n n n n n n n n n n n n n n n n n n n n n n n n n n n n n n n n n n n n n n n B | +.F.G.G.G.G.G.G.G.G.G.G.G.G.G.G.G.G.G.G.G.G.G.G.G.G.G.G.G.G.G.G.G.G.G.G.G.G.G.G.G.G.G.G.G.G.G.G.G.G.G.G.G.G.H.:.&.;.*.*.*.*.*.*.&.3.<.G.G.G.G.G.G.D.O.C m n n c w ;               9 vXZXGXGXGXGXGXGXGXGXGXGXGXGXGXGX",
"GXGXGXGXGXGXGXGXGXGXGXGXGXGXGXGXGXGXGXGXGXGXGXSXmX/ *       < B +.G.R.G.G.G.G.G.G.G.G.G.G.G.G.G.G.G.G.G.G.G.G.G.G.G.G.G.G.G.G.G.G.G.G.G.G.G.G.G.G.G.G.G.G.G.G.G.G.G.G.G.G.G.G.G.G.G.G.G.G.G.G.G.G.G.G.G.G.G.G.G.G.G.G.G.G.G.G.G.G.G.G.G.G.G.G.G.G.G.G.G.G.G.G.G.G.G.G.G.G.G.G.G.,. .V n n n n n n n n n n n n n n n n n n n n n n n n n n n n n n n n n n n n n n n n n n n n n n n n n n n n n B  .+.F.G.G.G.G.G.G.G.G.G.G.G.G.G.G.G.G.G.G.G.G.G.G.G.G.G.G.G.G.G.G.G.G.G.G.G.G.G.G.G.G.G.G.G.G.G.G.G.G.G.G.K.K.H.:.3.;.*.*.*.*.*.*.&.3.<.G.G.G.G.G.G.D.O.C m n n c w ;               9 vXZXGXGXGXGXGXGXGXGXGXGXGXGXGXGX",
"GXGXGXGXGXGXGXGXGXGXGXGXGXGXGXGXGXGXGXGXGXGXGXSXmX/ *       < B +.G.R.G.G.G.G.G.G.G.G.G.G.G.G.G.G.G.G.G.G.G.G.G.G.G.G.G.G.G.G.G.G.G.G.G.G.G.G.G.G.G.G.G.G.G.G.G.G.G.G.G.G.G.G.G.G.G.G.G.G.G.G.G.G.G.G.G.G.G.G.G.G.G.G.G.G.G.G.G.G.G.G.G.G.G.G.G.G.G.G.G.G.G.G.G.G.G.G.G.G.G.G.G.,. .V n n n n n n n n n n n n n n n n n n n n n n n n n n n n n n n n n n n n n n n n n n n n n n n n n n n n n V  .+.F.G.G.G.G.G.G.G.G.G.G.G.G.G.G.G.G.G.G.G.G.G.G.G.G.G.G.G.G.G.G.G.G.G.G.G.G.G.G.G.G.G.G.G.G.G.G.G.G.G.G.G.G.H.:.3.;.*.*.*.*.*.*.&.4.<.G.G.G.G.G.G.D.O.C m n n c w ; X             9 vXZXGXGXGXGXGXGXGXGXGXGXGXGXGXGX",
"GXGXGXGXGXGXGXGXGXGXGXGXGXGXGXGXGXGXGXGXGXGXGXSXmX/ *       < B +.G.R.G.G.G.G.G.G.G.G.G.G.G.G.G.G.G.G.G.G.G.G.G.G.G.G.G.G.G.G.G.G.G.G.G.G.G.G.G.K.K.G.G.G.G.G.G.G.G.G.G.K.K.G.G.G.G.G.G.G.G.G.G.G.G.G.G.G.G.G.G.G.G.G.G.G.G.G.G.G.G.G.G.G.G.G.G.G.G.G.G.G.G.G.G.G.G.G.G.G.G.G.G.,. .V n n n n n n n n m m m m m m m m m m m m m m m m m m m m m m m m m m m m m m m n n n n n n n n n n n n n n V  .+.F.G.G.G.G.G.G.G.G.G.G.G.G.G.G.G.G.G.G.G.G.G.G.G.G.G.G.G.G.G.G.G.G.G.G.G.G.G.G.G.K.K.K.G.G.G.G.G.G.G.G.K.K.H.:.3.;.*.*.*.*.*.*.&.4.<.G.G.G.G.G.G.D.O.C m n m c w ; X             9 vXZXGXGXGXGXGXGXGXGXGXGXGXGXGXGX",
"GXGXGXGXGXGXGXGXGXGXGXGXGXGXGXGXGXGXGXGXGXGXGXSXmX/ *       < B +.G.R.G.G.G.G.G.G.G.G.G.G.G.G.G.G.G.G.G.G.G.G.G.G.G.G.G.G.G.G.G.G.G.G.G.G.G.G.H.G.G.G.G.G.G.H.H.H.H.G.H.G.G.G.G.G.G.H.H.H.H.G.H.G.G.G.G.G.G.H.H.H.H.G.G.G.G.G.G.G.G.G.G.G.G.G.G.G.G.G.G.G.G.G.G.G.G.G.G.G.G.G.G.A...V n n n n n n n n n n n n n n n n n n n n n n n n n n n n n n n n n n n n n n n n n n n n n n n n n n n n n V  .+.F.G.G.G.G.G.G.G.G.G.G.G.G.G.G.G.G.G.G.G.G.G.G.G.G.G.G.G.G.G.G.G.G.G.G.G.G.G.G.G.G.G.G.G.G.G.G.G.G.G.G.G.G.H.:.3.;.*.*.*.*.*.*.&.4.<.G.G.G.G.G.G.A.O.C m n n c w ; X             9 vXZXGXGXGXGXGXGXGXGXGXGXGXGXGXGX",
"GXGXGXGXGXGXGXGXGXGXGXGXGXGXGXGXGXGXGXGXGXGXGXSXmX/ *       < B +.G.R.G.G.G.G.G.G.G.G.G.G.G.G.G.G.G.G.G.G.G.G.G.G.G.G.G.G.G.G.G.H.S.1.1.2.2.1.2.1.1.1.1.1.1.1.1.1.1.1.1.1.1.1.1.1.1.1.1.1.1.1.1.1.1.1.1.1.1.1.1.1.1.S.H.G.G.G.G.G.G.G.G.G.G.G.G.G.G.G.G.G.G.G.G.G.G.G.G.G.G.G.G.A...V n n n n n n n c c r r r r r r r r r r r r r r r r r r r r r r r r r r r r r c c n n n n n n n n n n n n n V  .+.F.G.G.G.G.G.G.G.G.G.G.G.G.G.G.G.G.G.G.G.G.G.G.G.G.G.G.G.G.G.G.G.H.<.<.<.<.<.<.<.<.<.<.<.<.<.<.<.<.<.<.<.<.<.4.&.;.*.*.*.*.*.*.&.3.<.G.G.G.G.G.G.A.O.C m n n c w ; X             9 vXZXGXGXGXGXGXGXGXGXGXGXGXGXGXGX",
"GXGXGXGXGXGXGXGXGXGXGXGXGXGXGXGXGXGXGXGXGXGXGXSXmX/ *       < B +.G.L.G.G.G.G.G.G.G.G.G.G.G.G.G.G.G.G.G.G.G.G.G.G.G.G.G.G.G.G.G.A.2.2.` ` ` ` ` ` ` ` ` ` ` ` ` ` ` ` ` ` ` ` ` ` ` ` ` ` ` ` ` ` ` ` ` ` ` ` XX` 2.2.A.G.G.G.G.G.G.G.G.G.G.G.G.G.G.G.G.G.G.G.G.G.G.G.G.G.G.G.G.A...V n n n n m m n r w 2 2 2 2 2 2 2 2 2 2 2 2 2 2 2 2 2 2 2 2 2 2 2 2 2 2 2 2 2 w r n n m n n n n n n n n n n V  .+.F.G.G.G.G.G.G.G.G.G.G.G.G.G.G.G.G.G.G.G.G.G.G.G.G.G.G.G.G.G.G.G.<.:.4.3.3.3.3.3.3.3.3.3.3.3.3.3.3.3.3.3.3.3.3.&.;.*.*.*.*.*.*.&.4.<.G.G.G.G.G.G.A.O.C m n m n w ;               9 vXZXGXGXGXGXGXGXGXGXGXGXGXGXGXGX",
"GXGXGXGXGXGXGXGXGXGXGXGXGXGXGXGXGXGXGXGXGXGXGXSXmX/ *       < B +.G.L.G.G.G.G.G.G.G.G.G.G.G.G.G.G.G.G.G.G.G.G.G.G.G.G.G.G.G.G.G.1.2.XX.X.X.X.X.X.X.X.X.X.X.X.X.X.X.X.X.X.X.X.X.X.X.X.X.X.X.X.X.X.X.X.X.X.X.X.X.X.XXX2.S.G.G.G.G.G.G.G.G.G.G.G.G.G.G.G.G.G.G.G.G.G.G.G.G.G.G.G.G.A...V n n n n m m c w < @ . O O O O O O O O O O O O O O O O O O O O O O O O O O @ < e c m m n n n n n n n n n n V  .+.F.G.G.G.G.G.G.G.G.G.G.G.G.G.G.G.G.G.G.G.G.G.G.G.G.G.G.G.G.G.G.H.<.3.&.&.;.&.&.&.&.&.&.&.&.&.&.&.&.&.&.&.&.&.;.;.*.*.*.*.*.*.*.&.:.<.G.G.G.G.G.G.A.O.C m n n c w ;               9 vXZXGXGXGXGXGXGXGXGXGXGXGXGXGXGX",
"GXGXGXGXGXGXGXGXGXGXGXGXGXGXGXGXGXGXGXGXGXGXGXSXmX/ *       < B +.G.R.G.G.G.G.G.G.G.G.G.G.G.G.G.G.G.G.G.G.G.G.G.G.G.G.G.G.G.G.G.1.` |./.~.~././././././././././././././././././././././././././././././.~.~.~.~./.|.` S.G.K.G.G.G.G.G.G.G.G.G.G.G.G.G.G.G.G.G.G.G.G.G.G.G.G.G.G.A...V n n n n m m c w #                                                           # w c m m n n n n n n n n n n V  .+.F.G.G.G.G.G.G.G.G.G.G.G.G.G.G.G.G.G.G.G.G.G.G.G.G.G.G.G.G.G.G.H.:.3.;.*.*.*.*.*.*.*.*.*.*.*.*.*.*.*.*.*.*.=.*.*.*.*.*.*.*.*.*.&.:.<.G.G.G.G.G.G.D.O.C m n n c w ;               9 vXZXGXGXGXGXGXGXGXGXGXGXGXGXGXGX",
"GXGXGXGXGXGXGXGXGXGXGXGXGXGXGXGXGXGXGXGXGXGXGXSXmX/ *       2 V ,.R.R.R.L.L.L.G.G.G.G.G.G.G.G.G.G.G.G.G.G.G.G.G.G.G.K.K.G.G.T.G.1.` .X~.~.~.~.~.~.~.~.~.~.~.~.~.~.~.~.~.~.~.~.~.~.~.~.~.~.~.~.~.~.~.~.~.~.~.~.~./.|.` 1.G.K.G.G.G.G.G.G.G.G.G.G.G.G.G.G.G.G.G.G.G.G.G.G.G.G.G.G.A...C m n m m B B n w #                                                           # w n B B m m m m m m n n n n V  .+.F.G.G.G.G.G.G.G.G.G.G.G.G.G.G.G.G.G.G.G.G.G.G.G.G.G.G.G.G.K.K.G.<.3.;.*.*.*.*.*.*.*.*.*.*.*.*.*.*.*.*.-.-.*.*.*.*.*.*.*.*.*.*.&.4.<.G.K.G.G.L.G.D.O.C m n n c w ;               9 vXZXGXGXGXGXGXGXGXGXGXGXGXGXGXGX",
"GXGXGXGXGXGXGXGXGXGXGXGXGXGXGXGXGXGXGXGXGXGXGXSXmX/ *       < B ,.R.R.G.G.G.G.G.G.G.G.G.G.G.G.G.G.G.G.G.G.G.G.G.G.G.G.G.G.G.T.G.1.` |./.~.~.~.~.~.~.~.~.~.~.~.~./.~.~.~.~.~.~.~.~.~.~.~.~.~.~.~.~.~.~.~.~.~.~.~./.|.` 1.G.K.G.G.G.G.G.G.G.G.G.G.G.G.G.G.G.G.G.G.G.G.G.G.G.G.G.G.A...V m n n m B m c w #                                                           # w c B B m m m m m n n n n n B  .+.F.G.G.G.G.G.G.G.G.G.G.G.G.G.G.G.G.G.G.G.G.G.G.G.G.G.G.G.G.K.K.H.<.3.;.*.*.*.*.*.*.*.*.*.*.*.*.*.*.*.*.*.*.*.*.*.*.*.*.*.*.*.*.&.4.<.G.K.G.G.G.G.D.O.C m n n c w ; X             9 vXZXGXGXGXGXGXGXGXGXGXGXGXGXGXGX",
"GXGXGXGXGXGXGXGXGXGXGXGXGXGXGXGXGXGXGXGXGXGXGXSXmX/ *       > n X.,.,.+.+.+.+.,.A.F.G.G.G.G.G.G.G.G.G.G.G.G.G.H.H.S.1.1.1.1.S.S.2.` .X!.!.!.!.!././././././././././././././././././.!.!.!.!.!.!.!.!.!.!.!.!.!.!.!.|.` 1.G.K.G.G.G.G.G.G.G.G.G.G.G.G.G.G.G.G.G.G.G.G.G.G.G.G.G.G.,. .B c c c c c c r 2 #                                                           # 2 r c c c c c c c n n n n n B  .+.F.G.G.G.G.G.G.G.G.G.G.G.G.G.G.G.G.G.G.G.G.G.G.H.H.<.<.<.<.H.H.<.:.&.;.*.*.*.*.*.*.*.*.*.*.*.*.=.=.$.$.$.$.$.$.$.;.;.;.;.;.$.;.&.:.<.A.A.D.D.D.D.,...C m n m c w ; X             9 vXZXGXGXGXGXGXGXGXGXGXGXGXGXGXGX",
"GXGXGXGXGXGXGXGXGXGXGXGXGXGXGXGXGXGXGXGXGXGXGXSXmX/ *       # w n B V B B B B C X.,.G.G.G.G.G.G.G.G.G.G.G.G.G.S.2.2.` ` ` 2.2.2.` XXQ.E.E.E.E.W.!././././././././././././././././.!.!.W.E.E.E.E.E.E.E.E.E.E.E.E.E.Y ] ,.G.G.G.G.G.G.G.G.G.G.G.G.G.G.G.G.G.G.G.G.G.G.G.G.G.G.G.G.+.C r 2 2 2 2 2 2 2 ; O                                                           O ; 2 2 2 2 2 2 2 w r c n n n B  .+.F.G.G.G.G.G.G.G.G.G.G.G.G.G.G.G.G.G.G.G.G.G.H.<.:.:.4.4.4.:.:.4.3.&.;.*.*.*.*.*.*.*.*.*.*.*.*.=.$.$.#.#.#.#.%.%.%.%.%.%.%.%.%.{ ..X.O.O.X.O.O.O...| V m n m n w ;               9 vXZXGXGXGXGXGXGXGXGXGXGXGXGXGXGX",
"GXGXGXGXGXGXGXGXGXGXGXGXGXGXGXGXGXGXGXGXGXGXGXSXmX/ *       . # < 2 2 2 < < < w B O.F.G.G.G.G.G.G.G.G.G.G.G.H.1.` XX|.|.|.|.|.|..XQ.P P P P P E.!././././././././././././././././.!.W.P P P P P P P P P P P P P P Y ) ,.G.G.G.G.G.G.G.G.G.G.G.G.G.G.G.G.G.G.G.G.G.G.G.G.G.G.G.G.O.m 2 # + # # # # @ O                                                               O @ # # # # @ # > w c n n n V  .+.F.G.G.G.G.G.G.G.G.G.G.G.G.G.G.G.G.G.G.G.G.G.H.:.3.&.&.&.&.&.&.&.&.;.;.*.*.*.*.*.*.*.*.*.*.*.*.*.$.#.i i i i s s s Z { Z Z s Z Z Z C C C C C C C C V B n m m n w ;               9 vXZXGXGXGXGXGXGXGXGXGXGXGXGXGXGX",
"GXGXGXGXGXGXGXGXGXGXGXGXGXGXGXGXGXGXGXGXGXGXGXSXmX/ *                         ; c X.F.R.G.G.G.G.G.G.G.G.G.K.H.2.XX^././././././.!.E.P G F G F P W././././././././././././././././.!.E.P G G G G G G G G G G F F D L ) ,.G.G.G.G.G.G.G.G.G.G.G.G.G.G.G.G.G.G.G.G.G.G.G.G.G.G.R.G.O.c ;                                                                                               @ 2 r n n n V  .+.F.G.G.G.G.G.G.G.G.G.G.G.G.G.G.G.G.G.G.G.G.G.<.:.&.;.*.*.;.*.*.=.*.*.*.*.*.*.*.*.*.*.*.*.*.*.*.$.#.i y y y y u a M n m m m m m m m m m m m m m m m n n n m m n w ;               9 vXZXGXGXGXGXGXGXGXGXGXGXGXGXGXGX",
"GXGXGXGXGXGXGXGXGXGXGXGXGXGXGXGXGXGXGXGXGXGXGXSXmX/ *                         @ r X.F.R.G.G.G.G.G.G.G.G.G.K.H.2.XX^.~.~.~.~.~.~.!.E.P F S S F P W./.(././././././././././././././.!.E.P F D D F F F F F F F F F G L ) ,.G.G.G.G.G.G.G.G.G.G.G.G.G.G.G.G.G.G.G.G.G.G.G.G.G.G.R.G.O.c #                                                                                               O 2 r n n n V  .+.F.G.G.G.G.G.G.G.G.G.G.G.G.G.G.G.G.G.G.G.G.G.<.:.&.*.*.*.*.*.*.*.*.*.*.*.*.*.*.*.*.*.*.*.*.*.*.$.#.i y y y y u a n n n n n n n n n n n n n n n n n n n n m m n w ;               9 vXZXGXGXGXGXGXGXGXGXGXGXGXGXGXGX",
"GXGXGXGXGXGXGXGXGXGXGXGXGXGXGXGXGXGXGXGXGXGXGXSXmX/ *                         # r X.F.R.G.G.G.G.G.G.G.G.G.G.H.2.XX^.~.~.~.~.~.~.!.E.P F D D F P W.!./././././././././././././././.!.E.P G D F G F F F F G G F F G L ) ,.G.G.G.G.G.G.G.G.G.G.G.G.G.G.G.G.G.G.G.G.G.G.G.G.G.G.R.G.O.c #                                                                                               O 2 r n n n V  .+.F.G.G.G.G.G.G.G.G.G.G.G.G.G.G.G.G.G.G.G.G.G.<.4.&.*.*.*.*.*.*.*.*.*.*.*.*.*.*.*.*.*.*.*.*.*.*.$.#.i y y y y u a n n n n n n n n n n n n n n n n n n n n m m c w ;               9 vXZXGXGXGXGXGXGXGXGXGXGXGXGXGXGX",
"GXGXGXGXGXGXGXGXGXGXGXGXGXGXGXGXGXGXGXGXGXGXGXSXmX/ *                         # c X.F.R.G.G.G.G.G.G.G.G.G.G.H.2.XX^.~.~././././.!.E.P G D D F P W.!./././././././././././././././.!.E.P G F G G G G G G G G F F D L ) ,.G.T.G.G.G.G.G.G.G.G.G.G.G.G.G.G.G.G.G.G.G.G.G.G.G.G.R.G.O.c ;                                                                                               O 2 r n n n V  .+.F.G.G.G.G.G.G.G.G.G.G.G.G.G.G.G.G.G.G.G.G.G.<.:.&.*.*.*.*.*.*.*.*.*.*.*.*.*.*.*.*.*.*.*.*.*.*.$.#.i y y y y u a n n n n n n n n n n n n n n n n n n n n m m c w ;               9 vXZXGXGXGXGXGXGXGXGXGXGXGXGXGXGX",
"GXGXGXGXGXGXGXGXGXGXGXGXGXGXGXGXGXGXGXGXGXGXGXSXmX/ *                         # c X.F.R.G.G.G.G.G.G.G.G.G.G.H.2.XX^.~.~././././.!.E.P G D D G P W./.(././././././././././././.(./.!.E.P G F F G G G F G G G F F D L ) ,.G.T.G.G.G.G.G.G.G.G.G.G.G.G.G.G.G.G.G.G.G.G.G.G.G.R.R.G.O.c ;                                                                                               O 2 r n n n V  .+.F.G.G.G.G.G.G.G.G.G.G.G.G.G.G.G.G.G.G.G.G.G.<.4.&.;.*.*.*.*.*.*.*.*.*.*.*.*.*.*.*.*.*.*.*.-.*.$.#.i y y y y u a n n n n n n n n n n n n n n n n n n m m m B n w #               9 vXZXGXGXGXGXGXGXGXGXGXGXGXGXGXGX",
"GXGXGXGXGXGXGXGXGXGXGXGXGXGXGXGXGXGXGXGXGXGXGXSXmX/ *                         # c X.F.R.G.G.G.G.G.G.G.G.G.G.H.2.XX^.~.~././././.!.E.P G D D G P W./.(.(./././././././././././.(./.!.E.P G F F G G F F F G G F F D L ) ,.G.T.G.G.G.G.G.G.G.G.G.G.G.G.G.G.G.G.G.G.G.G.G.G.G.R.R.L.O.n ;                                                                                               O 2 r n n n V  .+.F.G.G.G.G.G.G.G.G.G.G.G.G.G.G.G.G.G.G.G.G.G.<.4.&.;.*.*.*.*.*.*.*.*.*.*.*.*.*.*.*.*.*.*.*.-.-.=.#.i y y y y u a n n n n n n n n n n n n n n n n n n m m B B n w #               9 cXZXGXGXGXGXGXGXGXGXGXGXGXGXGXGX",
"GXGXGXGXGXGXGXGXGXGXGXGXGXGXGXGXGXGXGXGXGXGXGXSXmX/ *                         # c X.F.R.G.G.G.G.G.G.G.G.G.K.H.2.XX^.~.~././././.!.E.P G D D G P W.!././.!.!.!.!.!.!.!.!./././././.!.E.P G G G G G G G G G G F F G L ) ,.G.G.G.G.G.G.G.G.G.G.G.G.G.G.G.G.G.G.G.G.G.G.F.D.D.D.F.D...c #                                 X X X         X X X X X                                       O 2 r n n n V  .+.F.G.G.G.G.G.G.G.G.G.G.G.G.G.G.G.G.G.G.G.G.G.<.:.&.;.*.*.*.*.*.*.*.*.*.*.*.*.=.=.=.=.=.=.=.*.=.$.#.i y y y y u a n n n n n n n n n n n n n n n n n n n n n n c w > + & & & &   & ~ vXZXGXGXGXGXGXGXGXGXGXGXGXGXGXGX",
"GXGXGXGXGXGXGXGXGXGXGXGXGXGXGXGXGXGXGXGXGXGXGXSXmX/ *                         # c X.F.R.G.G.G.G.G.G.G.G.G.K.H.2.XX^.~.~.~./././.!.E.P G D F G P E.W.W.W.W.W.W.W.W.W.W.W.W.W.W.W.W.E.P P G G G G G G G G G G F F G L ) ,.G.G.G.G.G.G.G.G.G.G.G.G.G.G.G.G.G.G.G.G.G.G.A.O. .| | | B w @               $ % 4 4 4 4 4 4 4 4 4 4 4 4 4 4 4 4 4 4 4 4 % X                                 O 2 r n n n V  .+.F.G.G.G.G.G.G.G.G.G.G.G.G.G.G.G.G.G.G.G.G.G.<.:.&.;.*.*.*.*.*.*.*.*.*.*.*.*.=.$.$.$.$.$.$.$.$.#.#.i y y y y u a n n n n n n n n n n n n n n n n n c r e w e w e b ~ ^ ^ ^ ~ ~ ^ [ mXAXGXGXGXGXGXGXGXGXGXGXGXGXGXGX",
"GXGXGXGXGXGXGXGXGXGXGXGXGXGXGXGXGXGXGXGXGXGXGXSXmX/ *                         # c X.F.R.G.G.G.G.G.G.G.G.G.K.H.2.XX^.~.~././././.!.E.P G D F G G P P P P P P P P P P P P P P P P P P P G G G G G G G G G G G F F D L ) ,.G.G.G.G.G.G.G.G.G.G.G.G.G.G.G.G.G.G.G.G.G.F.O.V r w w w 2 ; .             X 3 H I T I I I I I I I I I I I I I I I I I I 5 %                                 O 2 r n n n B  .+.F.G.G.G.G.G.G.G.G.G.G.G.G.G.G.G.G.G.G.G.G.G.<.:.&.;.*.*.*.*.*.*.*.*.*.*.*.*.$.$.#.i i i i #.#.i i y y y y y u a n n n n n n n n n n n n n n m n c e 2 > ; ; 1 b [ bXnXnXnXbXbXnXNXCXFXGXGXGXGXGXGXGXGXGXGXGXGXGXGX",
"GXGXGXGXGXGXGXGXGXGXGXGXGXGXGXGXGXGXGXGXGXGXGXSXmX/ *                         # c X.F.R.G.G.G.G.G.G.G.G.G.K.H.2.XX^.~.~././././.!.E.P G F G G G G G G G G G G G G G G G G G G G G G G G G G G G G G G G G G F F D L ) ,.G.G.G.G.G.G.G.G.G.G.G.G.G.G.G.G.G.G.G.G.L.F. .c ; . . O . X               X 5 I _._._._._._._._._._._._._._._._._._._.E I 3                                 O 2 r n n n B  .+.F.G.G.G.G.G.G.G.G.G.G.G.G.G.G.G.G.G.G.G.G.G.<.:.&.*.*.*.*.*.*.*.*.*.*.*.*.=.$.#.i y y y y y y y y y y y y y u a n n n n n n n n n n n n n n m m c q ; .     * ^ bXZXSXSXSXAXAXSXSXFXGXGXGXGXGXGXGXGXGXGXGXGXGXGXGX",
"GXGXGXGXGXGXGXGXGXGXGXGXGXGXGXGXGXGXGXGXGXGXGXSXmX/ *                         # r X.F.R.G.G.G.G.G.G.G.G.G.K.H.2.XX^.~.~.~./././.!.E.P G F G G G G G F F F F F F G G G F F F F G F F G G G G G G G G G G G G F F D L ) ,.G.R.G.G.G.G.G.G.G.G.G.G.G.G.G.G.G.G.G.G.R.D. .e O                         X 5 R [.OXOX}.}.}.}.}.}.}.}.}.}.}.}.}.}.OXOX_.I 3                                 O 2 r n n n B  .+.F.G.G.G.G.G.G.G.G.G.G.G.G.G.G.G.G.G.G.G.K.G.<.:.&.;.*.*.*.*.*.*.*.=.=.*.*.=.$.#.i y y y y y y y y y y y y y u a n n n n n n n n n n n n n n m m c 2 #       & / MXFXGXGXGXGXGXGXGXGXGXGXGXGXGXGXGXGXGXGXGXGXGXGXGX",
"GXGXGXGXGXGXGXGXGXGXGXGXGXGXGXGXGXGXGXGXGXGXGXSXmX/ *                         # c X.F.R.G.G.G.G.G.G.G.G.G.G.H.2.XX^.~.~.~./././.!.E.P G F G G G G G F F F F F F G G G G F F F F F F F G G G G G G G G G F G F F D L ) ,.G.L.G.G.G.G.G.G.G.G.G.G.G.G.G.G.G.G.G.G.R.D. .e O                         X 5 R [.+XOX}.}.}.}.}.}.}.}.}.}.}.}.}.}.OXOX_.I 3                                 O 2 r n n n V  .+.F.G.G.G.G.G.G.G.G.G.G.G.G.G.G.G.G.G.G.G.K.G.H.:.&.;.*.*.*.*.*.*.*.=.=.*.*.=.$.#.i y y y y y y y y y y y y y u a n n n n n n n n n n n n n n m m c 2 #       & / MXFXGXGXGXGXGXGXGXGXGXGXGXGXGXGXGXGXGXGXGXGXGXGXGX",
"GXGXGXGXGXGXGXGXGXGXGXGXGXGXGXGXGXGXGXGXGXGXGXSXmX/ *                         # c X.F.R.G.G.G.G.G.G.G.G.G.G.H.2.XX^.~.~.~./././.!.E.P G F G G G G G G G G G G G G G G G G G G G G G G G G G G G G G F F F F F F D L ) ,.G.R.G.G.G.G.G.G.G.G.G.G.G.G.G.G.G.G.G.G.L.D. .e @                         X 5 T _.}.}.[.[.[.[.[.[.[.[.[.[.[.[.[.[.}.}._.I 3                                 O 2 r n n n V  .+.F.G.G.G.G.G.G.G.G.G.G.G.G.G.G.G.G.G.G.G.K.G.<.:.&.*.*.*.*.*.*.*.*.=.=.*.*.=.$.#.i y y y y y y y y y y y y y u a n n n n n n n n n n n n n n m m c 2 #       * / mXSXGXGXGXGXGXGXGXGXGXGXGXGXGXGXGXGXGXGXGXGXGXGXGX",
"GXGXGXGXGXGXGXGXGXGXGXGXGXGXGXGXGXGXGXGXGXGXGXSXmX/ *                         # r X.F.R.G.G.G.G.G.G.G.G.G.G.H.2.XX^.~.~.~./././.!.E.P G F G G G G G G G G G G G G G G G F F F F F F F F F F F F F F F F F F F F G L ) ,.G.R.G.G.G.G.G.G.G.G.G.G.G.G.G.G.G.G.G.G.R.D. .e @                         X 5 T _.}.}.[.[.[.[.[.[.[.[.[.[.[.[.[.[.}.}._.I 3                                 O 2 r n n n V  .+.F.G.G.G.G.G.G.G.G.G.G.G.G.G.G.G.G.G.G.G.K.K.H.4.&.;.*.*.*.*.*.*.*.=.=.*.*.=.$.#.i y y y y y y y y y y y y y u a n n n n n n n n n n n n n n m m c 2 #       * / mXSXGXGXGXGXGXGXGXGXGXGXGXGXGXGXGXGXGXGXGXGXGXGXGX",
"GXGXGXGXGXGXGXGXGXGXGXGXGXGXGXGXGXGXGXGXGXGXGXSXmX/ *                         @ r X.F.R.G.G.G.G.G.G.G.G.G.G.H.2.XX^.~.~.~.~.(./.!.E.P G D F G G G G G G G G G G F F F F F F F F F F F F F F F F F F F F F F F F G L ) ,.G.G.G.G.G.G.G.G.G.G.G.G.G.G.G.G.G.G.G.G.R.D. .e @                         X 5 T _.}.}.[.[.[.[.[.[.[.[.[.[.[.[.[.[.}.[._.I 3                                 O 2 r n n n V  .+.F.G.G.G.G.G.G.G.G.G.G.K.G.K.K.G.G.K.G.L.K.L.H.4.&.;.*.*.*.*.*.*.*.*.*.*.-.*.$.#.i y y y y y y y y y y y y y u a n n n n n n n n n n n n n m m m c 2 #       * / mXSXGXGXGXGXGXGXGXGXGXGXGXGXGXGXGXGXGXGXGXGXGXGXGX",
"GXGXGXGXGXGXGXGXGXGXGXGXGXGXGXGXGXGXGXGXGXGXGXSXmX/ *                         # c X.F.R.G.G.G.G.G.G.G.G.G.G.H.2.XX^.~.~.~.~././.!.E.P G D F G G G G G G G G G G F G G G G G G G G G G G G G G G F F G G G G F F D L ) ,.G.G.G.G.G.G.G.G.G.G.G.G.G.G.G.G.G.G.G.G.L.D. .e @                         X 5 T _.}.}.[.[.[.[.[.[.[.[.[.[.[.[.[.[.}.[._.I 3                                 O 2 r n n n V  .+.F.G.G.G.G.G.G.G.G.G.G.G.G.G.G.F.F.F.G.G.G.G.<.4.&.=.*.*.=.*.*.*.*.*.*.*.*.=.$.#.i y y y y y y y y y y y y y u a n n n n n n n n n n n n n n m m c 2 #       * / mXSXGXGXGXGXGXGXGXGXGXGXGXGXGXGXGXGXGXGXGXGXGXGXGX",
"GXGXGXGXGXGXGXGXGXGXGXGXGXGXGXGXGXGXGXGXGXGXGXSXmX/ *       X + # ; ; ; ; # ; 2 m O.F.G.G.G.G.G.G.G.G.G.G.G.H.2.` ^.!.!.!.!.!.!.W.E.P G F F G G G G G G G F F G G D D K K K K K K K K K K K K K K K K L L K K K L ~ ) A.G.G.G.G.G.G.G.G.G.G.G.G.G.G.G.G.G.G.G.G.R.D. .e @         X % % % % % % % 3 H R _.}.}.[.[.[.[.[.[.[.[.[.[.[.[.[.[.}.}._.I 3                                 O 2 r n n n V  .+.F.G.G.G.G.G.G.H.<.<.<.<.<.<.,.,.,.,.,.,.,.,.1.:.%.$.$.$.$.$.$.$.$.$.$.$.$.$.#.#.i y y y y y y y y y y y y y u a n n n n n n n n n n n n n n m m c 2 #       * / mXSXGXGXGXGXGXGXGXGXGXGXGXGXGXGXGXGXGXGXGXGXGXGXGX",
"GXGXGXGXGXGXGXGXGXGXGXGXGXGXGXGXGXGXGXGXGXGXGXSXmX/ *       # 2 r v n c c c c B | ,.G.G.G.G.G.G.G.G.G.G.G.G.H.>.( Q.E.E.E.E.E.E.E.P G G F G G G G G G G G F F G D K L 0 0 0 L L L L L L L L L L ~ ^ ^ ) ) ) ^ ^ ) ) >.A.G.G.G.G.G.G.G.G.G.G.G.G.G.G.G.G.G.G.G.G.R.D. .e @       X 3 6 H H H H H H I T E ].}.[.[.[.[.[.[.[.[.[.[.[.[.[.[.[.}.}._.I 3                                 O 2 r n n n V  .+.F.G.G.G.G.G.G.<.:.4.3.3.3.:.:.{ { { { { { { { { #.#.#.#.#.#.#.#.#.#.#.#.#.#.#.i y y y y y y y y y y y y y y u a n n n n n n n n n n n n n n m m c 2 #       * / mXSXGXGXGXGXGXGXGXGXGXGXGXGXGXGXGXGXGXGXGXGXGXGXGX",
"GXGXGXGXGXGXGXGXGXGXGXGXGXGXGXGXGXGXGXGXGXGXGXSXmX/ *       ; c | O.O.O.O.O.O.O.,.D.G.G.G.G.G.G.G.G.F.F.G.T.H.>./ K P P P P P P P G G G G G G G G G G G F F F G K L r c v c c c c c c c c c c v Z >.>.>.>.>.>.>.>.,.A.H.G.G.G.G.G.G.G.G.G.G.G.G.G.G.G.G.G.G.G.G.R.D. .e @       % 6 T E E E E E E E _._.[.[.[.[.[.[.[.[.[.[.[.[.[.[.[.[.[.}.}._.I 3                                 O 2 r n n n V  .+.F.G.G.G.G.G.H.<.3.&.;.&.&.%.#.s s s s s s s s i i i i i i i i i i i i i i i i y y y y y y y y y y y y y y y u a n n n n n n n n n n n n n n m m c 2 #       * / mXSXGXGXGXGXGXGXGXGXGXGXGXGXGXGXGXGXGXGXGXGXGXGXGX",
"GXGXGXGXGXGXGXGXGXGXGXGXGXGXGXGXGXGXGXGXGXGXGXSXmX/ *       < B +.G.R.G.G.G.G.G.G.G.G.G.G.G.G.G.G.G.G.F.G.T.H.>.^ K F F F F F F F F G G G G G G G G G G F F F G K p v m m n n n n n n n n n n m | +.F.G.G.G.G.G.G.G.G.G.G.G.G.G.G.G.G.G.G.G.G.G.G.G.G.G.G.G.G.G.R.F. .e @       % H E [.}.[.[.[.[.[.[.[.[.[.[.[.[.[.[.[.[.[.[.[.[.[.[.[.[.}.}._.I 3                                 O 2 r n n n V  .+.F.G.G.G.G.G.H.:.3.;.*.*.=.$.#.i y y y y y y y y y y y y y y y y y y y y y y y y y y y y y y y y y y y y y y u a n n n n n n n n n n n n n m m m c 2 #       & / mXSXGXGXGXGXGXGXGXGXGXGXGXGXGXGXGXGXGXGXGXGXGXGXGX",
"GXGXGXGXGXGXGXGXGXGXGXGXGXGXGXGXGXGXGXGXGXGXGXSXmX/ *       2 V ,.R.R.R.R.R.R.G.G.G.G.G.G.G.G.G.G.G.H.F.G.Y.F.>.~ D F F F F F F F F F G G G G G G G G G F F F G K p m m V m m m m m m m m n n V  .+.G.T.T.Y.K.L.T.G.G.G.G.G.G.G.G.G.L.L.L.L.L.L.L.L.R.R.L.L.R.R.R.G. .e @       % H E [.OX}.[.[.[.[.[.[.[.[.[.[.[.[.[.[.[.[.[.[.[.[.[.[.[.}.}._.I 3                                 . 2 r n n n B  .+.F.G.G.G.G.G.H.:.3.;.*.-.=.$.#.i y y y y y y y y y y y y y y y y y y y y y y y y y y y y y y y y y y y y y y u a n n n n n n n n m m m m m m B B c 2 O       & ^ mXSXGXGXGXGXGXGXGXGXGXGXGXGXGXGXGXGXGXGXGXGXGXGXGX",
"GXGXGXGXGXGXGXGXGXGXGXGXGXGXGXGXGXGXGXGXGXGXGXSXmX/ *       2 B ,.G.R.G.G.G.G.G.G.G.G.G.G.G.G.G.G.G.G.G.G.T.F.>.~ K F F F F F F F F F G G G G G G G G G G F F G K p v m m m m m m m m n n n n m | +.G.G.G.G.G.G.G.G.G.G.G.G.G.G.G.G.G.G.G.G.G.G.G.G.G.G.G.G.G.R.R.F. .e @       % H E [.}.[.[.[.[.[.[.[.[.[.[.[.[.[.[.[.[.[.[.[.[.[.[.[.[.}.}._.I 3                                 O 2 r n n n B  .+.F.G.G.G.G.G.H.:.3.;.*.*.=.$.#.i y y y y y y y y y y y y y y y y y y y y y y y y y y y y y y y y y y y y y y u a n n n n n n n n n m m m m m B m c 2 +       & / mXSXGXGXGXGXGXGXGXGXGXGXGXGXGXGXGXGXGXGXGXGXGXGXGX",
"GXGXGXGXGXGXGXGXGXGXGXGXGXGXGXGXGXGXGXGXGXGXGXSXmX/ *       < B +.G.L.G.G.G.G.G.G.G.G.G.G.G.G.G.G.G.G.G.G.G.H.>.^ L K K K K K K K K G G G G G G G G G G G F F G K L c v v v v v v v v m m n n B | +.F.G.G.G.G.G.G.G.G.G.G.G.G.F.A.,.+.+.+.+.+.+.+.+.+.+.+.+.+.,.,.O.C w O       % I _.+X@X+X+X+X+X+XOX}.[.[.[.[.[.[.[.[.[.[.[.[.[.[.[.[.[.}.}._.I 3                   . . . . . X . # 2 c n n n B  .+.F.G.G.G.G.G.H.<.3.;.*.*.=.$.#.i y y y y y y y y y y y y y y y y y y y y y y y y y y y y y y y y y y y y y u u a n n n n n n n n c c c c c c c c r e 1 - * * 8 ] NXDXGXGXGXGXGXGXGXGXGXGXGXGXGXGXGXGXGXGXGXGXGXGXGX",
"GXGXGXGXGXGXGXGXGXGXGXGXGXGXGXGXGXGXGXGXGXGXGXSXmX/ *       < B +.G.L.G.G.G.G.G.G.G.G.G.G.G.G.G.G.G.G.G.G.G.H.>.) ^ ^ ~ ^ ^ ^ ^ Y L K G F F G G G G G G G F F G D L 0 p p 0 0 0 0 p c v n n n B | +.F.G.G.G.G.G.G.G.G.G.G.G.G.A.X.C B B B B B B B B B B B B B B V m r < .       3 T OX-X-X-X-X-X-X&X&X+X{.[.[.[.[.[.[.[.[.[.[.[.[.[.[.[.[.}.}._.I 3               . # ; < < > > > > 2 e c n n n V  .+.F.G.G.G.G.G.H.<.3.;.*.*.=.$.#.i y y y y y y y y y y y y y y y y y y y y y y y y y y y y y y y y y u u u u p a n n n n n n m n c e w 2 2 2 2 2 2 e b ( ' ' ' [ bXVXFXGXGXGXGXGXGXGXGXGXGXGXGXGXGXGXGXGXGXGXGXGXGXGX",
"GXGXGXGXGXGXGXGXGXGXGXGXGXGXGXGXGXGXGXGXGXGXGXSXmX/ *       2 B +.G.R.G.G.G.G.G.G.G.G.G.G.G.G.G.G.G.G.G.G.G.G.A.>.>.>.>.>.>.>.>.) ~ K G F F F F G G G G G F F G D D K K K K K K K L p v n n n B | +.F.G.G.G.G.G.G.G.G.G.G.G.G.+.V w < > < < < < < < < < < < < < 2 < ; O         4 W &X,X<X<X<X<X<X>X-X$X}.].[.[.[.[.[.[.[.[.[.[.[.[.[.[.[.}.}._.I 3               @ 2 w e e e e e e r c n n n n V  .+.F.G.G.G.G.K.H.:.3.;.*.*.=.$.#.i y y y y y y y y y y y y y y y y y y y y y y y y y y y y y y y y u a a a a a n n n n n n m m n c 2 ; # @ # # O + 1 ( vXBXVXVXVXCXSXGXGXGXGXGXGXGXGXGXGXGXGXGXGXGXGXGXGXGXGXGXGXGXGX",
"GXGXGXGXGXGXGXGXGXGXGXGXGXGXGXGXGXGXGXGXGXGXGXSXmX/ *       < B +.G.L.G.G.G.G.G.G.G.G.G.G.G.G.G.G.G.G.G.G.G.G.G.F.H.H.H.H.H.G.H.>.) L G F F F F G G G G G G G G G G G G G G G F G K L c n n n B | +.F.G.G.G.G.G.G.G.G.G.G.L.G.O.n ;                                             4 W ;X4X5X4X4X4X4X3X>X&X}.].[.[.[.[.[.[.[.[.[.[.[.[.[.[.[.}.}._.I 3               # 2 c n n n n n n n n n n n n V  .+.F.G.G.G.G.K.H.:.3.;.*.-.=.$.#.i y y y y y y y y y y y y y y y y y y y y y y y y y y y y y y y y u a n n n n n n n n n n m m n r 2 O             - ] BXFXGXGXGXGXGXGXGXGXGXGXGXGXGXGXGXGXGXGXGXGXGXGXGXGXGXGXGXGXGX",
"GXGXGXGXGXGXGXGXGXGXGXGXGXGXGXGXGXGXGXGXGXGXGXSXmX/ *       2 B +.G.L.G.G.G.G.G.G.G.G.G.G.G.G.G.G.G.G.G.G.G.G.G.G.G.Y.T.G.Y.T.Y.,.) L G F F G G G G G G G G G G F F F F F F F F F D L p n n n B | +.F.G.G.G.G.G.G.G.G.G.G.R.G.O.c #                                             4  X>X5X7X5X5X5X5X4X>X&X}.].[.[.[.[.[.[.[.[.[.[.[.[.[.[.[.}.}._.I 3               # w n B B m m m m m m n n n n V  .+.F.G.G.G.G.G.H.:.3.;.*.*.=.$.#.i y y y y y y y y y y y y y y y y y y y y y y y y y y y y y y y y u p n m m n n n n n n n m m n e < .             - ] VXGXGXGXGXGXGXGXGXGXGXGXGXGXGXGXGXGXGXGXGXGXGXGXGXGXGXGXGXGXGX",
"GXGXGXGXGXGXGXGXGXGXGXGXGXGXGXGXGXGXGXGXGXGXGXSXmX/ *       < B +.G.L.G.G.G.G.G.G.G.G.G.G.G.G.G.G.G.G.G.G.G.G.G.G.G.G.G.G.G.T.G.,.) L G F F G G G G G G G G G G G F F F F F F F F D L c n n n B | +.F.G.G.G.G.G.G.G.G.G.G.R.G.O.c #                                             4  X>X5X7X5X5X5X5X3X>X&X}.].[.[.[.[.[.[.[.[.[.[.[.[.[.[.[.}.}._.I 3               # w c B B m m m m m n n n n n V  .+.F.G.G.G.G.G.H.:.3.;.*.*.=.$.#.i y y y y y y y y y y y y y y y y y y y y y y y y y y y y y y y y u a n m m n n n n n n n m m n r < .             - ] VXGXGXGXGXGXGXGXGXGXGXGXGXGXGXGXGXGXGXGXGXGXGXGXGXGXGXGXGXGXGX",
"GXGXGXGXGXGXGXGXGXGXGXGXGXGXGXGXGXGXGXGXGXGXGXSXmX/ *       < B +.G.L.G.G.G.G.G.G.G.G.G.G.G.G.G.G.G.G.G.G.G.G.G.G.G.G.G.G.G.G.G.>.) L G F F G G G G G G G G G G G G G G G G F F F D L c n n n B | +.F.G.G.G.G.G.G.G.G.G.G.R.G.O.c ;                                             4 W >X4X5X5X4X5X5X3X>X&X}.].[.[.[.[.[.[.[.[.[.[.[.[.[.[.[.}.}._.I 3               # w c m m n n n n n n n n n n V  .+.F.G.G.G.G.G.H.:.3.;.*.*.=.$.#.i y y y y y y y y y y y y y y y y y y y y y y y y y y y y y y y y u a n m n n n n n n n n m m n r < .             - ] BXFXGXGXGXGXGXGXGXGXGXGXGXGXGXGXGXGXGXGXGXGXGXGXGXGXGXGXGXGXGX",
"GXGXGXGXGXGXGXGXGXGXGXGXGXGXGXGXGXGXGXGXGXGXGXSXmX/ *       2 B ,.R.R.G.G.G.G.G.G.G.G.G.G.G.G.G.G.G.G.G.G.G.G.G.G.G.G.G.G.G.G.G.>.) L F F F F F F G G G G G G G G G G G G G F F F D L c n n n B | +.F.G.G.G.G.G.G.G.G.G.R.R.G.O.c ;                                             4 W ;X4X5X5X4X5X5X3X>X&X}.].[.[.[.[.[.[.[.[.[.[.[.[.[.}.}.OXOX_.I 4               # w c m m n n n n n n n n n n V  .+.G.G.G.G.G.K.H.4.3.;.-.-.*.$.#.i y y y y y y y y y y y y y y y y y y y y y y y y y y y y y y y y u a n m n n n m m m m m m B n r < X             - ' BXFXGXGXGXGXGXGXGXGXGXGXGXGXGXGXGXGXGXGXGXGXGXGXGXGXGXGXGXGXGX",
"GXGXGXGXGXGXGXGXGXGXGXGXGXGXGXGXGXGXGXGXGXGXGXSXmX/ *       2 V A.R.R.R.G.G.G.G.G.G.G.G.G.G.G.G.G.G.G.G.G.G.G.G.G.G.G.G.G.G.G.G.>.) L F F F F F F G G G G G G G G G G G G F F F F D L c n n n B | +.F.G.G.G.G.G.G.G.G.G.R.R.L.O.n ;                                             4 W ;X4X7X5X4X5X5X3X>X&X}.].[.[.[.[.[.[.[.[.[.[.[.[.}.}.}.+XOX_.I 4               # w c m m n n n n n n n n n n V  .,.G.G.G.G.G.K.G.4.3.;.*.-.*.$.#.i y y y y y y y y y y y y y y y y y y y y y y y y y y y y y y y y u a n n n n n m m m m m B B m r >               * ' BXFXGXGXGXGXGXGXGXGXGXGXGXGXGXGXGXGXGXGXGXGXGXGXGXGXGXGXGXGXGX",
"GXGXGXGXGXGXGXGXGXGXGXGXGXGXGXGXGXGXGXGXGXGXGXSXmX/ *       < m O.D.F.D.D.D.D.D.F.F.G.G.G.G.G.G.G.G.G.G.G.G.G.G.G.G.G.G.G.G.G.G.,.) L K G G D G G G G G G G G G G G G G G F F F F D L c n n n B | +.F.G.G.G.G.G.G.F.D.D.D.F.D.X.c ;                   X X X X X X X X X X X   X 5  X>X4X5X5X4X5X5X3X>X&X}.].[.[.[.[.[.[.[.[.[.[.[.[.]._._.[.].E I 3               # w c m m n n n n n n n n n n B | +.D.G.F.F.F.F.D.<.:.;.=.*.=.$.#.i y y y y y y y y y y y y y y y y y y y y y y y y y y y y y y y y p a n n n n n n n n n n n n n e 2 * & & & &     8 [ VXGXGXGXGXGXGXGXGXGXGXGXGXGXGXGXGXGXGXGXGXGXGXGXGXGXGXGXGXGXGX",
"GXGXGXGXGXGXGXGXGXGXGXGXGXGXGXGXGXGXGXGXGXGXGXSXmX/ *       ; e V |  .| | | |  .O.A.G.G.G.G.G.G.G.G.G.G.G.G.G.G.G.G.G.G.G.G.G.G.,.>.^ L L L L K K G F F G G G G G G G G G F F F G D L c n n n B | +.F.G.G.G.G.G.G.A.O. .|  .| B w #               % 5 J U U J J J J J J J J J J T $X>X4X5X5X4X5X5X3X>X&X}.].[.[.[.[.[.[.[.[.[.[.[._.E R T R R I 6 %               # w c m m n n n n n n n n n n B C ..O.+.+.+.+.+.+.>.:.%.%.%.%.%.s s u u u u u u u u u u u u u u u u u y y y y y y y u u u u u u u u a n n n n n c r e w w e e e e e c ~ ^ ^ ^ ^ ~ ~ ( vXCXGXGXGXGXGXGXGXGXGXGXGXGXGXGXGXGXGXGXGXGXGXGXGXGXGXGXGXGXGXGX",
"GXGXGXGXGXGXGXGXGXGXGXGXGXGXGXGXGXGXGXGXGXGXGXSXmX/ *       + > 2 w e w w w w c C +.G.G.G.G.G.G.G.G.G.G.G.G.G.G.G.G.G.G.G.G.G.G.H.>.>.) ) ) ) ~ L G F F G G G G G G G G G F F F G D L c n n n B | +.F.G.G.G.G.G.F.O.V r w w w 2 ; .             X 6 W $X$X$X$X$X$X$X$X$X$X$X$X$X*X;X2X4X5X5X4X5X5X3X>X&X}.].[.[.[.[.[.[.[.[.[.}.[._.T H 5 5 5 5 3 X               # w c m m n n n n n n n n n n m V C | | | | | | | | { { { { { { s a a a a a a a a a a a a a a a p p p u y y y y y u p a a a a a a a a n n m m n r 2 < ; ; ; ; ; > e ' vXnXnXnXnXbXbXmXVXAXGXGXGXGXGXGXGXGXGXGXGXGXGXGXGXGXGXGXGXGXGXGXGXGXGXGXGXGXGXGX",
"GXGXGXGXGXGXGXGXGXGXGXGXGXGXGXGXGXGXGXGXGXGXGXSXmX/ *         . O + + O O . O < c O.F.L.G.G.G.G.G.G.G.G.G.G.G.G.G.G.G.G.G.G.G.G.H.H.A.A.A.A.>.) L D F F F F G G G G G G G G F F G D L c n n n B | +.F.G.G.G.G.L.D. .c ; . . O . X               % U $X>X3X2X<X<X<X<X<X<X<X<X<X<X2X3X4X4X5X4X4X5X5X3X>X&X}.].[.[.[.[.[.[.[.[.[.}.[.E I 3 X X X X X                 # w c m m n n n n n n n n n n m m B B B B B B B B m m m m m M m M n n n n n n n n n n n n n n n n n a u y y y y u p a n n n n n n n n n n m m n w > .     X     . 9 cXVXSXFXSXSXAXAXSXFXGXGXGXGXGXGXGXGXGXGXGXGXGXGXGXGXGXGXGXGXGXGXGXGXGXGXGXGXGXGXGX",
"GXGXGXGXGXGXGXGXGXGXGXGXGXGXGXGXGXGXGXGXGXGXGXSXmX/ *                         # r X.F.R.G.G.G.G.G.G.G.G.G.G.G.G.G.G.G.G.G.G.G.G.G.G.G.G.T.T.A.) L D F F F F F F F F F F F F F F F D L p n n n B | +.F.G.G.G.G.R.D. .e +                         % U &X4X7X7X5X5X5X5X5X5X5X5X5X5X5X5X5X4X4X4X4X5X5X3X>X&X}.].].[.[.[.[.[.[.[.}.OX[.E H %                           # w c m m n n n n n n n n n n n n n n n n n n n n n n n n n n n n n n n n n n n n n n n n n n n n n a u y y y y u p n n n m n n n n n n n m m c w ;               9 vXZXGXGXGXGXGXGXGXGXGXGXGXGXGXGXGXGXGXGXGXGXGXGXGXGXGXGXGXGXGXGXGXGXGXGXGXGXGXGXGX",
"GXGXGXGXGXGXGXGXGXGXGXGXGXGXGXGXGXGXGXGXGXGXGXSXmX/ *                         @ r X.F.R.G.G.G.G.G.G.G.G.G.G.G.G.G.G.G.G.G.G.G.G.G.G.G.R.T.T.A.) L G F F F F F F F F F F F F F F F D L r n n n B | +.F.G.G.G.G.R.D. .e O                         $ U &X4X7X7X5X5X5X5X5X5X5X5X5X5X5X5X5X4X4X4X4X5X5X3X>X&X}.].].[.[.}.}.}.}.}.}.+X}.E H %                           # 2 c m m n n n n n n n n n n n n n n n n n n n n n n n n n n n n n n n n n n n n n n n n n n n m n a u y y y y u a n n n n n n n n n n n m m c w ;               9 vXAXGXGXGXGXGXGXGXGXGXGXGXGXGXGXGXGXGXGXGXGXGXGXGXGXGXGXGXGXGXGXGXGXGXGXGXGXGXGXGX",
"GXGXGXGXGXGXGXGXGXGXGXGXGXGXGXGXGXGXGXGXGXGXGXSXmX/ *                         # c X.F.R.G.G.G.G.G.G.G.G.G.G.G.G.G.G.G.G.G.G.G.G.G.G.G.G.R.R.A.) L K F F G G G G G G G G G G G F G K L c n m n B | +.F.G.G.G.G.R.D. .e @                         % T *X3X5X5X4X5X5X5X5X5X4X4X4X4X4X4X4X4X4X4X4X5X5X3X>X&X}.].[.[.[.[.[.[.[.[.[.}.[.E H %                           # w c m m n n n n n n n n n n n n n n n n n n n n n n n n n n n n n n n n n n n n n n n n n n n n n a u y y y y u a n n n n n n n n n n n m m n w ;               9 vXZXGXGXGXGXGXGXGXGXGXGXGXGXGXGXGXGXGXGXGXGXGXGXGXGXGXGXGXGXGXGXGXGXGXGXGXGXGXGXGX",
"GXGXGXGXGXGXGXGXGXGXGXGXGXGXGXGXGXGXGXGXGXGXGXSXmX/ *                         # c X.F.R.G.G.G.G.G.G.G.G.G.G.G.G.G.G.G.G.G.G.G.G.G.G.G.G.G.G.A.>.^ L L L L L L L L L L L L L L L L L ~ V V C C C ..+.F.G.G.G.G.R.F. .e @       X % 4 6 6 6 6 5 5 J  X;X3X5X5X4X4X4X4X4X4X4X4X4X4X4X4X4X4X4X4X4X5X5X3X>X&X}.].[.[._._.E E R E E E E T 6 3 @ + + @ @ @ @ @ @ @ O O # < e c m m n n n n n n n n n n n n n n n n n n n n n n n n n n n n n n n n n n n n n n n n n n n n n a p u y y u u a n n n n n n n n n n n m m c w ;               9 vXZXGXGXGXGXGXGXGXGXGXGXGXGXGXGXGXGXGXGXGXGXGXGXGXGXGXGXGXGXGXGXGXGXGXGXGXGXGXGXGX",
"GXGXGXGXGXGXGXGXGXGXGXGXGXGXGXGXGXGXGXGXGXGXGXSXmX/ *                         # c X.F.R.G.G.G.G.G.G.G.G.G.G.G.G.G.G.G.G.G.G.G.G.G.G.G.G.G.G.H.>.>.) ) ) ) ) ) ) ) ) ) ) ) ) ) ) ) ) Z ..X.....O.+.A.F.G.G.G.G.R.F. .e @       % J W  X X X X X X X*X>X4X5X5X4X4X4X4X4X4X4X4X4X4X4X4X4X4X4X4X4X5X5X3X>X&X}.[.[.].E T H H H H H H H 6 7 2 2 2 2 2 2 2 2 2 2 2 2 2 2 w r n m m n n n n n n n n n n n n n n n n n n n n n n n n n n n n n n n n n n n n n n n n n n n n n n a a p p p a a n n n n n n n n n n n m m n w ;               9 vXZXGXGXGXGXGXGXGXGXGXGXGXGXGXGXGXGXGXGXGXGXGXGXGXGXGXGXGXGXGXGXGXGXGXGXGXGXGXGXGX",
"GXGXGXGXGXGXGXGXGXGXGXGXGXGXGXGXGXGXGXGXGXGXGXSXmX/ *                         # c X.F.R.G.G.G.G.G.G.G.G.G.G.G.G.G.G.G.G.G.G.G.G.G.G.G.G.G.G.F.H.,.>.>.>.>.>.>.,.>.>.>.>.,.,.>.>.>.,.,.A.A.A.A.A.D.F.G.G.G.G.G.R.D. .e @       4 T *X>X,X>X>X>X>X>X<X3X4X5X5X5X4X4X4X4X4X4X4X4X4X4X4X4X4X4X4X4X5X5X3X>X&X}.[.[._.R H 3 % $ % % $ % = 2 e c c c c c c c c c c c c c c n n n n n n n n n n n n n n n n n n n n n n n n n n n n n n n n n n n n n n n n n n n n n n n n n n n n n n n n n n n n n n n n n n n n m m n w ;               9 vXZXGXGXGXGXGXGXGXGXGXGXGXGXGXGXGXGXGXGXGXGXGXGXGXGXGXGXGXGXGXGXGXGXGXGXGXGXGXGXGX",
"GXGXGXGXGXGXGXGXGXGXGXGXGXGXGXGXGXGXGXGXGXGXGXSXmX/ *                         # c X.F.R.G.G.G.G.G.G.G.G.G.G.G.G.G.G.G.G.G.G.G.G.G.G.G.G.G.G.G.G.G.G.G.G.G.G.G.G.G.G.G.G.G.G.G.G.G.G.G.G.G.G.G.G.G.G.G.G.G.G.G.R.D. .e @       4  X>X5X7X5X5X5X5X5X5X5X4X5X5X4X4X4X4X4X4X4X4X4X4X4X4X4X4X4X4X4X5X5X3X>X&X}.[.}._.T 5 X             O 2 r n B m n n n n n n n n n n n n n n n n n n n n n n n n n n n n n n n n n n n n n n n n n n n n n n n n n n n n n n n n n n n n n n n n n n n n n n n n n n n n n n n m m n w ;               9 vXZXGXGXGXGXGXGXGXGXGXGXGXGXGXGXGXGXGXGXGXGXGXGXGXGXGXGXGXGXGXGXGXGXGXGXGXGXGXGXGX",
"GXGXGXGXGXGXGXGXGXGXGXGXGXGXGXGXGXGXGXGXGXGXGXSXmX/ *                         # c X.F.R.G.G.G.G.G.G.G.G.G.G.G.G.G.G.G.G.G.G.G.G.G.G.G.G.G.G.G.G.G.G.G.Y.T.G.Y.G.T.G.G.G.T.Y.G.G.G.G.G.G.G.G.G.G.G.G.G.G.G.G.G.R.D. .e @       5  X>X5X7X7X5X5X5X5X5X5X4X4X4X4X4X4X4X4X4X4X4X4X4X4X4X4X4X4X4X4X5X5X3X>X&XOX[.}._.T 5 X             O 2 r m B B m m m m m m m m m m m m n n n n n n n n n n n n n n n n n n n n n n n n n n n n n n n n n n n n n n n n n n n n n n n n n n n n n n n n n n n n n n n n n n n m m c w ;               9 vXZXGXGXGXGXGXGXGXGXGXGXGXGXGXGXGXGXGXGXGXGXGXGXGXGXGXGXGXGXGXGXGXGXGXGXGXGXGXGXGX",
"GXGXGXGXGXGXGXGXGXGXGXGXGXGXGXGXGXGXGXGXGXGXGXSXmX/ *                         # c X.F.R.G.G.G.G.G.G.G.G.G.G.G.G.G.G.G.G.G.G.G.G.G.G.G.G.G.G.G.G.G.G.G.G.G.G.G.G.G.G.G.G.G.G.G.G.G.G.G.G.G.G.G.G.G.G.G.G.G.G.G.R.D. .e @       4  X>X5X7X5X5X5X5X5X5X5X4X4X4X4X4X4X4X4X4X4X4X4X4X4X4X4X4X4X4X4X5X5X3X>X&XOX[.}._.T 5 X             O 2 r n m m n n n n n n n n n n n n n n n n n n n n n n n n n n n n n n n n n n n n n n n n n n n n n n n n n n n n n n n n n n n n n n n n n n n n n n n n n n n n n n n m m c w ;               9 vXZXGXGXGXGXGXGXGXGXGXGXGXGXGXGXGXGXGXGXGXGXGXGXGXGXGXGXGXGXGXGXGXGXGXGXGXGXGXGXGX",
"GXGXGXGXGXGXGXGXGXGXGXGXGXGXGXGXGXGXGXGXGXGXGXSXmX/ *                         # c X.F.G.G.G.G.G.G.G.G.G.G.G.G.G.G.G.G.G.G.G.G.G.G.G.G.G.G.G.G.G.G.G.G.G.G.G.G.G.G.G.G.G.G.G.G.G.G.G.G.G.G.G.G.G.G.G.G.G.G.G.G.R.F. .e @       4  X>X4X5X5X4X4X4X4X4X4X4X4X4X4X4X4X4X4X4X4X4X4X4X4X4X4X4X4X4X4X5X5X3X>X&X}.[.}._.T 5 X             O 2 r n m n n n n n n n n n n n n n n n n n n n n n n n n n n n n n n n n n n n n n n n n n n n n n n n n n n n n n n n n n n n n n n n n n n n n n n n n n n n n n n n n m m n w ;               9 vXZXGXGXGXGXGXGXGXGXGXGXGXGXGXGXGXGXGXGXGXGXGXGXGXGXGXGXGXGXGXGXGXGXGXGXGXGXGXGXGX",
"GXGXGXGXGXGXGXGXGXGXGXGXGXGXGXGXGXGXGXGXGXGXGXSXmX/ *                         # r X.F.G.G.G.G.G.G.G.G.G.G.G.G.G.G.G.G.G.G.G.G.G.G.G.G.G.G.G.G.G.G.G.G.G.G.G.G.G.G.G.G.G.G.G.G.G.G.G.G.G.G.G.G.L.L.L.L.L.L.L.R.R.G. .r @       4  X>X4X5X5X4X4X4X4X4X4X4X4X4X4X4X4X4X4X4X4X4X4X4X4X4X4X4X4X4X4X5X5X3X>X&XOX[.}._.T 5 X             + 2 r n m n n n n n n n n n n n n n n n n n n n n n n n n n n n n n n n n n n n n n n n n n n n n n n n n n n n n n n n n n n n n n n n n n n n n n n n n n n n n n m m m B B n w #               9 cXZXGXGXGXGXGXGXGXGXGXGXGXGXGXGXGXGXGXGXGXGXGXGXGXGXGXGXGXGXGXGXGXGXGXGXGXGXGXGXGX",
"GXGXGXGXGXGXGXGXGXGXGXGXGXGXGXGXGXGXGXGXGXGXGXSXmX/ *                         # c X.F.R.G.G.G.G.G.G.G.G.G.G.G.G.G.G.G.G.G.G.G.G.G.G.G.G.G.G.G.G.G.G.G.G.G.G.G.G.G.G.G.G.G.G.G.G.G.G.G.G.G.G.G.G.G.G.G.G.G.G.R.R.F. .e @       4  X>X4X5X5X4X4X4X4X4X4X4X4X4X4X4X4X4X4X4X4X4X4X4X4X4X4X4X4X4X4X5X5X3X>X&X}.[.[._.T 5 X             O 2 r n m m n n n n n n n n n n n n n n n n n n n n n n n n n n n n n n n n n n n n n n n n n n n n n n n n n n n n n n n n n n n n n n n n n n n n n n n n n n n n n m m m B n w #               9 vXZXGXGXGXGXGXGXGXGXGXGXGXGXGXGXGXGXGXGXGXGXGXGXGXGXGXGXGXGXGXGXGXGXGXGXGXGXGXGXGX",
"GXGXGXGXGXGXGXGXGXGXGXGXGXGXGXGXGXGXGXGXGXGXGXSXmX/ *                         # c X.F.L.G.G.G.G.G.G.G.G.G.G.G.G.G.G.G.G.G.G.G.G.G.G.G.G.G.G.G.G.G.G.G.G.G.G.G.G.G.G.G.G.G.G.G.G.G.F.A.,.+.+.+.+.+.+.+.+.+.+.,.A.O.C w @       4  X>X4X5X5X4X4X4X4X4X4X4X4X4X4X4X4X4X4X4X4X4X4X4X4X4X4X4X4X4X4X5X5X3X>X&X}.[.}._.T 5 X             O 2 r n m m n n n n n n n n n n n n n n n n n n n n n n n n n n n n n n n n n n n n n n n n n n n n n n n n n n n n n n n n n n n n n n n n n n n n n n n n n n n n n c c c c c e 2 1 - - - - * 7 ^ bXZXGXGXGXGXGXGXGXGXGXGXGXGXGXGXGXGXGXGXGXGXGXGXGXGXGXGXGXGXGXGXGXGXGXGXGXGXGXGXGX",
"GXGXGXGXGXGXGXGXGXGXGXGXGXGXGXGXGXGXGXGXGXGXGXSXmX/ *                         # c X.F.R.G.G.G.G.G.G.G.G.G.G.G.G.G.G.G.G.G.G.G.G.G.G.G.G.G.G.G.G.G.G.G.G.G.G.G.G.G.G.G.G.G.G.G.G.G.A.O.C B B B B B B B B B B B V B r < .       4 W >X4X5X5X4X4X4X4X4X4X4X4X4X4X4X4X4X4X4X4X4X4X4X4X4X4X4X4X4X4X5X5X3X>X&X}.[.}._.T 5 X             O 2 r n m n n n n n n n n n n n n n n n n n n n n n n n n n n n n n n n n n n n n n n n n n n n n n n n n n n n n n n n n n n n n n n n n n n n n n n n n n n m m n r w 2 2 2 w c / ' ] ] ] ' ' ] vXBXSXGXGXGXGXGXGXGXGXGXGXGXGXGXGXGXGXGXGXGXGXGXGXGXGXGXGXGXGXGXGXGXGXGXGXGXGXGXGXGX",
"GXGXGXGXGXGXGXGXGXGXGXGXGXGXGXGXGXGXGXGXGXGXGXSXmX/ *                         # r X.F.R.G.G.G.G.G.G.G.G.G.G.G.G.G.G.G.G.G.G.G.G.G.G.G.G.G.G.G.G.G.G.G.G.G.G.G.G.G.G.G.G.G.G.G.G.G.,.C e 2 < < 2 2 2 2 2 < < 2 2 < ; @         4 W ;X4X5X5X4X4X4X4X4X4X4X4X4X4X4X4X4X4X4X4X4X4X4X4X4X4X4X4X4X4X5X5X3X>X&X}.[.}._.T 5 X             O 2 r n m m n n n n n n n n n n n n n n n n n n n n n n n n n n n n n n n n n n n n n n n n n n n n n n n n n n n n n n n n n n n n n n n n n n n n n n n n n m m c w < # O O > ^ cXNXVXVXBXBXBXVXVXAXFXGXGXGXGXGXGXGXGXGXGXGXGXGXGXGXGXGXGXGXGXGXGXGXGXGXGXGXGXGXGXGXGXGXGXGXGXGXGXGX",
"GXGXGXGXGXGXGXGXGXGXGXGXGXGXGXGXGXGXGXGXGXGXGXSXmX/ *                         # c X.F.R.G.G.G.G.G.G.G.G.G.G.G.G.G.G.G.G.G.G.G.G.G.G.G.G.G.G.G.G.G.G.G.G.G.G.G.G.G.G.G.G.G.G.G.L.G.O.m < X                                     4 W >X4X5X5X4X4X4X4X4X4X4X4X4X4X4X4X4X4X4X4X4X4X4X4X4X4X4X4X4X4X5X5X3X>X&X}.[.}._.T 5 X             O 2 r n m n n n n n n n n n n n n n n n n n n n n n n n n n n n n n n n n n n n n n n n n n n n n n n n n n n n n n n n n n n n n n n n n n n n n n n n n n m m m c 2 #       * / nXSXGXGXGXFXFXGXGXGXGXGXGXGXGXGXGXGXGXGXGXGXGXGXGXGXGXGXGXGXGXGXGXGXGXGXGXGXGXGXGXGXGXGXGXGXGXGXGXGX",
"GXGXGXGXGXGXGXGXGXGXGXGXGXGXGXGXGXGXGXGXGXGXGXSXmX/ *                         # c X.F.R.G.G.G.G.G.G.G.G.G.G.G.G.G.G.G.G.G.G.G.G.G.G.G.G.G.G.G.G.G.G.G.G.G.G.G.G.G.G.G.G.G.G.G.R.G.O.n ;                                       4  X>X4X5X5X4X4X4X4X4X4X4X4X4X4X4X4X4X4X4X4X4X4X4X4X4X4X4X4X4X4X5X5X3X>X&X}.[.}._.T 5 X             O 2 r n m m n n n n n n n n n n n n n n n n n n n n n n n n n n n n n n n n n n n n n n n n n n n n n n n n n n n n n n n n n n n n n n n n n n n n n n n n m m m c 2 @       & / NXFXGXGXGXGXGXGXGXGXGXGXGXGXGXGXGXGXGXGXGXGXGXGXGXGXGXGXGXGXGXGXGXGXGXGXGXGXGXGXGXGXGXGXGXGXGXGXGXGX",
"GXGXGXGXGXGXGXGXGXGXGXGXGXGXGXGXGXGXGXGXGXGXGXSXmX/ *                         # c X.F.R.G.G.G.G.G.G.G.G.G.G.G.G.G.G.G.G.G.G.G.G.G.G.G.G.G.G.G.G.G.G.G.G.G.G.G.G.G.G.G.G.G.G.G.R.G.O.n ;                                       4  X>X4X5X5X4X4X4X4X4X4X4X4X4X4X4X4X4X4X4X4X4X4X4X4X4X4X4X4X4X4X5X5X3X>X&X}.[.}._.T 5 X             O 2 r n m n n n n n n n n n n n n n n n n n n n n n n n n n n n n n n n n n n n n n n n n n n n n n n n n n n n n n n n n n n n n n n n n n n n n n n n n n m m m c 2 #       & / mXFXGXGXGXGXGXGXGXGXGXGXGXGXGXGXGXGXGXGXGXGXGXGXGXGXGXGXGXGXGXGXGXGXGXGXGXGXGXGXGXGXGXGXGXGXGXGXGXGX",
"GXGXGXGXGXGXGXGXGXGXGXGXGXGXGXGXGXGXGXGXGXGXGXSXmX/ *                         # c X.F.R.G.G.G.G.G.G.G.G.G.G.G.G.G.G.G.G.G.G.G.G.G.G.G.G.G.G.G.G.G.G.G.G.G.G.G.G.G.G.G.G.G.G.G.R.G.O.n >                                       4  X>X4X5X5X4X4X4X4X4X4X4X4X4X4X4X4X4X4X4X4X4X4X4X4X4X4X4X4X4X4X5X5X3X>X&X}.[.}._.T 5 X             O 2 r n m m n n n n n n n n n n n n n n n n n n n n n n n n n n n n n n n n n n n n n n n n n n n n n n n n n n n n n n n n n n n n n n n n n n n n n n n n n m m c 2 #       * / mXSXGXGXGXGXGXGXGXGXGXGXGXGXGXGXGXGXGXGXGXGXGXGXGXGXGXGXGXGXGXGXGXGXGXGXGXGXGXGXGXGXGXGXGXGXGXGXGXGX",
"GXGXGXGXGXGXGXGXGXGXGXGXGXGXGXGXGXGXGXGXGXGXGXSXmX/ &                         # c O.G.R.R.G.G.G.G.G.G.G.G.G.G.G.G.G.G.G.G.G.G.G.G.G.G.G.G.G.G.G.G.G.G.G.G.G.G.G.G.G.G.G.G.G.G.R.R.+.m >                                       4 W >X4X5X5X4X4X4X4X4X4X4X4X4X4X4X4X4X4X4X4X4X4X4X4X4X4X4X4X4X4X5X5X3X>X&XOX}.}.].R 5 X             O 2 c m B m m m m m m m m m m n n n n n n n n n n n n n n n n n n n n n n n n n n n n n n n n n n n n n n n n n n n n n n n n n n n n m m m m m m m m m n m m B m c 2 O       & ^ mXSXGXGXGXGXGXGXGXGXGXGXGXGXGXGXGXGXGXGXGXGXGXGXGXGXGXGXGXGXGXGXGXGXGXGXGXGXGXGXGXGXGXGXGXGXGXGXGXGX",
"GXGXGXGXGXGXGXGXGXGXGXGXGXGXGXGXGXGXGXGXGXGXGXSXmX^ &                         # c O.G.R.R.L.R.R.R.L.L.L.L.L.G.G.G.G.G.G.G.G.G.G.G.G.G.G.G.G.G.G.G.L.R.R.L.L.L.L.L.L.R.R.L.L.R.R.R.+.m <                                       4 W ;X4X5X5X4X4X4X4X4X4X4X4X4X4X4X4X4X4X4X4X4X4X4X4X4X4X4X4X4X4X5X5X3X>X&XOX}.OX[.R 5 X             O 2 c m B m m m m m m m m m m m m n n n n n n n n n n n n n n n n n n n n n n n n n n n n n n n n n n n n n n n n n n n n n n n n n n m m m m m m m m m m m m B B c 2 O       X ^ mXSXGXGXGXGXGXGXGXGXGXGXGXGXGXGXGXGXGXGXGXGXGXGXGXGXGXGXGXGXGXGXGXGXGXGXGXGXGXGXGXGXGXGXGXGXGXGXGXGX",
"GXGXGXGXGXGXGXGXGXGXGXGXGXGXGXGXGXGXGXGXGXGXGXSXmX( -     & &                 # r  .A.F.D.D.D.D.D.D.D.D.D.D.D.D.F.G.G.G.G.G.G.G.G.G.G.G.G.G.G.F.D.D.D.D.D.D.D.D.D.D.D.D.D.D.D.F.D.O.n ;           X X X X X X X X X X X X   X 6  X>X4X5X5X4X4X4X4X4X4X4X4X4X4X4X4X4X4X4X4X4X4X4X4X4X4X4X4X4X4X5X5X3X>X&X{._.]._.T 5 X             O 2 r n n n n n n n n n n n n n n n n n n n n n n n n n n n n n n n n n n n n n n n n n n n n n n n n n n n n n n n n n n n n n n n n n n n n n n n n n n n n n n c 2 > &     - ( mXSXGXGXGXGXGXGXGXGXGXGXGXGXGXGXGXGXGXGXGXGXGXGXGXGXGXGXGXGXGXGXGXGXGXGXGXGXGXGXGXGXGXGXGXGXGXGXGXGX",
"GXGXGXGXGXGXGXGXGXGXGXGXGXGXGXGXGXGXGXGXGXGXGXFXVXcX/ ~ ^ ^ 9 - &             + 2 m |  .| | | | | | | | | | | X.+.D.G.G.G.G.G.G.G.G.G.G.G.G.D.,.X.| | | | | | | | | | | | | |  .| V e #         % 5 J U U J J J J J J J J J U T $X>X4X5X5X4X4X4X4X4X4X4X4X4X4X4X4X4X4X4X4X4X4X4X4X4X4X4X4X4X4X5X5X3X;X{.R T T T H 4 X             . ; 2 e e e e e e e e e e e e e r c n n n n n n n n n n n n n n n n n n n n n n n n n n n n n n n n n n n n n n n n n n n n n n n n c r e e e e e e e e e e e e e e r b ^ ~ ~ / cXVXFXGXGXGXGXGXGXGXGXGXGXGXGXGXGXGXGXGXGXGXGXGXGXGXGXGXGXGXGXGXGXGXGXGXGXGXGXGXGXGXGXGXGXGXGXGXGXGXGX",
"GXGXGXGXGXGXGXGXGXGXGXGXGXGXGXGXGXGXGXGXGXGXGXGXAXBXnXnXnXbX[ ~ *             . ; 2 w e w w w w w w w w w w e n  .A.G.G.G.G.G.G.G.G.G.G.G.G.A. .m e w w w w w w w w w w w w w e w 2 ; .       X 6 W $X$X$X$X$X$X$X$X$X$X$X$X$X*X>X2X5X5X5X4X4X4X4X4X4X4X4X4X4X4X4X4X4X4X4X4X4X4X4X4X4X4X4X4X4X5X5X<X*XW H 5 5 5 4 %                 O # ; > ; ; ; ; ; ; ; ; ; ; > 2 e n m m n n n n n n n n n n n n n n n n n n n n n n n n n n n n n n n n n n n n n n n n n n n m n r 2 < ; ; ; ; ; ; ; ; ; ; ; ; 2 / 2.bXnXnXnXBXAXGXGXGXGXGXGXGXGXGXGXGXGXGXGXGXGXGXGXGXGXGXGXGXGXGXGXGXGXGXGXGXGXGXGXGXGXGXGXGXGXGXGXGXGXGXGXGXGXGX",
"GXGXGXGXGXGXGXGXGXGXGXGXGXGXGXGXGXGXGXGXGXGXGXGXFXDXSXSXFXAXmX' -               X . O O O O O O + + O O . . @ 2 V ,.G.G.G.G.G.G.G.G.G.G.G.G.A.C w # . . O O O O O O O O + + O + O . X         % U $X>X3X2X<X<X<X<X<X<X<X<X<X<X2X3X4X4X5X4X4X4X4X4X4X4X4X4X4X4X4X4X4X4X4X4X4X4X4X4X4X4X4X4X4X4X5X5X<X$XI %   X X X                       X X X X X X X X X X     . ; w c m m n n n n n n n n n n n n n n n n n n n n n n n n n n n n n n n n n n n n n n n n n n m m n e < O     X X X X X X X X     1 ' MXAXDXSXSXFXFXGXGXGXGXGXGXGXGXGXGXGXGXGXGXGXGXGXGXGXGXGXGXGXGXGXGXGXGXGXGXGXGXGXGXGXGXGXGXGXGXGXGXGXGXGXGXGXGXGX",
"GXGXGXGXGXGXGXGXGXGXGXGXGXGXGXGXGXGXGXGXGXGXGXGXGXGXGXGXGXGXVX] -                                             < B ,.R.R.G.G.G.G.G.G.G.G.R.R.A.V 2                                             % T &X4X7X7X5X5X5X5X5X5X5X5X5X5X5X5X5X4X4X4X4X4X4X4X4X4X4X4X4X4X4X4X4X4X4X4X4X4X4X5X5X5X5X5X5X5X7X7X2X$XJ X                                                         # w c m B m m m m m m n n m m m m m m m m m m m m m m m m m n m m m m m m m m m m m m m m m n m m n e ;                           - ] VXGXGXGXGXGXGXGXGXGXGXGXGXGXGXGXGXGXGXGXGXGXGXGXGXGXGXGXGXGXGXGXGXGXGXGXGXGXGXGXGXGXGXGXGXGXGXGXGXGXGXGXGXGXGXGX",
"GXGXGXGXGXGXGXGXGXGXGXGXGXGXGXGXGXGXGXGXGXGXGXGXGXGXGXGXGXGXVX] -                                             ; m ,.R.R.R.R.R.R.R.R.R.R.R.R.A.V 2                                             % T &X4X7X7X5X5X5X5X5X5X5X5X5X5X5X5X5X4X4X4X4X4X4X4X4X4X4X4X4X4X4X4X4X4X4X4X4X4X4X5X5X5X5X5X5X5X7X7X3X$XJ                                                           # w n B B m m m m m m m m m m m m m m m m m m m m m m m m m m m m m m m m m m m m m m m m m m B B n e ;                           * ' VXGXGXGXGXGXGXGXGXGXGXGXGXGXGXGXGXGXGXGXGXGXGXGXGXGXGXGXGXGXGXGXGXGXGXGXGXGXGXGXGXGXGXGXGXGXGXGXGXGXGXGXGXGXGXGX",
"GXGXGXGXGXGXGXGXGXGXGXGXGXGXGXGXGXGXGXGXGXGXGXGXGXGXGXGXGXGXBX] -                                           X 2 B +.G.G.G.G.G.F.F.F.F.F.G.G.,.V 2 X                                           % U *X3X7X5X5X5X5X5X5X5X5X5X5X4X4X4X4X4X4X4X4X4X4X4X4X4X4X4X4X4X4X4X4X4X4X4X4X4X4X4X4X4X4X4X4X4X5X5X<X$XJ X                                                         # q c n m n n n n n n n n n n n n n n n n n n n n n n n n n n n n n n n n n n n n n n n n n n n m n e > .                         7 ] VXGXGXGXGXGXGXGXGXGXGXGXGXGXGXGXGXGXGXGXGXGXGXGXGXGXGXGXGXGXGXGXGXGXGXGXGXGXGXGXGXGXGXGXGXGXGXGXGXGXGXGXGXGXGXGX",
"GXGXGXGXGXGXGXGXGXGXGXGXGXGXGXGXGXGXGXGXGXGXGXGXGXGXGXGXGXGXBX] -                                 % 4 5 5 5 6 p M | O.O.X.X.X.X.X.X.X.X.O.O.| c < X             X % % 3 3 3 3 3 3 % $         % U *X3X5X5X5X5X5X4X4X4X4X4X4X4X4X4X4X4X4X4X4X4X4X4X4X4X4X4X4X4X4X4X4X4X4X4X5X5X4X3X<X>X;X;X;X;X;X;X*XW 6 X       X % % 3 3 % 3 % 3 3 3 3 3 3 3 % % X               # 2 e r r r r r r r e r r r r r r r r r r r r r r r r r r r r r r r r r r r r r r r r r r r r r r e e e 9 9 9 9 9 9 9 9 9 9 9 9 9 ^ vXVXGXGXGXGXGXGXGXGXGXGXGXGXGXGXGXGXGXGXGXGXGXGXGXGXGXGXGXGXGXGXGXGXGXGXGXGXGXGXGXGXGXGXGXGXGXGXGXGXGXGXGXGXGXGXGX",
"GXGXGXGXGXGXGXGXGXGXGXGXGXGXGXGXGXGXGXGXGXGXGXGXGXGXGXGXGXGXBX] -                               X 4 U  X{.{. XW Y a r r c c c c c c c c c c e 2 #               % 4 H I I I I I I H 4 $       % U *X3X5X5X4X4X4X4X4X4X4X4X4X4X4X4X4X4X4X4X4X4X4X4X4X4X4X4X4X4X4X4X4X4X4X4X5X5X4X<X&X XW W W W W W T J 3         % 5 H I I I I I I I I I I I I H 5 %               . # < 2 2 < < < < < < < < < < < < < < < < < < < < < < < < < < < < < < < < < < < < < < < < < < < > 2 c ' I.vXvXvXvXvXvXvXvXvXvXcXvXbXBXAXGXGXGXGXGXGXGXGXGXGXGXGXGXGXGXGXGXGXGXGXGXGXGXGXGXGXGXGXGXGXGXGXGXGXGXGXGXGXGXGXGXGXGXGXGXGXGXGXGXGXGXGXGXGXGX",
"GXGXGXGXGXGXGXGXGXGXGXGXGXGXGXGXGXGXGXGXGXGXGXGXGXGXGXGXGXGXBX] -                               $ J  X;X,X<X>X%XT 1 # + # # # # # # # # # # # O X               3 H R _._._._._._.R H %       % U *X3X5X5X4X4X4X4X4X4X4X4X4X4X4X4X4X4X4X4X4X4X4X4X4X4X4X4X4X4X4X4X4X4X4X4X5X5X4X>X XU 4 % 3 4 4 4 3 % X         3 I R _._._.E E E _._.).).).).E I 3                 X . . . . . . . . . . . . . . . . . . . . . . . . . . . . . . . . . . . . . . . . . . . . . X X # ~ vXVXZXAXZXZXZXZXZXZXZXZXZXZXZXSXFXGXGXGXGXGXGXGXGXGXGXGXGXGXGXGXGXGXGXGXGXGXGXGXGXGXGXGXGXGXGXGXGXGXGXGXGXGXGXGXGXGXGXGXGXGXGXGXGXGXGXGXGXGXGXGX",
"GXGXGXGXGXGXGXGXGXGXGXGXGXGXGXGXGXGXGXGXGXGXGXGXGXGXGXGXGXGXBX] -                               % U %X3X7X7X4X;XT %                                             3 I _.}.}.[.}.OX}._.I %       % U *X3X5X5X4X4X4X4X4X4X4X4X4X4X4X4X4X4X4X4X4X4X4X4X4X4X4X4X4X4X4X4X4X4X4X4X5X5X4X>XW 4                         X 4 I _.}.}.[.[.[.}.}.}.+X+X+X+X).I 4                                                                                                                 & ^ nXSXGXGXGXGXGXGXGXGXGXGXGXGXGXGXGXGXGXGXGXGXGXGXGXGXGXGXGXGXGXGXGXGXGXGXGXGXGXGXGXGXGXGXGXGXGXGXGXGXGXGXGXGXGXGXGXGXGXGXGXGXGXGXGXGXGXGXGXGXGXGX",
"GXGXGXGXGXGXGXGXGXGXGXGXGXGXGXGXGXGXGXGXGXGXGXGXGXGXGXGXGXGXBX] -                               % U *X3X8X8X5X;XT %                                             4 I _.OXOX}.OX+X}._.I 3       % U *X3X5X5X4X4X4X4X4X4X4X4X4X4X4X4X4X4X4X4X4X4X4X4X4X4X4X4X4X4X4X4X4X4X4X4X5X5X4X;XW 4                         X 4 T _.OXOX}.}.}.}.OX+X+X+X@X@X`.I 4                                                                                                                 & ^ nXSXGXGXGXGXGXGXGXGXGXGXGXGXGXGXGXGXGXGXGXGXGXGXGXGXGXGXGXGXGXGXGXGXGXGXGXGXGXGXGXGXGXGXGXGXGXGXGXGXGXGXGXGXGXGXGXGXGXGXGXGXGXGXGXGXGXGXGXGXGXGX",
"GXGXGXGXGXGXGXGXGXGXGXGXGXGXGXGXGXGXGXGXGXGXGXGXGXGXGXGXGXGXBX] -                               $ U %X3X7X7X4X;XT %                                             4 I _.}.}.[.[.}.}._.I %       % U *X3X5X5X4X4X4X4X4X4X4X4X4X4X4X4X4X4X4X4X4X4X4X4X4X4X4X4X4X4X4X4X4X4X4X4X5X5X4X>XW 4                         X 4 I _.}.}.[.[.[.}.}.OX+X+X+X+X).I 4                                                                                                                 & ^ nXSXGXGXGXGXGXGXGXGXGXGXGXGXGXGXGXGXGXGXGXGXGXGXGXGXGXGXGXGXGXGXGXGXGXGXGXGXGXGXGXGXGXGXGXGXGXGXGXGXGXGXGXGXGXGXGXGXGXGXGXGXGXGXGXGXGXGXGXGXGXGX",
"GXGXGXGXGXGXGXGXGXGXGXGXGXGXGXGXGXGXGXGXGXGXGXGXGXGXGXGXGXGXBX] -                               $ U %X2X7X7X4X=XT %                                             3 I _.}.}.[.[.}.[.E I %       % U *X3X5X5X4X4X4X4X4X4X4X4X4X4X4X4X4X4X4X4X4X4X4X4X4X4X4X4X4X4X4X4X4X4X4X5X5X5X4X>XW 4                         X 4 I _.}.}.[.[.[.[.}.}.+X+X+X+X).I 3                                                                                                                 & ^ bXAXGXGXGXGXGXGXGXGXGXGXGXGXGXGXGXGXGXGXGXGXGXGXGXGXGXGXGXGXGXGXGXGXGXGXGXGXGXGXGXGXGXGXGXGXGXGXGXGXGXGXGXGXGXGXGXGXGXGXGXGXGXGXGXGXGXGXGXGXGXGX",
"GXGXGXGXGXGXGXGXGXGXGXGXGXGXGXGXGXGXGXGXGXGXGXGXGXGXGXGXGXFXBX' *                               $ U %X2X7X7X4X&XT %                                             3 I _.}.}.[.[.}.[.E I 3       % U *X3X7X5X4X4X4X4X4X4X4X4X4X4X4X4X4X4X4X4X4X4X4X4X4X4X4X4X4X4X4X4X4X5X5X5X5X7X5X>XW 4                         X 4 I _.}.}.[.[.[.[.[.}.OX+X+X+X).I 3                                                                                                                   ~ bXAXGXGXGXGXGXGXGXGXGXGXGXGXGXGXGXGXGXGXGXGXGXGXGXGXGXGXGXGXGXGXGXGXGXGXGXGXGXGXGXGXGXGXGXGXGXGXGXGXGXGXGXGXGXGXGXGXGXGXGXGXGXGXGXGXGXGXGXGXGXGX",
"GXGXGXGXGXGXGXGXGXGXGXGXGXGXGXGXGXGXGXGXGXGXGXGXGXGXGXGXGXFXBX' -                               $ U %X2X7X7X4X=XT %                                             3 I _.}.}.[.[.}.[.E I %       % U *X3X7X5X4X4X4X4X4X4X4X4X4X4X4X4X4X4X4X4X4X4X4X4X4X4X4X4X4X4X4X4X4X4X5X4X5X7X5X>X X4                         X 4 I _.}.}.[.[.[.[.[.}.OX+X+X+X).I 3                                                                                                                   ~ bXSXGXGXGXGXGXGXGXGXGXGXGXGXGXGXGXGXGXGXGXGXGXGXGXGXGXGXGXGXGXGXGXGXGXGXGXGXGXGXGXGXGXGXGXGXGXGXGXGXGXGXGXGXGXGXGXGXGXGXGXGXGXGXGXGXGXGXGXGXGXGX",
"GXGXGXGXGXGXGXGXGXGXGXGXGXGXGXGXGXGXGXGXGXGXGXGXGXGXGXGXGXGXVX[ 9 - * - - - - - *               $ U %X2X7X7X4X;XW 6 % % % % % % % % % % % % % % % $ $ $ $ $ X % 5 I _.}.}.[.[.}.[.E I %       % T *X3X7X5X4X4X4X4X4X4X4X4X4X4X4X4X4X4X4X4X4X4X4X4X4X4X4X4X4X4X4X4X4X4X4X3X3X4X3X;X X6 $ X X $ % $ $ X           4 I _.}.}.[.[.[.[.[.}.}.+X+X+X`.T 5 % X X $ $ $ $ X                   & - - - - - - - - - - - - - - - - - - - - - - - - - - - - - - - - - - - - - * 8 ( mXSXGXGXGXGXGXGXGXGXGXGXGXGXGXGXGXGXGXGXGXGXGXGXGXGXGXGXGXGXGXGXGXGXGXGXGXGXGXGXGXGXGXGXGXGXGXGXGXGXGXGXGXGXGXGXGXGXGXGXGXGXGXGXGXGXGXGXGXGXGXGX",
"GXGXGXGXGXGXGXGXGXGXGXGXGXGXGXGXGXGXGXGXGXGXGXGXGXGXGXGXGXGXZXmX[ ] ' ] ] ] ] ( 9 =             $ U %X2X7X7X4X>X$XW T T T T T T T T T T T T T I J H 6 6 6 6 6 H I R _.[.}.[.[.}.[.E I %       % T *X3X7X5X4X4X4X4X4X4X4X4X4X4X4X4X4X4X4X4X4X4X4X4X4X4X4X4X4X4X5X5X4X3X<X>X>X>X>X&X`.I 6 5 6 6 H H 5 4 $       X 4 I _.}.}.[.[.[.[.[.}.}.+X+X+X].E I H 6 6 6 6 H 6 4 %               * 9 / ] ] ] ] ] ] ] ] ] ] ] ] ] ] ] ] ] ] ] ] ] ] ] ] ] ] ] ] ] ] ] ] ] ] ] ' ' [ vXVXFXGXGXGXGXGXGXGXGXGXGXGXGXGXGXGXGXGXGXGXGXGXGXGXGXGXGXGXGXGXGXGXGXGXGXGXGXGXGXGXGXGXGXGXGXGXGXGXGXGXGXGXGXGXGXGXGXGXGXGXGXGXGXGXGXGXGXGXGXGXGX",
"GXGXGXGXGXGXGXGXGXGXGXGXGXGXGXGXGXGXGXGXGXGXGXGXGXGXGXGXGXGXSXZXVXBXBXBXVXVXVXnX] 8             $ U %X2X5X5X4X2X>X;X=X&X=X=X;X;X=X=X-X;X;X;X&X$X_.R R R R R R R E _.].[.[.[.[.}.[._.I %       % T *X3X5X5X5X4X4X4X4X4X4X4X4X4X4X4X4X4X4X4X4X4X4X4X4X4X4X4X4X4X5X5X4X<X:X&X&X&X&X$X`.E R R R R R R T H 3         4 I _.}.}.[.[.[.[.}.}.OXoXoX+X}._.E R R R R R R T I 4 X             7 ( bXBXVXVXBXBXBXBXBXBXBXBXBXBXBXBXBXBXBXBXBXBXBXBXBXBXBXBXBXBXBXBXBXBXBXBXBXBXVXCXAXGXGXGXGXGXGXGXGXGXGXGXGXGXGXGXGXGXGXGXGXGXGXGXGXGXGXGXGXGXGXGXGXGXGXGXGXGXGXGXGXGXGXGXGXGXGXGXGXGXGXGXGXGXGXGXGXGXGXGXGXGXGXGXGXGXGXGXGXGXGXGX",
"GXGXGXGXGXGXGXGXGXGXGXGXGXGXGXGXGXGXGXGXGXGXGXGXGXGXGXGXGXGXGXGXGXGXFXGXGXGXGXCXcX9             $ U %X2X5X5X5X4X4X5X4X3X4X4X4X4X3X3X4X4X4X4X<X>X&X{._._.].].].[.[.[.[.[.[.[.[.}.[.E I %       % U *X3X5X5X5X4X4X4X4X4X4X4X4X4X4X4X4X4X4X4X4X4X4X4X4X4X4X4X4X4X5X5X4X<X-X+X{.[.{.{.{.].].].].].[.[._.I 4 X     X 4 I _.}.}.[.[.[.[.}.}.OXoXoXoXOX}.[.].].].].[.[._.T 5 X             8 [ VXGXGXGXGXGXFXFXFXFXGXGXGXGXGXGXGXGXFXGXFXFXGXGXGXGXGXGXGXGXFXFXFXFXGXGXFXFXGXGXGXGXGXGXGXGXGXGXGXGXGXGXGXGXGXGXGXGXGXGXGXGXGXGXGXGXGXGXGXGXGXGXGXGXGXGXGXGXGXGXGXGXGXGXGXGXGXGXGXGXGXGXGXGXGXGXGXGXGXGXGXGXGXGXGXGXGXGXGXGXGXGX",
"GXGXGXGXGXGXGXGXGXGXGXGXGXGXGXGXGXGXGXGXGXGXGXGXGXGXGXGXGXGXGXGXGXGXGXGXGXGXGXAXvX9             $ U %X2X5X5X5X5X5X5X5X5X5X5X5X5X5X5X7X7X7X7X5X,X&XOX[.[.}.}.}.}.}.}.}.}.}.}.}.OX}._.I %       $ U *X3X5X5X4X4X4X4X4X4X4X4X4X4X4X4X4X4X4X4X4X4X4X4X4X4X4X4X4X4X5X5X4X,X&XOX_._.].[.[.[.[.}.}.}.OX}._.I 4 X     X 4 I _.}.}.[.[.[.[.}.}.OXoXoX+XOXOX}.}.}.}.}.OX+X[.R 5 X             8 cXZXGXGXGXGXGXGXGXGXGXGXGXGXGXGXGXGXGXGXGXGXGXGXGXGXGXGXGXGXGXGXGXGXGXGXGXGXGXGXGXGXGXGXGXGXGXGXGXGXGXGXGXGXGXGXGXGXGXGXGXGXGXGXGXGXGXGXGXGXGXGXGXGXGXGXGXGXGXGXGXGXGXGXGXGXGXGXGXGXGXGXGXGXGXGXGXGXGXGXGXGXGXGXGXGXGXGXGXGXGXGXGX",
"GXGXGXGXGXGXGXGXGXGXGXGXGXGXGXGXGXGXGXGXGXGXGXGXGXGXGXGXGXGXGXGXGXGXGXGXGXGXGXZXvX9             $ U %X2X5X5X5X5X5X5X5X5X5X5X5X5X5X5X5X5X7X7X4X>X&XOX[.[.}.}.}.}.}.}.}.}.}.}.}.OX}._.I %       X U *X3X5X5X5X4X4X4X4X4X4X4X4X4X4X4X4X4X4X4X4X4X4X4X4X4X4X4X4X4X5X5X4X,X&X+X].].[.[.[.[.[.[.[.[.}.}._.I 4 X     X 4 I _.}.}.[.[.[.[.}.}.OXoXoX+XOX}.}.}.[.}.}.}.OX].R 5 X             8 cXCXGXGXGXGXGXGXGXGXGXGXGXGXGXGXGXGXGXGXGXGXGXGXGXGXGXGXGXGXGXGXGXGXGXGXGXGXGXGXGXGXGXGXGXGXGXGXGXGXGXGXGXGXGXGXGXGXGXGXGXGXGXGXGXGXGXGXGXGXGXGXGXGXGXGXGXGXGXGXGXGXGXGXGXGXGXGXGXGXGXGXGXGXGXGXGXGXGXGXGXGXGXGXGXGXGXGXGXGXGXGXGX",
"GXGXGXGXGXGXGXGXGXGXGXGXGXGXGXGXGXGXGXGXGXGXGXGXGXGXGXGXGXGXGXGXGXGXGXGXGXGXGXZXvX9             % U %X2X5X5X5X5X4X4X4X4X4X4X4X4X4X4X4X4X4X4X<X>X&X}.].[.[.[.[.[.[._._._._._._.]._.E I 4 $   X 4 T &X3X5X5X4X4X4X4X4X4X4X4X4X4X4X4X4X4X4X4X4X4X4X4X4X4X4X4X4X4X5X5X4X,X-X+X[.].[.{.}.}.OXOXOXOX+XOX`.T 4 X     X 4 I _.}.}.[.[.[.[.[.}.OXoXoXoXOX}.}.[.[.[.[.}.}._.T 5 X             8 [ CXGXGXGXGXGXGXGXGXGXGXGXGXGXGXGXGXGXGXGXGXGXGXGXGXGXGXGXGXGXGXGXGXGXGXGXGXGXGXGXGXGXGXGXGXGXGXGXGXGXGXGXGXGXGXGXGXGXGXGXGXGXGXGXGXGXGXGXGXGXGXGXGXGXGXGXGXGXGXGXGXGXGXGXGXGXGXGXGXGXGXGXGXGXGXGXGXGXGXGXGXGXGXGXGXGXGXGXGXGXGXGX",
"GXGXGXGXGXGXGXGXGXGXGXGXGXGXGXGXGXGXGXGXGXGXGXGXGXGXGXGXGXGXGXGXGXGXGXGXGXGXGXZXvX9             % U %X2X5X5X5X5X4X4X4X4X4X4X5X4X4X<X,X>X>X>X>X-X$X}.[.[.[.[.[.[._.E T T T T T T T T I I I U I T  X;X3X5X5X4X4X4X4X4X4X4X4X4X4X4X4X4X4X4X4X4X4X4X4X4X4X4X4X4X4X5X5X4X,X-X+X]._.[.OX@X&X&X&X&X&X&X&X$XW 5 X     X 4 I _.}.}.[.[.[.[.[.}.OX+X+XoXOX}.}.[.[.[.[.}.}._.T 5 X             8 [ CXGXGXGXGXGXGXGXGXGXGXGXGXGXGXGXGXGXGXGXGXGXGXGXGXGXGXGXGXGXGXGXGXGXGXGXGXGXGXGXGXGXGXGXGXGXGXGXGXGXGXGXGXGXGXGXGXGXGXGXGXGXGXGXGXGXGXGXGXGXGXGXGXGXGXGXGXGXGXGXGXGXGXGXGXGXGXGXGXGXGXGXGXGXGXGXGXGXGXGXGXGXGXGXGXGXGXGXGXGXGXGX",
"GXGXGXGXGXGXGXGXGXGXGXGXGXGXGXGXGXGXGXGXGXGXGXGXGXGXGXGXGXGXGXGXGXGXGXGXGXGXGXZXvX9             % U %X2X5X5X5X5X4X4X4X4X4X5X5X5X3X>X-X&X&X&X&X$XOX{.[.[.[.[.}.[.E I 6 4 4 5 5 4 4 H T {.$X%X%X*X;X<X4X5X5X4X4X4X4X4X4X4X4X4X4X4X4X4X4X4X4X4X4X4X4X4X4X4X4X4X4X5X5X4X<X-X+X[._.[.+X&X:X>X>X>X>X,X,X;X X6 X     X 4 I _.}.}.[.[.[.[.[.}.OX+X+X+XOX}.}.[.[.[.[.}.}._.T 5 X             8 iXCXGXGXGXGXGXGXGXGXGXGXGXGXGXGXGXGXGXGXGXGXGXGXGXGXGXGXGXGXGXGXGXGXGXGXGXGXGXGXGXGXGXGXGXGXGXGXGXGXGXGXGXGXGXGXGXGXGXGXGXGXGXGXGXGXGXGXGXGXGXGXGXGXGXGXGXGXGXGXGXGXGXGXGXGXGXGXGXGXGXGXGXGXGXGXGXGXGXGXGXGXGXGXGXGXGXGXGXGXGXGXGX",
"GXGXGXGXGXGXGXGXGXGXGXGXGXGXGXGXGXGXGXGXGXGXGXGXGXGXGXGXGXGXGXGXGXGXGXGXGXGXGXZXvX9             $ U %X2X5X5X5X4X4X4X4X4X4X5X5X5X1X>X&XOX}.}.}.}.{.[.[.[.[.}.}.].R H %     X X     4 W &X2X3X3X3X3X4X4X5X4X4X4X4X4X4X4X4X4X4X4X4X4X4X4X4X4X4X4X4X4X4X4X4X4X4X4X5X5X4X<X-X+X]._.[.@X-X<X4X4X4X4X4X4X,X$XJ X       4 I _.}.}.[.[.[.[.[.}.OX+X+X+XOX}.}.[.[.[.[.}.}._.T 5 X             8 cXCXGXGXGXGXGXGXGXGXGXGXGXGXGXGXGXGXGXGXGXGXGXGXGXGXGXGXGXGXGXGXGXGXGXGXGXGXGXGXGXGXGXGXGXGXGXGXGXGXGXGXGXGXGXGXGXGXGXGXGXGXGXGXGXGXGXGXGXGXGXGXGXGXGXGXGXGXGXGXGXGXGXGXGXGXGXGXGXGXGXGXGXGXGXGXGXGXGXGXGXGXGXGXGXGXGXGXGXGXGXGXGX",
"GXGXGXGXGXGXGXGXGXGXGXGXGXGXGXGXGXGXGXGXGXGXGXGXGXGXGXGXGXGXGXGXGXGXGXGXGXGXGXZXvX9             $ U %X2X5X5X4X4X4X4X4X4X4X5X5X5X1X-X@X[._.].].[.[.[.[.[.[.}.}.].R 6 X             3 W ;X5X7X7X5X5X5X5X5X4X4X4X4X4X4X4X4X4X4X4X4X4X4X4X4X4X4X4X4X4X4X4X4X4X4X4X5X5X4X<X-X+X]._.[.$X-X<X5X5X5X5X7X5X2X$XJ X       4 I _.}.}.[.[.[.[.[.}.OX+X+X+XOX}.}.[.[.[.[.}.}._.T 5 X             8 cXCXGXGXGXGXGXGXGXGXGXGXGXGXGXGXGXGXGXGXGXGXGXGXGXGXGXGXGXGXGXGXGXGXGXGXGXGXGXGXGXGXGXGXGXGXGXGXGXGXGXGXGXGXGXGXGXGXGXGXGXGXGXGXGXGXGXGXGXGXGXGXGXGXGXGXGXGXGXGXGXGXGXGXGXGXGXGXGXGXGXGXGXGXGXGXGXGXGXGXGXGXGXGXGXGXGXGXGXGXGXGXGX",
"GXGXGXGXGXGXGXGXGXGXGXGXGXGXGXGXGXGXGXGXGXGXGXGXGXGXGXGXGXGXGXGXGXGXGXGXGXGXGXZXvX9             $ U %X2X5X5X5X4X4X4X4X4X4X5X5X4X1X-X@X[._.].[.[.[.[.[.[.[.}.}.].R 6 X             3 W ;X5X7X7X5X5X5X5X5X4X4X4X4X4X4X4X4X4X4X4X4X4X4X4X4X4X4X4X4X4X4X4X4X4X4X4X5X5X4X<X-X+X]._.[.$X-X<X5X5X5X5X7X5X2X$XJ X     X 4 I _.}.}.[.[.[.[.[.}.OX+X+X+XOX}.}.[.[.[.[.}.}._.T 5 X             8 cXCXGXGXGXGXGXGXGXGXGXGXGXGXGXGXGXGXGXGXGXGXGXGXGXGXGXGXGXGXGXGXGXGXGXGXGXGXGXGXGXGXGXGXGXGXGXGXGXGXGXGXGXGXGXGXGXGXGXGXGXGXGXGXGXGXGXGXGXGXGXGXGXGXGXGXGXGXGXGXGXGXGXGXGXGXGXGXGXGXGXGXGXGXGXGXGXGXGXGXGXGXGXGXGXGXGXGXGXGXGXGXGX",
"GXGXGXGXGXGXGXGXGXGXGXGXGXGXGXGXGXGXGXGXGXGXGXGXGXGXGXGXGXGXGXGXGXGXGXGXGXGXGXZXvX9             $ U %X2X5X5X4X4X4X4X4X4X4X4X5X4X1X;X$X[.].[.[.[.[.[.[.[.[.}.}.].R 6 $             3 W ;X4X5X5X4X4X4X5X5X4X4X4X4X4X4X4X4X4X4X4X4X4X4X4X4X4X4X4X4X4X4X4X4X4X4X4X4X5X4X<X-X+X{._.{.$X-X<X4X5X5X5X5X5X<X$XJ X     X 4 I _.}.}.[.[.[.[.[.}.OXoXoX+XOX}.}.[.[.[.[.}.}._.T 5 X             8 [ CXGXGXGXGXGXGXGXGXGXGXGXGXGXGXGXGXGXGXGXGXGXGXGXGXGXGXGXGXGXGXGXGXGXGXGXGXGXGXGXGXGXGXGXGXGXGXGXGXGXGXGXGXGXGXGXGXGXGXGXGXGXGXGXGXGXGXGXGXGXGXGXGXGXGXGXGXGXGXGXGXGXGXGXGXGXGXGXGXGXGXGXGXGXGXGXGXGXGXGXGXGXGXGXGXGXGXGXGXGXGXGX",
"GXGXGXGXGXGXGXGXGXGXGXGXGXGXGXGXGXGXGXGXGXGXGXGXGXGXGXGXGXGXGXGXGXGXGXGXGXGXGXZXvX9             $ U %X2X5X5X4X4X4X4X4X4X4X4X5X4X1X;X$X{.].[.[.[.[.[.[.[.[.}.}.].R 6 $             4 W ;X4X5X5X4X4X4X4X4X4X4X4X4X4X4X4X4X4X4X4X4X4X4X4X4X4X4X4X4X4X4X4X4X4X4X4X4X5X4X<X-X+X]._.[.@X-X<X4X5X5X5X5X5X<X$XJ X     X 4 I _.}.}.[.[.[.[.[.}.OXoXoX+XOX}.}.[.[.[.[.}.}._.T 5 X             8 [ CXGXGXGXGXGXGXGXGXGXGXGXGXGXGXGXGXGXGXGXGXGXGXGXGXGXGXGXGXGXGXGXGXGXGXGXGXGXGXGXGXGXGXGXGXGXGXGXGXGXGXGXGXGXGXGXGXGXGXGXGXGXGXGXGXGXGXGXGXGXGXGXGXGXGXGXGXGXGXGXGXGXGXGXGXGXGXGXGXGXGXGXGXGXGXGXGXGXGXGXGXGXGXGXGXGXGXGXGXGXGXGX",
"GXGXGXGXGXGXGXGXGXGXGXGXGXGXGXGXGXGXGXGXGXGXGXGXGXGXGXGXGXGXGXGXGXGXGXGXGXGXGXZXvX9             $ I %X2X5X5X4X4X4X4X4X4X4X5X5X5X1X;X$X[.].[.[.[.[.[.[.[.[.}.}.].R 6 $             3 W ;X4X5X5X4X4X4X4X4X4X4X4X4X4X4X4X4X4X4X4X4X4X4X4X4X4X4X4X4X4X4X4X4X4X4X4X5X5X4X,X&XOX_._.].@X-X<X4X5X5X5X5X5X<X$XJ X       4 I _.}.}.[.[.[.[.[.}.OX+X+X+XOX}.}.[.[.[.[.}.}._.R 5 X             8 [ CXGXGXGXGXGXGXGXGXGXGXGXGXGXGXGXGXGXGXGXGXGXGXGXGXGXGXGXGXGXGXGXGXGXGXGXGXGXGXGXGXGXGXGXGXGXGXGXGXGXGXGXGXGXGXGXGXGXGXGXGXGXGXGXGXGXGXGXGXGXGXGXGXGXGXGXGXGXGXGXGXGXGXGXGXGXGXGXGXGXGXGXGXGXGXGXGXGXGXGXGXGXGXGXGXGXGXGXGXGXGXGX",
"GXGXGXGXGXGXGXGXGXGXGXGXGXGXGXGXGXGXGXGXGXGXGXGXGXGXGXGXGXGXGXGXGXGXGXGXGXGXGXZXvX9             $ I %X2X5X5X4X4X4X4X4X4X4X5X5X5X<X;X$X[.].[.[.[.[.[.[.[.[.}.}.].R 6 $             3 W ;X4X5X5X4X4X4X4X4X4X4X4X4X4X4X4X4X4X4X4X4X4X4X4X4X4X4X4X4X4X4X4X4X4X4X4X5X5X4X<X-X+X[._.[.$X-X<X5X5X5X5X5X5X<X$XJ X       4 I _.}.}.[.[.[.[.[.}.OX+X+X+XOX}.}.[.[.[.[.}.}._.R 5 X             8 [ CXGXGXGXGXGXGXGXGXGXGXGXGXGXGXGXGXGXGXGXGXGXGXGXGXGXGXGXGXGXGXGXGXGXGXGXGXGXGXGXGXGXGXGXGXGXGXGXGXGXGXGXGXGXGXGXGXGXGXGXGXGXGXGXGXGXGXGXGXGXGXGXGXGXGXGXGXGXGXGXGXGXGXGXGXGXGXGXGXGXGXGXGXGXGXGXGXGXGXGXGXGXGXGXGXGXGXGXGXGXGXGX",
"GXGXGXGXGXGXGXGXGXGXGXGXGXGXGXGXGXGXGXGXGXGXGXGXGXGXGXGXGXGXGXGXGXGXGXGXGXGXGXZXvX9             $ U %X2X5X5X4X4X4X4X4X4X4X5X5X5X1X;X$X[.].[.[.[.[.[.[.[.[.}.}.].R 6 $             3 W ;X4X5X5X4X4X4X4X4X4X4X4X4X4X4X4X4X4X4X4X4X4X4X4X4X4X4X4X4X4X4X4X4X4X4X4X5X5X4X<X;X&X$X@X$X&X>X1X5X5X5X5X5X5X<X$XJ X     X 4 I _.}.}.[.[.[.[.[.}.}.}.OXOX}.}.}.}.[.[.[.}.OX].R 5 X             8 XXCXGXGXGXGXGXGXGXGXGXGXGXGXGXGXGXGXGXGXGXGXGXGXGXGXGXGXGXGXGXGXGXGXGXGXGXGXGXGXGXGXGXGXGXGXGXGXGXGXGXGXGXGXGXGXGXGXGXGXGXGXGXGXGXGXGXGXGXGXGXGXGXGXGXGXGXGXGXGXGXGXGXGXGXGXGXGXGXGXGXGXGXGXGXGXGXGXGXGXGXGXGXGXGXGXGXGXGXGXGXGXGX",
"GXGXGXGXGXGXGXGXGXGXGXGXGXGXGXGXGXGXGXGXGXGXGXGXGXGXGXGXGXGXGXGXGXGXGXGXGXGXGXZXvX9             $ U %X2X5X5X4X4X4X4X4X4X4X5X5X5X1X;X$X[.].[.[.[.[.[.[.[.[.}.}.].R 6 $             3 W ;X4X5X5X4X4X4X4X4X4X4X4X4X4X4X4X4X4X4X4X4X4X4X4X4X4X4X4X4X4X4X4X4X4X4X4X5X5X4X3X,X>X-X-X;X>X<X3X5X5X5X5X5X5X<X$XJ X     X 4 I _.}.}.[.[.[.[.[.}.}.}.}.}.}.}.}.}.}.}.}.OX+X[.R 5 X             8 iXCXGXGXGXGXGXGXGXGXGXGXGXGXGXGXGXGXGXGXGXGXGXGXGXGXGXGXGXGXGXGXGXGXGXGXGXGXGXGXGXGXGXGXGXGXGXGXGXGXGXGXGXGXGXGXGXGXGXGXGXGXGXGXGXGXGXGXGXGXGXGXGXGXGXGXGXGXGXGXGXGXGXGXGXGXGXGXGXGXGXGXGXGXGXGXGXGXGXGXGXGXGXGXGXGXGXGXGXGXGXGXGX",
"GXGXGXGXGXGXGXGXGXGXGXGXGXGXGXGXGXGXGXGXGXGXGXGXGXGXGXGXGXGXGXGXGXGXGXGXGXGXGXZXvX9             $ U %X2X5X5X5X4X4X4X4X4X4X5X5X5X1X:X$X[.].[.[.[.[.[.[.[.[.}.}.].R 6 $             3 W ;X4X5X5X4X4X4X4X4X4X4X4X4X4X4X4X4X4X4X4X4X4X4X4X4X4X4X4X4X4X4X4X4X4X4X4X4X4X4X4X3X1X<X<X<X3X4X4X4X4X4X4X5X5X<X$XJ X     X 4 I _.}.}.[.[.[.[.[.[.[.[.[.[.}.}.}.OX+XOXOX+X+X[.R 5 X             8 XXCXGXGXGXGXGXGXGXGXGXGXGXGXGXGXGXGXGXGXGXGXGXGXGXGXGXGXGXGXGXGXGXGXGXGXGXGXGXGXGXGXGXGXGXGXGXGXGXGXGXGXGXGXGXGXGXGXGXGXGXGXGXGXGXGXGXGXGXGXGXGXGXGXGXGXGXGXGXGXGXGXGXGXGXGXGXGXGXGXGXGXGXGXGXGXGXGXGXGXGXGXGXGXGXGXGXGXGXGXGXGXGX",
"GXGXGXGXGXGXGXGXGXGXGXGXGXGXGXGXGXGXGXGXGXGXGXGXGXGXGXGXGXGXGXGXGXGXGXGXGXGXGXZXvX9             % I %X2X5X5X5X4X4X4X4X4X4X4X5X5X1X:X$X[.].[.[.[.[.[.[.[.[.}.}.].R 6 $             3 W ;X4X5X5X4X4X4X4X4X4X4X4X4X4X4X4X4X4X4X4X4X4X4X4X4X4X4X4X4X4X4X4X4X4X4X4X4X4X4X4X4X5X5X5X5X5X5X4X4X4X4X4X5X5X<X$XJ X     X 4 I _.}.}.[.[.[.[.[.[.[.[.[.[.[.}.OX+X+X+X+X+X+X}.R 6 X             8 iXCXGXGXGXGXGXGXGXGXGXGXGXGXGXGXGXGXGXGXGXGXGXGXGXGXGXGXGXGXGXGXGXGXGXGXGXGXGXGXGXGXGXGXGXGXGXGXGXGXGXGXGXGXGXGXGXGXGXGXGXGXGXGXGXGXGXGXGXGXGXGXGXGXGXGXGXGXGXGXGXGXGXGXGXGXGXGXGXGXGXGXGXGXGXGXGXGXGXGXGXGXGXGXGXGXGXGXGXGXGXGXGX",
"GXGXGXGXGXGXGXGXGXGXGXGXGXGXGXGXGXGXGXGXGXGXGXGXGXGXGXGXGXGXGXGXGXGXGXGXGXGXGXZXvX9             % U %X2X5X5X5X5X4X4X4X4X4X4X5X5X1X:X$X[.].[.[.[.[.[.[.[.[.}.}.].R 6 $             3 W ;X4X5X5X4X4X4X4X4X4X4X4X4X4X4X4X4X4X4X4X4X4X4X4X4X4X4X4X4X4X4X4X4X4X4X4X4X4X4X5X5X5X5X5X5X5X5X4X4X4X4X5X5X5X2X$XJ X       4 I _.}.}.[.[.[.[.[.[.[.[.[.[.[.}.}.+X+X+X+X+X+X}.R 6 X             8 XXCXGXGXGXGXGXGXGXGXGXGXGXGXGXGXGXGXGXGXGXGXGXGXGXGXGXGXGXGXGXGXGXGXGXGXGXGXGXGXGXGXGXGXGXGXGXGXGXGXGXGXGXGXGXGXGXGXGXGXGXGXGXGXGXGXGXGXGXGXGXGXGXGXGXGXGXGXGXGXGXGXGXGXGXGXGXGXGXGXGXGXGXGXGXGXGXGXGXGXGXGXGXGXGXGXGXGXGXGXGXGXGX",
"GXGXGXGXGXGXGXGXGXGXGXGXGXGXGXGXGXGXGXGXGXGXGXGXGXGXGXGXGXGXGXGXGXGXGXGXGXGXGXZXvX9             $ U %X2X5X5X5X5X4X4X4X4X4X4X5X5X1X-X$X[.].[.[.[.[.[.[.[.[.}.}.].R 6 $             3 W ;X4X5X5X4X4X4X4X4X4X4X4X4X4X4X4X4X4X4X4X4X4X4X4X4X4X4X4X4X4X4X4X4X4X4X4X4X4X4X4X4X5X5X5X5X4X4X4X4X4X4X5X5X5X2X$XJ X       4 I _.}.}.[.[.[.[.[.[.[.[.[.[.[.}.}.+X+X+X+X+X+X}.R 6 X             8 2.CXGXGXGXGXGXGXGXGXGXGXGXGXGXGXGXGXGXGXGXGXGXGXGXGXGXGXGXGXGXGXGXGXGXGXGXGXGXGXGXGXGXGXGXGXGXGXGXGXGXGXGXGXGXGXGXGXGXGXGXGXGXGXGXGXGXGXGXGXGXGXGXGXGXGXGXGXGXGXGXGXGXGXGXGXGXGXGXGXGXGXGXGXGXGXGXGXGXGXGXGXGXGXGXGXGXGXGXGXGXGXGX",
"GXGXGXGXGXGXGXGXGXGXGXGXGXGXGXGXGXGXGXGXGXGXGXGXGXGXGXGXGXGXGXGXGXGXGXGXGXGXGXZXvX9             $ U %X2X5X5X4X5X4X4X4X4X4X4X5X5X1X;X$X[.].[.[.[.[.[.[.[.[.}.}.].R 6 $             3 W ;X4X5X5X4X4X4X4X4X4X4X4X4X4X4X4X4X4X4X4X4X4X4X4X4X4X4X4X4X4X4X4X4X4X4X4X4X4X4X4X4X4X4X4X4X5X5X5X5X5X5X5X5X5X2X$XJ X       4 I _.}.}.[.[.[.[.[.[.[.[.[.[.[.}.}.+XoXoX+X+X+X'.R 6 X             8 cXCXGXGXGXGXGXGXGXGXGXGXGXGXGXGXGXGXGXGXGXGXGXGXGXGXGXGXGXGXGXGXGXGXGXGXGXGXGXGXGXGXGXGXGXGXGXGXGXGXGXGXGXGXGXGXGXGXGXGXGXGXGXGXGXGXGXGXGXGXGXGXGXGXGXGXGXGXGXGXGXGXGXGXGXGXGXGXGXGXGXGXGXGXGXGXGXGXGXGXGXGXGXGXGXGXGXGXGXGXGXGXGX",
"GXGXGXGXGXGXGXGXGXGXGXGXGXGXGXGXGXGXGXGXGXGXGXGXGXGXGXGXGXGXGXGXGXGXGXGXGXGXGXZXvX9             % U *X3X7X7X5X5X5X5X4X4X4X5X5X5X1X;X$X{.].[.[.[.[.[.[.[.[.}.}.].R 6 $             3 W ;X4X5X5X4X4X4X4X4X4X4X4X4X4X4X4X4X4X4X4X4X4X4X4X4X4X4X4X4X4X4X4X4X4X4X4X4X4X4X4X4X4X4X4X4X5X5X5X5X5X5X7X7X7X2X$XJ X       4 I _.}.}.[.[.[.[.[.[.[.[.[.[.[.}.}.oXoXoX+X+X+X'.R 6 X             8 cXZXGXGXGXGXGXGXGXGXGXGXGXGXGXGXGXGXGXGXGXGXGXGXGXGXGXGXGXGXGXGXGXGXGXGXGXGXGXGXGXGXGXGXGXGXGXGXGXGXGXGXGXGXGXGXGXGXGXGXGXGXGXGXGXGXGXGXGXGXGXGXGXGXGXGXGXGXGXGXGXGXGXGXGXGXGXGXGXGXGXGXGXGXGXGXGXGXGXGXGXGXGXGXGXGXGXGXGXGXGXGXGX",
"GXGXGXGXGXGXGXGXGXGXGXGXGXGXGXGXGXGXGXGXGXGXGXGXGXGXGXGXGXGXGXGXGXGXGXGXGXGXGXZXvX9             $ U %X3X7X7X5X5X5X4X4X4X4X4X5X4X1X-X$X{.].[.[.[.[.[.[.[.[.}.}.].R 6 $             3 W ;X4X5X5X4X4X4X4X4X4X4X4X4X4X4X4X4X4X4X4X4X4X4X4X4X4X4X4X4X4X4X4X4X4X4X4X4X4X4X4X4X4X4X4X4X5X5X5X5X5X5X5X7X7X2X$XJ X       4 I _.}.}.[.[.[.[.[.[.[.[.[.[.[.}.}.oXoX+X+X+X+X'.R 6 X             8 cXCXGXGXGXGXGXGXGXGXGXGXGXGXGXGXGXGXGXGXGXGXGXGXGXGXGXGXGXGXGXGXGXGXGXGXGXGXGXGXGXGXGXGXGXGXGXGXGXGXGXGXGXGXGXGXGXGXGXGXGXGXGXGXGXGXGXGXGXGXGXGXGXGXGXGXGXGXGXGXGXGXGXGXGXGXGXGXGXGXGXGXGXGXGXGXGXGXGXGXGXGXGXGXGXGXGXGXGXGXGXGXGX",
"GXGXGXGXGXGXGXGXGXGXGXGXGXGXGXGXGXGXGXGXGXGXGXGXGXGXGXGXGXGXGXGXGXGXGXGXGXGXGXZXvX9             $ J  X>X<X<X,X2X3X4X4X5X4X4X5X4X1X-X$X{.].[.[.[.[.[.[.[.[.}.}.].R 6 $             3 W ;X4X5X5X4X4X4X4X4X4X4X4X4X4X4X4X4X4X4X4X4X4X4X4X4X4X4X4X4X4X4X4X4X4X4X4X4X4X4X4X4X4X4X5X4X4X3X<X,X>X,X,X<X<X;X XU % X X % 5 T _.}.}.[.[.[.[.[.[.[.[.[.[.[.}.}.+XoX+X+X+X+X'.R 6 X             8 [ BXAXSXAXAXSXGXGXGXGXGXGXGXGXGXGXGXGXGXGXGXGXGXGXGXGXGXGXGXGXGXGXGXGXGXGXGXGXGXGXGXGXGXGXGXGXGXGXGXGXGXGXGXGXGXGXGXGXGXGXGXGXGXGXGXGXGXGXGXGXGXGXGXGXGXGXGXGXGXGXGXGXGXGXGXGXGXGXGXGXGXGXGXGXGXGXGXGXGXGXGXGXGXGXGXGXGXGXGXGXGXGX",
"GXGXGXGXGXGXGXGXGXGXGXGXGXGXGXGXGXGXGXGXGXGXGXGXGXGXGXGXGXGXGXGXGXGXGXGXGXGXGXZXvX9             X 5 T  X$X X$X*X>X3X5X5X4X5X5X4X1X-X$X[.].[.[.[.[.[.[.[.[.}.}.].R 6 $             3 W ;X4X5X5X4X4X4X4X4X4X4X4X4X4X4X4X4X4X4X4X4X4X4X4X4X4X4X4X4X4X4X4X4X4X4X4X4X4X4X4X4X4X5X5X4X2X;X$X X X X X$X$X XW U H 5 5 H I E _.[.[.[.[.[.[.[.[.[.[.[.[.[.}.OX+X+X+X+X+X+X}.R 6 X             - ^ [ vXbXvXnXVXAXGXGXGXGXGXGXGXGXGXGXGXGXGXGXGXGXGXGXGXGXGXGXGXGXGXGXGXGXGXGXGXGXGXGXGXGXGXGXGXGXGXGXGXGXGXGXGXGXGXGXGXGXGXGXGXGXGXGXGXGXGXGXGXGXGXGXGXGXGXGXGXGXGXGXGXGXGXGXGXGXGXGXGXGXGXGXGXGXGXGXGXGXGXGXGXGXGXGXGXGXGXGXGXGXGX",
"GXGXGXGXGXGXGXGXGXGXGXGXGXGXGXGXGXGXGXGXGXGXGXGXGXGXGXGXGXGXGXGXGXGXGXGXGXGXGXZXvX9               % 4 6 6 6 J W *X<X5X5X5X5X5X5X1X-X$X[.].[.[.[.[.[.[.[.[.}.}.].R 6 $             3 W ;X4X5X5X4X4X4X4X4X4X4X4X4X4X4X4X4X4X4X4X4X4X4X4X4X4X4X4X4X4X4X4X4X4X4X4X4X4X4X4X4X4X5X5X4X>X$XT J 6 6 J 6 6 J I T R R R R E _.[.[.[.[.[.[.[.[.[.[.[.[.[.[.}.OX+X+X+X+X+X+X}.R 6 X             & - 9 9 9 9 / vXVXGXGXGXGXGXGXGXGXGXGXGXGXGXGXGXGXGXGXGXGXGXGXGXGXGXGXGXGXGXGXGXGXGXGXGXGXGXGXGXGXGXGXGXGXGXGXGXGXGXGXGXGXGXGXGXGXGXGXGXGXGXGXGXGXGXGXGXGXGXGXGXGXGXGXGXGXGXGXGXGXGXGXGXGXGXGXGXGXGXGXGXGXGXGXGXGXGXGXGXGXGXGXGXGXGX",
"GXGXGXGXGXGXGXGXGXGXGXGXGXGXGXGXGXGXGXGXGXGXGXGXGXGXGXGXGXGXGXGXGXGXGXGXGXGXGXZXvX9                   X     X J $X,X5X5X5X5X5X5X1X:X$X{.].[.[.[.[.[.[.[.[.}.}.].R 6 $             3 W ;X4X5X5X4X4X4X4X4X4X4X4X4X4X4X4X4X4X4X4X4X4X4X4X4X4X4X4X4X4X4X4X4X4X4X4X4X4X4X4X4X4X5X5X4X>X X5 X     X     % 6 T _.[.[.].[.[.[.[.[.[.[.[.[.[.[.[.[.[.[.[.}.}.+X+X+X+X+X+X}.R 6 X                         7 ] VXFXGXGXGXGXGXGXGXGXGXGXGXGXGXGXGXGXGXGXGXGXGXGXGXGXGXGXGXGXGXGXGXGXGXGXGXGXGXGXGXGXGXGXGXGXGXGXGXGXGXGXGXGXGXGXGXGXGXGXGXGXGXGXGXGXGXGXGXGXGXGXGXGXGXGXGXGXGXGXGXGXGXGXGXGXGXGXGXGXGXGXGXGXGXGXGXGXGXGXGXGXGXGXGXGX",
"GXGXGXGXGXGXGXGXGXGXGXGXGXGXGXGXGXGXGXGXGXGXGXGXGXGXGXGXGXGXGXGXGXGXGXGXGXGXGXZXvX9                           6  X,X5X5X5X5X5X5X1X;X$X{.].[.[.[.[.[.[.[.[.}.}.].R 5 X             % W ;X4X5X5X4X4X4X4X4X4X4X4X4X4X4X4X4X4X4X4X4X4X4X4X4X4X4X4X4X4X4X4X4X4X4X4X4X4X4X4X4X4X5X5X4X;XW 4               5 R [.OXOX}.}.[.[.[.[.[.[.[.[.[.[.[.[.[.[.[.}.}.+X+X+X+X+X+X}.R 5 X                         * ' BXFXGXGXGXGXGXGXGXGXGXGXGXGXGXGXGXGXGXGXGXGXGXGXGXGXGXGXGXGXGXGXGXGXGXGXGXGXGXGXGXGXGXGXGXGXGXGXGXGXGXGXGXGXGXGXGXGXGXGXGXGXGXGXGXGXGXGXGXGXGXGXGXGXGXGXGXGXGXGXGXGXGXGXGXGXGXGXGXGXGXGXGXGXGXGXGXGXGXGXGXGXGXGXGXGX",
"GXGXGXGXGXGXGXGXGXGXGXGXGXGXGXGXGXGXGXGXGXGXGXGXGXGXGXGXGXGXGXGXGXGXGXGXGXGXGXZXvX9                           6  X,X5X5X5X4X5X4X1X:X$X{.].[.[.[.[.[.[.[.[.}.}.].R 5 X             % W ;X4X5X5X4X4X4X4X4X4X4X4X4X4X4X4X4X4X4X4X4X4X4X4X4X4X4X4X4X4X4X4X4X4X4X4X4X4X4X4X4X4X5X5X4X>XW 4             X 5 R ].OXOX}.[.[.[.[.[.[.[.[.[.[.[.[.[.[.[.[.}.}.+X+X+X+X+X+X}.R 5 X                         - ' BXFXGXGXGXGXGXGXGXGXGXGXGXGXGXGXGXGXGXGXGXGXGXGXGXGXGXGXGXGXGXGXGXGXGXGXGXGXGXGXGXGXGXGXGXGXGXGXGXGXGXGXGXGXGXGXGXGXGXGXGXGXGXGXGXGXGXGXGXGXGXGXGXGXGXGXGXGXGXGXGXGXGXGXGXGXGXGXGXGXGXGXGXGXGXGXGXGXGXGXGXGXGXGXGXGX",
"GXGXGXGXGXGXGXGXGXGXGXGXGXGXGXGXGXGXGXGXGXGXGXGXGXGXGXGXGXGXGXGXGXGXGXGXGXGXGXZXvX~ * & & * * * * &         X J  X,X5X5X5X4X5X5X1X:X$X[.].[.[.[.[.[.[.[.[.}.}.].R H 3 X X $ X X X 5 W ;X4X5X5X4X4X4X4X4X4X4X4X4X4X4X4X4X4X4X4X4X4X4X4X4X4X4X4X4X4X4X4X4X4X4X4X4X4X4X4X4X4X5X5X4X>X X4             X 5 T _.}.}.[.[.[.[.[.[.[.[.[.[.[.[.[.[.[.[.[.}.}.+X+XoX+X+X+X}.R H % X   X X X X X           - ] BXGXGXGXGXGXGXGXGXGXGXGXGXGXGXGXGXGXGXGXGXGXGXGXGXGXGXGXGXGXGXGXGXGXGXGXGXGXGXGXGXGXGXGXGXGXGXGXGXGXGXGXGXGXGXGXGXGXGXGXGXGXGXGXGXGXGXGXGXGXGXGXGXGXGXGXGXGXGXGXGXGXGXGXGXGXGXGXGXGXGXGXGXGXGXGXGXGXGXGXGXGXGXGXGXGX",
"GXGXGXGXGXGXGXGXGXGXGXGXGXGXGXGXGXGXGXGXGXGXGXGXGXGXGXGXGXGXGXGXGXGXGXGXGXGXGXAXNX[ / ^ / / / / ^ 9 -       X J  X,X5X5X5X4X5X5X1X-X$X[.].[.[.[.[.[.[.[.[.[.[.[._.R I I I I U U I T $X>X4X5X5X4X4X4X4X4X4X4X4X4X4X4X4X4X4X4X4X4X4X4X4X4X4X4X4X4X4X4X4X4X4X4X4X4X4X4X4X4X4X5X5X4X>X X4             X 5 T _.}.}.[.[.[.[.[.[.[.[.[.[.[.[.[.[.[.[.[.}.}.oXoXoX+X+X+X}.).I 6 5 5 5 5 5 5 4 % X       - ] BXGXGXGXGXGXGXGXGXGXGXGXGXGXGXGXGXGXGXGXGXGXGXGXGXGXGXGXGXGXGXGXGXGXGXGXGXGXGXGXGXGXGXGXGXGXGXGXGXGXGXGXGXGXGXGXGXGXGXGXGXGXGXGXGXGXGXGXGXGXGXGXGXGXGXGXGXGXGXGXGXGXGXGXGXGXGXGXGXGXGXGXGXGXGXGXGXGXGXGXGXGXGXGXGXGX",
"GXGXGXGXGXGXGXGXGXGXGXGXGXGXGXGXGXGXGXGXGXGXGXGXGXGXGXGXGXGXGXGXGXGXGXGXGXGXGXFXZXBXmXmXmXmXNXNXnX[ 9 *       J  X,X5X5X5X4X5X5X1X-X$X[.].[.[.[.[.[.[.[.[.[.[.{.OX$X$X%X%X%X$X$X%X*X>X2X4X5X5X4X4X4X4X4X4X4X4X4X4X4X4X4X4X4X4X4X4X4X4X4X4X4X4X4X4X4X4X4X4X4X4X4X4X4X4X4X4X5X5X4X>X X4             X 5 T _.}.}.[.[.[.[.[.[.[.[.[.[.[.[.[.[.[.[.[.}.}.+XoXoX+X+X+X}.`.).R R R R R R R I 5 $       - ] BXGXGXGXGXGXGXGXGXGXGXGXGXGXGXGXGXGXGXGXGXGXGXGXGXGXGXGXGXGXGXGXGXGXGXGXGXGXGXGXGXGXGXGXGXGXGXGXGXGXGXGXGXGXGXGXGXGXGXGXGXGXGXGXGXGXGXGXGXGXGXGXGXGXGXGXGXGXGXGXGXGXGXGXGXGXGXGXGXGXGXGXGXGXGXGXGXGXGXGXGXGXGXGXGXGX",
"GXGXGXGXGXGXGXGXGXGXGXGXGXGXGXGXGXGXGXGXGXGXGXGXGXGXGXGXGXGXGXGXGXGXGXGXGXGXGXGXFXFXSXSXSXSXFXFXZXnX^ *       6  X,X5X5X5X4X5X5X1X;X$X{.].[.[.[.[.[.[.[.[.[.].{.$X;X<X3X3X2X2X2X2X3X3X4X4X5X4X4X4X4X4X4X4X4X4X4X4X4X4X4X4X4X4X4X4X4X4X4X4X4X4X4X4X4X4X4X4X4X4X4X4X4X4X4X4X5X5X4X>XW 4             X 5 T _.}.}.[.[.[.[.[.[.[.[.[.[.[.[.[.[.[.[.[.}.}.+X+X+X+X+X+X+X}.}.'.].].].].}.].E H %       - ] BXGXGXGXGXGXGXGXGXGXGXGXGXGXGXGXGXGXGXGXGXGXGXGXGXGXGXGXGXGXGXGXGXGXGXGXGXGXGXGXGXGXGXGXGXGXGXGXGXGXGXGXGXGXGXGXGXGXGXGXGXGXGXGXGXGXGXGXGXGXGXGXGXGXGXGXGXGXGXGXGXGXGXGXGXGXGXGXGXGXGXGXGXGXGXGXGXGXGXGXGXGXGXGXGXGX",
"GXGXGXGXGXGXGXGXGXGXGXGXGXGXGXGXGXGXGXGXGXGXGXGXGXGXGXGXGXGXGXGXGXGXGXGXGXGXGXGXGXGXGXGXGXGXGXGXFXNX/ *       6  X,X5X5X5X4X5X5X1X;X$X{.].[.[.[.[.[.[.[.[.[.].}.&X>X4X5X7X5X5X5X5X5X5X5X4X4X4X4X4X4X4X4X4X4X4X4X4X4X4X4X4X4X4X4X4X4X4X4X4X4X4X4X4X4X4X4X4X4X4X4X4X4X4X4X5X5X5X4X>X X4             X 5 T _.}.}.[.[.[.[.[.[.[.[.[.[.[.[.[.[.[.[.[.}.}.+X+X+X+X+X+X+X+X+X+X+X+X+X+X@X+X).I %       - ] BXFXGXGXGXGXGXGXGXGXGXGXGXGXGXGXGXGXGXGXGXGXGXGXGXGXGXGXGXGXGXGXGXGXGXGXGXGXGXGXGXGXGXGXGXGXGXGXGXGXGXGXGXGXGXGXGXGXGXGXGXGXGXGXGXGXGXGXGXGXGXGXGXGXGXGXGXGXGXGXGXGXGXGXGXGXGXGXGXGXGXGXGXGXGXGXGXGXGXGXGXGXGXGXGXGX",
"GXGXGXGXGXGXGXGXGXGXGXGXGXGXGXGXGXGXGXGXGXGXGXGXGXGXGXGXGXGXGXGXGXGXGXGXGXGXGXGXGXGXGXGXGXGXGXGXFXNX/ *     X J $X<X5X7X5X4X5X4X1X-X$X[.].[.[.[.[.[.[.[.[.[.].}.&X>X4X5X7X5X5X5X5X5X5X5X4X4X4X4X4X4X4X4X4X4X4X4X4X4X4X4X4X4X4X4X4X4X4X4X4X4X4X4X4X4X4X4X4X4X4X4X4X4X4X5X5X5X5X4X>X X4             X 5 T _.}.}.[.[.[.[.[.[.[.[.[.[.[.[.[.[.[.[.[.}.}.OX+X+X+X+X+X+X+X+X+X+X+X+X+X@X+X).I %       - ] BXFXGXGXGXGXGXGXGXGXGXGXGXGXGXGXGXGXGXGXGXGXGXGXGXGXGXGXGXGXGXGXGXGXGXGXGXGXGXGXGXGXGXGXGXGXGXGXGXGXGXGXGXGXGXGXGXGXGXGXGXGXGXGXGXGXGXGXGXGXGXGXGXGXGXGXGXGXGXGXGXGXGXGXGXGXGXGXGXGXGXGXGXGXGXGXGXGXGXGXGXGXGXGXGXGX",
"GXGXGXGXGXGXGXGXGXGXGXGXGXGXGXGXGXGXGXGXGXGXGXGXGXGXGXGXGXGXGXGXGXGXGXGXGXGXGXGXGXGXGXGXGXGXGXGXSXmX/ *     X J $X<X5X7X5X4X5X5X1X-X$X[.].[.[.[.[.[.[.[.[.[.].}.&X>X3X5X5X5X4X4X4X4X4X4X4X4X4X4X4X4X4X4X4X4X4X4X4X4X4X4X4X4X4X4X4X4X4X4X4X4X4X4X4X4X4X4X4X4X4X4X4X4X4X5X4X5X5X4X>X X4             X 5 T _.}.}.[.[.[.[.[.[.[.[.[.[.[.[.[.[.[.[.[.}.}.OX+X+X+X+X+X+X+X+X+X+XoXoXoX+X+X).I %       - ] BXFXGXGXGXGXGXGXGXGXGXGXGXGXGXGXGXGXGXGXGXGXGXGXGXGXGXGXGXGXGXGXGXGXGXGXGXGXGXGXGXGXGXGXGXGXGXGXGXGXGXGXGXGXGXGXGXGXGXGXGXGXGXGXGXGXGXGXGXGXGXGXGXGXGXGXGXGXGXGXGXGXGXGXGXGXGXGXGXGXGXGXGXGXGXGXGXGXGXGXGXGXGXGXGXGX",
"GXGXGXGXGXGXGXGXGXGXGXGXGXGXGXGXGXGXGXGXGXGXGXGXGXGXGXGXGXGXGXGXGXGXGXGXGXGXGXGXGXGXGXGXGXGXGXGXSXmX/ *     X J $X<X5X7X5X5X5X5X1X:X$X[.].[.[.[.[.[.[.[.[.[.].}.&X>X1X5X5X5X4X4X4X4X4X4X4X4X4X4X4X4X4X4X4X4X4X4X4X4X4X4X4X4X4X4X4X4X4X4X4X4X4X4X4X4X4X4X4X4X4X4X4X4X4X4X4X5X5X4X>XW 4             X 5 T _.}.}.[.[.[.[.[.[.[.[.[.[.[.[.[.[.[.[.[.}.}.+X+X+X+X+X+X+X+X+X+X+X+X+X+X+X+X).I %       - ] BXGXGXGXGXGXGXGXGXGXGXGXGXGXGXGXGXGXGXGXGXGXGXGXGXGXGXGXGXGXGXGXGXGXGXGXGXGXGXGXGXGXGXGXGXGXGXGXGXGXGXGXGXGXGXGXGXGXGXGXGXGXGXGXGXGXGXGXGXGXGXGXGXGXGXGXGXGXGXGXGXGXGXGXGXGXGXGXGXGXGXGXGXGXGXGXGXGXGXGXGXGXGXGXGXGX",
"GXGXGXGXGXGXGXGXGXGXGXGXGXGXGXGXGXGXGXGXGXGXGXGXGXGXGXGXGXGXGXGXGXGXGXGXGXGXGXGXGXGXGXGXGXGXGXGXSXmX/ *     X J $X2X7X7X7X7X7X7X1X>X&X[.].[.[.[.[.[.[.[.[.[.].[.&X>X1X5X5X4X4X4X4X4X4X4X4X4X4X4X4X4X4X4X4X4X4X4X4X4X4X4X4X4X4X4X4X4X4X4X4X4X4X4X4X4X4X4X4X4X4X4X4X4X4X4X4X5X5X4X>XW 4             X 5 T _.}.}.[.[.[.[.[.[.[.[.[.[.[.[.[.[.[.[.[.}.}.+X+X+X+X+X+X+X+X+X+X+X+X+X+X+X+X).I %       - ] BXGXGXGXGXGXGXGXGXGXGXGXGXGXGXGXGXGXGXGXGXGXGXGXGXGXGXGXGXGXGXGXGXGXGXGXGXGXGXGXGXGXGXGXGXGXGXGXGXGXGXGXGXGXGXGXGXGXGXGXGXGXGXGXGXGXGXGXGXGXGXGXGXGXGXGXGXGXGXGXGXGXGXGXGXGXGXGXGXGXGXGXGXGXGXGXGXGXGXGXGXGXGXGXGXGX",
"GXGXGXGXGXGXGXGXGXGXGXGXGXGXGXGXGXGXGXGXGXGXGXGXGXGXGXGXGXGXGXGXGXGXGXGXGXGXGXGXGXGXGXGXGXGXGXGXSXmX/ *     X J  X>X5X5X4X4X4X4X<X;X$X[.].[.[.[.[.[.[.[.[.[.].}.&X:X1X5X5X4X4X4X4X4X4X4X4X4X4X4X4X4X4X4X4X4X4X4X4X4X4X4X4X4X4X4X4X4X4X4X4X4X4X4X4X4X4X4X4X4X4X4X4X4X4X4X4X5X5X4X>X X5             $ 5 R _.}.}.[.[.[.[.[.[.[.[.[.[.[.[.[.[.[.[.[.}.}.+X+X+X+X+X+X+X+X+X+X+X+X+X+X+X+X).I %       - ] BXGXGXGXGXGXGXGXGXGXGXGXGXGXGXGXGXGXGXGXGXGXGXGXGXGXGXGXGXGXGXGXGXGXGXGXGXGXGXGXGXGXGXGXGXGXGXGXGXGXGXGXGXGXGXGXGXGXGXGXGXGXGXGXGXGXGXGXGXGXGXGXGXGXGXGXGXGXGXGXGXGXGXGXGXGXGXGXGXGXGXGXGXGXGXGXGXGXGXGXGXGXGXGXGXGX",
"GXGXGXGXGXGXGXGXGXGXGXGXGXGXGXGXGXGXGXGXGXGXGXGXGXGXGXGXGXGXGXGXGXGXGXGXGXGXGXGXGXGXGXGXGXGXGXGXSXmX/ *       5 W *X;X;X;X;X;X;X;X&X+X}.[.}.}.}.[.[.[.[.}.[.[.}.&X>X1X5X5X4X4X4X4X4X4X4X4X4X4X4X4X4X4X4X4X4X4X4X4X4X4X4X4X4X4X4X4X4X4X4X4X4X4X4X4X4X4X4X4X4X4X4X4X4X4X4X4X5X5X4X>X{.J 3 % 3 3 3 3 4 I E [.}.}.[.}.}.}.}.[.[.[.[.[.[.[.[.}.[.}.}.}.OX+X+X+X+X+X+X+X+X+X+X+X+X+X+X+X+X).I %       - ] BXGXGXGXGXGXGXGXGXGXGXGXGXGXGXGXGXGXGXGXGXGXGXGXGXGXGXGXGXGXGXGXGXGXGXGXGXGXGXGXGXGXGXGXGXGXGXGXGXGXGXGXGXGXGXGXGXGXGXGXGXGXGXGXGXGXGXGXGXGXGXGXGXGXGXGXGXGXGXGXGXGXGXGXGXGXGXGXGXGXGXGXGXGXGXGXGXGXGXGXGXGXGXGXGXGX",
"GXGXGXGXGXGXGXGXGXGXGXGXGXGXGXGXGXGXGXGXGXGXGXGXGXGXGXGXGXGXGXGXGXGXGXGXGXGXGXGXGXGXGXGXGXGXGXGXSXmX/ *       % J T W W W W W W W _.[.}.}.}.}.}.}.}.}.}.}.}.}.OX#X>X1X5X5X5X4X4X4X4X4X4X4X4X4X4X4X4X4X4X4X4X4X4X4X4X4X4X4X4X4X4X4X4X4X4X4X4X4X4X4X4X4X4X4X4X4X4X4X4X4X4X4X5X5X4X,X$XE I I I I I I I R _.}.OX}.}.}.}.}.}.}.}.}.}.}.}.}.}.}.}.}.}.}.OXoXoXoXoX+X+X+X+X+X+X+X+X+X+X+XOX).I %       - ] BXGXGXGXGXGXGXGXGXGXGXGXGXGXGXGXGXGXGXGXGXGXGXGXGXGXGXGXGXGXGXGXGXGXGXGXGXGXGXGXGXGXGXGXGXGXGXGXGXGXGXGXGXGXGXGXGXGXGXGXGXGXGXGXGXGXGXGXGXGXGXGXGXGXGXGXGXGXGXGXGXGXGXGXGXGXGXGXGXGXGXGXGXGXGXGXGXGXGXGXGXGXGXGXGXGX",
"GXGXGXGXGXGXGXGXGXGXGXGXGXGXGXGXGXGXGXGXGXGXGXGXGXGXGXGXGXGXGXGXGXGXGXGXGXGXGXGXGXGXGXGXGXGXGXGXSXmX/ *       X % 3 4 4 3 3 3 3 5 I _.}.+X+XOXOXOXOXOXOXOX}.'.+X#X:X1X5X5X5X4X4X4X4X4X4X4X4X4X4X4X4X4X4X4X4X4X4X4X4X4X4X4X4X4X4X4X4X4X4X4X4X4X4X4X4X4X4X4X4X4X4X4X4X4X4X4X5X5X4X<X-XOX_.).).).).).).`.}.}.OXOXOXOXOXOXOXOXOXOXOXOXOXOXOXOXOXOXOXOX+XoXoX+X+X+X+X+X+X+X+X+X+X+X+X+XOX).I %       - ] BXGXGXGXGXGXGXGXGXGXGXGXGXGXGXGXGXGXGXGXGXGXGXGXGXGXGXGXGXGXGXGXGXGXGXGXGXGXGXGXGXGXGXGXGXGXGXGXGXGXGXGXGXGXGXGXGXGXGXGXGXGXGXGXGXGXGXGXGXGXGXGXGXGXGXGXGXGXGXGXGXGXGXGXGXGXGXGXGXGXGXGXGXGXGXGXGXGXGXGXGXGXGXGXGXGX",
"GXGXGXGXGXGXGXGXGXGXGXGXGXGXGXGXGXGXGXGXGXGXGXGXGXGXGXGXGXGXGXGXGXGXGXGXGXGXGXGXGXGXGXGXGXGXGXGXSXmX/ &                         % H E }.+X+XoX+X+X+X+X+X+X'.'.+X#X>X1X5X5X5X5X4X5X5X4X4X4X4X4X4X4X4X4X4X4X4X4X4X4X4X4X4X4X4X4X4X4X4X4X4X4X4X4X4X4X4X4X4X4X4X4X4X4X4X4X4X5X5X5X5X<X:X#X+XoX+X+X+X+X+XoX+X+X+X+X+XoXoXoX+X+X+X+X+X+X+X+X+XOXOXoXoXOXOXoXoXoX+X+X+XOXOXOXOXoXoXOX+X+X}.).I %       - ] BXGXGXGXGXGXGXGXGXGXGXGXGXGXGXGXGXGXGXGXGXGXGXGXGXGXGXGXGXGXGXGXGXGXGXGXGXGXGXGXGXGXGXGXGXGXGXGXGXGXGXGXGXGXGXGXGXGXGXGXGXGXGXGXGXGXGXGXGXGXGXGXGXGXGXGXGXGXGXGXGXGXGXGXGXGXGXGXGXGXGXGXGXGXGXGXGXGXGXGXGXGXGXGXGXGX",
"GXGXGXGXGXGXGXGXGXGXGXGXGXGXGXGXGXGXGXGXGXGXGXGXGXGXGXGXGXGXGXGXGXGXGXGXGXGXGXGXGXGXGXGXGXGXGXGXSXnX^ &                         $ H E }.+XoXoXoX+X+X+X+X+X'.'.+X#X>X3X5X5X5X5X5X5X5X5X5X4X4X4X4X4X4X4X4X4X4X4X4X4X4X4X4X4X4X4X4X4X4X4X4X4X4X4X4X4X4X4X4X4X4X4X4X4X4X5X5X5X5X5X5X1X:X#X+XoX+X+X+X+X+X+XoXoX+X+X+XoXoXoX+X+X+X+X+X+X+XoX'.'.'.'.'.'.'.'.'.'.'.'.'.'.'.'.'.'.'.'.'.oX'.).H %       - ] BXGXGXGXGXGXGXGXGXGXGXGXGXGXGXGXGXGXGXGXGXGXGXGXGXGXGXGXGXGXGXGXGXGXGXGXGXGXGXGXGXGXGXGXGXGXGXGXGXGXGXGXGXGXGXGXGXGXGXGXGXGXGXGXGXGXGXGXGXGXGXGXGXGXGXGXGXGXGXGXGXGXGXGXGXGXGXGXGXGXGXGXGXGXGXGXGXGXGXGXGXGXGXGXGXGX",
"GXGXGXGXGXGXGXGXGXGXGXGXGXGXGXGXGXGXGXGXGXGXGXGXGXGXGXGXGXGXGXGXGXGXGXGXGXGXGXGXGXGXGXGXGXGXGXGXSXmX/ &                         % H E OX+X+X+X+X+X+X+X+X+X}.'.+X#X>X1X5X5X5X5X5X5X5X4X4X4X4X4X4X4X4X4X4X4X4X4X4X4X4X4X4X4X4X4X4X4X4X4X4X4X4X4X4X4X4X4X4X4X4X4X4X4X4X4X4X5X5X5X5X<X:X#X+X'.+X+X+X+X+X+X+X+X+X+X+X+X+X+X+X+X+X+X+X+XoXoXoXOXOXOXOXoXoXoXoXOXOXOXOXoXoXoXoXOXOXOX+X+XOX).I %       - ] BXFXGXGXGXGXGXGXGXGXGXGXGXGXGXGXGXGXGXGXGXGXGXGXGXGXGXGXGXGXGXGXGXGXGXGXGXGXGXGXGXGXGXGXGXGXGXGXGXGXGXGXGXGXGXGXGXGXGXGXGXGXGXGXGXGXGXGXGXGXGXGXGXGXGXGXGXGXGXGXGXGXGXGXGXGXGXGXGXGXGXGXGXGXGXGXGXGXGXGXGXGXGXGXGXGX",
"GXGXGXGXGXGXGXGXGXGXGXGXGXGXGXGXGXGXGXGXGXGXGXGXGXGXGXGXGXGXGXGXGXGXGXGXGXGXGXGXGXGXGXGXGXGXGXGXFXNX] 9 - 7 7 - &               % H E OX+X+X+X+X+X+X+X+X+X}.'.+X#X:X<X1X1X1X1X1X1X1X4X4X4X4X4X4X4X4X4X4X4X4X4X4X4X4X4X4X4X4X4X4X4X4X4X4X4X4X4X4X4X4X4X4X4X4X4X4X4X4X4X1X1X1X1X1X,X-X@X+X'.OX+X+XoX+X+X+X+X+X+X+X+X+X+X+X+X+X+XOX+X+X@X@X@X@X@X@X@X@X@X@X@X@X@X@X@X@X@X@X@X@X@X#X#X@X_.I %       - ] BXGXGXGXGXGXGXGXGXGXGXGXGXGXGXGXGXGXGXGXGXGXGXGXGXGXGXGXGXGXGXGXGXGXGXGXGXGXGXGXGXGXGXGXGXGXGXGXGXGXGXGXGXGXGXGXGXGXGXGXGXGXGXGXGXGXGXGXGXGXGXGXGXGXGXGXGXGXGXGXGXGXGXGXGXGXGXGXGXGXGXGXGXGXGXGXGXGXGXGXGXGXGXGXGXGX",
"GXGXGXGXGXGXGXGXGXGXGXGXGXGXGXGXGXGXGXGXGXGXGXGXGXGXGXGXGXGXGXGXGXGXGXGXGXGXGXGXGXGXGXGXGXGXGXGXFXCXnX[ [ [ [ / 9 &             % H E OX+X+X+X+X+X+X+X+X+XOX}.+X@X&X-X:X:X:X:X:X:X>X<X3X4X5X4X4X4X4X4X4X4X4X4X4X4X4X4X4X4X4X4X4X4X4X4X4X4X4X4X4X4X4X4X4X4X4X4X5X5X4X1X,X>X:X:X:X-X&X@X+X}.OX+X+XoX+X+X+X+X+X+X+X+X+X+X+X+X+XOX}.+X@X#X-X-X-X-X-X-X-X-X-X-X-X-X-X-X-X-X-X-X-X-X-X:X-X$XT 3       - ] BXFXGXGXGXGXGXGXGXGXGXGXGXGXGXGXGXGXGXGXGXGXGXGXGXGXGXGXGXGXGXGXGXGXGXGXGXGXGXGXGXGXGXGXGXGXGXGXGXGXGXGXGXGXGXGXGXGXGXGXGXGXGXGXGXGXGXGXGXGXGXGXGXGXGXGXGXGXGXGXGXGXGXGXGXGXGXGXGXGXGXGXGXGXGXGXGXGXGXGXGXGXGXGXGXGX",
"GXGXGXGXGXGXGXGXGXGXGXGXGXGXGXGXGXGXGXGXGXGXGXGXGXGXGXGXGXGXGXGXGXGXGXGXGXGXGXGXGXGXGXGXGXGXGXGXGXSXZXVXVXVXVXvX/ *             % H E }.+X+X+X+X+X+X+X+X+X+XOX+X+X@X#X#X#X#X#X#X#X&X:X<X4X5X5X4X4X4X4X4X4X4X4X4X4X4X4X4X4X4X4X4X4X4X4X4X4X4X4X4X4X4X4X4X4X4X4X5X5X4X<X:X&X#X#X#X#X@X+X+XOXOX+X+XoX+X+X+X+X+X+X+X+X+X+X+X+X+XOX'.+X@X-X>X<X<X<X<X<X<X<X<X<X<X<X<X<X<X<X<X<X<X<X<X1X<X-XW 4       - ] BXGXGXGXGXGXGXGXGXGXGXGXGXGXGXGXGXGXGXGXGXGXGXGXGXGXGXGXGXGXGXGXGXGXGXGXGXGXGXGXGXGXGXGXGXGXGXGXGXGXGXGXGXGXGXGXGXGXGXGXGXGXGXGXGXGXGXGXGXGXGXGXGXGXGXGXGXGXGXGXGXGXGXGXGXGXGXGXGXGXGXGXGXGXGXGXGXGXGXGXGXGXGXGXGXGX",
"GXGXGXGXGXGXGXGXGXGXGXGXGXGXGXGXGXGXGXGXGXGXGXGXGXGXGXGXGXGXGXGXGXGXGXGXGXGXGXGXGXGXGXGXGXGXGXGXGXGXGXGXGXGXFXBX] -             % H E '.+X+X+X+X+X+X+X+X+X+X+X+X+X+X+X+X+X+X+X}.+X@X-X<X4X5X5X4X4X4X4X4X4X4X4X4X4X4X4X4X4X4X4X4X4X4X4X4X4X4X4X4X4X4X4X4X4X4X4X5X5X4X<X-X@X+X'.+X+X+X+X+X+X+X+X+X+X+X+X+X+X+X+X+X+X+X+X+X+X+XOX'.+X#X:X<X4X5X4X4X4X4X4X4X4X4X4X4X4X4X4X4X4X4X4X5X5X4X:XW 4       - ] BXGXGXGXGXGXGXGXGXGXGXGXGXGXGXGXGXGXGXGXGXGXGXGXGXGXGXGXGXGXGXGXGXGXGXGXGXGXGXGXGXGXGXGXGXGXGXGXGXGXGXGXGXGXGXGXGXGXGXGXGXGXGXGXGXGXGXGXGXGXGXGXGXGXGXGXGXGXGXGXGXGXGXGXGXGXGXGXGXGXGXGXGXGXGXGXGXGXGXGXGXGXGXGXGXGX",
"GXGXGXGXGXGXGXGXGXGXGXGXGXGXGXGXGXGXGXGXGXGXGXGXGXGXGXGXGXGXGXGXGXGXGXGXGXGXGXGXGXGXGXGXGXGXGXGXGXGXGXGXGXGXGXVX] -             % H E '.+X+X+X+X+X+X+X+X+X+X+X+X+XoX'.'.'.'.'.'.'.@X-X<X4X5X5X4X4X4X4X4X4X4X4X4X4X4X4X4X4X4X4X4X4X4X4X4X4X4X4X4X4X4X4X4X4X4X4X5X5X4X<X-X@X'.'.'.'.'.+X+X+X+X+X+X+X+X+X+X+X+X+X+X+X+X+X+X+X+XOX'.+X#X:X1X5X5X5X5X5X5X5X5X5X5X5X5X5X5X5X5X5X5X5X5X7X5X>X X4       - ] BXGXGXGXGXGXGXGXGXGXGXGXGXGXGXGXGXGXGXGXGXGXGXGXGXGXGXGXGXGXGXGXGXGXGXGXGXGXGXGXGXGXGXGXGXGXGXGXGXGXGXGXGXGXGXGXGXGXGXGXGXGXGXGXGXGXGXGXGXGXGXGXGXGXGXGXGXGXGXGXGXGXGXGXGXGXGXGXGXGXGXGXGXGXGXGXGXGXGXGXGXGXGXGXGXGX",
"GXGXGXGXGXGXGXGXGXGXGXGXGXGXGXGXGXGXGXGXGXGXGXGXGXGXGXGXGXGXGXGXGXGXGXGXGXGXGXGXGXGXGXGXGXGXGXGXGXGXGXGXGXGXGXVX] -             % H E '.+X+X+X+X+X+X+X+X+X+X+X+X+X+X+X+XoXoX'.'.'.@X-X<X4X5X5X4X4X4X4X4X4X4X4X4X4X4X4X4X4X4X4X4X4X4X4X4X4X4X4X4X4X4X4X4X4X4X4X5X5X4X<X-X@X'.'.'.OX+X+X+X+X+X+X+X+X+X+X+X+X+X+X+X+X+X+X+X+X+XoX'.+X#X:X1X5X5X5X5X5X5X5X5X5X5X5X5X5X5X5X5X4X4X5X5X7X5X>X X4       - ] BXGXGXGXGXGXGXGXGXGXGXGXGXGXGXGXGXGXGXGXGXGXGXGXGXGXGXGXGXGXGXGXGXGXGXGXGXGXGXGXGXGXGXGXGXGXGXGXGXGXGXGXGXGXGXGXGXGXGXGXGXGXGXGXGXGXGXGXGXGXGXGXGXGXGXGXGXGXGXGXGXGXGXGXGXGXGXGXGXGXGXGXGXGXGXGXGXGXGXGXGXGXGXGXGXGX",
"GXGXGXGXGXGXGXGXGXGXGXGXGXGXGXGXGXGXGXGXGXGXGXGXGXGXGXGXGXGXGXGXGXGXGXGXGXGXGXGXGXGXGXGXGXGXGXGXGXGXGXGXGXGXFXBX] -             % H E '.+X+X+X+X+X+X+X+X+X+X+X+X+X+X+X+X+X+X+X'.+X@X-X<X4X5X5X4X4X4X4X4X4X4X4X4X4X4X4X4X4X4X4X4X4X4X4X4X4X4X4X4X4X4X4X4X4X4X4X5X5X4X<X-X@X}.'.+X+X+X+X+X+X+X+X+X+X+X+X+X+X+X+X+X+X+X+X+X+X+XoX'.+X#X:X<X4X5X5X4X4X4X5X5X4X4X4X4X4X4X5X5X4X4X4X5X5X4X>X X4       - ] BXFXGXGXGXGXGXGXGXGXGXGXGXGXGXGXGXGXGXGXGXGXGXGXGXGXGXGXGXGXGXGXGXGXGXGXGXGXGXGXGXGXGXGXGXGXGXGXGXGXGXGXGXGXGXGXGXGXGXGXGXGXGXGXGXGXGXGXGXGXGXGXGXGXGXGXGXGXGXGXGXGXGXGXGXGXGXGXGXGXGXGXGXGXGXGXGXGXGXGXGXGXGXGXGXGX",
"GXGXGXGXGXGXGXGXGXGXGXGXGXGXGXGXGXGXGXGXGXGXGXGXGXGXGXGXGXGXGXGXGXGXGXGXGXGXGXGXGXGXGXGXGXGXGXGXGXGXGXGXGXGXGXBX] -             % H E '.+X+X+X+X+X+X+X+X+X+X+X+X+X+X+X+X+X+XOX'.OX@X-X<X4X5X5X4X4X4X4X4X4X4X4X4X4X4X4X4X4X4X4X4X4X4X4X4X4X4X4X4X4X4X4X4X4X4X4X5X5X4X<X-X@X'.'.+X+X+X+X+X+X+X+X+X+X+X+X+X+X+X+X+X+X+X+X+X+X+XOX'.+X#X-X<X4X5X5X4X4X4X4X4X4X4X4X4X4X4X4X4X4X4X4X5X5X4X>XW 4       - ] BXGXGXGXGXGXGXGXGXGXGXGXGXGXGXGXGXGXGXGXGXGXGXGXGXGXGXGXGXGXGXGXGXGXGXGXGXGXGXGXGXGXGXGXGXGXGXGXGXGXGXGXGXGXGXGXGXGXGXGXGXGXGXGXGXGXGXGXGXGXGXGXGXGXGXGXGXGXGXGXGXGXGXGXGXGXGXGXGXGXGXGXGXGXGXGXGXGXGXGXGXGXGXGXGXGX",
"GXGXGXGXGXGXGXGXGXGXGXGXGXGXGXGXGXGXGXGXGXGXGXGXGXGXGXGXGXGXGXGXGXGXGXGXGXGXGXGXGXGXGXGXGXGXGXGXGXGXGXGXGXGXGXBX] -             % H E '.+X+X+X+X+X+X+X+X+X+X+X+X+X+X+X+X+X+XOX'.OX@X-X<X4X5X5X4X4X4X4X4X4X4X4X4X4X4X4X4X4X4X4X4X4X4X4X4X4X4X4X4X4X4X4X4X4X4X4X5X5X4X<X-X@X'.'.oX+X+X+X+X+X+X+X+X+X+X+X+X+X+X+X+X+X+X+X+X+X+XOX'.+X#X-X<X4X5X5X4X4X4X4X4X4X4X4X4X4X4X4X4X4X4X4X5X5X4X>XW 4       - ] BXGXGXGXGXGXGXGXGXGXGXGXGXGXGXGXGXGXGXGXGXGXGXGXGXGXGXGXGXGXGXGXGXGXGXGXGXGXGXGXGXGXGXGXGXGXGXGXGXGXGXGXGXGXGXGXGXGXGXGXGXGXGXGXGXGXGXGXGXGXGXGXGXGXGXGXGXGXGXGXGXGXGXGXGXGXGXGXGXGXGXGXGXGXGXGXGXGXGXGXGXGXGXGXGXGX",
"GXGXGXGXGXGXGXGXGXGXGXGXGXGXGXGXGXGXGXGXGXGXGXGXGXGXGXGXGXGXGXGXGXGXGXGXGXGXGXGXGXGXGXGXGXGXGXGXGXGXGXGXGXGXGXBX] -             % H E '.+X+XoX+X+X+X+X+X+X+X+X+X+X+X+X+X+X+XOX'.OX@X-X<X4X5X5X4X4X4X4X4X4X4X4X4X4X4X4X4X4X4X4X4X4X4X4X4X4X4X4X4X4X4X4X4X4X4X4X5X5X4X<X-X@X'.'.OX+X+X+X+X+X+X+X+X+X+X+X+X+X+X+X+X+X+X+X+X+X+XOX'.+X#X-X<X4X5X5X5X4X4X4X4X4X4X4X4X4X4X4X4X4X4X4X5X5X4X>X X4       - ] BXGXGXGXGXGXGXGXGXGXGXGXGXGXGXGXGXGXGXGXGXGXGXGXGXGXGXGXGXGXGXGXGXGXGXGXGXGXGXGXGXGXGXGXGXGXGXGXGXGXGXGXGXGXGXGXGXGXGXGXGXGXGXGXGXGXGXGXGXGXGXGXGXGXGXGXGXGXGXGXGXGXGXGXGXGXGXGXGXGXGXGXGXGXGXGXGXGXGXGXGXGXGXGXGXGX",
"GXGXGXGXGXGXGXGXGXGXGXGXGXGXGXGXGXGXGXGXGXGXGXGXGXGXGXGXGXGXGXGXGXGXGXGXGXGXGXGXGXGXGXGXGXGXGXGXGXGXGXGXGXGXGXBX] -             % H E }.+X+X+X+X+X+X+X+X+X+X+X+X+X+X+X+X+X+XOX'.OX@X-X<X4X5X5X4X4X4X4X4X4X4X4X4X4X4X4X4X4X4X4X4X4X4X4X4X4X4X4X4X4X4X4X4X4X4X4X5X5X4X<X-X@X}.'.OX+X+X+X+X+X+X+X+X+X+X+X+X+X+X+X+X+X+X+X+X+X+XOX'.+X#X-X<X4X5X5X5X4X4X4X4X4X4X4X4X4X4X4X4X4X4X4X5X5X4X>X X4       - ] BXGXGXGXGXGXGXGXGXGXGXGXGXGXGXGXGXGXGXGXGXGXGXGXGXGXGXGXGXGXGXGXGXGXGXGXGXGXGXGXGXGXGXGXGXGXGXGXGXGXGXGXGXGXGXGXGXGXGXGXGXGXGXGXGXGXGXGXGXGXGXGXGXGXGXGXGXGXGXGXGXGXGXGXGXGXGXGXGXGXGXGXGXGXGXGXGXGXGXGXGXGXGXGXGXGX"
};
