/* XPM */
static char *wall_mona_7[] = {
/* columns rows colors chars-per-pixel */
"128 128 219 2 ",
"   c #000000",
".  c #090602",
"X  c #020A04",
"o  c #0D0A02",
"O  c #020F08",
"+  c #0F0D09",
"@  c #120C03",
"#  c #110E09",
"$  c #1A0F05",
"%  c #051103",
"&  c #03150A",
"*  c #04190B",
"=  c #091E04",
"-  c #141302",
";  c #1A1304",
":  c #1F1B01",
">  c #15110C",
",  c #1C140A",
"<  c #041F11",
"1  c #1C1711",
"2  c #201C02",
"3  c #241709",
"4  c #27190B",
"5  c #2C1C0C",
"6  c #261504",
"7  c #321F0D",
"8  c #221D13",
"9  c #271D1A",
"0  c #0B2204",
"q  c #07250D",
"w  c #113607",
"e  c #133D07",
"r  c #052312",
"t  c #062B15",
"y  c #062E18",
"u  c #0A2E10",
"i  c #093516",
"p  c #093916",
"a  c #063119",
"s  c #073415",
"d  c #0F2C0D",
"f  c #252003",
"g  c #2D2804",
"h  c #34210E",
"j  c #372707",
"k  c #373004",
"l  c #3A3304",
"z  c #3C3508",
"x  c #2A221A",
"c  c #2A2315",
"v  c #392712",
"b  c #3C2A14",
"n  c #352E1C",
"m  c #372814",
"M  c #3C341F",
"N  c #203810",
"B  c #332A20",
"V  c #3A2F24",
"C  c #3E3326",
"Z  c #3F3428",
"A  c #463C03",
"S  c #453C07",
"D  c #44321A",
"F  c #49371D",
"G  c #432C10",
"H  c #63380C",
"J  c #4E3E23",
"K  c #453929",
"L  c #503F23",
"P  c #4D3E30",
"I  c #422137",
"U  c #15450A",
"Y  c #184C09",
"T  c #164A0B",
"R  c #1A520A",
"E  c #1D5C0B",
"W  c #0F4115",
"Q  c #0A4219",
"!  c #0B4C1D",
"~  c #084B1B",
"^  c #144D13",
"/  c #144917",
"(  c #0E511B",
")  c #195B11",
"_  c #125519",
"`  c #165714",
"'  c #25511C",
"]  c #2D4C15",
"[  c #1E630D",
"{  c #1F6B0E",
"}  c #1C6311",
"|  c #176013",
" . c #226C0D",
".. c #22660C",
"X. c #23710D",
"o. c #396115",
"O. c #4D4203",
"+. c #4D430A",
"@. c #4F480B",
"#. c #594D03",
"$. c #53490B",
"%. c #515415",
"&. c #645604",
"*. c #665804",
"=. c #735611",
"-. c #546D10",
";. c #41620E",
":. c #7C621A",
">. c #514629",
",. c #5B4C2C",
"<. c #544528",
"1. c #584837",
"2. c #584837",
"3. c #54482B",
"4. c #60512F",
"5. c #625533",
"6. c #695B36",
"7. c #6C5E38",
"8. c #63533A",
"9. c #6E603A",
"0. c #7E6D20",
"q. c #381440",
"w. c #633845",
"e. c #5F1E71",
"r. c #601F72",
"t. c #763A63",
"y. c #735E48",
"u. c #725D47",
"i. c #675441",
"p. c #7A634C",
"a. c #894D10",
"s. c #935E12",
"d. c #935311",
"f. c #895A12",
"g. c #877505",
"h. c #81631A",
"j. c #9A6515",
"k. c #A56615",
"l. c #BC6C17",
"z. c #B26D17",
"x. c #95681B",
"c. c #C36E17",
"v. c #CB6F17",
"b. c #C97118",
"n. c #C77117",
"m. c #816950",
"M. c #8D7358",
"N. c #997D5F",
"B. c #92785B",
"V. c #9A7E60",
"C. c #988306",
"Z. c #A18B06",
"A. c #AA9206",
"S. c #9E8263",
"D. c #A48666",
"F. c #AC8C6C",
"G. c #A68868",
"H. c #B1916F",
"J. c #B69572",
"K. c #C29E79",
"L. c #C5A17B",
"P. c #CBA67F",
"I. c #812B96",
"U. c #DF46FF",
"Y. c #E348FF",
"T. c #CCA780",
"R. c #CEA981",
"E. c #D1AB83",
"W. c #D7B087",
"Q. c #CCBBAF",
"!. c #DED6CC",
"~. c #DED6CB",
"^. c #DFD8D0",
"/. c #D9CFC5",
"(. c #E0D7CE",
"). c #E1D9CE",
"_. c #E5DDD5",
"`. c #E8DFD6",
"'. c #E7DFD8",
"]. c #E8DFD8",
"[. c #E0D7D0",
"{. c #E7E0D6",
"}. c #E8E0D7",
"|. c #E7E0D8",
" X c #EBE2D9",
".X c #EAE3D9",
"XX c #EAE2D9",
"oX c #EBE3DA",
"OX c #E9E2D8",
"+X c #ECE3DA",
"@X c #ECE2D9",
"#X c #EBE4DA",
"$X c #EBE4DB",
"%X c #EAE5DA",
"&X c #ECE5DB",
"*X c #ECE4DB",
"=X c #ECE6DB",
"-X c #EBE4DC",
";X c #EBE6DD",
":X c #ECE5DD",
">X c #EDE6DC",
",X c #ECE7DD",
"<X c #EEE7DD",
"1X c #EEE6DD",
"2X c #EDE6DE",
"3X c #EEE7DF",
"4X c #EDE5DD",
"5X c #EAE3DB",
"6X c #EFE8DE",
"7X c #EDE9DE",
"8X c #EEE8DE",
"9X c #F0E9DF",
"0X c #F0E6DF",
"qX c #EFE7E0",
"wX c #EFE9E1",
"eX c #EFE8E0",
"rX c #F1EAE2",
"tX c #F2EBE5",
"yX c #F7F3ED",
/* pixels */
" X_.`._.`. X}. X X{._.}.}. X X_._. X}._._.`.`._._._._.`. X}.}. X X X X X X X{. X6XeX6X X X X}.6X6X6X X X X X X X X X6X X6X6X X{.}.}._.)._._._.}.`.`.`.`.`._._.`._.`.`.`._.`.}.}. X{.{.}.}. X}. X}. X X X6X X X6X X X X X X X X X X X X X X X X{. X X X X X}. X6X",
" X}.}._._.}.`.`. X X}.}.{.{. X X_._. X_._.`._._._._.}.}.}.}. X{.{. X X X X X X X6XrXrX6X X}.{. X X9XrX X6X X X X X X6X X6X9X6X X`.}. X_.(._.`.}.`.}. X X}._._.`.}. X}.}.`._._. X X X X}. X}.`. X X X X X X X X9X X X X X X X X6X X X X X X X X X X{. X X X X X X",
" X X X}._._.`.`. X{. X X X X X X X X X X_.`._._._._.`.`.}.}.}.}.}._.{._.}.6X X]._._.}. X}. X X X X}. X6X6X X X X X X6X X X X6X X X X_._._.}.`.`.`.}. X X}._.`.`. X X`.}._._.!._. X X X X X{._. X_.{. X X X X X X X X{.{.{.}.}. X X X X6X X X X X X X X X X X X X",
" X X X}. X}._._._.{.}. X X X X X XrX|. X_._.}._._._._.}.`._.`. X X`._._.}.{.}. X X{._. X X X X X X X X X X X X X}. X6X X X X X X X}._._._._._._.`.`.}.`.`._._.`. X`._._. X_._._. X{.}. X{. X}. X_.}. X X}. X X X X_.}.}._.}. X X X9X X6X6X X X X X X X X X X X X",
"6XeX X X X`._._._.{.{. X X X X X X|. X X X{.`._._._._._._.`. X}.}.}. X X X X X6X X}. X X X|. XrX9X X X X X X X X X{._. X X X X X X}. X X{.`._.`.`.`.}.`._._._.`.`.`.`.}. X}._._._.{.}._. X X X X X X{._._. X X X X}. X X}. X X X X X6X X X X X X X X X X X X X6X",
" X X X X X X}._._.{.{. X X X X X X_. XeX X X_._._._.}.`.}. X}.}.}. X_. X X X}. X X X X X X X X X X X X X6X X X X X{.{. X X X X X X X X X}._._._._.`.}. X`._._.}.}.`._.}.}.}.}.`.}. X X}.}.}. X}. X{._.}._. X X X X X X X}._. X{.6X X X X}. X X X X X X X X X X X",
" X X X X{.{.}._._.}. X{. X X X X X X X X X X X_._._._._.}. X X X{. X_.`. X`. X}. X}. X{. X X X X X X X X X X6X6X}.{. X{. X X X X X X X X6X}.`._. X_.`.}. X}.}.}._.`._.`.`.`.}.`.}. X X X`.`. X}. X_._.`. X X X X X X X X X{. X}.6X9X6X X X X X X X6X X6X X X X X",
" X X X X{._.}._._._._. X X X X X X X X X X X X`._._.`._.{.}. X}._.}._.}.}. X X X_._. X X{.}.}. X X X X X X X X X X}. X X X X X X X X X X X X`._.`.}. X X`.}. X X_._._._._.`._._. X}._. X X X_. X X_._._.`. X X X X X X X}.}. X X X X X X X{. X X X X6X X X6X X X",
"eXrX6X X X X`._._._._._. X X X X X X X X_._.eX X_._._.}.{.{. X X_._.}.}._. X X X_._. X X X X}. X X X X X X X X X6X6X X X X X}.{. X X X X}. X X{._.}.}. X}. X X}._.}._._._.`.}. X}.`.`.}.}.}. X X X X X}. X X}. X X X_.}. X X X X X X X X}.}. X X X X X X X X X X",
" X X X X X X_._.`._._._._.{. X X X X X X X X X|._._._.}.}. X X X}._._._.}.}.}._._._.}. X X X X X X X X X X X X X{. X X X X X X X XrX X X X{. X X}.}.}. X}. X`._._.}.}._._.`.}. X`._.`. X X_.}. X_.`. X}.`.}. X X X X_. X X X X X X X X X}.}. X}.{. X X X X X X6X",
"eXrX X X X X X X_.!._.}.{._.{.}.{. X X X X X X|.{._._. X X X X_.}._._._.`. X`._.`._.{. X X X X X X X X X X|. X X`._. X X6X X X X X X|. X X X{. X X X X_._.}.`._._._.`.}.`._._._. X_.`.}. X`._. X}.`._._._._. X X_.}. X X X}. X6X X_._.{._._._.}.}. X X6X X X X6X",
" X X X_.`._.}. X_.`.`._.}._._._.}. X X X X X X_._._._._._. X X}.`._.`._. X X}.`._._. X X}.{. X X X X X}.{.{. X X}._. X X X X X6X X X X X X{.{.{. X}.}.(._.}._._.`.`.`._.}.`._._.}._._._._.}. X X`.`._.`.`._.}.}._. X_._. X}.}.rX X_. X_._._.}.}. X X X X X X}. X",
"eX X X X}.`._._._. X_._._._._._._._. X}._._._.`.`._._._.)._. X X X_._.`. X}. X X_._._.`. X X}. X}. X{. X_. X{.}. X X X X X X X X X6X X X X{. X X}.}._.(._.}._.`._. X X}.}.`._.`. X}.`.}.}. X X}.}._.`.`._.`._.}.`. X X}. X X X X X_.{. X_._.`.}. X X X X_._._. X",
"eX X X_._._._._. X}. X_.}._._.}._._._.`.`._._._.}. X_._._._.`._. X`.}._.`.`. X X X_._._._._._._.{. X X X X X X X}. X X X X X X}. X X X X X X X X{.{._.}. X`._.`._.}. X`.}._._.}.`.}.}. X X X X_.}.}.}.}._._.}. X`._.`. X X X X X X{._.}.}._._.}.}. X X X_.}. X X",
"|._. X]. X_._._._.}. X{._. X)._. X_._._._.`.{.}.{.}._._._._._._._.}.}.`._.`.`. X_._.}._._._._.}._. X X X X X X}.}.}. X X X X X X X{._.{. X X}.{. X X}.}. X}._._._. X X_.{.{.`.`. X}.}. X X X}. X}. X X{.}.}._.}.`.}.}. X}. X X X X X}.{. X}.{.{._._. X X X X{. X",
" X}. X X X X_._._.`._.}.{.}._.)._.}._._._.`.`._._._.}.`._. X}._._._._.`._.}.}.`._._._. X}._._.`._.}. X_._.}.}.}.}.}. X X}. X X X X X X X X X X X X X{._.`.`._._._.`. X_.{. X}._. X X}.}.`._. X{.{. X X X X X_.`._._.`. X`.`. X X X}. X X X X X X_._.}. X}.}.}. X",
"|. X X X X X}.}. X X X X X{. X_._. X}._._.)._._.)._.`._._._.`._._._. X X X X X X}._._._. X X`._._.`. X_._.}.`.}. X X X X X X X X X X X X X X X X X X X}. X}._.`. X}.}._. X{._.}. X X X}.}._._.}.{.}. X X X{.{.`.`._._. X X X}. X}.}. X X X{. X X{._.}. X}. X X}.",
" XrXeX X X X X X X X X}.|. X X{. X}.`._.).!.!.!.)._._._.`._._.}.{. X X X X X X X X X X_._. X X_._.`.}.`.}._._.`.`.}. X X X X X X X}.}. X X X X}.{. X X X{.{.`.`. X X X X X X X X X X X X`.}._._._.`.}.`.}. X X{. X_.`.`.`. X`. X X}. X X X X X}. X X}. X X_._. X",
" X X X|. X6X X X X X X X X X{._._.}. X{.}._._._._._._._.}._._.{._.{.'. X X X X X X X X X X_. X}.}._._._._._._._._.`._. X X X X}. X X X X X X X X{. X{._. X}.}._._. X X X X X X X X X X X_._.}. X_.`.`._.{.{.}.}. X X X`._.}.}. X X X}. X X X X X X X X X X X_. X",
" X X X X X6X6X X X X X X X X{.{._._. X                                                                                                                                                                                     X}.}. X X X X X6X X X X X X X X X X X",
" X X}.}. X6X X}. X X X X X X}. X_.{. X                                                                                                                                                                                    `.}.`._.}. X X X X X X X X X X X X}. X",
" X X{._. X X X{. X X X X X X X X X X X          o 2 : : : : : : : : : : : : : : : : : : : : : : : : : : : : : : : : : : : : : : : : : : : : : : : : : : : : : : : : : : : : : : : : : : : : : : : : : : : : 2 o           `.}.}. X_.{. X X X X X X X X X X X X X",
" X}.}. X X X X X{.}. X X X X X X X}. X          l Z.Z.Z.Z.Z.Z.Z.Z.Z.Z.Z.Z.Z.Z.Z.Z.Z.Z.Z.Z.Z.Z.Z.Z.Z.Z.Z.Z.Z.Z.Z.Z.Z.Z.Z.Z.Z.Z.Z.Z.Z.Z.Z.Z.Z.Z.Z.Z.Z.Z.Z.Z.Z.Z.Z.Z.Z.Z.Z.Z.Z.Z.Z.Z.Z.Z.Z.Z.Z.Z.Z.Z.Z.Z.Z.Z.Z.Z.l           }.}.}. X_.}. X X{.{.}. X X X X X X X X",
" X X X X6X X X}. X X X X X_. X X X X X          l A.Z.Z.Z.Z.Z.Z.Z.Z.Z.Z.Z.Z.Z.Z.Z.Z.Z.Z.Z.Z.Z.Z.Z.Z.Z.Z.Z.Z.Z.Z.Z.Z.Z.Z.Z.Z.Z.Z.Z.Z.Z.Z.Z.Z.Z.Z.Z.Z.Z.Z.Z.Z.Z.Z.Z.Z.Z.Z.Z.Z.Z.Z.Z.Z.Z.Z.Z.Z.Z.Z.Z.Z.Z.Z.Z.Z.A.l            X X X}.`._.}. X X X X X X X X X X X X",
" X X X6X X X X X{. X X X X X{.}.}. X X    o l l O.*.&.g.Z.Z.Z.Z.Z.Z.Z.Z.Z.Z.Z.Z.Z.Z.Z.Z.Z.Z.Z.Z.Z.Z.Z.Z.Z.Z.Z.Z.Z.Z.Z.Z.Z.Z.Z.Z.Z.Z.Z.Z.Z.Z.Z.Z.Z.Z.Z.Z.Z.Z.Z.Z.Z.Z.Z.Z.Z.Z.Z.Z.Z.Z.Z.Z.Z.Z.Z.Z.Z.Z.Z.Z.g.&.*.O.l l o      X X X}.}._.`. X X X X X X X X X X X X",
"6X X X X X_. X X X X}. X{.{.}.}.}.}. X    2 Z.A.*.    #.Z.Z.Z.Z.Z.Z.Z.Z.Z.Z.Z.Z.Z.Z.Z.Z.Z.Z.Z.Z.Z.Z.Z.Z.Z.Z.Z.Z.Z.Z.Z.Z.Z.Z.Z.Z.Z.Z.Z.Z.Z.Z.Z.Z.Z.Z.Z.Z.Z.Z.Z.Z.Z.Z.Z.Z.Z.Z.Z.Z.Z.Z.Z.Z.Z.Z.Z.Z.Z.Z.Z.Z.#.    *.A.Z.2      X X X}.}.}._. X}.}. X X X X X X6X X X",
" X X X X X X X X}. X X X X X X{. X X X    : Z.Z.&.    #.A.Z.Z.Z.Z.Z.Z.Z.Z.Z.Z.Z.Z.Z.Z.Z.Z.Z.Z.Z.A.Z.Z.Z.Z.Z.Z.Z.Z.Z.Z.Z.Z.Z.Z.Z.Z.Z.Z.Z.Z.Z.Z.Z.A.Z.Z.Z.Z.Z.Z.Z.Z.Z.Z.Z.Z.Z.Z.Z.Z.Z.Z.Z.Z.Z.Z.Z.Z.Z.Z.A.#.    &.Z.Z.:      X X X X X X`. X X}._.{. X X X X X X X",
" X X X X X X X X X X X X X X}._. X X X    : Z.Z.g.#.#.O.A A A A A A A A A A A A A A A A A A A A A A A A A A A A A A A A A A A A A A A A A A A A A A A A A A A A A A A A A A A A A A A A A A A A A A A A O.#.#.g.Z.Z.:      X X}. X}. X_. X}._._.{. X X X X X X X",
"rX X6XeX X X X X X{. X X X}. X}.}.}.{.    : Z.Z.Z.Z.A.A                                                                                                                                                 A A.Z.Z.Z.Z.:      X X_.{.{. X_.{.}._. X X X X X6X6X X X",
"eXeXeXeXeXrXeX X|.}. X X X X X X{. X}.    : Z.Z.Z.Z.Z.A                                                                                                                                                 A Z.Z.Z.Z.Z.:      X}._._.{.{._._._. X X X X X X6XeX X X",
"eXeXeXeXeXeXrX X X X X X X X X X}. X X    : Z.Z.Z.Z.Z.A     u p p p p p p p p p p p p p p p p p p p p p p p p p p p p p p p p p p p p p p p p p p p p p p p p p p p p p p p p p p p p p p p p p p u     A Z.Z.Z.Z.Z.:      X_._._.{.}._._.}.}. X X X X X X X X X",
" XeXeXrXeX X XrXrX6X X X X X X X}.}._.    : Z.Z.Z.Z.Z.A     p ! ! ! ! ! ! ! ! ! ! ! ! ! ! ! ! ! ! ! ! ! ! ! ! ! ! ! ! ! ! ! ! ! ! ! ! ! ! ! ! ! ! ! ! ! ! ! ! ! ! ! ! ! ! ! ! ! ! ! ! ! ! ! ! ! ! p     A Z.Z.Z.Z.Z.:     }.}.`.`.`.}.}.`.{.{.}. X X X6X6X X X X",
" X6XrXrXrX X XeXqX X X X X X X}.}._._.    : Z.Z.Z.Z.Z.A     p ! ! ! ! ! ! ! ! ! ! ! ! ! ! ! ! ! ! ! ! ! ! ! ! ! ! ! ! ! ! ! ! ! ! ! ! ! ! ! ! ! ! ! ! ! ! ! ! ! ! ! ! ! ! ! ! ! ! ! ! ! ! ! ! ! ! p     A Z.Z.Z.Z.Z.:     }. X X X X X`.}. X{. X X X X X XeX X X",
" X X X X X X XeXqX X X X X X X|. X_._.    : Z.Z.Z.Z.Z.A     p ! ! ! ! ! ! ! ! ! ! ! ! ! ! ! ! }  . . . .R   X X X X     X X X X X X X X X X     X X   p ! ! ! ! ! ! ! _  . . . . ._ ! ! ! ! ! ! ! p     A Z.Z.Z.Z.Z.:      X X X X X X_._. X{. X X{. X X X XeXeX",
" X X X X X X XeX X X X X X X X X X X X    : Z.Z.Z.Z.Z.A     p ! ! ! ! ! ! ! ! ! ! ! ! ! ! ! ! [  . . . .R                                             p ! ! ! ! ! ! ! _  . . . . ._ ! ! ! ! ! ! ! p     A Z.Z.Z.Z.Z.:      X X X}.{.`.`._. X{. X X X_. X X X XrX",
" X XqX|. X X XeX X X XqX X X X X X X X    : Z.Z.Z.Z.Z.A     p ! ! Q Q Q ! ! ! ( ( ( ( ( ( ( ( {  . .E E U                                   . .       s Q Q ! ( ( ( ( )  . ...E E / Q Q ! ! ! ! ! p     A Z.Z.Z.Z.Z.:     }.{. X}._._._.!.{.{. X X X XeX X X X X",
" X XeX X XqXqX X XeX X|. X X XrXrX X X    : Z.Z.Z.Z.Z.A     p ! ! X   X ! ! _  . . . . . . . . . .[                                       - l l ;           [  . . . . . .X.w           Q ! ! ! ! p     A Z.Z.Z.Z.Z.:      X6X X X X_. X^.^. X X X X X XeXrX X X",
" X X X X XeX X X X X X|. XeX X X XrXeX    : Z.Z.Z.Z.Z.A     p ! ! X   X ! ! _  . . . . . . . . . .[                                       - l l ;           [  . . . . . .X.w           Q ! ! ! ! p     A Z.Z.Z.Z.Z.:      X6X X_. X{.}. X_. X X X X X XeX X X X",
" X X X X X X X X X X X X X X X XeXeXqX    : Z.Z.Z.Z.Z.A     q s s     X s s W  . . . . . . . .} } )           1 K C C C C C C C C Z B     - l l ;           [  . . . .[ T Y 0           / _ _ ! ! p     A Z.Z.Z.Z.Z.:      X X X X X X_.{._. X_. X X X XeX X X X",
" X X X X X X X XrX X X X_._._.}.rXeX X    : Z.Z.Z.Z.Z.A                     0  . . . . . . . .( ! Q           1.W.E.E.E.E.E.E.E.E.E.F.    - l l ;           [  . . . .T                 E  . .! ! p     A Z.Z.Z.Z.Z.:     6X X X X X X X X|. X X XqXqXeX X X X X",
" X X X X X XeX X X X X X_._._._. X X X    : Z.Z.Z.Z.A.A                     0 X.X.X.X.X.X.X. .( ! Q           2.E.P.P.P.P.P.P.P.P.R.D.    - l l ;           [  . . . .Y                 E  . .! ! p     A Z.Z.Z.Z.Z.:      X X X X X X X X X_.|. XeX XeX X X X X",
" X X X X X X X X X X X X X X_. X{. X X    : Z.Z.Z.Z.Z.A           & & &     % w w w w w w w w q q q     1 i.8.B.R.P.P.P.P.P.P.P.P.R.D.    o : : : : :       [  . . . .Y     X * *       E  . .) ) W     A A.Z.Z.Z.Z.:      X X6X X X X X X X X_. X XeX XqXeX X X",
" X X X X X X X X X X X_.}. X X X X}.{.    : Z.Z.Z.Z.Z.A           u a u                                 B E.E.R.P.P.P.P.P.P.P.P.P.R.D.          2 l l o     [  . . . .Y     * a a O     E  . . . .R     A Z.Z.Z.Z.Z.:      X X XeX X6X X X X}.|. X X X XeX X X X",
" XeX X X X X X X X X X!._.6X X X X{._.    : Z.Z.Z.Z.Z.A           u y r                                 B E.E.E.E.E.R.P.P.R.E.E.E.E.G.          2 l l o     [  . . .X.Y     & a y X     E  . . . .R     A Z.Z.Z.Z.Z.:     eX X XeX XrX X X X}._. X X XeX X|. X X",
" X X X X X X X|.|.|. X_._. X XeX X X_.    : Z.Z.Z.Z.Z.A     * r r u y u r < u Y Y w < r X               # K C C C V N.R.P.1.C C C C P M.B.1.    2 l l o     = 0 0 0 0 0 r < r y y X     E  . . . .R     A Z.Z.Z.Z.Z.:     rX X XeX6X X X X X X{. X X X X X_.|. X",
" X X X X|. X X X X X|.|.|. X XqXeXrX X    : Z.Z.Z.Z.Z.A     r a y y y y y y W X.X.^ y a O                           p.E.P.8         8 E.E.m.    2 l l o               X a y y y y X     E  . . . .R     A Z.Z.Z.Z.Z.:      X X XrX X X X X X X}. X X X X X X|. X",
" X X X X X X_.{._.'._._.|. X X X X X X    : Z.Z.Z.Z.Z.A     r y y y y y y y W  . .^ y a O                           m.E.P.x         x P.E.m.    2 l l o               O y y y y y X     E  . . . .R     A Z.Z.Z.Z.Z.:      X X XeX X X X X X X}. X X X X X X X X",
" X X X X X{._._.{._._._. X X X X X X X    : Z.Z.Z.Z.Z.A     r y y y y i [ [ [  . . .[ [ p r r           x H.H.8.    m.E.P.H.F.F.F.F.H.P.E.m.    2 l l o           r r u y y y y y X     X % % % % X     A A.Z.Z.Z.Z.:     eXeXeXeX X X X X X X X_. X X X X X X X",
" X|. X_.`. X_._._. X_. X X X X|. X X X    : Z.Z.Z.Z.Z.A     r y y y y s  . . . . . . . .W y y           B E.E.y.    m.E.P.T.T.T.T.T.T.P.E.m.    2 l l o           y y y y y y y y X                     A Z.Z.Z.Z.Z.:     eXrX X X X X X X X|. X{.{. X X X X X X",
" X_.|._._. X!._._. X X_. X X X X X X X    : Z.Z.Z.Z.Z.A     r y y y y s  . . .[ [  . . .W s s X         B R.E.y.    m.E.P.P.P.P.P.P.P.P.E.m.    2 l l o         X y y y y y y y a &                     A Z.Z.Z.Z.Z.:      X X X X X X X X{. X X X_. X X X X X X",
" X_.{.}._._._._._._. X X X X X X X X X    : Z.Z.Z.Z.Z.A     r y y y y s  . .) y y ^  . . . . .X         B R.E.y.    m.E.P.P.P.P.P.P.P.P.E.m.    2 l l o     u u u y y y y y y y y u y y       u u r     A Z.Z.Z.Z.Z.:      X X X X X X X X X X{.|.}.6X X X X X X",
" X X`.}._._._.`. X{.}. X X X X X X X X    : Z.Z.Z.Z.Z.A     r y y y y s  . .) y y ^  . . . . .%         B E.E.y.    m.E.R.P.P.P.P.P.P.P.E.m.    2 l l o     u y y y y y y y y y y y y y       u y r     A Z.Z.Z.Z.Z.:      XeX X X X X X|. X X X{._. X X X X}. X",
" X X}. X}.}.}. X X X X X X X X X X X X    : Z.Z.Z.Z.Z.A     u p p p p W  . .) a a ^ } } } } } X         9 V.S.2.    8.S.V.K.P.P.P.P.P.P.E.m.    2 l l o     < r r y y s p p p p p s y y & X O u y r     A Z.Z.Z.Z.Z.:      XeXeX X X6XeX X X X X_._. X X X6X X X",
" X}.}. X X X_._. X X X X X X X X X}.{.    : Z.Z.Z.Z.Z.A     R  . . . . . . .} ! ! ! ! ! ! ! ! X                 . .       D.R.P.P.P.P.P.E.m.    2 l l o           y y W  . . . . .W y y y y y y y r     A Z.Z.Z.Z.Z.:      XqX X X X X X6X X X X_._. X X X X6X X",
" X X X X X X X X X X}. X X X X X X X X    : Z.Z.Z.Z.Z.A     R  . . . . . .X.} ! ! ! ! ! ! ! ! X                 . .       D.R.P.P.P.T.E.W.m.    2 l l o           y y W  . . . .X.W y y y y y y y r     A Z.Z.Z.Z.Z.:     rXrXeX X X_. X X X X{.`._._. X X X6X X",
" X X X_. X X X X X X X|. X|. X X X X X    : Z.Z.Z.Z.Z.A     U } ) ) ) ) e e U ! ! ! ! ! ! ! ! X     ; ; 9 e.r.q.  .       D.R.P.P.T.J.y.p.P     2 l l 2 ; ;       y y W  . .E ^ ^ p y y y y y y y r     A Z.Z.Z.Z.Z.:      X XeX X{. X X X{. X{._._.}. X X X6X X",
" X X X X X X}. X X{.}.{. X X X X X X X    : Z.Z.Z.Z.Z.A     p ! ! ! ! Q     & ! ! ! ! ! ! ! ! X     l l w.Y.Y.I.  . . .   G.R.P.P.R.D.          2 l l l l l       y y W  . .^ y y y y y y y y y y r     A Z.Z.Z.Z.Z.:      X_. X X X6X X X X X{.{.{.{. X}.}. X6X",
"}. X X X X X}.}. X X{.}. X}.}. X X}. X    : Z.Z.Z.Z.Z.A     p ~ ~ ! ! Q     & ~ ~ ~ ~ ~ ! ! ! X     k k w.U.Y.I.  .       F.E.E.E.E.F.          2 l l l l k       y y W  . .^ y y y y y y y y y y r     A Z.Z.Z.Z.Z.:      X X X X X XrXrX X X X X}._. X X{._. X",
"_.}. X X}. X_.{. X{. X_._. X X}.{.|. X    : Z.Z.Z.Z.Z.A     $.h.:.d * *     4 h.:.:.:.h.o.| ) X     k l F t.t.I           C P P P P C           2 l l l l l       y y W  . .^ y y y y y y y y y y r     A Z.Z.Z.Z.Z.:      X X X X X XeX6X X X X6X X{._. X}._.}.",
" X X_._. X_._.{. X X X X}.{. X}.{.'. X    : Z.Z.Z.Z.Z.A     d.b.l.@         j b.c.c.c.v.-.{  .%     k l l k k :                                 2 l l l l l       y y W  . .^ y y y y y y y y y y r     A Z.Z.Z.Z.Z.:      X}. X X X X X X X X X X X X X X}.}.}.",
" X X X`.}.}.{.{._. X}. X{.{. X X X X X    : Z.Z.Z.Z.Z.A     d.c.l.@         j b.c.c.c.c.-.{  .%     k l l l l 2                                 2 l l l l k       y y W  . .^ y y y y y y y y y y r     A Z.Z.Z.Z.Z.:     _.}. X{.}. X X X X X X X X X X X_. X X",
"}. X X_._.}._._.}._. X}.{.}. X X{._.}.    : Z.Z.Z.Z.Z.A     d.c.l.@         . 6 6 6 6 6 - % %       l l l l l k g g @     m.G.D.D.D.D.D.F.i.    2 l l l l k     X E [ [  . .^ y y ^ [ [ [ [ ) a y r     A Z.Z.Z.Z.Z.:     _. X X X}. X{. X6X X X X X X X6X6X X X",
"`.}. X_._. X X_.}.}.}.}.}.}.{.{._.}. X    : Z.Z.Z.Z.Z.A     d.n.l.@                                 l l l l l l l l -     G.E.R.R.R.R.R.E.m.    2 l l l l k     %  . . . . .^ y y )  . . . .[ a y r     A Z.Z.Z.Z.Z.:     _._. X X X X X X X X X X6X X X}. X X X",
"_. X X`.}._. X}._.{.}.}. X}.{.{.}.}.{.    : Z.Z.Z.Z.Z.A     a.l.z.;                                 l l l l l k k k -     D.R.P.P.P.P.P.E.m.    2 l l l l k     %  . . . . .^ u u R .... . .[ a a r     A Z.Z.Z.Z.Z.:     _.`. X X X X X X X X X X X X X X_.}. X",
"'. X X X}._.`.`._.`.}. X X}.`._.`.). X    : Z.Z.Z.Z.Z.A     . . o S +.+.+.+.k                       k l l l l 2           D.R.P.P.P.P.P.E.m.    2 l l l l k     %  . .) a i *         X E  . .! ! p     A Z.Z.Z.Z.Z.:     `.`. X X`. X X X X X X X_. X X X_. X X",
"_._._._._.`._._. X}. X X`. X X}._.}.}.    : Z.Z.Z.Z.Z.A           +.$.$.$.$.z                       k l l l l 2           D.R.P.P.P.P.P.E.m.    2 l l l l k     %  .X.) y a &           E  . .! ! p     A Z.Z.Z.Z.Z.:     _.`. X X X X X X X X X`.}. X`.`.}. X X",
"_.{. X_._._._._. X{.}. X X X X X X X{.    : Z.Z.Z.Z.Z.A           +.$.$.$.$.z o @ @ @ @ ; 6 6       g g k l l 2     1 x x F.T.P.P.P.P.P.E.m.    2 l l l l k     X R E T r r &           E  . ._ _ p     A Z.Z.Z.Z.Z.:     _._._._._._._.{. X X X`. X X}._._. X X",
"_.]. X_._._. X`._. X X X X]. X X]. X X    : Z.Z.Z.Z.Z.A           +.$.$.$.$.$.$.$.$.$.$.k.c.l.$         o l l 2     m.E.P.P.P.P.P.P.P.P.E.m.    2 l l l l k                             E  . . . .R     A Z.Z.Z.Z.Z.:     _.`._._._._._.`.`. X X X X X}._._. X X",
"_._._.)._.`._._.{. X X X X_._.]. X X X    : Z.Z.Z.Z.Z.A           +.$.$.$.$.$.$.$.$.$.$.k.b.c.$         o l l 2     m.E.P.P.P.P.P.P.P.P.E.m.    2 l l l l l                             E X. . .X.R     A Z.Z.Z.Z.Z.:     _._._._._._._._._. X`._.}.}.`._._.}. X",
"_._.`.{._._.`.}. X_.{._.`._._._._.}._.    : Z.Z.Z.Z.Z.A     - : 2 +.$.$.$.$.$.$.$.$.$.$.f.j.s.g : :     o f f -     m.E.P.P.P.P.P.P.P.P.E.m.    - f 2 2 2 2                             e U U U U w     A Z.Z.Z.Z.Z.:     _._._._._._._._._. X_.).}.}.}.`.}. X X",
"_._. X X_._.`._.}.`.`. X`._._._._._.`.    : Z.Z.Z.Z.Z.A     S $.$.$.$.$.$.$.$.$.$.$.$.$.$.@.$.$.$.+.                m.E.P.P.P.P.P.P.P.P.E.m.                                                            A Z.Z.Z.Z.Z.:     _._._.`._._._._._.}.`. X`._.`. X`. X X",
"_.|. X X X}._._.`.`._. X X_._.}.`._._.    : Z.Z.Z.Z.Z.A     S $.$.$.$.$.@.@.@.@.@.@.@.@.$.$.$.$.$.+.                p.E.P.P.P.P.P.P.P.P.E.m.                                                            A Z.Z.Z.Z.Z.:      X_._._._. X X`.`._.`._._._._.`.`._. X",
"_._. X X6X X_. X X}.{. X}. X X`._.].`.    : Z.Z.Z.Z.Z.A     N ] ] ] ] ] s.s.s.s.s.s.s.s.&.$.$.g f 2           n p.u.F.R.P.P.P.P.P.P.P.P.E.m.                ; , , , , , , , o           q u u u u q     A Z.Z.Z.Z.Z.:      X X'._._._._._._.{.}.`._._._._.}. X X",
"_.|. X X}. X X X X X}. X`.}.}.}._._.].    : Z.Z.Z.Z.Z.A     p ! ! ! ! ' c.c.c.c.c.c.c.n.=.$.$.o               1.W.E.R.P.P.P.P.P.P.P.P.P.E.m.                7 h h h h h h h ;           Q ! ! ! ( p     A Z.Z.Z.Z.Z.:      X X|.|.|. X_._._.{. X}.}.}._._.}. X X",
"_.|. X X X X X X X X{. X}.}.}. X_._._.    : Z.Z.Z.Z.Z.A     p ! ! ! ! ' l.c.c.c.c.c.c.c.=.$.$.o               1.E.P.P.P.P.P.P.P.P.P.P.P.E.m.                5 h h h h h h h ;           Q ! ! ! ! p     A Z.Z.Z.Z.Z.:      X X X X|._._._._.}.}._. X X_.}._.}. X",
"_. X X X}. X}. X X X X X}.{. X X X|._.    : Z.Z.Z.Z.Z.A     p ! ! ! ! ' l.c.c.c.c.c.c.n.G - -                 1.E.P.P.P.P.P.P.P.P.P.P.P.E.m.    c >.>.>.>.>.<.<.<.<.<.<.<.<.D 3 5 o     % % * } } T     A Z.Z.Z.Z.Z.:      X X X X X|._._._._._._.{. X}. X}.{. X",
"`._.{. X{. X{.{. X X X_._._. X X X X|.    : Z.Z.Z.Z.Z.A     p ! ! ! ! ' l.c.c.c.c.c.c.n.j                     1.E.P.P.P.P.P.P.P.P.P.P.P.E.m.    C 9.7.7.7.7.7.7.7.7.7.7.7.7.L h h @         X  . .R     A Z.Z.Z.Z.Z.:      XeX X X X X|. X X(.!.}.{._. X X X X{.",
" X X X X X{._. X X X}.).^.{._. X X X X    : Z.Z.Z.Z.Z.A     p ! ! ! ! ' l.l.l.c.c.l.l.c.j                     2.P.L.P.P.P.P.P.P.P.P.P.P.E.m.    M 7.6.6.6.6.6.6.6.6.6.6.6.6.J 7 h @         X  . .R     A Z.Z.Z.Z.Z.:      XeXeX X X X X X{.}._._._._. X X X X_.",
" X X X X X X X X`.}._._._.}._._. X X X    : Z.Z.Z.Z.Z.A     p ! ! ! ! ! / _ %.c.b.H o @                       . > + m.E.P.P.P.P.P.P.P.P.E.m.    M 7.7.D v v v v v v v v v v m h h @         X  . .R     A Z.Z.Z.Z.Z.:      X X X X X X X X'._._._._._._. X X_._.",
"_.}.}.{. X6X X{. X X}. X X X_._._. X X    : Z.Z.Z.Z.Z.A     p ! ! ! ! ! ! ~ %.c.b.H                                 m.E.P.P.P.P.P.P.P.T.E.m.    M 7.7.D h h h h h h h h h h h h h @         X  . .R     A Z.Z.Z.Z.Z.:      X X X X X X X X X_._._._. X!.!._._._.",
"}. X}.{. X X X X X X}._. X}._._.(._. X    : Z.Z.Z.Z.Z.A     p ! ! ( ( ( ( ( %.c.b.H             . . .   . + # o     m.E.P.P.P.P.P.P.L.F.H.u.o o J 7.7.D h h h h h h h h h h h h h @         X E E U     A Z.Z.Z.Z.Z.:     |._. X X X X XqXqX X_._._._._._._./.[.",
"}. X X X X X X X X X}.`.`. X_._._.`. X    : Z.Z.Z.Z.Z.A     p ! ! {  . . .{ -.c.b.H           5 h h h h D 6.7.M     m.E.P.P.P.P.P.R.D.    c 7.6.6.6.7.D h h h h h h h h h h h h h h h h                 A Z.Z.Z.Z.Z.:     _.}.}. X X X X XeXeX X X|.|.|. X_._._.",
"}.}.}. X X X X X X X X X`.`.`._. X X X    : Z.Z.Z.Z.Z.A     p ! !  . . . .{ -.b.b.H           5 h h h h D 7.7.M     m.E.R.R.R.R.R.E.G.    c 7.6.7.7.7.D h h h h h h h h h h h h h h h h .               A Z.Z.Z.Z.Z.:     _._.{. X X|. X X X X X X X|. X|._._. X",
"`. X X X X X X X{. X X}.}.}._.}._. X X    : Z.Z.Z.Z.Z.A     W _ _  . . . . .;.a.a.G           5 h h h h D 7.7.M     1.B.M.M.M.M.M.M.p.8 1 M 7.6.5.<.<.v h h h h h h h v D D v h h h h h .               A Z.Z.Z.Z.Z.:     _._._. X|. X X X X X X|._._. X_._._.'.",
" X X X X X X X X X X{. X X X X X_._.].    : Z.Z.Z.Z.Z.A     R  . . . . . . .T                 5 h h h h D 7.7.M                     # 7.7.7.6.7.F 7 7 h h h h h h h h D 7.9.L 7 h h h h .               A Z.Z.Z.Z.Z.:      X X|.|.|. X X X X X|.|. X X|.'.'.'._.",
" X'. X}. X X X X X X}. X X X X{.}._._.    : Z.Z.Z.Z.Z.A     R  . . . . .X.X.Y                 5 h h h h D 7.7.M                     > 6.6.7.7.9.J 7 h h h h h h h h h D 7.7.J 7 h h h h .               A Z.Z.Z.Z.Z.:     _. X_.|. X X X X X X X X X_.|.|. X X X",
"]._. X X X{. X X X X X X X_. X_. X_._.    : Z.Z.Z.Z.Z.A     R  . . . ...w w 0     o ; ; .     @ ; ; ; $ c 7.7.J @ ; c n n o         > 6.7.4.J L D h h h h h h h h h h D 7.7.J 7 h h h h .               A Z.Z.Z.Z.Z.:     |. X_. X X X X X X XqX X X_. X X X X X",
"_._._.|._._.|. X X X X X_._.'.]. X_. X    : Z.Z.Z.Z.Z.A     R  . . . .E           ; h h @               , 7.7.<.h h <.9.7.>         > 6.7.<.7 7 h h h h h h h h h h h D 7.7.J 7 h h h h .               A Z.Z.Z.Z.Z.:     _. X_. X X X X X XqX X X X X X X X|._.",
" X_._._._.|. X X|. X|. X|. X_.'. X X|.    : Z.Z.Z.Z.Z.A     R  . . . .E           ; h h o               , 9.9.<.h h <.9.7.>         > 6.7.>.7 h h h h h h h h h h 7 7 D 7.7.J 7 h h h h .               A Z.Z.Z.Z.Z.:      X X_. XrX X X X X XeX X X X X X X X X",
"_._._._. X_._. X X X X X X X'.]. X X].    : Z.Z.Z.Z.Z.A     R  . .) _ /           c <.<.m 3 3 3 3 3     . 8 8 , o o , 8 8       J J >.6.7.>.7 h h h h h h h h h v <.<.<.6.7.J 7 h h h h .               A Z.Z.Z.Z.Z.:      X X X X X X X XeXqX X X X X X X X X X",
"|.|.|. X X_._._._._.|. X_._._. X]._.].    : Z.Z.Z.Z.Z.A     R  . .! ! Q           n 9.7.D h h h h 7                             6.7.7.6.7.>.7 h h h h h h h h h v 6.7.7.6.7.J 7 h h h h .               A Z.Z.Z.Z.Z.:     _. X X X X X X X X X_. X X X X X X X|.",
" X X_.|. X_.'._._._._. X X|._.].].].].    : Z.Z.Z.Z.Z.A     R  . ._ ! Q           n 7.7.D h h h h 5                             5.6.6.6.6.<.7 h h h h h h h h h v 6.6.6.6.7.J 7 h h h h .               A Z.Z.Z.Z.Z.:     |. X X X X X|. X X X X X X X X X X X X",
"]._._._._.'._._._._._.|._._._. X X X].    : Z.Z.Z.Z.Z.A     R  . .j.k.s.    o 5 5 J 7.7.D h h o         x H.F.F.F.H.K           5.6.5.v v v h h h h h h h h h h v 6.7.<.v v v h h h h h .               A Z.Z.Z.Z.Z.:      X|.'. X X|._.|.|. X X XqX X X X X]. X",
"_._. X X_._._._._._._._._.|.]._. X]. X    : Z.Z.Z.Z.Z.A     R  . .z.c.k.    @ h 7 L 7.7.D h h           B E.T.T.T.E.P           5.6.4.h h h h h h h h h h h h h v 6.7.<.7 h h h h h h h .               A Z.Z.Z.Z.Z.:      X_.]. X X|._._. X X X X X X X X X X X",
"]._.'.'. X_._. X X|.|._. X X_._._. X X    : Z.Z.Z.Z.Z.A     R  . .k.z.s.    o 7 5 J 7.7.F v v .     > # K R.P.P.P.E.1.# >       5.6.4.h h h h h h h h h h h h h v 6.7.<.v v m h h h h h .               l C.g.C.Z.Z.:      X_.].].]. X X X X X X X X X X X X X].",
"].].]. X'._. X_. X|.|. X_.].|._._. X|.    : Z.Z.Z.Z.Z.A     R  . ._ ( Q           n 7.6.6.6.6.+   > J.L.L.P.P.P.P.T.L.L.L.x     5.6.4.h h h h h h h h h h h h h v 6.6.6.6.6.J 7 h h h h .                     *.Z.Z.:      X_._._.].'._.]. X X X X X X'.|.|. X X",
" X]. X X]._. X X X_._. X X]. X_._._._.    : Z.Z.Z.Z.Z.A     R X. .( ! Q           n 9.7.7.7.6.#   > L.R.R.R.R.R.R.R.R.R.R.x   . 5.6.4.h h h h h h h h h h h h h v 6.7.7.7.9.<.h h h h h .                     &.Z.Z.:      X|._._. X_._._._.'. X X_._._.|.|.|. X",
" X X_._._. X X X X X|. X X X_.'. X|.|.    : Z.Z.Z.Z.Z.A     e R R p p s           c >.>.>.>.>.o   # N.N.N.N.N.N.N.N.N.N.V.1   . 5.7.<.4 4 4 4 4 4 4 4 4 4 4 4 4 5 >.>.>.>.>.n 3 4 4 4 4                       &.Z.Z.:     |._. X'.'.|._._._. X X_.|._._.|.|._.|.",
" X X_. X X X X X X X X|.|. X'.|.|. X X    : Z.Z.Z.Z.Z.A                                                                         5.7.3.                                                                        &.Z.Z.:      X_. X_._._._._.|. X|. X X X|.'. X X X",
" X|.|. X X X X X XqX X X_._.|. X X X X    : Z.Z.Z.Z.A.A                                                                         5.7.3.                                                                        &.Z.Z.:      X X X_._.'._.|. X|. X|. X X|.|. X X X",
"|. X X X X X X X X X X X_._._. X_. X|.    : Z.Z.g.#.#.O.A A A A A A A A A A A A A A A A A A A A A A A A A A A A A A A A A A A A 0.h.:.A A A A A A A A A A A A A A A A A A A A A A A A A A A A A A A A A f     &.Z.Z.:      X|. X_._.{. X|.|.|._._. X X X X X XeX",
" X X|.|. X X X X|. X|._.|.|.`._._._. X    : Z.Z.&.    #.A.Z.Z.Z.Z.Z.Z.Z.Z.Z.Z.A.Z.Z.Z.Z.Z.Z.Z.Z.Z.Z.Z.Z.Z.Z.Z.Z.Z.Z.Z.Z.Z.Z.Z.Z.Z.Z.Z.Z.Z.Z.A.A.Z.Z.Z.Z.Z.Z.Z.Z.Z.Z.Z.Z.Z.Z.Z.Z.Z.Z.Z.Z.Z.Z.Z.A.Z.Z.Z.A.#.    &.Z.Z.:      X X X X X_.{. X|._._.'._.|.|. X X X X",
" X X X X X X X X X X_._._.|._._._. X X    2 Z.A.*.    #.Z.Z.Z.Z.Z.Z.Z.Z.Z.Z.Z.Z.Z.Z.Z.Z.Z.Z.Z.Z.Z.Z.Z.Z.Z.Z.Z.Z.Z.Z.Z.Z.Z.Z.Z.Z.Z.Z.Z.Z.Z.Z.Z.Z.Z.Z.Z.Z.Z.Z.Z.Z.Z.Z.Z.Z.Z.Z.Z.Z.Z.Z.Z.Z.Z.Z.Z.Z.Z.Z.Z.Z.#.    *.A.Z.2      X X X X X X_._. X'._._._.'.|. X X|. X",
"].]. X X|._. X_._. X_._._._._.]. X_.|.    o l l O.*.&.g.Z.Z.Z.Z.Z.Z.Z.Z.Z.Z.Z.Z.Z.Z.Z.Z.Z.Z.Z.Z.Z.Z.Z.Z.Z.Z.Z.Z.Z.Z.Z.Z.Z.Z.Z.Z.Z.Z.Z.Z.Z.Z.Z.Z.Z.Z.Z.Z.Z.Z.Z.Z.Z.Z.Z.Z.Z.Z.Z.Z.Z.Z.Z.Z.Z.Z.Z.Z.Z.Z.Z.Z.g.&.*.O.l l o      X X X X X X X_.|. X_.|.|. X X_._._. X",
" X X X|.|._. X_._._. X|._._._.].]. X|.          l A.Z.Z.Z.Z.Z.Z.Z.Z.Z.Z.Z.Z.Z.Z.Z.Z.Z.Z.Z.Z.Z.Z.Z.Z.Z.Z.Z.Z.Z.Z.Z.Z.Z.Z.Z.Z.Z.Z.Z.Z.Z.Z.Z.Z.Z.Z.Z.Z.Z.Z.Z.Z.Z.Z.Z.Z.Z.Z.Z.Z.Z.Z.Z.Z.Z.Z.Z.Z.Z.Z.Z.Z.Z.Z.Z.Z.A.l            X X X X X X X'. X X_._.'. X X|._._. X",
" X]._. X X|. X X]._._.|._._._. X'._._.          l Z.Z.Z.Z.Z.Z.Z.Z.Z.Z.Z.Z.Z.Z.Z.Z.Z.Z.Z.Z.Z.Z.Z.Z.Z.Z.Z.Z.Z.Z.Z.Z.Z.Z.Z.Z.Z.Z.Z.Z.Z.Z.Z.Z.Z.Z.Z.Z.Z.Z.Z.Z.Z.Z.Z.Z.Z.Z.Z.Z.Z.Z.Z.Z.Z.Z.Z.Z.Z.Z.Z.Z.Z.Z.Z.Z.Z.Z.l            X X XqX X X X X_.|. X X|. X X|._._. X",
" X X X X X'. X X X_. X_.|. X_._. X X X          o 2 : : : : : : : : : : : : : : : : : : : : : : : : : : : : : : : : : : : : : : : : : : : : : : : : : : : : : : : : : : : : : : : : : : : : : : : : : : : : 2 o            X X X XeX X X X|._. X X X|. X_._.|. X",
" X X X X|.|. X X X X X X X X X X_. X X                                                                                                                                                                                     X X X XeX X X|.|. X|.|. X X X'.|.'. X",
" X_. X X|. X X X XrX X^. X X X X|. X X                                                                                                                                                                                    qX X X X_.|.|._._. X X'.'.|.|.|. X|. X",
" X_.|. X X X X X|. X X|. X X X X X X X X X X XqX X X XrXrX X|. X X X X X X X X X X}._.`. X_._._.]._._._. X|.'._.|. X X X X XeX X X X X X X X X X X X X]. X X X}.`. X X_._._.'.]. X X X X].]. X|. X X`. X X XeXqX X X X X|. X X X X|. X X|._.|. X_._.|. XqX|._. X",
"|.'. X X X X X XeX X'._._._. X X X X X X X X X X X X X X X X|. XqX X X X X X X X}._._.`.}._._._. X X_.|.|._._.|. X X X X X X XqX X X X X|. X X|. X X X'._._.}. X X X X]._._.'._. X X X X X]. X X X X X X X X X X X X|. X_. X X X X|.eX X|._.|. X|.|. X XeX X X X",
" X X X X X X X X X X X_._._._.{. X'. X X X X X X X X X X X XeXeXeX X X XrX X X X_._._._._. X_._.|._._. X_.|.'._._._. X X X X X X X X X X X X X_.|. X X_._.]. X X_.}. X_.`.`. X`._._. X X X}. X X X X X X X X X X X_.|. X X X|. X|._. X X X_. X X_.|. X|._. X X X",
" X X X X X X X X X X|._.(._._. X X|._.eXqX XeX X|. X X XqXqX X X6XeXeX X X X X X X|.'._.|. X].'.|._._. X X X X_._.`. X X X X X X X X X X X X X X|. X X|.]. X}._._._.`.`.}.`._.`._. X X X_.{. X_. X X X X X X X X]. X'. X X X X X|.'. X X X X X X_._. X X_._._.'.",
"|._. X X X XeX X XrX X_._._. X X X X X XqX X X|. X X X X X X X X X XeXeX_. XqX X X X X|. X X'.|._._._. X_. X|._._.}.'.'. X X X X X X X X X X X X X X|. X X X X X}. X X_. X_._.`.}.`.'. X{. X X|. X|. X|. X X X X X X X_.|.qX X X X X X X|._._. X_._.|.|._._._. X",
"_._. X X X X X X X X X_. X_.|. X X X X X X X X X X X XeX X XeX X X X XeXqX X X|.|. X X X X X X_._._._. X_._.|. X_.^._._._.|. X X X X X XeX X X]. X X X{. X X X X X}. X`._._. X X X X_. X{.}.}. X X X X_.]. X X X X X X X X X X X X X XqX|._._.{._.{. X'._.'. X X",
" X X X X X X X X X X'._. X X X X XeX X X X X_. XqXrX X X X XeX6X X X X XeX X X X X X X X X X X].]._.|. X^._.'._._._. X_._._. X X X X X X X X X X|. X X X X X X_._.}. X X_._._. X X|.|.{._. X X}._. X|.|. X X X X X X|. X XqX X X X X X X|._._._._._._. X_._._. X",
" X_. X X X|. X|. X X_.|.eXeX X XeXeX X X X X XeX XeXeX X X|. X X X X X X X X XeX X X X X X`.`. X X_._._._.|.|._.'._. X X X|.|. X X'.'.|. X X'. X X X X X{. X}._.)._. X X_. X`._.'.|.'. X X{.{. X X{. X|.'. X X_.qX X X X X X X X X X X X|.{._._._._._.'._.|.{.|.",
"_._.'._._. X X X X X X X X X X XeXeX XeX|. XrXtXeX X X XeX X X X X X X X X X X X X X X X X|._. X X_._. X X X X X_. X|._. X X X X X_.|.|. X X X X X X X X X X}.`.}.}.}. X X X X]._.|. X X X X_. X X X X X X{.{. XeX X XeX X X X XeX X'.|. X X|._._._.`.!._.|.|. X",
"_. X X_._._. X|. X X X XeX X X X XeXeXrX X|.qXtXqX X X X XqXqXeXeX X X X X X XeX X X X X X_. X X X|._. X_._._._.{. X_. X X X X X X X^.|.|. X X X X X X X X]. X}._._.{. X X X X]. X X X|.{. X X X X X]._.{.}. X X X X XrX X X X X X X|. X X X X{._._._.!._._. X X",
"_. X X_.].'. X X XeXeX X X X X X XrX X XrX X X X X X X X XrX X X X X X XrX X X X X X|.|. X{.{. X|.|._._._.|.^._. X_._. X X X|. X X X|._._. X X X X X X X X X_. X_. X X X X]. X X X X X{. X X{. X X X X_._.}.}. X X X|.rXeX X X'. X X|. X X X X X_._._._. X_._._.",
" X X X X_. X X X X X X X X X X X|. XqX X_. X X X X X X X X XrX X|. X X X X X X_.|. X XqX X X}._. X_._._._.'._._._._.|. X X X X|. X XeX X X X|.|. X X X X}. X X X X X X X X X X X X X X{. X{. X X X X X X X X`. X X}._. X XqX X X X|. X X X_._. X X X X|. X_.). X",
"_.|. X]. XqXqX X X X XeX|._.rXqX X X X X'._. X XeXeX XeX X X X X X X X X_. X X X X X X X X}.}.`._._.^._._._.'._._. X X X X X X X X X XqXrX XqXqX X X X X_._.{.|. X X X_. X X X X|.{. X{. X_.|. X X X X X`._. X X X X|. X X X X X X X X|. X X|. X|.|. X X X X{.{.",
"]. X X X X X X_. X X_.'. XeXeX XeX X X X X X X X X XqXrX X X X X X X X X|. X X X X X_. X_._._._._._._._._._. X|. X X X X X X|. X X X X X X X X X XqX X{.{._._._. X X X_.|. X X X|. X X X X X_. X X X X X X X X X X X X X X_. X'. X X X X XeXqX X|._._._._. X|._.",
"'._. X X X X|. X X XqX X XeXrX XqX XeXrX X X X X X X X X X X X X|. X X X X X X_._._. X X_._._._._._.)._.}._.|. X X_. X X X X X X X X X X X X X X X X X X}.{.|._.|.}.}. X X X X X X X X X X X X X X|.{. X]. X X X X X X X X X X_._. X X X X X X X X X X X|. X X X",
"_._. X X].'._._. X X X X'.eXrXeXqXrXeXeXeX X_. X X X X X X X X X X X X X X X_. X_._._. X_._._._._._._._._. X X|. X|. X X X X|. X X X|. X XqX X|._. X X X{.{.|.|._.{.{. X X|. X X X X X X XeX X_. X X X X X]. X X X X X X XeX X|.|. X_._. X X X X X X X X'._._._.",
"_._._._._._. X XeXrXrX|.'. XtXeXrX XeX X X X X_._._. X X X|. X X X X|.6X X|. X X X X|.{. X X_.!.)._._.(._._. X X|.|. X|. X X_.|. XeXeXeX X X X X'. XrXeX X_.]._._.'._._. X_._.|. X{. X X X X X_. X X X X X X X|. X X X X X X X_.{. X|. X X X X X X|. X X_. X X^.",
"_._._.(._._. X X|.|.rXeX X XeXtXrX X X X X_.|. X X X X X_.|.|. XeX X_. X_._._. X]. X X X X]._./.Q.(._.!._._. X X X|. X X X X X'.|. XeXeX X|.eXeX X XeX6X X X_._.'. X_._. X].'.|._.{. X X}.{. X X X X X X X X X X X XqX X X X X{.{. X X X|. X X X X X X X_.|. X_.",
"`._._._.`._._._. X X6XeXeX X XeXqX X X X X X_.|. X|.eX X X X X|. X X_._._. X|. X X X_._. X X_.)./.)._.(._._. X_.|. X|.|. X X X'._.|. X X X XrXeX XeX X X X X X X]. X X_._._.'._._.{._. X X}.|.|. X X_.].]. X].|.|. XrX X XeX X X{. X X_.|. X X X X X|. X X|.|.|."
};
