/* XPM */
static char *wall_mona_4[] = {
/* columns rows colors chars-per-pixel */
"128 128 230 2 ",
"   c #000000",
".  c #080502",
"X  c #020A04",
"o  c #0D0A02",
"O  c #020F08",
"+  c #0C0909",
"@  c #130B04",
"#  c #110E09",
"$  c #190F06",
"%  c #051003",
"&  c #04190B",
"*  c #03150A",
"=  c #151202",
"-  c #1A1305",
";  c #1F1B01",
":  c #15110C",
">  c #1C140A",
",  c #041F11",
"<  c #1C1711",
"1  c #130718",
"2  c #201C02",
"3  c #241709",
"4  c #27190B",
"5  c #2C1C0C",
"6  c #321F0D",
"7  c #221D13",
"8  c #261F18",
"9  c #092408",
"0  c #113607",
"q  c #123D07",
"w  c #052312",
"e  c #062B15",
"r  c #062E18",
"t  c #0A2E10",
"y  c #093516",
"u  c #093916",
"i  c #063119",
"p  c #073415",
"a  c #0F2C0D",
"s  c #262204",
"d  c #34210E",
"f  c #39220A",
"g  c #373004",
"h  c #3A3304",
"j  c #3B3309",
"k  c #2A2317",
"l  c #392712",
"z  c #3C2A14",
"x  c #352D1D",
"c  c #372814",
"v  c #3C341F",
"b  c #203810",
"n  c #342B21",
"m  c #3E3326",
"M  c #3F3428",
"N  c #1F252E",
"B  c #463C03",
"V  c #453C07",
"C  c #44321A",
"Z  c #4A391E",
"A  c #432C10",
"S  c #63380C",
"D  c #4E3E23",
"F  c #453929",
"G  c #503F23",
"H  c #4D3E30",
"J  c #432F33",
"K  c #154509",
"L  c #184C09",
"P  c #164A0B",
"I  c #1A520A",
"U  c #1D5C0B",
"Y  c #0F4115",
"T  c #0A4219",
"R  c #0B4C1D",
"E  c #094B18",
"W  c #144D13",
"Q  c #144A17",
"!  c #0E511B",
"~  c #195B11",
"^  c #125519",
"/  c #165714",
"(  c #004C0E",
")  c #25511C",
"_  c #2D4C15",
"`  c #1E630D",
"'  c #1E6B0B",
"]  c #1B6312",
"[  c #226C0D",
"{  c #22660C",
"}  c #23710D",
"|  c #27452B",
" . c #4D4203",
".. c #4F4903",
"X. c #4D430A",
"o. c #4F480B",
"O. c #464102",
"+. c #594D03",
"@. c #53490B",
"#. c #514907",
"$. c #515415",
"%. c #645604",
"&. c #665804",
"*. c #735611",
"=. c #4E690F",
"-. c #514629",
";. c #5B4C2C",
":. c #544528",
">. c #584837",
",. c #584837",
"<. c #54482B",
"1. c #60512F",
"2. c #625533",
"3. c #695B36",
"4. c #6C5E38",
"5. c #63533A",
"6. c #6E603A",
"7. c #7E6D20",
"8. c #76661C",
"9. c #42154D",
"0. c #501A5E",
"q. c #491758",
"w. c #561E62",
"e. c #692673",
"r. c #5D206B",
"t. c #735E47",
"y. c #6C5349",
"u. c #4E6448",
"i. c #7A634C",
"p. c #60497B",
"a. c #894D10",
"s. c #925E12",
"d. c #935311",
"f. c #8F5A14",
"g. c #877505",
"h. c #8D6619",
"j. c #BC6C17",
"k. c #B26D17",
"l. c #A86817",
"z. c #95681B",
"x. c #C36E17",
"c. c #CA7218",
"v. c #C77017",
"b. c #816950",
"n. c #8D7358",
"m. c #997D5F",
"M. c #92785B",
"N. c #9A7E60",
"B. c #8D4775",
"V. c #988306",
"C. c #A18B06",
"Z. c #AA9206",
"A. c #A48666",
"S. c #AC8C6C",
"D. c #A68868",
"F. c #B1916F",
"G. c #B69572",
"H. c #9E8263",
"J. c #C5A17B",
"K. c #CBA67F",
"L. c #CBA97C",
"P. c #C29E79",
"I. c #77268C",
"U. c #6D4989",
"Y. c #892CA2",
"T. c #802997",
"R. c #9C4DB5",
"E. c #A946AA",
"W. c #A436C1",
"Q. c #B642C9",
"!. c #B649CE",
"~. c #CC56DA",
"^. c #CF43F5",
"/. c #D745FF",
"(. c #DC46FF",
"). c #D043F7",
"_. c #CC48EC",
"`. c #E146FF",
"'. c #E549FF",
"]. c #CCA780",
"[. c #CEA981",
"{. c #D1AB83",
"}. c #D7B087",
"|. c #CF9FA5",
" X c #DED6CC",
".X c #DED6CB",
"XX c #DFD8D0",
"oX c #D9CFC5",
"OX c #E0D7CE",
"+X c #E1D9CE",
"@X c #E5DDD5",
"#X c #E8DFD6",
"$X c #E7DFD8",
"%X c #E8DFD8",
"&X c #E0D7D0",
"*X c #E7E0D6",
"=X c #E8E0D7",
"-X c #E7E0D8",
";X c #EBE2D9",
":X c #EAE3D9",
">X c #EAE2D9",
",X c #EBE3DA",
"<X c #E9E2D8",
"1X c #ECE3DA",
"2X c #ECE2D9",
"3X c #EBE4DA",
"4X c #EBE4DB",
"5X c #EAE5DA",
"6X c #ECE5DB",
"7X c #ECE4DB",
"8X c #ECE6DB",
"9X c #EBE5DC",
"0X c #ECE5DD",
"qX c #EDE6DC",
"wX c #ECE7DD",
"eX c #EEE7DD",
"rX c #EEE6DD",
"tX c #EDE6DE",
"yX c #EEE7DE",
"uX c #EAE3DB",
"iX c #EFE8DE",
"pX c #EEE8DE",
"aX c #F0E9DF",
"sX c #F0E6DF",
"dX c #EFE7E0",
"fX c #EFE9E1",
"gX c #EFE8E0",
"hX c #F1EAE2",
"jX c #F2EBE5",
"kX c #F7F3ED",
/* pixels */
";X@X#X@X#X;X=X;X;X*X@X=X=X;X;X@X@X;X=X@X@X#X#X@X@X@X@X#X;X=X=X;X;X;X;X;X;X;X*X;XiXgXiX;X;X;X=XiXiXiX;X;X;X;X;X;X;X;XiX;XiXiX;X*X=X=X@X+X@X@X@X=X#X#X#X#X#X@X@X#X@X#X#X#X@X#X=X=X;X*X*X=X=X;X=X;X=X;X;X;XiX;X;XiX;X;X;X;X;X;X;X;X;X;X;X;X;X;X;X*X;X;X;X;X;X=X;XiX",
";X=X=X@X@X=X#X#X;X;X=X=X*X*X;X;X@X@X;X@X@X#X@X@X@X@X=X=X=X=X;X*X*X;X;X;X;X;X;X;XiXhXhXiX;X=X*X;X;XaXhX;XiX;X;X;X;X;XiX;XiXaXiX;X#X=X;X@XOX@X#X=X#X=X;X;X=X@X@X#X=X;X=X=X#X@X@X;X;X;X;X=X;X=X#X;X;X;X;X;X;X;X;XaX;X;X;X;X;X;X;XiX;X;X;X;X;X;X;X;X;X*X;X;X;X;X;X;X",
";X;X;X=X@X@X#X#X;X*X;X;X;X;X;X;X;X;X;X;X@X#X@X@X@X@X#X#X=X=X=X=X=X@X*X@X=XiX;X%X@X@X=X;X=X;X;X;X;X=X;XiXiX;X;X;X;X;XiX;X;X;XiX;X;X;X@X@X@X=X#X#X#X=X;X;X=X@X#X#X;X;X#X=X@X@X X@X;X;X;X;X;X*X@X;X@X*X;X;X;X;X;X;X;X;X*X*X*X=X=X;X;X;X;XiX;X;X;X;X;X;X;X;X;X;X;X;X",
";X;X;X=X;X=X@X@X@X*X=X;X;X;X;X;X;XhX-X;X@X@X=X@X@X@X@X=X#X@X#X;X;X#X@X@X=X*X=X;X;X*X@X;X;X;X;X;X;X;X;X;X;X;X;X;X=X;XiX;X;X;X;X;X;X=X@X@X@X@X@X@X#X#X=X#X#X@X@X#X;X#X@X@X;X@X@X@X;X*X=X;X*X;X=X;X@X=X;X;X=X;X;X;X;X@X=X=X@X=X;X;X;XaX;XiXiX;X;X;X;X;X;X;X;X;X;X;X",
"iXgX;X;X;X#X@X@X@X*X*X;X;X;X;X;X;X-X;X;X;X*X#X@X@X@X@X@X@X#X;X=X=X=X;X;X;X;X;XiX;X=X;X;X;X-X;XhXaX;X;X;X;X;X;X;X;X*X@X;X;X;X;X;X;X=X;X;X*X#X@X#X#X#X=X#X@X@X@X#X#X#X#X=X;X=X@X@X@X*X=X@X;X;X;X;X;X;X*X@X@X;X;X;X;X=X;X;X=X;X;X;X;X;XiX;X;X;X;X;X;X;X;X;X;X;X;XiX",
";X;X;X;X;X;X=X@X@X*X*X;X;X;X;X;X;X@X;XgX;X;X@X@X@X@X=X#X=X;X=X=X=X;X@X;X;X;X=X;X;X;X;X;X;X;X;X;X;X;X;X;XiX;X;X;X;X*X*X;X;X;X;X;X;X;X;X;X=X@X@X@X@X#X=X;X#X@X@X=X=X#X@X=X=X=X=X#X=X;X;X=X=X=X;X=X;X*X@X=X@X;X;X;X;X;X;X;X=X@X;X*XiX;X;X;X=X;X;X;X;X;X;X;X;X;X;X;X",
";X;X;X;X*X*X=X@X@X=X;X*X;X;X;X;X;X;X;X;X;X;X;X@X@X@X@X@X=X;X;X;X*X;X@X#X;X#X;X=X;X=X;X*X;X;X;X;X;X;X;X;X;X;XiXiX=X*X;X*X;X;X;X;X;X;X;X;XiX=X#X@X;X@X#X=X;X=X=X=X@X#X@X#X#X#X=X#X=X;X;X;X#X#X;X=X;X@X@X#X;X;X;X;X;X;X;X;X;X*X;X=XiXaXiX;X;X;X;X;X;XiX;XiX;X;X;X;X",
";X;X;X;X*X@X=X@X@X@X@X;X;X;X;X;X;X;X;X;X;X;X;X#X@X@X#X@X*X=X;X=X@X=X@X=X=X;X;X;X@X@X;X;X*X=X=X;X;X;X;X;X;X;X;X;X;X=X;X;X;X;X;X;X;X;X;X;X;X;X#X@X#X=X;X;X#X=X;X;X@X@X@X@X@X#X@X@X;X=X@X;X;X;X@X;X;X@X@X@X#X;X;X;X;X;X;X;X=X=X;X;X;X;X;X;X;X*X;X;X;X;XiX;X;XiX;X;X",
"gXhXiX;X;X;X#X@X@X@X@X@X;X;X;X;X;X;X;X;X@X@XgX;X@X@X@X=X*X*X;X;X@X@X=X=X@X;X;X;X@X@X;X;X;X;X=X;X;X;X;X;X;X;X;X;XiXiX;X;X;X;X=X*X;X;X;X;X=X;X;X*X@X=X=X;X=X;X;X=X@X=X@X@X@X#X=X;X=X#X#X=X=X=X;X;X;X;X;X=X;X;X=X;X;X;X@X=X;X;X;X;X;X;X;X;X=X=X;X;X;X;X;X;X;X;X;X;X",
";X;X;X;X;X;X@X@X#X@X@X@X@X*X;X;X;X;X;X;X;X;X;X-X@X@X@X=X=X;X;X;X=X@X@X@X=X=X=X@X@X@X=X;X;X;X;X;X;X;X;X;X;X;X;X;X*X;X;X;X;X;X;X;X;XhX;X;X;X*X;X;X=X=X=X;X=X;X#X@X@X=X=X@X@X#X=X;X#X@X#X;X;X@X=X;X@X#X;X=X#X=X;X;X;X;X@X;X;X;X;X;X;X;X;X;X=X=X;X=X*X;X;X;X;X;X;XiX",
"gXhX;X;X;X;X;X;X@X X@X=X*X@X*X=X*X;X;X;X;X;X;X-X*X@X@X;X;X;X;X@X=X@X@X@X#X;X#X@X#X@X*X;X;X;X;X;X;X;X;X;X;X-X;X;X#X@X;X;XiX;X;X;X;X;X-X;X;X;X*X;X;X;X;X@X@X=X#X@X@X@X#X=X#X@X@X@X;X@X#X=X;X#X@X;X=X#X@X@X@X@X;X;X@X=X;X;X;X=X;XiX;X@X@X*X@X@X@X=X=X;X;XiX;X;X;XiX",
";X;X;X@X#X@X=X;X@X#X#X@X=X@X@X@X=X;X;X;X;X;X;X@X@X@X@X@X@X;X;X=X#X@X#X@X;X;X=X#X@X@X;X;X=X*X;X;X;X;X;X=X*X*X;X;X=X@X;X;X;X;X;XiX;X;X;X;X;X*X*X*X;X=X=XOX@X=X@X@X#X#X#X@X=X#X@X@X=X@X@X@X@X=X;X;X#X#X@X#X#X@X=X=X@X;X@X@X;X=X=XhX;X@X;X@X@X@X=X=X;X;X;X;X;X;X=X;X",
"gX;X;X;X=X#X@X@X@X;X@X@X@X@X@X@X@X@X;X=X@X@X@X#X#X@X@X@X+X@X;X;X;X@X@X#X;X=X;X;X@X@X@X#X;X;X=X;X=X;X*X;X@X;X*X=X;X;X;X;X;X;X;X;X;XiX;X;X;X*X;X;X=X=X@XOX@X=X@X#X@X;X;X=X=X#X@X#X;X=X#X=X=X;X;X=X=X@X#X#X@X#X@X=X#X;X;X=X;X;X;X;X;X@X*X;X@X@X#X=X;X;X;X;X@X@X@X;X",
"gX;X;X@X@X@X@X@X;X=X;X@X=X@X@X=X@X@X@X#X#X@X@X@X=X;X@X@X@X@X#X@X;X#X=X@X#X#X;X;X;X@X@X@X@X@X@X@X*X;X;X;X;X;X;X;X=X;X;X;X;X;X;X=X;X;X;X;X;X;X;X;X*X*X@X=X;X#X@X#X@X=X;X#X=X@X@X=X#X=X=X;X;X;X;X@X=X=X=X=X@X@X=X;X#X@X#X;X;X;X;X;X;X*X@X=X=X@X@X=X=X;X;X;X@X=X;X;X",
"-X@X;X%X;X@X@X@X@X=X;X*X@X;X+X@X;X@X@X@X@X#X*X=X*X=X@X@X@X@X@X@X@X=X=X#X@X#X#X;X@X@X=X@X@X@X@X=X@X;X;X;X;X;X;X=X=X=X;X;X;X;X;X;X;X*X@X*X;X;X=X*X;X;X=X=X;X=X@X@X@X;X;X@X*X*X#X#X;X=X=X;X;X;X=X;X=X;X;X*X=X=X@X=X#X=X=X;X=X;X;X;X;X;X=X*X;X=X*X*X@X@X;X;X;X;X*X;X",
";X=X;X;X;X;X@X@X@X#X@X=X*X=X@X+X@X=X@X@X@X#X#X@X@X@X=X#X@X;X=X@X@X@X@X#X@X=X=X#X@X@X@X;X=X@X@X#X@X=X;X@X@X=X=X=X=X=X;X;X=X;X;X;X;X;X;X;X;X;X;X;X;X;X*X@X#X#X@X@X@X#X;X@X*X;X=X@X;X;X=X=X#X@X;X*X*X;X;X;X;X;X@X#X@X@X#X;X#X#X;X;X;X=X;X;X;X;X;X;X@X@X=X;X=X=X=X;X",
"-X;X;X;X;X;X=X=X;X;X;X;X;X*X;X@X@X;X=X@X@X+X@X@X+X@X#X@X@X@X#X@X@X@X;X;X;X;X;X;X=X@X@X@X;X;X#X@X@X#X;X@X@X=X#X=X;X;X;X;X;X;X;X;X;X;X;X;X;X;X;X;X;X;X;X=X;X=X@X#X;X=X=X@X;X*X@X=X;X;X;X=X=X@X@X=X*X=X;X;X;X*X*X#X#X@X@X;X;X;X=X;X=X=X;X;X;X*X;X;X*X@X=X;X=X;X;X=X",
";XhXgX;X;X;X;X;X;X;X;X=X-X;X;X*X;X=X#X@X+X X X X+X@X@X@X#X@X@X=X*X;X;X;X;X;X;X;X;X;X;X@X@X;X;X@X@X#X=X#X=X@X@X#X#X=X;X;X;X;X;X;X;X=X=X;X;X;X;X=X*X;X;X;X*X*X#X#X;X;X;X;X;X;X;X;X;X;X;X;X#X=X@X@X@X#X=X#X=X;X;X*X;X@X#X#X#X;X#X;X;X=X;X;X;X;X;X=X;X;X=X;X;X@X@X;X",
";X;X;X-X;XiX;X;X;X;X;X;X;X;X*X@X@X=X;X*X=X@X@X@X@X@X@X@X=X@X@X*X@X*X$X;X;X;X;X;X;X;X;X;X;X@X;X=X=X@X@X@X@X@X@X@X@X#X@X;X;X;X;X=X;X;X;X;X;X;X;X;X*X;X*X@X;X=X=X@X@X;X;X;X;X;X;X;X;X;X;X;X@X@X=X;X@X#X#X@X*X*X=X=X;X;X;X#X@X=X=X;X;X;X=X;X;X;X;X;X;X;X;X;X;X;X@X;X",
";X;X;X;X;XiXiX;X;X;X;X;X;X;X*X*X@X@X;X                                                                                                                                                                                    ;X=X=X;X;X;X;X;XiX;X;X;X;X;X;X;X;X;X;X",
";X;X=X=X;XiX;X=X;X;X;X;X;X;X=X;X@X*X;X                                                                                                                                                                                    #X=X#X@X=X;X;X;X;X;X;X;X;X;X;X;X;X=X;X",
";X;X*X@X;X;X;X*X;X;X;X;X;X;X;X;X;X;X;X          o 2 ; ; ; ; ; ; ; ; ; ; ; ; ; ; ; ; ; ; ; ; ; ; ; ; ; ; ; ; ; ; ; ; ; ; ; ; ; ; ; ; ; ; ; ; ; ; ; ; ; ; ; ; ; ; ; ; ; ; ; ; ; ; ; ; ; ; ; ; ; ; ; ; ; ; ; ; 2 o           #X=X=X;X@X*X;X;X;X;X;X;X;X;X;X;X;X;X;X",
";X=X=X;X;X;X;X;X*X=X;X;X;X;X;X;X;X=X;X          h C.C.C.C.C.C.C.C.C.C.C.C.C.C.C.C.C.C.C.C.C.C.C.C.C.C.C.C.C.C.C.C.C.C.C.C.C.C.C.C.C.C.C.C.C.C.C.C.C.C.C.C.C.C.C.C.C.C.C.C.C.C.C.C.C.C.C.C.C.C.C.C.C.C.C.C.C.C.h           =X=X=X;X@X=X;X;X*X*X=X;X;X;X;X;X;X;X;X",
";X;X;X;XiX;X;X=X;X;X;X;X;X@X;X;X;X;X;X          h Z.C.C.C.C.C.C.C.C.C.C.C.C.C.C.C.C.C.C.C.C.C.C.C.C.C.C.C.C.C.C.C.C.C.C.C.C.C.C.C.C.C.C.C.C.C.C.C.C.C.C.C.C.C.C.C.C.C.C.C.C.C.C.C.C.C.C.C.C.C.C.C.C.C.C.C.C.Z.h           ;X;X;X=X#X@X=X;X;X;X;X;X;X;X;X;X;X;X;X",
";X;X;XiX;X;X;X;X*X;X;X;X;X;X*X=X=X;X;X    o h h  .&.%.g.C.C.C.C.C.C.C.C.C.C.C.C.C.C.C.C.C.C.C.C.C.C.C.C.C.C.C.C.C.C.C.C.C.C.C.C.C.C.C.C.C.C.C.C.C.C.C.C.C.C.C.C.C.C.C.C.C.C.C.C.C.C.C.C.C.C.C.C.C.C.C.C.g.%.&. .h h o     ;X;X;X=X=X@X#X;X;X;X;X;X;X;X;X;X;X;X;X",
"iX;X;X;X;X@X;X;X;X;X=X;X*X*X=X=X=X=X;X    2 C.Z.&.    +.C.C.C.C.C.C.C.C.C.C.C.C.C.C.C.C.C.C.C.C.C.C.C.C.C.C.C.C.C.C.C.C.C.C.C.C.C.C.C.C.C.C.C.C.C.C.C.C.C.C.C.C.C.C.C.C.C.C.C.C.C.C.C.C.C.C.C.C.C.C.C.C.+.    &.Z.C.2     ;X;X;X=X=X=X@X;X=X=X;X;X;X;X;X;XiX;X;X",
";X;X;X;X;X;X;X;X=X;X;X;X;X;X;X*X;X;X;X    ; C.C.%.    +.Z.C.C.C.C.C.C.C.C.C.C.C.C.C.C.C.C.C.C.C.Z.C.C.C.C.C.C.C.C.C.C.C.C.C.C.C.C.C.C.C.C.C.C.C.Z.C.C.C.C.C.C.C.C.C.C.C.C.C.C.C.C.C.C.C.C.C.C.C.C.C.C.Z.+.    %.C.C.;     ;X;X;X;X;X;X#X;X;X=X@X*X;X;X;X;X;X;X;X",
";X;X;X;X;X;X;X;X;X;X;X;X;X;X=X@X;X;X;X    ; C.C.g.+.+. .B B B B B B B B B B B B B B B B B B B B B B B B B B B B B B B B B B B B B B B B B B B B B B B B B B B B B B B B B B B B B B B B B B B B B B B B  .+.+.g.C.C.;     ;X;X=X;X=X;X@X;X=X@X@X*X;X;X;X;X;X;X;X",
"hX;XiXgX;X;X;X;X;X*X;X;X;X=X;X=X=X=X*X    ; C.C.C.C.Z.B                                                                                                                                                 B Z.C.C.C.C.;     ;X;X@X*X*X;X@X*X=X@X;X;X;X;X;XiXiX;X;X",
"gXgXgXgXgXhXgX;X-X=X;X;X;X;X;X;X*X;X=X    ; C.C.C.C.C.B                                                                                                                                                 B C.C.C.C.C.;     ;X=X@X@X*X*X@X@X@X;X;X;X;X;X;XiXgX;X;X",
"gXgXgXgXgXgXhX;X;X;X;X;X;X;X;X;X=X;X;X    ; C.C.C.C.C.B     t u u u u u u u u u u u u u u u u u u u u u u u u u u u u u u u u u u u u u u u u u u u u u u u u u u u u u u u u u u u u u u u u u u t     B C.C.C.C.C.;     ;X@X@X@X*X=X@X@X=X=X;X;X;X;X;X;X;X;X;X",
";XgXgXhXgX;X;XhXhXiX;X;X;X;X;X;X=X=X@X    ; C.C.C.C.C.B     u R R R R R R R R R R R R R R R R R R R R R R R R R R R R R R R R R R R R R R R R R R R R R R R R R R R R R R R R R R R R R R R R R R u     B C.C.C.C.C.;     =X=X#X#X#X=X=X#X*X*X=X;X;X;XiXiX;X;X;X",
";XiXhXhXhX;X;XgXdX;X;X;X;X;X;X=X=X@X@X    ; C.C.C.C.C.B     u R R R R R R R R R R R R R R R R R R R R R R R R R R R R R R R R R R R R R R R R R R R R R R R R R R R R R R R R R R R R R R R R R R u     B C.C.C.C.C.;     =X;X;X;X;X;X#X=X;X*X;X;X;X;X;X;XgX;X;X",
";X;X;X;X;X;X;XgXdX;X;X;X;X;X;X-X;X@X@X    ; C.C.C.C.C.B     u R R R R R R R R R R R R R R R R ] [ [ [ [ I   X X X X     X X X X X X X X X X     X X   u R R R R R R R ^ [ [ [ [ [ ^ R R R R R R R u     B C.C.C.C.C.;     ;X;X;X;X;X;X@X@X;X*X;X;X*X;X;X;X;XgXgX",
";X;X;X;X;X;X;XgX;X;X;X;X;X;X;X;X;X;X;X    ; C.C.C.C.C.B     u R R R R R R R R R R R R R R R R ` [ [ [ [ I                                             u R R R R R R R ^ [ [ [ [ [ ^ R R R R R R R u     B C.C.C.C.C.;     ;X;X;X=X*X#X#X@X;X*X;X;X;X@X;X;X;X;XhX",
";X;XdX-X;X;X;XgX;X;X;XdX;X;X;X;X;X;X;X    ; C.C.C.C.C.B     u R R T T T R R R ! ! ! ! ! ! ! ! ' [ [ U U K                                   . .       p T T R ! ! ! ! ~ [ [ { U U Q T T R R R R R u     B C.C.C.C.C.;     =X*X;X=X@X@X@X X*X*X;X;X;X;XgX;X;X;X;X",
";X;XgX;X;XdXdX;X;XgX;X-X;X;X;XhXhX;X;X    ; C.C.C.C.C.B     u R R X   X R R ^ [ [ [ [ [ [ [ [ [ [ `                                       = h h -           ` [ [ [ [ [ [ } 0           T R R R R u     B C.C.C.C.C.;     ;XiX;X;X;X@X;XXXXX;X;X;X;X;X;XgXhX;X;X",
";X;X;X;X;XgX;X;X;X;X;X-X;XgX;X;X;XhXgX    ; C.C.C.C.C.B     u R R X   X R R ^ [ [ [ [ [ [ [ [ [ [ `                                       = h h -           ` [ [ [ [ [ [ } 0           T R R R R u     B C.C.C.C.C.;     ;XiX;X@X;X*X=X;X@X;X;X;X;X;X;XgX;X;X;X",
";X;X;X;X;X;X;X;X;X;X;X;X;X;X;X;XgXgXdX    ; C.C.C.C.C.B     9 p p     X p p Y [ [ [ [ [ [ [ [ ] ] ~           < F m m m m m m m m M n     = h h -           ` [ [ [ [ ` W L 9           Q ^ ^ R R u     B C.C.C.C.C.;     ;X;X;X;X;X;X@X*X@X;X@X;X;X;X;XgX;X;X;X",
";X;X;X;X;X;X;X;XhX;X;X;X@X@X@X=XhXgX;X    ; C.C.C.C.C.B                     9 [ [ [ [ [ [ [ [ ! R T           >.}.{.{.{.{.{.{.{.{.{.S.    = h h -           ` [ [ [ [ W                 U [ [ R R u     B C.C.C.C.C.;     iX;X;X;X;X;X;X;X-X;X;X;XdXdXgX;X;X;X;X",
";X;X;X;X;X;XgX;X;X;X;X;X@X@X@X@X;X;X;X    ; C.C.C.C.Z.B                     9 } } } } } } } [ ! R T           ,.{.K.K.K.K.K.K.K.K.[.A.    = h h -           ` [ [ [ [ L                 U [ [ R R u     B C.C.C.C.C.;     ;X;X;X;X;X;X;X;X;X@X-X;XgX;XgX;X;X;X;X",
";X;X;X;X;X;X;X;X;X;X;X;X;X;X@X;X*X;X;X    ; C.C.C.C.C.B           * * *     % 0 0 0 0 0 0 0 0 9 w w     < y.5.M.[.K.K.K.K.K.K.K.K.[.A.    o ; ; ; ; ;       ` [ [ [ [ L     X & &       U [ [ ~ ~ Y     B Z.C.C.C.C.;     ;X;XiX;X;X;X;X;X;X;X@X;X;XgX;XdXgX;X;X",
";X;X;X;X;X;X;X;X;X;X;X@X=X;X;X;X;X=X*X    ; C.C.C.C.C.B           t i t                                 n {.{.[.K.K.K.K.K.K.K.K.K.[.A.          2 h h o     ` [ [ [ [ L     & i i O     U [ [ [ [ I     B C.C.C.C.C.;     ;X;X;XgX;XiX;X;X;X=X-X;X;X;X;XgX;X;X;X",
";XgX;X;X;X;X;X;X;X;X;X X@XiX;X;X;X*X@X    ; C.C.C.C.C.B           t r w                                 n {.{.{.{.{.[.K.K.[.{.{.{.{.D.          2 h h o     ` [ [ [ } L     * i r X     U [ [ [ [ I     B C.C.C.C.C.;     gX;X;XgX;XhX;X;X;X=X@X;X;X;XgX;X-X;X;X",
";X;X;X;X;X;X;X-X-X-X;X@X@X;X;XgX;X;X@X    ; C.C.C.C.C.B     & w w t r t w , t L L 0 , w X               # F m m m m m.[.K.>.m m m m H n.M.>.    2 h h o     & 9 9 9 9 9 w , w r r X     U [ [ [ [ I     B C.C.C.C.C.;     hX;X;XgXiX;X;X;X;X;X*X;X;X;X;X;X@X-X;X",
";X;X;X;X-X;X;X;X;X;X-X-X-X;X;XdXgXhX;X    ; C.C.C.C.C.B     w i r r r r r r Y } } W r i O                           i.{.K.8         8 {.{.b.    2 h h o               X i r r r r X     U [ [ [ [ I     B C.C.C.C.C.;     ;X;X;XhX;X;X;X;X;X;X=X;X;X;X;X;X;X-X;X",
";X;X;X;X;X;X@X*X@X$X@X@X-X;X;X;X;X;X;X    ; C.C.C.C.C.B     w r r r r r r r Y [ [ W r i O                           b.{.K.k         k K.{.b.    2 h h o               O r r r r r X     U [ [ [ [ I     B C.C.C.C.C.;     ;X;X;XgX;X;X;X;X;X;X=X;X;X;X;X;X;X;X;X",
";X;X;X;X;X*X@X@X*X@X@X@X;X;X;X;X;X;X;X    ; C.C.C.C.C.B     w r r r r y ` ` ` [ [ [ ` ` u w w           k F.F.5.    b.{.K.F.S.S.S.S.F.K.{.b.    2 h h o           w w t r r r r r X     X % % % % X     B Z.C.C.C.C.;     gXgXgXgX;X;X;X;X;X;X;X@X;X;X;X;X;X;X;X",
";X-X;X@X#X;X@X@X@X;X@X;X;X;X;X-X;X;X;X    ; C.C.C.C.C.B     w r r r r p [ [ [ [ [ [ [ [ Y r t           n {.{.t.    b.{.K.].].].].].].K.{.b.    2 h h o           r r r r r r r r X                     B C.C.C.C.C.;     gXhX;X;X;X;X;X;X;X-X;X*X*X;X;X;X;X;X;X",
";X@X-X@X@X;X X@X@X;X;X@X;X;X;X;X;X;X;X    ; C.C.C.C.C.B     w r r r r p [ [ [ ` ` [ [ } | N N 1 1 1 1 1 J [.{.t.    b.{.K.K.K.K.K.K.K.K.{.b.    2 h h o         X r r r r r r r i *                     B C.C.C.C.C.;     ;X;X;X;X;X;X;X;X*X;X;X;X@X;X;X;X;X;X;X",
";X@X*X=X@X@X@X@X@X@X;X;X;X;X;X;X;X;X;X    ; C.C.C.C.C.B     w r r r r p [ [ ~ r t W [ ' R./.^.^.^.^.^.^.~.L.{.t.    b.{.K.K.K.K.K.K.K.K.{.b.    2 h h o     t t t r r r r r r r r t r r       t t w     B C.C.C.C.C.;     ;X;X;X;X;X;X;X;X;X;X*X-X=XiX;X;X;X;X;X",
";X;X#X=X@X@X@X#X;X*X=X;X;X;X;X;X;X;X;X    ; C.C.C.C.C.B     w r r r r p [ [ ~ t t W } ' R.(././././././.~.L.{.t.    b.{.[.K.K.K.K.K.K.K.{.b.    2 h h o     t r r r r r r r r r r r r r       t r w     B C.C.C.C.C.;     ;XgX;X;X;X;X;X-X;X;X;X*X@X;X;X;X;X=X;X",
";X;X=X;X=X=X=X;X;X;X;X;X;X;X;X;X;X;X;X    ; C.C.C.C.C.B     t u u u u Y [ [ ~ i p | u.u.!.(././././././.~.|.|.y.    5.H.N.P.K.K.K.K.K.K.{.b.    2 h h o     , w w r r p u u u u u p r r * X O t r w     B C.C.C.C.C.;     ;XgXgX;X;XiXgX;X;X;X;X@X@X;X;X;XiX;X;X",
";X=X=X;X;X;X@X@X;X;X;X;X;X;X;X;X;X=X*X    ; C.C.C.C.C.B     I [ [ [ [ [ [ [ ] R E U.`.(.(./././././././././.(.I.  .       A.[.K.K.K.K.K.{.b.    2 h h o           r r Y [ [ [ [ [ Y r r r r r r r w     B C.C.C.C.C.;     ;XdX;X;X;X;X;XiX;X;X;X@X@X;X;X;X;XiX;X",
";X;X;X;X;X;X;X;X;X;X=X;X;X;X;X;X;X;X;X    ; C.C.C.C.C.B     I [ [ [ [ [ [ } ] E ( U.(./././././././././././.(.I.          A.[.K.K.K.].{.}.b.    2 h h o           r r Y [ [ [ [ } Y r r r r r r r w     B C.C.C.C.C.;     hXhXgX;X;X@X;X;X;X;X*X#X@X@X;X;X;XiX;X",
";X;X;X@X;X;X;X;X;X;X;X-X;X-X;X;X;X;X;X    ; C.C.C.C.C.B     K ] ~ ~ ~ ~ q q | U.p.R.(./././././././././././.(.W.r.e.N     A.[.K.K.].G.t.i.H     2 h h 2 - -       r r Y [ [ U W W u r r r r r r r w     B C.C.C.C.C.;     ;X;XgX;X*X;X;X;X*X;X*X@X@X=X;X;X;XiX;X",
";X;X;X;X;X;X=X;X;X*X=X*X;X;X;X;X;X;X;X    ; C.C.C.C.C.B     u R R R R T     9.`.(.(./././././././././././././.(.(.'.w.    A.[.K.K.[.A.          2 h h h h h       r r Y [ [ W r r r r r r r r r r w     B C.C.C.C.C.;     ;X@X;X;X;XiX;X;X;X;X*X*X*X*X;X=X=X;XiX",
"=X;X;X;X;X;X=X=X;X;X*X=X;X=X=X;X;X=X;X    ; C.C.C.C.C.B     p R R R R T     9.(././././././././././././././././.(.(.w.    S.{.{.{.{.S.          2 h h h h g       r r Y [ [ W r r r r r r r r r r w     B C.C.C.C.C.;     ;X;X;X;X;X;XhXhX;X;X;X;X=X@X;X;X*X@X;X",
"@X=X;X;X=X;X@X*X;X*X;X@X@X;X;X=X*X-X;X    ; C.C.C.C.C.B     @.h.8.9 & &     9.(./././././././././././././././././.(.0.    m H H H H m           2 h h h h h       r r Y [ [ W r r r r r r r r r r w     B C.C.C.C.C.;     ;X;X;X;X;X;XgXiX;X;X;XiX;X*X@X;X=X@X=X",
";X;X@X@X;X@X@X*X;X;X;X;X=X*X;X=X*X$X;X    ; C.C.C.C.C.B     d.c.j.@         9.(./././././././././././././././././.(.0.                          2 h h h h h       r r Y [ [ W r r r r r r r r r r w     B C.C.C.C.C.;     ;X=X;X;X;X;X;X;X;X;X;X;X;X;X;X;X=X=X=X",
";X;X;X#X=X=X*X*X@X;X=X;X*X*X;X;X;X;X;X    ; C.C.C.C.C.B     d.v.j.@         9.(./././././././././././././././././.(.0.                          2 h h h h g       r r Y [ [ W r r r r r r r r r r w     B C.C.C.C.C.;     @X=X;X*X=X;X;X;X;X;X;X;X;X;X;X;X@X;X;X",
"=X;X;X@X@X=X@X@X=X@X;X=X*X=X;X;X*X@X=X    ; C.C.C.C.C.B     d.x.j.@         9.(./././././././././././././././././.(.0.    b.D.A.A.A.A.A.S.y.    2 h h h h g     X U ` ` [ [ W r r W ` ` ` ` ~ i r w     B C.C.C.C.C.;     @X;X;X;X=X;X*X;XiX;X;X;X;X;X;XiXiX;X;X",
"#X=X;X@X@X;X;X@X=X=X=X=X=X=X*X*X@X=X;X    ; C.C.C.C.C.B     d.v.j.@         9.(./././././././././././././././././.(.0.    D.{.[.[.L.[.[.{.b.    2 h h h h g     % [ [ [ [ [ W r r ~ [ [ [ [ ` i r w     B C.C.C.C.C.;     @X@X;X;X;X;X;X;X;X;X;X;XiX;X;X=X;X;X;X",
"@X;X;X#X=X@X;X=X@X*X=X=X;X=X*X*X=X=X*X    ; C.C.C.C.C.B     a.j.l.-         9.^._.)././././././././././././././._.^.0.    A.[.K.K.K.K.K.{.b.    2 h h h h g     % [ [ [ [ [ W t t I { { [ [ ` i i w     B C.C.C.C.C.;     @X#X;X;X;X;X;X;X;X;X;X;X;X;X;X;X@X=X;X",
"$X;X;X;X=X@X#X#X@X#X=X;X;X=X#X@X#X+X;X    ; C.C.C.C.C.B     . . o V X.X.X.X.j + . I.(./././././././././././.(.T.. +       A.[.K.K.K.K.K.{.b.    2 h h h h g     % [ [ ~ i y &         X U [ [ R R u     B C.C.C.C.C.;     #X#X;X;X#X;X;X;X;X;X;X;X@X;X;X;X@X;X;X",
"@X@X@X@X@X#X@X@X;X=X;X;X#X;X;X=X@X=X=X    ; C.C.C.C.C.B           X.@.@.@.@.j     I.`.(./././././././././.(.`.I.          A.[.K.K.K.K.K.{.b.    2 h h h h g     % [ } ~ r i *           U [ [ R R u     B C.C.C.C.C.;     @X#X;X;X;X;X;X;X;X;X;X#X=X;X#X#X=X;X;X",
"@X*X;X@X@X@X@X@X;X*X=X;X;X;X;X;X;X;X*X    ; C.C.C.C.C.B           X.@.@.@.@.j o o e.~.!.^.(./././././.(.^.!.!.e.    < k k S.].].K.K.K.K.{.b.    2 h h h h g     X I U W w w *           U [ [ ^ ^ u     B C.C.C.C.C.;     @X@X@X@X@X@X@X*X;X;X;X#X;X;X=X@X@X;X;X",
"@X%X;X@X@X@X;X#X@X;X;X;X;X%X;X;X%X;X;X    ; C.C.C.C.C.B           X.@.@.@.@.@.@.@.@.@...E.(./.(./././.(.Q.g h 2     b.{.K.].].].K.K.K.K.{.b.    2 h h h h g                             U [ [ [ [ I     B C.C.C.C.C.;     @X#X@X@X@X@X@X#X#X;X;X;X;X;X=X@X@X;X;X",
"@X@X@X+X@X#X@X@X*X;X;X;X;X@X@X%X;X;X;X    ; C.C.C.C.C.B           X.@.@.@.@.@.@.@.@.@...E.(.(.(.(.(.(.`.Q.h h 2     b.{.K.K.K.K.K.K.K.K.{.b.    2 h h h h h                             U } [ [ } I     B C.C.C.C.C.;     @X@X@X@X@X@X@X@X@X;X#X@X=X=X#X@X@X=X;X",
"@X@X#X*X@X@X#X=X;X@X*X@X#X@X@X@X@X=X@X    ; C.C.C.C.C.B     = ; 2 X.@.@.@.@.@.@.@.@.@.#.B.E.E.E.E.E.Y.Y.e.2 s =     b.{.K.K.K.K.K.K.K.K.{.b.    = s 2 2 2 2                             q K K K K 0     B C.C.C.C.C.;     @X@X@X@X@X@X@X@X@X;X@X+X=X=X=X#X=X;X;X",
"@X@X;X;X@X@X#X@X=X#X#X;X#X@X@X@X@X@X#X    ; C.C.C.C.C.B     V @.@.@.@.@.@.@.@.@.@.@.@.@.#.........O.                b.{.K.K.K.K.K.K.K.K.{.b.                                                            B C.C.C.C.C.;     @X@X@X#X@X@X@X@X@X=X#X;X#X@X#X;X#X;X;X",
"@X-X;X;X;X=X@X@X#X#X@X;X;X@X@X=X#X@X@X    ; C.C.C.C.C.B     V @.@.@.@.@.o.o.o.o.X.X.o.o.@.@.@.@.@.X.                i.{.K.K.K.K.K.K.K.K.{.b.                                                            B C.C.C.C.C.;     ;X@X@X@X@X;X;X#X#X@X#X@X@X@X@X#X#X@X;X",
"@X@X;X;XiX;X@X;X;X=X*X;X=X;X;X#X@X%X#X    ; C.C.C.C.C.B     b _ _ _ _ _ s.s.s.s.s.s.s.s.%.@.@.s s 2           x i.t.S.[.K.K.K.K.K.K.K.K.{.b.                - > > > > > > > o           w t t t t w     B C.C.C.C.C.;     ;X;X$X@X@X@X@X@X@X*X=X#X@X@X@X@X=X;X;X",
"@X-X;X;X=X;X;X;X;X;X=X;X#X=X=X=X@X@X%X    ; C.C.C.C.C.B     p R R R R ) x.x.x.x.x.x.x.c.*.@.@.o               >.}.{.[.K.K.K.K.K.K.K.K.K.{.b.                6 d d d d d d d -           T R R R ! u     B C.C.C.C.C.;     ;X;X-X-X-X;X@X@X@X*X;X=X=X=X@X@X=X;X;X",
"@X-X;X;X;X;X;X;X;X;X*X;X=X=X=X;X@X@X@X    ; C.C.C.C.C.B     u R R R R ) j.x.x.x.x.x.x.x.*.@.@.o               >.{.K.K.K.K.K.K.K.K.K.K.K.{.b.                5 d d d d d d d -           T R R R R u     B C.C.C.C.C.;     ;X;X;X;X-X@X@X@X@X=X=X@X;X;X@X=X@X=X;X",
"@X;X;X;X=X;X=X;X;X;X;X;X=X*X;X;X;X-X@X    ; C.C.C.C.C.B     u R R R R ) j.x.x.x.x.x.x.v.A = =                 >.{.K.K.K.K.K.K.K.K.K.K.K.{.b.    k -.-.-.-.-.:.:.:.:.:.:.:.:.C 3 5 o     % % & ] ] W     B C.C.C.C.C.;     ;X;X;X;X;X-X@X@X@X@X@X@X*X;X=X;X=X*X;X",
"#X@X*X;X*X;X*X*X;X;X;X@X@X@X;X;X;X;X-X    ; C.C.C.C.C.B     u R R R R ) j.x.x.x.x.x.x.v.f                     >.{.K.K.K.K.K.K.K.K.K.K.K.{.b.    m 6.4.4.4.4.4.4.4.4.4.4.4.4.G d d @         X [ [ I     B C.C.C.C.C.;     ;XgX;X;X;X;X-X;X;XOX X=X*X@X;X;X;X;X*X",
";X;X;X;X;X*X@X;X;X;X=X+XXX*X@X;X;X;X;X    ; C.C.C.C.C.B     u R R R R ) j.j.j.x.x.j.j.x.f                     ,.K.J.K.K.K.K.K.K.K.K.K.K.{.b.    v 4.3.3.3.3.3.3.3.3.3.3.3.3.D 6 d @         X [ [ I     B C.C.C.C.C.;     ;XgXgX;X;X;X;X;X*X=X@X@X@X@X;X;X;X;X@X",
";X;X;X;X;X;X;X;X#X=X@X@X@X=X@X@X;X;X;X    ; C.C.C.C.C.B     u R R R R R Q Q $.x.c.S o @                       . : # b.{.K.K.K.K.K.K.K.K.{.b.    v 4.4.C l l l l l l l l l l c d d @         X [ [ I     B C.C.C.C.C.;     ;X;X;X;X;X;X;X;X$X@X@X@X@X@X@X;X;X@X@X",
"@X=X=X*X;XiX;X*X;X;X=X;X;X;X@X@X@X;X;X    ; C.C.C.C.C.B     u R R R R R R R $.x.c.S                                 b.{.K.K.K.K.K.K.K.].{.b.    v 4.4.C d d d d d d d d d d d d d @         X [ [ I     B C.C.C.C.C.;     ;X;X;X;X;X;X;X;X;X@X@X@X@X;X X X@X@X@X",
"=X;X=X*X;X;X;X;X;X;X=X@X;X=X@X@XOX@X;X    ; C.C.C.C.C.B     u R R ! ! ! ! ! $.x.c.S             . . .   . # # o     b.{.K.K.K.K.K.K.J.S.F.t.o o D 4.4.C d d d d d d d d d d d d d @         X U U K     B C.C.C.C.C.;     -X@X;X;X;X;X;XdXdX;X@X@X@X@X@X@X@XoX&X",
"=X;X;X;X;X;X;X;X;X;X=X#X#X;X@X@X@X#X;X    ; C.C.C.C.C.B     u R R ' [ [ [ ' =.x.c.S           5 d d d d C 3.4.v     b.{.K.K.K.K.K.[.A.    k 4.3.3.3.4.C d d d d d d d d d d d d d d d d                 B C.C.C.C.C.;     @X=X=X;X;X;X;X;XgXgX;X;X-X-X-X;X@X@X@X",
"=X=X=X;X;X;X;X;X;X;X;X;X#X#X#X@X;X;X;X    ; C.C.C.C.C.B     u R R [ [ [ [ ' =.c.c.S           5 d d d d C 4.4.v     b.{.[.[.[.[.[.{.D.    k 4.3.4.4.4.C d d d d d d d d d d d d d d d d .               B C.C.C.C.C.;     @X@X*X;X;X-X;X;X;X;X;X;X;X-X;X-X@X@X;X",
"#X;X;X;X;X;X;X;X*X;X;X=X=X=X@X=X@X;X;X    ; C.C.C.C.C.B     Y ^ ^ [ [ [ [ [ =.a.a.A           5 d d d d C 4.4.v     >.M.n.n.n.n.n.n.i.8 < v 4.3.2.:.:.l d d d d d d d l C C l d d d d d .               B C.C.C.C.C.;     @X@X@X;X-X;X;X;X;X;X;X-X@X@X;X@X@X@X$X",
";X;X;X;X;X;X;X;X;X;X*X;X;X;X;X;X@X@X%X    ; C.C.C.C.C.B     I [ [ [ [ [ [ [ W                 5 d d d d C 4.4.v                     # 4.4.4.3.4.Z 6 6 d d d d d d d d C 4.6.G 6 d d d d .               B C.C.C.C.C.;     ;X;X-X-X-X;X;X;X;X;X-X-X;X;X-X$X$X$X@X",
";X$X;X=X;X;X;X;X;X;X=X;X;X;X;X*X=X@X@X    ; C.C.C.C.C.B     I [ [ [ [ [ } } L                 5 d d d d C 4.4.v                     : 3.3.4.4.6.D 6 d d d d d d d d d C 4.4.D 6 d d d d .               B C.C.C.C.C.;     @X;X@X-X;X;X;X;X;X;X;X;X;X@X-X-X;X;X;X",
"%X@X;X;X;X*X;X;X;X;X;X;X;X@X;X@X;X@X@X    ; C.C.C.C.C.B     I [ [ [ [ { 0 0 9     o - - .     @ - - - $ k 4.4.D @ - k x x o         : 3.4.1.D G C d d d d d d d d d d C 4.4.D 6 d d d d .               B C.C.C.C.C.;     -X;X@X;X;X;X;X;X;X;XdX;X;X@X;X;X;X;X;X",
"@X@X@X-X@X@X-X;X;X;X;X;X@X@X$X%X;X@X;X    ; C.C.C.C.C.B     I [ [ [ [ U           - d d @               > 4.4.:.d d :.6.4.:         : 3.4.:.6 6 d d d d d d d d d d d C 4.4.D 6 d d d d .               B C.C.C.C.C.;     @X;X@X;X;X;X;X;X;XdX;X;X;X;X;X;X;X-X@X",
";X@X@X@X@X-X;X;X-X;X-X;X-X;X@X$X;X;X-X    ; C.C.C.C.C.B     I [ [ [ [ U           - d d o               > 6.6.:.d d :.6.4.:         : 3.4.-.6 d d d d d d d d d d 6 6 C 4.4.D 6 d d d d .               B C.C.C.C.C.;     ;X;X@X;XhX;X;X;X;X;XgX;X;X;X;X;X;X;X;X",
"@X@X@X@X;X@X@X;X;X;X;X;X;X;X$X%X;X;X%X    ; C.C.C.C.C.B     I [ [ ~ ^ Q           k :.:.c 3 3 3 3 3     . 8 8 > o o > 8 8       D D -.3.4.-.6 d d d d d d d d d l :.:.:.3.4.D 6 d d d d .               B C.C.C.C.C.;     ;X;X;X;X;X;X;X;XgXdX;X;X;X;X;X;X;X;X;X",
"-X-X-X;X;X@X@X@X@X@X-X;X@X@X@X;X%X@X%X    ; C.C.C.C.C.B     I [ [ R R u           x 6.4.C d d d d 6                             3.4.4.3.4.-.6 d d d d d d d d d l 3.4.4.3.4.D 6 d d d d .               B C.C.C.C.C.;     @X;X;X;X;X;X;X;X;X;X@X;X;X;X;X;X;X;X-X",
";X;X@X-X;X@X$X@X@X@X@X;X;X-X@X%X%X%X%X    ; C.C.C.C.C.B     I [ [ ^ R T           x 4.4.C d d d d 5                             2.3.3.3.3.:.6 d d d d d d d d d l 3.3.3.3.4.D 6 d d d d .               B C.C.C.C.C.;     -X;X;X;X;X;X-X;X;X;X;X;X;X;X;X;X;X;X;X",
"%X@X@X@X@X$X@X@X@X@X@X-X@X@X@X;X;X;X%X    ; C.C.C.C.C.B     I [ [ z.l.s.    o 5 5 D 4.4.C d d o         k F.S.S.S.F.F           2.3.2.l l l d d d d d d d d d d l 3.4.:.l l l d d d d d .               B C.C.C.C.C.;     ;X-X$X;X;X-X@X-X-X;X;X;XdX;X;X;X;X%X;X",
"@X@X;X;X@X@X@X@X@X@X@X@X@X-X%X@X;X%X;X    ; C.C.C.C.C.B     I [ [ k.x.l.    @ d 6 G 4.4.C d d           n {.].].].{.H           2.3.1.d d d d d d d d d d d d d l 3.4.:.6 d d d d d d d .               B C.C.C.C.C.;     ;X@X%X;X;X-X@X@X;X;X;X;X;X;X;X;X;X;X;X",
"%X@X$X$X;X@X@X;X;X-X-X@X;X;X@X@X@X;X;X    ; C.C.C.C.C.B     I [ [ l.k.s.    o 6 5 D 4.4.Z l l .     : # F [.K.K.K.{.>.# :       2.3.1.d d d d d d d d d d d d d l 3.4.:.l l c d d d d d .               h V.g.V.C.C.;     ;X@X%X%X%X;X;X;X;X;X;X;X;X;X;X;X;X;X%X",
"%X%X%X;X$X@X;X@X;X-X-X;X@X%X-X@X@X;X-X    ; C.C.C.C.C.B     I [ [ ^ ! T           x 4.3.3.3.3.#   : G.J.J.K.K.K.K.].J.J.J.k   . 2.3.1.d d d d d d d d d d d d d l 3.3.3.3.3.D 6 d d d d .                     &.C.C.;     ;X@X@X@X%X$X@X%X;X;X;X;X;X;X$X-X-X;X;X",
";X%X;X;X%X@X;X;X;X@X@X;X;X%X;X@X@X@X@X    ; C.C.C.C.C.B     I } [ ! R T           x 6.4.4.4.3.#   : J.[.[.[.[.[.[.[.[.[.[.k   . 2.3.1.d d d d d d d d d d d d d l 3.4.4.4.6.:.d d d d d .                     %.C.C.;     ;X-X@X@X;X@X@X@X@X$X;X;X@X@X@X-X-X-X;X",
";X;X@X@X@X;X;X;X;X;X-X;X;X;X@X$X;X-X-X    ; C.C.C.C.C.B     q I I u u p           k -.-.-.-.-.o   # m.m.m.m.m.m.m.m.m.m.N.<   . 2.4.:.4 4 4 4 4 4 4 4 4 4 4 4 4 5 -.-.-.-.-.x 3 4 4 4 4                       %.C.C.;     -X@X;X$X$X-X@X@X@X;X;X@X-X@X@X-X-X@X-X",
";X;X@X;X;X;X;X;X;X;X;X-X-X;X$X-X-X;X;X    ; C.C.C.C.C.B                                                                         2.4.<.                                                                        %.C.C.;     ;X@X;X@X@X@X@X@X-X;X-X;X;X;X-X$X;X;X;X",
";X-X-X;X;X;X;X;X;XdX;X;X@X@X-X;X;X;X;X    ; C.C.C.C.Z.B                                                                         2.4.<.                                                                        %.C.C.;     ;X;X;X@X@X$X@X-X;X-X;X-X;X;X-X-X;X;X;X",
"-X;X;X;X;X;X;X;X;X;X;X;X@X@X@X;X@X;X-X    ; C.C.g.+.+. .B B B B B B B B B B B B B B B B B B B B B B B B B B B B B B B B B B B B 7.h.8.B B B B B B B B B B B B B B B B B B B B B B B B B B B B B B B B B s     %.C.C.;     ;X-X;X@X@X*X;X-X-X-X@X@X;X;X;X;X;X;XgX",
";X;X-X-X;X;X;X;X-X;X-X@X-X-X#X@X@X@X;X    ; C.C.%.    +.Z.C.C.C.C.C.C.C.C.C.C.Z.C.C.C.C.C.C.C.C.C.C.C.C.C.C.C.C.C.C.C.C.C.C.C.C.C.C.C.C.C.C.C.Z.C.C.C.C.C.C.C.C.C.C.C.C.C.C.C.C.C.C.C.C.C.C.C.Z.C.C.C.Z.+.    %.C.C.;     ;X;X;X;X;X@X*X;X-X@X@X$X@X-X-X;X;X;X;X",
";X;X;X;X;X;X;X;X;X;X@X@X@X-X@X@X@X;X;X    2 C.Z.&.    +.C.C.C.C.C.C.C.C.C.C.C.C.C.C.C.C.C.C.C.C.C.C.C.C.C.C.C.C.C.C.C.C.C.C.C.C.C.C.C.C.C.C.C.C.C.C.C.C.C.C.C.C.C.C.C.C.C.C.C.C.C.C.C.C.C.C.C.C.C.C.C.C.+.    &.Z.C.2     ;X;X;X;X;X;X@X@X;X$X@X@X@X$X-X;X;X-X;X",
"%X%X;X;X-X@X;X@X@X;X@X@X@X@X@X%X;X@X-X    o h h  .&.%.g.C.C.C.C.C.C.C.C.C.C.C.C.C.C.C.C.C.C.C.C.C.C.C.C.C.C.C.C.C.C.C.C.C.C.C.C.C.C.C.C.C.C.C.C.C.C.C.C.C.C.C.C.C.C.C.C.C.C.C.C.C.C.C.C.C.C.C.C.C.C.C.C.g.%.&. .h h o     ;X;X;X;X;X;X;X@X-X;X@X-X-X;X;X@X@X@X;X",
";X;X;X-X-X@X;X@X@X@X;X-X@X@X@X%X%X;X-X          h Z.C.C.C.C.C.C.C.C.C.C.C.C.C.C.C.C.C.C.C.C.C.C.C.C.C.C.C.C.C.C.C.C.C.C.C.C.C.C.C.C.C.C.C.C.C.C.C.C.C.C.C.C.C.C.C.C.C.C.C.C.C.C.C.C.C.C.C.C.C.C.C.C.C.C.C.C.Z.h           ;X;X;X;X;X;X;X$X;X;X@X@X$X;X;X-X@X@X;X",
";X%X@X;X;X-X;X;X%X@X@X-X@X@X@X;X$X@X@X          h C.C.C.C.C.C.C.C.C.C.C.C.C.C.C.C.C.C.C.C.C.C.C.C.C.C.C.C.C.C.C.C.C.C.C.C.C.C.C.C.C.C.C.C.C.C.C.C.C.C.C.C.C.C.C.C.C.C.C.C.C.C.C.C.C.C.C.C.C.C.C.C.C.C.C.C.C.C.h           ;X;X;XdX;X;X;X;X@X-X;X;X-X;X;X-X@X@X;X",
";X;X;X;X;X$X;X;X;X@X;X@X-X;X@X@X;X;X;X          o 2 ; ; ; ; ; ; ; ; ; ; ; ; ; ; ; ; ; ; ; ; ; ; ; ; ; ; ; ; ; ; ; ; ; ; ; ; ; ; ; ; ; ; ; ; ; ; ; ; ; ; ; ; ; ; ; ; ; ; ; ; ; ; ; ; ; ; ; ; ; ; ; ; ; ; ; ; 2 o           ;X;X;X;XgX;X;X;X-X@X;X;X;X-X;X@X@X-X;X",
";X;X;X;X-X-X;X;X;X;X;X;X;X;X;X;X@X;X;X                                                                                                                                                                                    ;X;X;X;XgX;X;X-X-X;X-X-X;X;X;X$X-X$X;X",
";X@X;X;X-X;X;X;X;XhX;XXX;X;X;X;X-X;X;X                                                                                                                                                                                    dX;X;X;X@X-X-X@X@X;X;X$X$X-X-X-X;X-X;X",
";X@X-X;X;X;X;X;X-X;X;X-X;X;X;X;X;X;X;X;X;X;X;XdX;X;X;XhXhX;X-X;X;X;X;X;X;X;X;X;X;X=X@X#X;X@X@X@X%X@X@X@X;X-X$X@X-X;X;X;X;X;XgX;X;X;X;X;X;X;X;X;X;X;X;X%X;X;X;X=X#X;X;X@X@X@X$X%X;X;X;X;X%X%X;X-X;X;X#X;X;X;XgXdX;X;X;X;X-X;X;X;X;X-X;X;X-X@X-X;X@X@X-X;XdX-X@X;X",
"-X$X;X;X;X;X;X;XgX;X$X@X@X@X;X;X;X;X;X;X;X;X;X;X;X;X;X;X;X;X-X;XdX;X;X;X;X;X;X;X=X@X@X#X=X@X@X@X;X;X@X-X-X@X@X-X;X;X;X;X;X;X;XdX;X;X;X;X-X;X;X-X;X;X;X$X@X@X=X;X;X;X;X%X@X@X$X@X;X;X;X;X;X%X;X;X;X;X;X;X;X;X;X;X;X;X-X;X@X;X;X;X;X-XgX;X-X@X-X;X-X-X;X;XgX;X;X;X",
";X;X;X;X;X;X;X;X;X;X;X@X@X@X@X*X;X$X;X;X;X;X;X;X;X;X;X;X;X;XgXgXgX;X;X;XhX;X;X;X@X@X@X@X@X;X@X@X-X@X@X;X@X-X$X@X@X@X;X;X;X;X;X;X;X;X;X;X;X;X;X@X-X;X;X@X@X%X;X;X@X=X;X@X#X#X;X#X@X@X;X;X;X=X;X;X;X;X;X;X;X;X;X;X;X@X-X;X;X;X-X;X-X@X;X;X;X@X;X;X@X-X;X-X@X;X;X;X",
";X;X;X;X;X;X;X;X;X;X-X@XOX@X@X;X;X-X@XgXdX;XgX;X-X;X;X;XdXdX;X;XiXgXgX;X;X;X;X;X;X-X$X@X-X;X%X$X-X@X@X;X;X;X;X@X@X#X;X;X;X;X;X;X;X;X;X;X;X;X;X;X-X;X;X-X%X;X=X@X@X@X#X#X=X#X@X#X@X;X;X;X@X*X;X@X;X;X;X;X;X;X;X;X%X;X$X;X;X;X;X;X-X$X;X;X;X;X;X;X@X@X;X;X@X@X@X$X",
"-X@X;X;X;X;XgX;X;XhX;X@X@X@X;X;X;X;X;X;XdX;X;X-X;X;X;X;X;X;X;X;X;X;XgXgX@X;XdX;X;X;X;X-X;X;X$X-X@X@X@X;X@X;X-X@X@X=X$X$X;X;X;X;X;X;X;X;X;X;X;X;X;X;X-X;X;X;X;X;X=X;X;X@X;X@X@X#X=X#X$X;X*X;X;X-X;X-X;X-X;X;X;X;X;X;X;X@X-XdX;X;X;X;X;X;X-X@X@X;X@X@X-X-X@X@X@X;X",
"@X@X;X;X;X;X;X;X;X;X;X@X;X@X-X;X;X;X;X;X;X;X;X;X;X;X;XgX;X;XgX;X;X;X;XgXdX;X;X-X-X;X;X;X;X;X;X@X@X@X@X;X@X@X-X;X@XXX@X@X@X-X;X;X;X;X;X;XgX;X;X%X;X;X;X*X;X;X;X;X;X=X;X#X@X@X;X;X;X;X@X;X*X=X=X;X;X;X;X@X%X;X;X;X;X;X;X;X;X;X;X;X;X;X;XdX-X@X@X*X@X*X;X$X@X$X;X;X",
";X;X;X;X;X;X;X;X;X;X$X@X;X;X;X;X;XgX;X;X;X;X@X;XdXhX;X;X;X;XgXiX;X;X;X;XgX;X;X;X;X;X;X;X;X;X;X%X%X@X-X;XXX@X$X@X@X@X;X@X@X@X;X;X;X;X;X;X;X;X;X;X-X;X;X;X;X;X;X@X@X=X;X;X@X@X@X;X;X-X-X*X@X;X;X=X@X;X-X-X;X;X;X;X;X;X-X;X;XdX;X;X;X;X;X;X-X@X@X@X@X@X@X;X@X@X@X;X",
";X@X;X;X;X-X;X-X;X;X@X-XgXgX;X;XgXgX;X;X;X;X;XgX;XgXgX;X;X-X;X;X;X;X;X;X;X;X;XgX;X;X;X;X;X#X#X;X;X@X@X@X@X-X-X@X$X@X;X;X;X-X-X;X;X$X$X-X;X;X$X;X;X;X;X;X*X;X=X@X+X@X;X;X@X;X#X@X$X-X$X;X;X*X*X;X;X*X;X-X$X;X;X@XdX;X;X;X;X;X;X;X;X;X;X;X-X*X@X@X@X@X@X$X@X-X*X-X",
"@X@X$X@X@X;X;X;X;X;X;X;X;X;X;X;XgXgX;XgX-X;XhXjXgX;X;X;XgX;X;X;X;X;X;X;X;X;X;X;X;X;X;X;X;X-X@X;X;X@X@X;X;X;X;X;X@X;X-X@X;X;X;X;X;X@X-X-X;X;X;X;X;X;X;X;X;X;X=X#X=X=X=X;X;X;X;X%X@X-X;X;X;X;X@X;X;X;X;X;X;X*X*X;XgX;X;XgX;X;X;X;XgX;X$X-X;X;X-X@X@X@X#X X@X-X-X;X",
"@X;X;X@X@X@X;X-X;X;X;X;XgX;X;X;X;XgXgXhX;X-XdXjXdX;X;X;X;XdXdXgXgX;X;X;X;X;X;XgX;X;X;X;X;X@X;X;X;X-X@X;X@X@X@X@X*X;X@X;X;X;X;X;X;X;XXX-X-X;X;X;X;X;X;X;X;X%X;X=X@X@X*X;X;X;X;X%X;X;X;X-X*X;X;X;X;X;X%X@X*X=X;X;X;X;X;XhX;X;X;X;X;X;X-X;X;X;X;X*X@X@X@X X@X@X;X;X",
"@X;X;X@X%X$X;X;X;XgXgX;X;X;X;X;X;XhX;X;XhX;X;X;X;X;X;X;X;XhX;X;X;X;X;X;XhX;X;X;X;X;X-X-X;X*X*X;X-X-X@X@X@X-XXX@X;X@X@X;X;X;X-X;X;X;X-X@X@X;X;X;X;X;X;X;X;X;X@X;X@X;X;X;X;X%X;X;X;X;X;X*X;X;X*X;X;X;X;X@X@X=X=X;X;X;X-XhXgX;X;X$X;X;X-X;X;X;X;X;X@X@X@X@X;X@X@X@X",
";X;X;X;X@X;X;X;X;X;X;X;X;X;X;X;X-X;XdX;X@X;X;X;X;X;X;X;X;X;XhX;X-X;X;X;X;X;X;X@X-X;X;XdX;X;X=X@X;X@X@X@X@X$X@X@X@X@X-X;X;X;X;X-X;X;XgX;X;X;X-X-X;X;X;X;X=X;X;X;X;X;X;X;X;X;X;X;X;X;X;X*X;X*X;X;X;X;X;X;X;X;X#X;X;X=X@X;X;XdX;X;X;X-X;X;X;X@X@X;X;X;X;X-X;X@X+X;X",
"@X-X;X%X;XdXdX;X;X;X;XgX-X@XhXdX;X;X;X;X$X@X;X;XgXgX;XgX;X;X;X;X;X;X;X;X@X;X;X;X;X;X;X;X;X=X=X#X@X@XXX@X@X@X$X@X@X;X;X;X;X;X;X;X;X;X;XdXhX;XdXdX;X;X;X;X@X@X*X-X;X;X;X@X;X;X;X;X-X*X;X*X;X@X-X;X;X;X;X;X#X@X;X;X;X;X-X;X;X;X;X;X;X;X;X-X;X;X-X;X-X-X;X;X;X;X*X*X",
"%X;X;X;X;X;X;X@X;X;X@X$X;XgXgX;XgX;X;X;X;X;X;X;X;X;XdXhX;X;X;X;X;X;X;X;X-X;X;X;X;X;X@X;X@X@X@X@X@X@X@X@X@X@X;X-X;X;X;X;X;X;X-X;X;X;X;X;X;X;X;X;X;XdX;X*X*X@X@X@X;X;X;X@X-X;X;X;X-X;X;X;X;X;X@X;X;X;X;X;X;X;X;X;X;X;X;X;X;X@X;X$X;X;X;X;X;XgXdX;X-X@X@X@X@X;X-X@X",
"$X@X;X;X;X;X-X;X;X;XdX;X;XgXhX;XdX;XgXhX;X;X;X;X;X;X;X;X;X;X;X;X-X;X;X;X;X;X;X@X@X@X;X;X@X@X@X@X@X@X+X@X=X@X-X;X;X@X;X;X;X;X;X;X;X;X;X;X;X;X;X;X;X;X;X;X=X*X-X@X-X=X=X;X;X;X;X;X;X;X;X;X;X;X;X;X;X-X*X;X%X;X;X;X;X;X;X;X;X;X;X@X@X;X;X;X;X;X;X;X;X;X;X;X-X;X;X;X",
"@X@X;X;X%X$X@X@X;X;X;X;X$XgXhXgXdXhXgXgXgX;X@X;X;X;X;X;X;X;X;X;X;X;X;X;X;X;X@X;X@X@X@X;X@X@X@X@X@X@X@X@X@X;X;X-X;X-X;X;X;X;X-X;X;X;X-X;X;XdX;X-X@X;X;X;X*X*X-X-X@X*X*X;X;X-X;X;X;X;X;X;X;XgX;X@X;X;X;X;X;X%X;X;X;X;X;X;X;XgX;X-X-X;X@X@X;X;X;X;X;X;X;X;X$X@X@X@X",
"@X@X@X@X@X@X;X;XgXhXhX-X$X;XjXgXhX;XgX;X;X;X;X@X@X@X;X;X;X-X;X;X;X;X-XiX;X-X;X;X;X;X-X*X;X;X@X X+X@X@X+X@X@X;X;X-X-X;X-X;X;X@X-X;XgXgXgX;X;X;X;X$X;XhXgX;X@X%X@X@X$X@X@X;X@X@X-X;X*X;X;X;X;X;X@X;X;X;X;X;X;X;X-X;X;X;X;X;X;X;X@X*X;X-X;X;X;X;X;X;X-X;X;X@X;X;XXX",
"@X@X@XOX@X@X;X;X-X-XhXgX;X;XgXjXhX;X;X;X;X@X-X;X;X;X;X;X@X-X-X;XgX;X@X;X@X@X@X;X%X;X;X;X;X%X@XoX|.OX@X X@X@X;X;X;X-X;X;X;X;X;X$X-X;XgXgX;X-XgXgX;X;XgXiX;X;X@X@X$X;X@X@X;X%X$X-X@X*X;X;X=X*X;X;X;X;X;X;X;X;X;X;X;X;XdX;X;X;X;X*X*X;X;X;X-X;X;X;X;X;X;X;X@X-X;X@X",
"#X@X@X@X#X@X@X@X;X;XiXgXgX;X;XgXdX;X;X;X;X;X@X-X;X-XgX;X;X;X;X-X;X;X@X@X@X;X-X;X;X;X@X@X;X;X@X+XoX+X@XOX@X@X;X@X-X;X-X-X;X;X;X$X@X-X;X;X;X;XhXgX;XgX;X;X;X;X;X;X%X;X;X@X@X@X$X@X@X*X@X;X;X=X-X-X;X;X@X%X%X;X%X-X-X;XhX;X;XgX;X;X*X;X;X@X-X;X;X;X;X;X-X;X;X-X-X-X"
};
