/* XPM */
static char *palette_1[] = {
/* columns rows colors chars-per-pixel */
"300 300 245 2 ",
"   c #010000",
".  c #080604",
"X  c #0D0A05",
"o  c #0A030C",
"O  c #0B0B0B",
"+  c #120D07",
"@  c #161109",
"#  c #1B1408",
"$  c #1C150B",
"%  c #0E0411",
"&  c #150519",
"*  c #151514",
"=  c #1B1B1B",
"-  c #251B0E",
";  c #251B13",
":  c #281E10",
">  c #311F1B",
",  c #2E2311",
"<  c #27231E",
"1  c #352815",
"2  c #3B2C16",
"3  c #1D0623",
"4  c #24092B",
"5  c #2B0A33",
"6  c #310E39",
"7  c #252525",
"8  c #2D2D2D",
"9  c #37322A",
"0  c #373737",
"q  c #402F17",
"w  c #433219",
"e  c #49361C",
"r  c #4D3A1D",
"t  c #523D1E",
"y  c #4E0926",
"u  c #550B2A",
"i  c #570A2B",
"p  c #581729",
"a  c #6E0F36",
"s  c #573128",
"d  c #65362A",
"f  c #094E16",
"g  c #0A5217",
"h  c #095618",
"j  c #18541A",
"k  c #2B531D",
"l  c #0C681D",
"z  c #0E7821",
"x  c #127421",
"c  c #356624",
"v  c #564120",
"b  c #5C4423",
"n  c #584928",
"m  c #535130",
"M  c #664827",
"N  c #664C26",
"B  c #694E27",
"V  c #695326",
"C  c #6C5129",
"Z  c #72552B",
"A  c #785A2D",
"S  c #785631",
"D  c #626B26",
"F  c #746E2F",
"G  c #081457",
"H  c #05135B",
"J  c #08145B",
"K  c #0E1759",
"L  c #390B45",
"P  c #3C1448",
"I  c #1D2257",
"U  c #2D2C52",
"Y  c #10176F",
"T  c #2B2872",
"R  c #480D57",
"E  c #451553",
"W  c #453A54",
"Q  c #561668",
"!  c #58126B",
"~  c #631379",
"^  c #67227A",
"/  c #317666",
"(  c #474747",
")  c #544A50",
"_  c #5C5C5B",
"`  c #635B5E",
"'  c #77674F",
"]  c #676767",
"[  c #74716B",
"{  c #747474",
"}  c #7B7B7B",
"|  c #8A3A3D",
" . c #856A26",
".. c #836232",
"X. c #886634",
"o. c #8C6935",
"O. c #926D38",
"+. c #8A7635",
"@. c #96733A",
"#. c #9D763C",
"$. c #A37A3E",
"%. c #A6793D",
"&. c #911448",
"*. c #B4195A",
"=. c #A52C4E",
"-. c #C4365D",
";. c #C71964",
":. c #C91B65",
">. c #D01C68",
",. c #C72861",
"<. c #C93060",
"1. c #957252",
"2. c #A87E41",
"3. c #BB764C",
"4. c #B66E52",
"5. c #9C6261",
"6. c #C24958",
"7. c #C15456",
"8. c #C16D51",
"9. c #0F8926",
"0. c #12982A",
"q. c #348D2E",
"w. c #13A82E",
"e. c #0EB731",
"r. c #13B532",
"t. c #16B733",
"y. c #30AD35",
"u. c #5E9A39",
"i. c #759A3E",
"p. c #4FA63A",
"a. c #1E847D",
"s. c #2F887B",
"d. c #7B9758",
"f. c #508C71",
"g. c #6F8C66",
"h. c #8E8C16",
"j. c #8B8619",
"k. c #938F19",
"l. c #8F9013",
"z. c #919016",
"x. c #999718",
"c. c #A9A718",
"v. c #998C27",
"b. c #AA8D35",
"n. c #B1A523",
"m. c #CAA93C",
"M. c #D2B736",
"N. c #CBCA1B",
"B. c #E2DF1F",
"V. c #E9E71E",
"C. c #F8F61F",
"Z. c #FAF91E",
"A. c #DDC930",
"S. c #E5D62B",
"D. c #F1EB23",
"F. c #F4F021",
"G. c #91904C",
"H. c #AD8242",
"J. c #A78E48",
"K. c #AB8A48",
"L. c #B38645",
"P. c #B68A45",
"I. c #B98B47",
"U. c #B88648",
"Y. c #B68A49",
"T. c #BC8C48",
"R. c #BC9245",
"E. c #BF9049",
"W. c #AA9556",
"Q. c #9E9D61",
"!. c #8CAA73",
"~. c #C18B46",
"^. c #C29742",
"/. c #C1914A",
"(. c #1C1B8E",
"). c #221D99",
"_. c #362C8D",
"`. c #281FAB",
"'. c #291EB6",
"]. c #3628AB",
"[. c #2C20B4",
"{. c #2E21B8",
"}. c #6D1485",
"|. c #72158C",
" X c #771591",
".X c #7A1795",
"XX c #7C1797",
"oX c #7E189A",
"OX c #4E3A97",
"+X c #75258B",
"@X c #4231A2",
"#X c #574095",
"$X c #6B5083",
"%X c #81199D",
"&X c #871DA4",
"*X c #8B28A6",
"=X c #932FAF",
"-X c #9725B6",
";X c #9530B1",
":X c #9F29C0",
">X c #A82FCA",
",X c #AA33CA",
"<X c #B538D8",
"1X c #BE3BE1",
"2X c #C53EEA",
"3X c #CB3EF1",
"4X c #C940EE",
"5X c #CE41F5",
"6X c #D745FF",
"7X c #DD47FE",
"8X c #E249FF",
"9X c #158987",
"0X c #1A8A85",
"qX c #158C89",
"wX c #179490",
"eX c #278C82",
"rX c #1DA69C",
"tX c #21AB9E",
"yX c #21AFA2",
"uX c #22B8A9",
"iX c #6EB88B",
"pX c #28CDB8",
"aX c #5DC79E",
"sX c #67C397",
"dX c #4FD3AE",
"fX c #2CDCC3",
"gX c #2EE7CC",
"hX c #37E5C6",
"jX c #30E9CD",
"kX c #27EFD6",
"lX c #31EED1",
"zX c #878787",
"xX c #91908F",
"cX c #979797",
"vX c #A1A1A1",
"bX c #ABAAAA",
"nX c #B8B8B8",
"mX c #C5C5C5",
"MX c #CACACA",
"NX c #CFCFD0",
"BX c #D6D6D6",
"VX c #E2E2E2",
"CX c #E9E9E9",
"ZX c #F3F3F3",
"AX c white",
/* pixels */
"AXAXAXAXAXAXAXAXAXAXAXAXAXAXAXAXAXAXAXAXAXAXAXAXAXAXAXAXAXAXAXAXAXAXAXAXAXAXAXAXAXAXAXAXAXAXAXAXAXAXAXAXAXAXAXAXAXAXAXAXAXAXAXAXAXAXAXAXAXAXAXAXAXAXAXAXAXAXAXAXAXAXAXAXAXAXAXAXAXAXAXAXAXAXAXAXAXAXAXAXAXAXAXAXAXAXAXAXAXAXAXBXzX8                                                                                                                                                 8 5.NXAXAXAXAXAXAXAXAXAXAXAXAXAXAXAXAXAXAXAXAXAXAXAXAXAXAXAXAXAXAXAXAXAXAXAXAXAXAXAXAXAXAXAXAXAXAXAXAXAXAXAXAXAXAXAXAXAXAXAXAXAXAXAXAXAXAXAXAXAXAXAXAXAXAXAXAXAXAXAXAXAXAXAXAXAXAXAXAXAXAXAXAXAXAXAXAXAXAXAXAXAXAXAXAXAXAXAXAXAXAXAX",
"AXAXAXAXAXAXAXAXAXAXAXAXAXAXAXAXAXAXAXAXAXAXAXAXAXAXAXAXAXAXAXAXAXAXAXAXAXAXAXAXAXAXAXAXAXAXAXAXAXAXAXAXAXAXAXAXAXAXAXAXAXAXAXAXAXAXAXAXAXAXAXAXAXAXAXAXAXAXAXAXAXAXAXAXAXAXAXAXAXAXAXAXAXAXAXAXAXAXAXAXAXAXAXAXAXAXAXAXAXAXAXBX} 8                                                                                                                                                 8 5.BXAXAXAXAXAXAXAXAXAXAXAXAXAXAXAXAXAXAXAXAXAXAXAXAXAXAXAXAXAXAXAXAXAXAXAXAXAXAXAXAXAXAXAXAXAXAXAXAXAXAXAXAXAXAXAXAXAXAXAXAXAXAXAXAXAXAXAXAXAXAXAXAXAXAXAXAXAXAXAXAXAXAXAXAXAXAXAXAXAXAXAXAXAXAXAXAXAXAXAXAXAXAXAXAXAXAXAXAXAXAXAX",
"AXAXAXAXAXAXAXAXAXAXAXAXAXAXAXAXAXAXAXAXAXAXAXAXAXAXAXAXAXAXAXAXAXAXAXAXAXAXAXAXAXAXAXAXAXAXAXAXAXAXAXAXAXAXAXAXAXAXAXAXAXAXAXAXAXAXAXAXAXAXAXAXAXAXAXAXAXAXAXAXAXAXAXAXAXAXAXAXAXAXAXAXAXAXAXAXAXAXAXAXAXAXAXAXAXAXAXAXAXAXAXBX$X8                                                                                                                                                 8 } BXAXAXAXAXAXAXAXAXAXAXAXAXAXAXAXAXAXAXAXAXAXAXAXAXAXAXAXAXAXAXAXAXAXAXAXAXAXAXAXAXAXAXAXAXAXAXAXAXAXAXAXAXAXAXAXAXAXAXAXAXAXAXAXAXAXAXAXAXAXAXAXAXAXAXAXAXAXAXAXAXAXAXAXAXAXAXAXAXAXAXAXAXAXAXAXAXAXAXAXAXAXAXAXAXAXAXAXAXAXAXAX",
"AXAXAXAXAXAXAXAXAXAXAXAXAXAXAXAXAXAXAXAXAXAXAXAXAXAXAXAXAXAXAXAXAXAXAXAXAXAXAXAXAXAXAXAXAXAXAXAXAXAXAXAXAXAXAXAXAXAXAXAXAXAXAXAXAXAXAXAXAXAXAXAXAXAXAXAXAXAXAXAXAXAXAXAXAXAXAXAXAXAXAXAXAXAXAXAXAXAXAXAXAXAXAXAXAXAXAXAXAXAXAXBXiX8                                                                                                                                                 8 iXBXAXAXAXAXAXAXAXAXAXAXAXAXAXAXAXAXAXAXAXAXAXAXAXAXAXAXAXAXAXAXAXAXAXAXAXAXAXAXAXAXAXAXAXAXAXAXAXAXAXAXAXAXAXAXAXAXAXAXAXAXAXAXAXAXAXAXAXAXAXAXAXAXAXAXAXAXAXAXAXAXAXAXAXAXAXAXAXAXAXAXAXAXAXAXAXAXAXAXAXAXAXAXAXAXAXAXAXAXAXAXAX",
"AXAXAXAXAXAXAXAXAXAXAXAXAXAXAXAXAXAXAXAXAXAXAXAXAXAXAXAXAXAXAXAXAXAXAXAXAXAXAXAXAXAXAXAXAXAXAXAXAXAXAXAXAXAXAXAXAXAXAXAXAXAXAXAXAXAXAXAXAXAXAXAXAXAXAXAXAXAXAXAXAXAXAXAXAXAXAXAXAXAXAXAXAXAXAXAXAXAXAXAXAXAXAXAXAXAXAXAXAXAXAXBXzX8                                                                                                                                                 8 iXBXAXAXAXAXAXAXAXAXAXAXAXAXAXAXAXAXAXAXAXAXAXAXAXAXAXAXAXAXAXAXAXAXAXAXAXAXAXAXAXAXAXAXAXAXAXAXAXAXAXAXAXAXAXAXAXAXAXAXAXAXAXAXAXAXAXAXAXAXAXAXAXAXAXAXAXAXAXAXAXAXAXAXAXAXAXAXAXAXAXAXAXAXAXAXAXAXAXAXAXAXAXAXAXAXAXAXAXAXAXAXAX",
"AXAXAXAXAXAXAXAXAXAXAXAXAXAXAXAXAXAXAXAXAXAXAXAXAXAXAXAXAXAXAXAXAXAXAXAXAXAXAXAXAXAXAXAXAXAXAXAXAXAXAXAXAXAXAXAXAXAXAXAXAXAXAXAXAXAXAXAXAXAXAXAXAXAXAXAXAXAXAXAXAXAXAXAXAXAXAXAXAXAXAXAXAXAXAXAXAXAXAXAXAXAXAXAXAXAXAXAXAXAXAXBXzX8                                                                                                                                                 8 zXBXAXAXAXAXAXAXAXAXAXAXAXAXAXAXAXAXAXAXAXAXAXAXAXAXAXAXAXAXAXAXAXAXAXAXAXAXAXAXAXAXAXAXAXAXAXAXAXAXAXAXAXAXAXAXAXAXAXAXAXAXAXAXAXAXAXAXAXAXAXAXAXAXAXAXAXAXAXAXAXAXAXAXAXAXAXAXAXAXAXAXAXAXAXAXAXAXAXAXAXAXAXAXAXAXAXAXAXAXAXAXAX",
"AXAXAXAXAXAXAXAXAXAXAXAXAXAXAXAXAXAXAXAXAXAXAXAXAXAXAXAXAXAXAXAXAXAXAXAXAXAXAXAXAXAXAXAXAXAXAXAXAXAXAXAXAXAXAXAXAXAXAXAXAXAXAXAXAXAXAXAXAXAXAXAXAXAXAXAXAXAXAXAXAXAXAXAXAXAXAXAXAXAXAXAXAXAXAXAXAXAXAXAXAXAXAXAXAXAXAXAXAXAXAXBXzX8                                                                                                                                                 8 zXBXAXAXAXAXAXAXAXAXAXAXAXAXAXAXAXAXAXAXAXAXAXAXAXAXAXAXAXAXAXAXAXAXAXAXAXAXAXAXAXAXAXAXAXAXAXAXAXAXAXAXAXAXAXAXAXAXAXAXAXAXAXAXAXAXAXAXAXAXAXAXAXAXAXAXAXAXAXAXAXAXAXAXAXAXAXAXAXAXAXAXAXAXAXAXAXAXAXAXAXAXAXAXAXAXAXAXAXAXAXAXAX",
"AXAXAXAXAXAXAXAXAXAXAXAXAXAXAXAXAXAXAXAXAXAXAXAXAXAXAXAXAXAXAXAXAXAXAXAXAXAXAXAXAXAXAXAXAXAXAXAXAXAXAXAXAXAXAXAXAXAXAXAXAXAXAXAXAXAXAXAXAXAXAXAXAXAXAXAXAXAXAXAXAXAXAXAXAXAXAXAXAXAXAXAXAXAXAXAXAXAXAXAXAXAXAXAXAXAXAXAXAXAXAXMX5.8                                                                                                                                                 8 5.MXAXAXAXAXAXAXAXAXAXAXAXAXAXAXAXAXAXAXAXAXAXAXAXAXAXAXAXAXAXAXAXAXAXAXAXAXAXAXAXAXAXAXAXAXAXAXAXAXAXAXAXAXAXAXAXAXAXAXAXAXAXAXAXAXAXAXAXAXAXAXAXAXAXAXAXAXAXAXAXAXAXAXAXAXAXAXAXAXAXAXAXAXAXAXAXAXAXAXAXAXAXAXAXAXAXAXAXAXAXAXAX",
"AXAXAXAXAXAXAXAXAXAXAXAXAXAXAXAXAXAXAXAXAXAXAXAXAXAXAXAXAXAXAXAXAXAXAXAXAXAXAXAXAXAXAXAXAXAXAXAXAXAXAXAXAXAXAXAXAXAXAXAXAXAXAXAXAXAXAXAXAXAXAXAXAXAXAXAXAXAXAXAXAXAXAXZXVXBXMXmXMXMXMXMXMXMXMXMXMXMXMXMXMXMXMXMXMXMXMXMXMXMXMXbX[ r : - - : : : : : : : : : : : : : : : : : : : : : : : : : : : : : : : : : : : : : : : : : : : : : : : : : : : : : : : : : : : : : : : : : : - - : r [ bXMXMXMXMXMXMXMXMXMXMXMXMXMXMXMXMXMXMXMXMXMXMXMXMXMXMXMXMXMXMXMXMXmXmXMXBXCXAXAXAXAXAXAXAXAXAXAXAXAXAXAXAXAXAXAXAXAXAXAXAXAXAXAXAXAXAXAXAXAXAXAXAXAXAXAXAXAXAXAXAXAXAXAXAXAXAXAXAXAXAXAXAXAXAXAXAXAXAXAXAXAXAXAXAXAXAXAXAXAXAXAX",
"AXAXAXAXAXAXAXAXAXAXAXAXAXAXAXAXAXAXAXAXAXAXAXAXAXAXAXAXAXAXAXAXAXAXAXAXAXAXAXAXAXAXAXAXAXAXAXAXAXAXAXAXAXAXAXAXAXAXAXAXAXAXAXAXAXAXAXAXAXAXAXAXAXAXAXAXAXAXAXAXAXAXAXVXnXxX{ { { { { { { { { { { { { { { { { { { { { { { { { [ ' C M M M M M M M M M M M M M M M M M M M M M M M M M M M M M M M M M M M M M M M M M M M M M M M M M M M M M M M M M M M M M M M M M M M M M M M M C ' [ { { { { { { { { { { { { { { { { { { { { { { { { { { { { { { { { { { } vXBXZXAXAXAXAXAXAXAXAXAXAXAXAXAXAXAXAXAXAXAXAXAXAXAXAXAXAXAXAXAXAXAXAXAXAXAXAXAXAXAXAXAXAXAXAXAXAXAXAXAXAXAXAXAXAXAXAXAXAXAXAXAXAXAXAXAXAXAXAXAXAXAXAXAX",
"AXAXAXAXAXAXAXAXAXAXAXAXAXAXAXAXAXAXAXAXAXAXAXAXAXAXAXAXAXAXAXAXAXAXAXAXAXAXAXAXAXAXAXAXAXAXAXAXAXAXAXAXAXAXAXAXAXAXAXAXAXAXAXAXAXAXAXAXAXAXAXAXAXAXAXAXAXAXAXAXAXAXAXBXxX( 7 = 7 7 7 7 7 7 7 7 7 7 7 7 7 7 7 7 7 7 7 7 7 7 7 9 M o.#.$.#.#.#.#.#.#.#.#.#.#.#.#.#.#.#.#.#.#.#.#.#.#.#.#.#.#.#.#.#.#.#.#.#.#.#.#.#.#.#.#.#.#.#.#.#.#.#.#.#.#.#.#.#.#.#.#.#.#.#.#.#.#.#.#.#.#.#.$.$.#.o.M 9 7 7 7 7 7 7 7 7 7 7 7 7 7 7 7 7 7 7 7 7 7 7 7 7 7 7 7 7 7 7 7 7 7 7 0 ] nXZXAXAXAXAXAXAXAXAXAXAXAXAXAXAXAXAXAXAXAXAXAXAXAXAXAXAXAXAXAXAXAXAXAXAXAXAXAXAXAXAXAXAXAXAXAXAXAXAXAXAXAXAXAXAXAXAXAXAXAXAXAXAXAXAXAXAXAXAXAXAXAXAXAX",
"AXAXAXAXAXAXAXAXAXAXAXAXAXAXAXAXAXAXAXAXAXAXAXAXAXAXAXAXAXAXAXAXAXAXAXAXAXAXAXAXAXAXAXAXAXAXAXAXAXAXAXAXAXAXAXAXAXAXAXAXAXAXAXAXAXAXAXAXAXAXAXAXAXAXAXAXAXAXAXAXAXAXAXMX{ 7                                                   - v #.T./.T.T.T.T.T.T.T.T.T.T.T.T.T.T.T.T.T.T.T.T.T.T.T.T.T.T.T.T.T.T.T.T.T.T.T.T.T.T.T.T.T.T.T.T.T.T.T.T.T.T.T.T.T.T.T.T.T.T.T.T.T.T.T.T.T.T.T.T./.T.#.v -                                                                     O _ bXCXAXAXAXAXAXAXAXAXAXAXAXAXAXAXAXAXAXAXAXAXAXAXAXAXAXAXAXAXAXAXAXAXAXAXAXAXAXAXAXAXAXAXAXAXAXAXAXAXAXAXAXAXAXAXAXAXAXAXAXAXAXAXAXAXAXAXAXAXAXAXAXAXAX",
"AXAXAXAXAXAXAXAXAXAXAXAXAXAXAXAXAXAXAXAXAXAXAXAXAXAXAXAXAXAXAXAXAXAXAXAXAXAXAXAXAXAXAXAXAXAXAXAXAXAXAXAXAXAXAXAXAXAXAXAXAXAXAXAXAXAXAXAXAXAXAXAXAXAXAXAXAXAXAXAXAXAXAXmX{ =                                                   $ v #.E././.E.E.E.E.E.E.E.E.E.E.E.E.E.E.E.E.E.E.E.E.E.E.E.E.E.E.E.E.E.E.E.E.E.E.E.E.E.E.E.E.E.E.E.E.E.E.E.E.E.E.E.E.E.E.E.E.E.E.E.E.E.E.E.E.E.E././.E.#.v @                                                                     O ( bXCXAXAXAXAXAXAXAXAXAXAXAXAXAXAXAXAXAXAXAXAXAXAXAXAXAXAXAXAXAXAXAXAXAXAXAXAXAXAXAXAXAXAXAXAXAXAXAXAXAXAXAXAXAXAXAXAXAXAXAXAXAXAXAXAXAXAXAXAXAXAXAXAXAX",
"AXAXAXAXAXAXAXAXAXAXAXAXAXAXAXAXAXAXAXAXAXAXAXAXAXAXAXAXAXAXAXAXAXAXAXAXAXAXAXAXAXAXAXAXAXAXAXAXAXAXAXAXAXAXAXAXAXAXAXAXAXAXAXAXAXAXAXAXAXAXAXAXAXAXAXAXAXAXAXAXAXAXAXMX{ 7                                                   - v #.T./.T.T.T.T.T.T.T.T.T.T.T.T.T.T.T.T.T.T.T.T.T.T.T.T.T.T.T.T.T.T.T.T.T.T.T.T.T.T.T.T.T.T.T.T.T.T.T.T.T.T.T.T.T.T.T.T.T.T.T.T.T.T.T.T.T.T.T.T./.T.#.v -                                                                     * _ bXCXAXAXAXAXAXAXAXAXAXAXAXAXAXAXAXAXAXAXAXAXAXAXAXAXAXAXAXAXAXAXAXAXAXAXAXAXAXAXAXAXAXAXAXAXAXAXAXAXAXAXAXAXAXAXAXAXAXAXAXAXAXAXAXAXAXAXAXAXAXAXAXAXAX",
"AXAXAXAXAXAXAXAXAXAXAXAXAXAXAXAXAXAXAXAXAXAXAXAXAXAXAXAXAXAXAXAXAXAXAXAXAXAXAXAXAXAXAXAXAXAXAXAXAXAXAXAXAXAXAXAXAXAXAXAXAXAXAXAXAXAXAXAXAXAXAXAXAXAXAXAXAXAXAXAXAXAXAXMX{ 7                                                   - v #.I./.T.I.I.I.I.I.I.I.I.I.I.I.I.I.I.I.I.I.I.I.I.I.I.I.I.I.I.I.I.I.I.I.I.I.I.I.I.I.I.I.I.I.I.I.I.I.I.I.I.I.I.I.I.I.I.I.I.I.I.I.I.I.I.I.I.I.I.T.E.T.#.v -                                                                     * _ bXZXAXAXAXAXAXAXAXAXAXAXAXAXAXAXAXAXAXAXAXAXAXAXAXAXAXAXAXAXAXAXAXAXAXAXAXAXAXAXAXAXAXAXAXAXAXAXAXAXAXAXAXAXAXAXAXAXAXAXAXAXAXAXAXAXAXAXAXAXAXAXAXAXAX",
"AXAXAXAXAXAXAXAXAXAXAXAXAXAXAXAXAXAXAXAXAXAXAXAXAXAXAXAXAXAXAXAXAXAXAXAXAXAXAXAXAXAXAXAXAXAXAXAXAXAXAXAXAXAXAXAXAXAXAXAXAXAXAXAXAXAXAXAXAXAXAXAXAXAXAXAXAXAXAXAXAXAXAXMX} 7                                                   @ v @.I./.T.I.I.I.I.I.I.I.I.I.I.I.I.I.I.I.I.I.I.I.I.I.I.I.I.I.I.I.I.I.I.I.I.I.I.I.I.I.I.I.I.I.I.I.I.I.I.I.I.I.I.I.I.I.I.I.I.I.I.I.I.I.I.I.I.I.I.T.E.T.@.v @                                                                     * _ nXZXAXAXAXAXAXAXAXAXAXAXAXAXAXAXAXAXAXAXAXAXAXAXAXAXAXAXAXAXAXAXAXAXAXAXAXAXAXAXAXAXAXAXAXAXAXAXAXAXAXAXAXAXAXAXAXAXAXAXAXAXAXAXAXAXAXAXAXAXAXAXAXAXAX",
"AXAXAXAXAXAXAXAXAXAXAXAXAXAXAXAXAXAXAXAXAXAXAXAXAXAXAXAXAXAXAXAXAXAXAXAXAXAXAXAXAXAXAXAXAXAXAXAXAXAXAXAXAXAXAXAXAXAXAXAXAXAXAXAXAXAXAXAXAXAXAXAXAXAXAXAXAXAXAXAXAXAXAXMX{ 7                                                   $ v @.I./.T.I.I.I.I.I.I.I.I.I.I.I.I.I.I.I.I.I.I.I.I.I.I.I.I.I.I.I.I.I.I.I.I.I.I.I.I.I.I.I.I.I.I.I.I.I.I.I.I.I.I.I.I.I.I.I.I.I.I.I.I.I.I.I.I.I.I.T./.I.@.v $                                                                     * _ bXZXAXAXAXAXAXAXAXAXAXAXAXAXAXAXAXAXAXAXAXAXAXAXAXAXAXAXAXAXAXAXAXAXAXAXAXAXAXAXAXAXAXAXAXAXAXAXAXAXAXAXAXAXAXAXAXAXAXAXAXAXAXAXAXAXAXAXAXAXAXAXAXAXAX",
"AXAXAXAXAXAXAXAXAXAXAXAXAXAXAXAXAXAXAXAXAXAXAXAXAXAXAXAXAXAXAXAXAXAXAXAXAXAXAXAXAXAXAXAXAXAXAXAXAXAXAXAXAXAXAXAXAXAXAXAXAXAXAXAXAXZXVXVXVXVXVXVXVXVXVXVXVXVXVXVXVXCXBXnX] 7               X + @ @ @ @ @ @ @ @ @ @ @ @ @ @ + @ , B #.I.T.T.I.I.I.I.I.I.I.I.I.I.I.I.I.I.I.I.I.I.I.I.I.I.I.I.I.I.I.I.I.I.I.I.I.I.I.I.I.I.I.I.I.I.I.I.I.I.I.I.I.I.I.I.I.I.I.I.I.I.I.I.I.I.I.I.I.I.T.T.I.#.B , @ + @ @ @ @ @ @ @ @ @ @ @ @ @ @ @ @ @ @ @ @ @ @ @ + X               * ( cXBXCXVXVXVXVXVXCXZXAXAXAXAXAXAXAXAXAXAXAXAXAXAXAXAXAXAXAXAXAXAXAXAXAXAXAXAXAXAXAXAXAXAXAXAXAXAXAXAXAXAXAXAXAXAXAXAXAXAXAXAXAXAXAXAXAXAXAXAXAXAXAXAXAX",
"AXAXAXAXAXAXAXAXAXAXAXAXAXAXAXAXAXAXAXAXAXAXAXAXAXAXAXAXAXAXAXAXAXAXAXAXAXAXAXAXAXAXAXAXAXAXAXAXAXAXAXAXAXAXAXAXAXAXAXAXAXAXAXAXZXMXbXcXcXcXcXcXcXcXcXcXcXcXcXcXcXcXcX{ ( *             X - 2 r t r r r r r r r r r r r r e r M ..2.I.T.I.I.I.I.I.I.I.I.I.I.I.I.I.I.I.I.I.I.I.I.I.I.I.I.I.I.I.I.I.I.I.I.I.I.I.I.I.I.I.I.I.I.I.I.I.I.I.I.I.I.I.I.I.I.I.I.I.I.I.I.I.I.I.I.I.I.I.I.T.I.2...M r e r r r r r r r r r r r r r r r r r r r r r t r w , +             O 0 ] xXcXcXcXcXcXcXbXMXZXAXAXAXAXAXAXAXAXAXAXAXAXAXAXAXAXAXAXAXAXAXAXAXAXAXAXAXAXAXAXAXAXAXAXAXAXAXAXAXAXAXAXAXAXAXAXAXAXAXAXAXAXAXAXAXAXAXAXAXAXAXAXAXAX",
"AXAXAXAXAXAXAXAXAXAXAXAXAXAXAXAXAXAXAXAXAXAXAXAXAXAXAXAXAXAXAXAXAXAXAXAXAXAXAXAXAXAXAXAXAXAXAXAXAXAXAXAXAXAXAXAXAXAXAXAXAXAXAXAXVXbX] ( 0 0 ( ( ( ( ( ( ( ( ( ( ( ( ( 0 = O             + 2 B ..O.o.o.o.o.o.o.o.o.o.o.o.o.X.o.O.$.L.I.T.I.I.I.I.I.I.I.I.I.I.I.I.I.I.I.I.I.I.I.I.I.I.I.I.I.I.I.I.I.I.I.I.I.I.I.I.I.I.I.I.I.I.I.I.I.I.I.I.I.I.I.I.I.I.I.I.I.I.I.I.I.I.I.I.I.I.I.I.T.I.L.$.O.o.X.o.o.o.o.o.o.o.o.o.o.o.o.o.o.o.o.o.o.o.o.o.O.o.A r @               * 8 0 ( ( ( 0 0 ( ] bXVXAXAXAXAXAXAXAXAXAXAXAXAXAXAXAXAXAXAXAXAXAXAXAXAXAXAXAXAXAXAXAXAXAXAXAXAXAXAXAXAXAXAXAXAXAXAXAXAXAXAXAXAXAXAXAXAXAXAXAXAXAXAXAXAX",
"AXAXAXAXAXAXAXAXAXAXAXAXAXAXAXAXAXAXAXAXAXAXAXAXAXAXAXAXAXAXAXAXAXAXAXAXAXAXAXAXAXAXAXAXAXAXAXAXAXAXAXAXAXAXAXAXAXAXAXAXAXAXAXAXBXxX0 O     O O O   O O O O   O   O O O                 @ r ..H.I.P.L.L.L.L.L.L.L.L.L.L.L.L.L.P.P.I.I.I.I.I.I.I.I.I.I.I.I.I.I.I.I.I.I.I.I.I.I.I.I.I.I.I.I.I.I.I.I.I.I.I.I.I.I.I.I.I.I.I.I.I.I.I.I.I.I.I.I.I.I.I.I.I.I.I.I.I.I.I.I.I.I.I.I.I.I.I.I.I.I.P.P.L.L.L.L.L.L.L.L.L.L.L.L.L.L.L.L.L.L.L.L.L.L.P.I.P.#.M :                   O O O .     O 0 xXBXAXAXAXAXAXAXAXAXAXAXAXAXAXAXAXAXAXAXAXAXAXAXAXAXAXAXAXAXAXAXAXAXAXAXAXAXAXAXAXAXAXAXAXAXAXAXAXAXAXAXAXAXAXAXAXAXAXAXAXAXAXAXAXAX",
"AXAXAXAXAXAXAXAXAXAXAXAXAXAXAXAXAXAXAXAXAXAXAXAXAXAXAXAXAXAXAXAXAXAXAXAXAXAXAXAXAXAXAXAXAXAXAXAXAXAXAXAXAXAXAXAXAXAXAXAXAXAXAXAXBXzX0                                                   @ t O.I./././././././././././././././.T.T.I.I.I.I.I.I.I.I.I.I.I.I.I.I.I.I.I.I.I.I.I.I.I.I.I.I.I.I.I.I.I.I.I.I.I.I.I.I.I.I.I.I.I.I.I.I.I.I.I.I.I.I.I.I.I.I.I.I.I.I.I.I.I.I.I.I.I.I.I.I.I.I.I.I.T.T./././././././././././././././././././././././././.$.B ,                                 0 zXBXAXAXAXAXAXAXAXAXAXAXAXAXAXAXAXAXAXAXAXAXAXAXAXAXAXAXAXAXAXAXAXAXAXAXAXAXAXAXAXAXAXAXAXAXAXAXAXAXAXAXAXAXAXAXAXAXAXAXAXAXAXAXAXAX",
"AXAXAXAXAXAXAXAXAXAXAXAXAXAXAXAXAXAXAXAXAXAXAXAXAXAXAXAXAXAXAXAXAXAXAXAXAXAXAXAXAXAXAXAXAXAXAXAXAXAXAXAXAXAXAXAXAXAXAXAXAXAXAXAXBXxX0                                                   @ r o.P././.T.T.T.T.T.T.T.T.T.T.T.T.T.T.T.I.I.I.I.I.I.I.I.I.I.I.I.I.I.I.I.I.I.I.I.I.I.I.I.I.I.I.I.I.I.I.I.I.I.I.I.I.I.I.I.I.I.I.I.I.I.I.I.I.I.I.I.I.I.I.I.I.I.I.I.I.I.I.I.I.I.I.I.I.I.I.I.I.I.T.T.T.T.T.T.T.T.T.T.T.T.T.T.T.T.T.T.T.T.T.T.T.T.T./.T.$.M :                                 0 xXBXAXAXAXAXAXAXAXAXAXAXAXAXAXAXAXAXAXAXAXAXAXAXAXAXAXAXAXAXAXAXAXAXAXAXAXAXAXAXAXAXAXAXAXAXAXAXAXAXAXAXAXAXAXAXAXAXAXAXAXAXAXAXAXAX",
"AXAXAXAXAXAXAXAXAXAXAXAXAXAXAXAXAXAXAXAXAXAXAXAXAXAXAXAXAXAXAXAXAXAXAXAXAXAXAXAXAXAXAXAXAXAXAXAXAXAXAXAXAXAXAXAXAXAXAXAXAXAXAXAXBXxX0                                                   @ r o.L./.T.I.I.I.I.I.I.I.I.I.I.I.I.I.I.I.I.I.I.I.I.I.I.I.I.I.I.I.I.I.I.I.I.I.I.I.I.I.I.I.I.I.I.I.I.I.I.I.I.I.I.I.I.I.I.I.I.I.I.I.I.I.I.I.I.I.I.I.I.I.I.I.I.I.I.I.I.I.I.I.I.I.I.I.I.I.I.I.I.I.I.I.I.I.I.I.I.I.I.I.I.I.I.I.I.I.I.I.I.I.I.I.I.I.T.E.T.#.M :                                 0 xXBXAXAXAXAXAXAXAXAXAXAXAXAXAXAXAXAXAXAXAXAXAXAXAXAXAXAXAXAXAXAXAXAXAXAXAXAXAXAXAXAXAXAXAXAXAXAXAXAXAXAXAXAXAXAXAXAXAXAXAXAXAXAXAXAX",
"AXAXAXAXAXAXAXAXAXAXAXAXAXAXAXAXAXAXAXAXAXAXAXAXAXAXAXAXAXAXAXAXAXAXAXAXAXAXAXAXAXAXAXAXAXAXAXAXAXAXAXAXAXAXAXAXAXAXAXAXAXAXAXAXBXxX0                                                   + r o.L./.T.I.I.I.I.I.I.I.I.I.I.I.I.I.I.I.I.I.I.I.I.I.I.I.I.I.I.I.I.I.I.I.I.I.I.I.I.I.I.I.I.I.I.I.I.I.I.I.I.I.I.I.I.I.I.I.I.I.I.I.I.I.I.I.I.I.I.I.I.I.I.I.I.I.I.I.I.I.I.I.I.I.I.I.I.I.I.I.I.I.I.I.I.I.I.I.I.I.I.I.I.I.I.I.I.I.I.I.I.I.I.I.I.I.T.E.T.#.M -                                 0 xXBXAXAXAXAXAXAXAXAXAXAXAXAXAXAXAXAXAXAXAXAXAXAXAXAXAXAXAXAXAXAXAXAXAXAXAXAXAXAXAXAXAXAXAXAXAXAXAXAXAXAXAXAXAXAXAXAXAXAXAXAXAXAXAXAX",
"AXAXAXAXAXAXAXAXAXAXAXAXAXAXAXAXAXAXAXAXAXAXAXAXAXAXAXAXAXAXAXAXAXAXAXAXAXAXAXAXAXAXAXAXAXAXAXAXAXAXAXAXAXAXAXAXAXAXAXAXAXAXAXAXVXcX0                                                   + r X.L./.T.I.I.I.I.I.I.I.I.I.I.I.I.I.I.I.I.I.I.I.I.I.I.I.I.I.I.I.I.I.I.I.I.I.I.I.I.I.I.I.I.I.I.I.I.I.I.I.I.I.I.I.I.I.I.I.I.I.I.I.I.I.I.I.I.I.I.I.I.I.I.I.I.I.I.I.I.I.I.I.I.I.I.I.I.I.I.I.I.I.I.I.I.I.I.I.I.I.I.I.I.I.I.I.I.I.I.I.I.I.I.I.I.I.T./.T.#.M -                                 0 xXVXAXAXAXAXAXAXAXAXAXAXAXAXAXAXAXAXAXAXAXAXAXAXAXAXAXAXAXAXAXAXAXAXAXAXAXAXAXAXAXAXAXAXAXAXAXAXAXAXAXAXAXAXAXAXAXAXAXAXAXAXAXAXAXAX",
"AXAXAXAXAXAXAXAXAXAXAXAXAXAXAXAXAXAXAXAXAXAXAXAXAXAXAXAXAXAXAXAXAXAXAXAXAXAXAXAXAXAXAXAXAXAXAXAXAXAXAXAXAXAXAXAXAXZXZXZXZXZXAXZXBXzX0                   . X X . . . . . . . . . . .     @ t o.L.E.T.I.I.I.I.I.I.I.I.I.I.I.I.I.I.I.I.I.I.I.I.I.I.I.I.I.I.I.I.I.I.I.I.I.I.I.I.I.I.I.I.I.I.I.I.I.I.I.I.I.I.I.I.I.I.I.I.I.I.I.I.T.Y.Y.Y.Y.Y.Y.Y.Y.Y.Y.Y.I.I.I.I.I.I.I.I.I.I.I.I.I.I.I.I.I.I.I.I.I.I.I.I.I.I.I.I.I.I.I.I.I.I.I.I.I.I.I.I.I.T.E.T.#.M , .                             X 0 zXBXZXAXZXZXZXZXZXZXZXZXZXZXZXZXZXZXZXAXAXAXAXAXAXAXAXAXAXAXAXAXAXAXAXAXAXAXAXAXAXAXAXAXAXAXAXAXAXAXAXAXAXAXAXAXAXAXAXAXAXAXAXAXAXAX",
"AXAXAXAXAXAXAXAXAXAXAXAXAXAXAXAXAXAXAXAXAXAXAXAXAXAXAXAXAXAXAXAXAXAXAXAXAXAXAXAXAXAXAXAXAXAXAXAXAXAXAXAXAXAXAXCXBXnXnXnXnXnXnXnXcX] 8               + - , 2 2 1 1 1 1 1 1 1 1 1 1 1 , 1 w C #.P.T.T.I.I.I.I.I.I.I.I.I.I.I.I.I.I.I.I.I.I.I.I.I.I.I.I.I.I.I.I.I.I.I.I.I.I.I.I.I.I.I.I.I.I.I.I.I.I.I.I.I.I.I.I.I.I.I.I.I.I.I.T.Y.W.!.!.!.!.!.!.!.!.W.W.T.I.I.I.I.I.I.I.I.I.I.I.I.I.I.I.I.I.I.I.I.I.I.I.I.I.I.I.I.I.I.I.I.I.I.I.I.I.I.I.I.T.T.T.$.Z 2 - @ @ @ @ $ @ @ @ @ @ @ @ @ $ - 0 [ cXnXnXnXnXnXnXnXnXnXnXnXnXnXnXnXnXMXVXAXAXAXAXAXAXAXAXAXAXAXAXAXAXAXAXAXAXAXAXAXAXAXAXAXAXAXAXAXAXAXAXAXAXAXAXAXAXAXAXAXAXAXAXAXAX",
"AXAXAXAXAXAXAXAXAXAXAXAXAXAXAXAXAXAXAXAXAXAXAXAXAXAXAXAXAXAXAXAXAXAXAXAXAXAXAXAXAXAXAXAXAXAXAXAXAXAXAXAXAXAXAXBXvX{ _ _ _ ] ] ] _ 0 *             . : r C A A A A A A A A A A A A Z Z A A O.2.P.T.T.I.I.I.I.I.I.I.I.I.I.I.I.I.I.I.I.I.I.I.I.I.I.I.I.I.I.I.I.I.I.I.I.I.I.I.I.I.I.I.I.I.I.I.I.I.I.I.I.I.I.I.I.I.I.I.I.I.I.I.T.W.!.iXsXaXsXsXaXsXiX!.W.Y.I.I.I.I.I.I.I.I.I.I.I.I.I.I.I.I.I.I.I.I.I.I.I.I.I.I.I.I.I.I.I.I.I.I.I.I.I.I.I.I.I.T.I.2...v w 2 w w w w w w w w w w w q q w r m _ ] ] ` _ _ _ _ _ _ _ _ _ _ _ _ ] xXmXZXAXAXAXAXAXAXAXAXAXAXAXAXAXAXAXAXAXAXAXAXAXAXAXAXAXAXAXAXAXAXAXAXAXAXAXAXAXAXAXAXAXAXAXAXAX",
"AXAXAXAXAXAXAXAXAXAXAXAXAXAXAXAXAXAXAXAXAXAXAXAXAXAXAXAXAXAXAXAXAXAXAXAXAXAXAXAXAXAXAXAXAXAXAXAXAXAXAXAXAXAXAXmX{ 0 * O * = = = * O               X 2 Z #.H.H.2.H.H.H.2.2.2.2.2.2.2.2.2.H.H.P.I.I.I.I.I.I.I.I.I.I.I.I.I.I.I.I.I.I.I.I.I.I.I.I.I.I.I.I.I.I.I.I.I.I.I.I.I.I.I.I.I.I.I.I.I.I.I.I.I.I.I.I.I.I.I.I.I.I.I.I.I.I.Y.Q.iXdXhXhXhXhXhXhXdXiXQ.Y.I.I.I.I.I.I.I.I.I.I.I.I.I.I.I.I.I.I.I.I.I.I.I.I.I.I.I.I.I.I.I.I.I.I.I.I.I.I.I.I.I.T.I.H.o.Z v v v v v v v v v v v v v v M v r 2 ; * * * = = = = = = = = = = * * 7 _ bXCXAXAXAXAXAXAXAXAXAXAXAXAXAXAXAXAXAXAXAXAXAXAXAXAXAXAXAXAXAXAXAXAXAXAXAXAXAXAXAXAXAXAXAXAXAX",
"AXAXAXAXAXAXAXAXAXAXAXAXAXAXAXAXAXAXAXAXAXAXAXAXAXAXAXAXAXAXAXAXAXAXAXAXAXAXAXAXAXAXAXAXAXAXAXAXAXAXAXAXAXAXAXnX] =                               X 2 A L././.T.T.T.T.T.T.T.T.T.T.T.T.T.T.T.I.I.I.I.I.I.I.I.I.I.I.I.I.I.I.I.I.I.I.I.I.I.I.I.I.I.I.I.I.I.I.I.I.I.I.I.I.I.I.I.I.I.I.I.I.I.I.I.I.I.I.I.I.I.I.I.I.I.I.I.I.I.I.Y.Q.sXdXkXkXkXkXkXkXhXsX!.Y.I.I.I.I.I.I.I.I.I.I.I.I.I.I.I.I.I.I.I.I.I.I.I.I.I.I.I.I.I.I.I.I.I.I.I.I.I.I.I.I.I.T.I.H.O.A B M M B B B B B B B B B B C C M t , .                                 ( cXCXAXAXAXAXAXAXAXAXAXAXAXAXAXAXAXAXAXAXAXAXAXAXAXAXAXAXAXAXAXAXAXAXAXAXAXAXAXAXAXAXAXAXAXAXAX",
"AXAXAXAXAXAXAXAXAXAXAXAXAXAXAXAXAXAXAXAXAXAXAXAXAXAXAXAXAXAXAXAXAXAXAXAXAXAXAXAXAXAXAXAXAXAXAXAXAXAXAXAXAXAXAXnX] =                               X w ..L././.T.T./.T.T.T.T.T.T.T.T.T.T.T.T.T.I.I.I.I.I.I.I.I.I.I.I.I.I.I.I.I.I.I.I.I.I.I.I.I.I.I.I.I.I.I.I.I.I.I.I.I.I.I.I.I.I.I.I.I.I.I.I.I.I.I.I.I.I.I.I.I.I.I.I.I.I.I.Y.Q.sXdXkXkXkXkXkXkXhXsX!.Y.I.I.I.I.I.I.I.I.I.I.I.I.I.I.I.I.I.I.I.I.I.I.I.I.I.I.I.I.I.I.I.I.I.I.I.I.I.I.I.I.I.T.I.H.O.A B M B B B B B B B B B B B C C B t , .                                 ( cXCXAXAXAXAXAXAXAXAXAXAXAXAXAXAXAXAXAXAXAXAXAXAXAXAXAXAXAXAXAXAXAXAXAXAXAXAXAXAXAXAXAXAXAXAXAX",
"AXAXAXAXAXAXAXAXAXAXAXAXAXAXAXAXAXAXAXAXAXAXAXAXAXAXAXAXAXAXAXAXAXAXAXAXAXAXAXAXAXAXAXAXAXAXAXAXAXAXAXAXAXAXAXnX] =                               X 2 A H.E.T.I.I.I.I.I.I.I.I.I.I.I.I.I.I.I.I.I.I.I.I.I.I.I.I.I.I.I.I.I.I.I.I.I.I.I.I.I.I.I.I.I.I.I.I.I.I.I.I.I.I.I.I.I.I.I.I.I.I.I.I.I.I.I.I.I.I.I.I.I.I.I.I.I.I.I.I.I.I.Y.Q.iXdXjXkXjXkXkXkXhXsX!.Y.I.I.I.I.I.I.I.I.I.I.I.I.I.I.I.I.I.I.I.I.I.I.I.I.I.I.I.I.I.I.I.I.I.I.I.I.I.I.I.I.I.T.I.H.O.A M M M M M M M M M M M M M B V M t , X                               O ( vXCXAXAXAXAXAXAXAXAXAXAXAXAXAXAXAXAXAXAXAXAXAXAXAXAXAXAXAXAXAXAXAXAXAXAXAXAXAXAXAXAXAXAXAXAXAX",
"AXAXAXAXAXAXAXAXAXAXAXAXAXAXAXAXAXAXAXAXAXAXAXAXAXAXAXAXAXAXAXAXAXAXAXAXAXAXAXAXAXAXAXAXAXAXAXAXAXAXAXAXAXAXAXmX] =                               X 2 A H.T.T.I.I.I.I.I.I.I.I.I.I.I.I.I.I.I.I.I.I.I.I.I.I.I.I.I.I.I.I.I.I.I.I.I.I.I.I.I.I.I.I.I.I.I.I.I.I.I.I.I.I.I.I.I.I.I.I.I.I.I.I.I.I.I.I.I.I.I.I.I.I.I.I.I.I.I.I.I.~.T.Q.iXdXjXkXjXkXkXkXpXsXQ.Y.~.I.I.I.I.I.I.I.I.I.I.I.I.I.I.I.I.I.I.I.I.I.I.I.I.I.I.I.I.I.I.I.I.I.I.I.I.I.I.I.I.T.I.H.O.A M M M M M M M M M M M M M B V M t , X                               O ( vXCXAXAXAXAXAXAXAXAXAXAXAXAXAXAXAXAXAXAXAXAXAXAXAXAXAXAXAXAXAXAXAXAXAXAXAXAXAXAXAXAXAXAXAXAXAX",
"AXAXAXAXAXAXAXAXAXAXAXAXAXAXAXAXAXAXAXAXAXAXAXAXAXAXAXAXAXAXAXAXAXAXAXAXAXAXAXAXAXAXAXAXAXAXAXAXAXAXAXAXAXAXAXmX] 7                                 2 A H.T.T.I.I.I.I.I.I.I.I.I.I.I.I.I.I.I.I.I.I.I.I.I.I.I.I.I.I.I.I.I.I.I.I.I.I.I.I.I.I.I.I.I.I.I.I.I.I.I.I.I.I.I.I.I.I.I.I.I.I.I.I.I.I.I.I.I.I.I.I.I.I.I.I.I.I.I.I.~.~.I.Q.iXdXjXkXjXjXkXjXdXsXQ.Y.~.I.I.I.I.I.I.I.I.I.I.I.I.I.I.I.I.I.I.I.I.I.I.I.I.I.I.I.I.I.I.I.I.I.I.I.I.I.I.I.I.T.I.H.O.A M M M M M M M M M M M M M B V M t , X                               O ( vXZXAXAXAXAXAXAXAXAXAXAXAXAXAXAXAXAXAXAXAXAXAXAXAXAXAXAXAXAXAXAXAXAXAXAXAXAXAXAXAXAXAXAXAXAXAX",
"AXAXAXAXAXAXAXAXAXAXAXAXAXAXAXAXAXAXAXAXAXAXAXAXAXAXAXAXAXAXAXAXAXAXAXAXAXAXAXAXAXAXAXAXAXAXAXAXAXAXAXAXAXAXAXnX] =                               X 2 A H.T.T.I.I.I.I.I.I.I.I.I.I.I.I.I.I.I.I.I.I.I.I.I.I.I.I.I.I.I.I.I.I.I.I.I.I.I.I.I.I.I.I.I.I.I.I.I.I.I.I.I.I.I.I.I.I.I.I.I.I.I.I.I.I.I.I.I.I.I.I.I.I.I.I.I.I.I.I.I.I.Y.Q.iXdXjXkXjXjXkXkXdXsXQ.Y.~.I.I.I.I.I.I.I.I.I.I.I.I.I.I.I.I.I.I.I.I.I.I.I.I.I.I.I.I.I.I.I.I.I.I.I.I.I.I.I.I.T.I.H.O.A M M M M M M M M M M M M M B V M t , +                               O ( vXCXAXAXAXAXAXAXAXAXAXAXAXAXAXAXAXAXAXAXAXAXAXAXAXAXAXAXAXAXAXAXAXAXAXAXAXAXAXAXAXAXAXAXAXAXAX",
"AXAXAXAXAXAXAXAXAXAXAXAXAXAXAXAXAXAXAXAXAXAXAXAXAXAXAXAXAXAXAXAXAXAXAXAXAXAXAXAXAXAXAXAXAXAXCXBXBXBXBXBXBXBXMXcX_ =               + @ - - - - @ @ , t ..H.T.T.I.I.I.I.I.I.I.I.I.I.I.I.I.I.I.I.I.I.I.I.I.I.I.I.I.I.I.I.I.I.I.I.I.I.I.I.I.I.I.I.I.I.I.I.I.I.I.I.I.I.I.I.I.I.I.I.I.I.I.I.I.I.I.I.I.I.I.I.I.Y.Y.W.W.W.W.Q.W.W.Q.!.sXpXjXkXjXjXkXjXdXsX!.Y.I.I.I.I.I.I.I.I.I.I.I.I.I.I.I.I.I.I.I.I.I.I.I.I.I.I.I.I.I.I.I.I.I.I.I.I.I.I.I.I.I.T.I.H.#...A Z Z Z A A Z Z V M M M M M B M v 2 $ + + + + + + + X               O 0 zXnXBXBXBXBXBXBXBXVXZXAXAXAXAXAXAXAXAXAXAXAXAXAXAXAXAXAXAXAXAXAXAXAXAXAXAXAXAXAXAXAXAXAXAXAXAX",
"AXAXAXAXAXAXAXAXAXAXAXAXAXAXAXAXAXAXAXAXAXAXAXAXAXAXAXAXAXAXAXAXAXAXAXAXAXAXAXAXAXAXAXAXAXZXBXvXzX} } zXzXzX} _ 0 *             X , e v M v v v v M A #.L.T.T.I.I.I.I.I.I.I.I.I.I.I.I.I.I.I.I.I.I.I.I.I.I.I.I.I.I.I.I.I.I.I.I.I.I.I.I.I.I.I.I.I.I.I.I.I.I.I.I.I.I.I.I.I.I.I.I.I.I.I.I.I.I.I.I.I.I.T.I.I.Y.W.!.iXiXiXiXiXiXiXsXdXhXjXkXjXjXkXjXdXsX!.Y.I.I.I.I.I.I.I.I.I.I.I.I.I.I.I.I.I.I.I.I.I.I.I.I.I.I.I.I.I.I.I.I.I.I.I.I.I.I.I.I.I.T.I.L.$.@.o.o.o.O.O.O.o...Z B M M M M B M v r 2 , , , 1 1 , , @ X               7 _ { zXzXzX} } } cXnXVXAXAXAXAXAXAXAXAXAXAXAXAXAXAXAXAXAXAXAXAXAXAXAXAXAXAXAXAXAXAXAXAXAXAXAXAX",
"AXAXAXAXAXAXAXAXAXAXAXAXAXAXAXAXAXAXAXAXAXAXAXAXAXAXAXAXAXAXAXAXAXAXAXAXAXAXAXAXAXAXAXAXAXCXnX] 0 7 8 8 8 0 8 7 *               @ w A @.#.#.#.@.#.#.2.H.P.I.I.I.I.I.I.I.I.I.I.I.I.I.I.I.I.I.I.I.I.I.I.I.I.I.I.I.I.I.I.I.I.I.I.I.I.I.I.I.I.I.I.I.I.I.I.I.I.I.I.I.I.I.I.I.I.I.I.I.I.I.I.I.I.I.I.I.T.T.I.I.Y.!.sXdXdXdXdXdXdXdXdXhXhXjXjXjXjXkXjXdXsXQ.Y.I.I.I.I.I.I.I.I.I.I.I.I.I.I.I.I.I.I.I.I.I.I.I.I.I.I.I.I.I.I.I.I.I.I.I.I.I.I.I.I.I.I.I.P.L.H.H.H.H.H.H.H.$.O.A C M M M M M M M v v t t v v v v e , @               O = 8 0 0 8 8 7 8 _ cXBXAXAXAXAXAXAXAXAXAXAXAXAXAXAXAXAXAXAXAXAXAXAXAXAXAXAXAXAXAXAXAXAXAXAXAXAX",
"AXAXAXAXAXAXAXAXAXAXAXAXAXAXAXAXAXAXAXAXAXAXAXAXAXAXAXAXAXAXAXAXAXAXAXAXAXAXAXAXAXAXAXAXAXCXvX( O                               @ v O.P./.T.I.I.T.T.T.T.I.I.I.I.I.I.I.I.I.I.I.I.I.I.I.I.I.I.I.I.I.I.I.I.I.I.I.I.I.I.I.I.I.I.I.I.I.I.I.I.I.I.I.I.I.I.I.I.I.I.I.I.I.I.I.I.I.I.I.I.I.I.I.I.I.I.I.I.T.T.I.I.W.!.aXhXkXjXjXjXjXjXjXjXjXjXjXjXjXkXjXdXsXQ.Y.I.I.I.I.I.I.I.I.I.I.I.I.I.I.I.I.I.I.I.I.I.I.I.I.I.I.I.I.I.I.I.I.I.I.I.I.I.I.I.I.I.I.I.I.I.I.I.I.I.I.T.T.L.#...C M M M M M M M M M M M M M B B v 2 @                                 8 zXBXAXAXAXAXAXAXAXAXAXAXAXAXAXAXAXAXAXAXAXAXAXAXAXAXAXAXAXAXAXAXAXAXAXAXAXAX",
"AXAXAXAXAXAXAXAXAXAXAXAXAXAXAXAXAXAXAXAXAXAXAXAXAXAXAXAXAXAXAXAXAXAXAXAXAXAXAXAXAXAXAXAXAXCXcX(                                 @ v @.T./././././.E.T.T.I.I.I.I.I.I.I.I.I.I.I.I.I.I.I.I.I.I.I.I.I.I.I.I.I.I.I.I.I.I.I.I.I.I.I.I.I.I.I.I.I.I.I.I.I.I.T.I.I.I.I.I.I.I.I.I.I.I.I.I.I.I.I.I.I.I.I.I.I.I.I.I.Y.!.aXhXkXkXkXkXkXkXkXjXjXjXjXjXjXkXjXdXsXQ.Y.I.I.I.I.I.I.I.I.I.I.I.I.I.I.I.I.I.I.I.I.I.I.I.I.I.I.I.I.I.I.I.I.I.I.I.I.I.I.I.I.I.I.I.I.T.T.T.T.T.T.T.T.P.$...C M M M M M M M M B V V V V C C v 2 @                                 7 } BXAXAXAXAXAXAXAXAXAXAXAXAXAXAXAXAXAXAXAXAXAXAXAXAXAXAXAXAXAXAXAXAXAXAXAXAX",
"AXAXAXAXAXAXAXAXAXAXAXAXAXAXAXAXAXAXAXAXAXAXAXAXAXAXAXAXAXAXAXAXAXAXAXAXAXAXAXAXAXAXAXAXAXCXvX( O                               @ v O.I./.T.T.T.T.T.T.I.I.I.I.I.I.I.I.I.I.I.I.I.I.I.I.I.I.I.I.I.I.I.I.I.I.I.I.I.I.I.I.I.I.I.I.I.I.I.I.I.I.I.I.I.I.I.T.T.I.I.I.I.I.I.I.I.I.I.I.T.I.I.I.I.I.I.I.I.I.I.I.I.Y.!.aXhXkXkXjXjXjXjXjXjXjXjXjXjXjXkXjXdXsXQ.Y.I.I.I.I.T.I.I.I.I.I.I.I.I.I.I.I.I.I.I.I.I.I.I.I.I.I.I.I.I.I.I.I.I.I.I.I.I.I.I.I.I.I.I.I.I.I.I.I.I.I.T.T.P.#...C M M M M M M M M M M M M B C B v 2 @                                 8 } BXAXAXAXAXAXAXAXAXAXAXAXAXAXAXAXAXAXAXAXAXAXAXAXAXAXAXAXAXAXAXAXAXAXAXAXAX",
"AXAXAXAXAXAXAXAXAXAXAXAXAXAXAXAXAXAXAXAXAXAXAXAXAXAXAXAXAXAXAXAXAXAXAXAXAXAXAXAXAXAXAXAXAXCXvX( O                               @ v O.P./.T.T.I.I.I.I.I.I.I.I.I.I.I.I.I.I.I.I.I.I.I.I.I.I.I.I.I.I.I.I.I.I.I.I.I.I.I.I.I.I.I.I.I.I.I.I.I.I.I.I.I.T.T.T.T.I.I.I.I.I.I.I.I.I.I.T.I.I.I.I.I.I.I.I.I.I.I.I.I.Y.!.aXhXkXkXjXjXjXjXjXjXjXjXjXjXjXkXjXdXsXQ.Y.I.I.I.I.I.I.I.I.I.I.I.I.I.I.I.I.I.I.I.I.I.I.I.I.I.I.I.I.I.I.I.I.I.I.I.I.I.I.I.I.I.I.I.I.I.I.I.I.I.I.T.T.L.#...C M M M M M M M M M M M M M B B v 2 @                                 8 zXBXAXAXAXAXAXAXAXAXAXAXAXAXAXAXAXAXAXAXAXAXAXAXAXAXAXAXAXAXAXAXAXAXAXAXAXAX",
"AXAXAXAXAXAXAXAXAXAXAXAXAXAXAXAXAXAXAXAXAXAXAXAXAXAXAXAXAXAXAXAXAXAXAXAXAXAXAXAXAXAXAXAXAXCXvX( O                               @ t O.P./.T.T.T.I.I.I.I.I.I.I.I.I.I.I.I.I.I.I.I.I.I.I.I.I.I.I.I.I.I.I.I.I.I.I.I.I.I.I.I.I.I.I.I.I.I.I.I.I.I.I.I.T.T.I.I.I.I.I.I.I.I.I.I.I.I.I.I.I.I.I.I.I.I.I.I.I.I.~.~.Y.!.aXhXkXkXjXjXjXjXjXjXjXjXjXjXjXlXkXpXsXQ.Y.I.I.I.I.I.I.I.I.I.I.I.I.I.I.I.I.I.I.I.I.I.I.I.I.I.I.I.I.I.I.I.I.I.I.I.I.I.I.I.I.I.I.I.I.I.I.I.I.I.I.T.T.L.#...B M M M M M M M M M M M M M V B v 2 @                                 0 zXBXAXAXAXAXAXAXAXAXAXAXAXAXAXAXAXAXAXAXAXAXAXAXAXAXAXAXAXAXAXAXAXAXAXAXAXAX",
"AXAXAXAXAXAXAXAXAXAXAXAXAXAXAXAXAXAXAXAXAXAXAXAXAXAXAXAXAXAXAXAXAXAXAXAXAXAXAXAXAXAXAXAXAXCXvX( O                               @ t O.P./.T.I.I.I.I.I.I.I.I.I.I.I.I.I.I.I.I.I.I.I.I.I.I.I.I.I.I.I.I.I.I.I.I.I.I.I.I.I.I.I.I.I.I.I.I.I.I.I.I.I.I.T.I.I.I.I.I.I.I.I.I.I.I.I.I.I.I.I.I.I.I.I.I.I.I.I.I.I.~.Y.!.aXhXkXkXjXjXjXjXjXjXjXjXjXjXjXkXkXpXsX!.Y.I.I.I.I.I.I.I.I.I.I.I.I.I.I.I.I.I.I.I.I.I.I.I.I.I.I.I.I.I.I.I.I.I.I.I.I.I.I.I.I.I.I.I.I.I.I.I.I.I.I.T.T.L.#...B M M M M M M M M M M M M M V B v 2 @                                 0 zXBXAXAXAXAXAXAXAXAXAXAXAXAXAXAXAXAXAXAXAXAXAXAXAXAXAXAXAXAXAXAXAXAXAXAXAXAX",
"AXAXAXAXAXAXAXAXAXAXAXAXAXAXAXAXAXAXAXAXAXAXAXAXAXAXAXAXAXAXAXAXAXAXAXAXAXAXAXAXAXAXAXAXAXCXvX( O               X + + + + + X + , v @.P.E.T.I.I.I.I.I.I.I.I.I.I.I.I.I.I.I.I.I.I.I.I.I.I.I.I.I.I.I.I.I.I.I.I.I.I.I.I.I.I.I.I.I.I.I.I.I.I.I.I.I.I.T.Y.K.K.K.K.K.K.K.K.K.W.W.W.W.W.W.W.W.W.W.W.W.W.W.W.W.W.W.!.aXhXkXjXjXjXjXjXjXjXjXjXjXjXjXkXkXpXsX!.Y.I.I.I.I.I.I.I.I.I.I.I.I.I.I.I.I.I.I.I.I.I.I.I.I.I.I.I.I.I.I.I.I.I.I.I.I.I.I.I.I.I.I.I.I.I.I.I.I.I.I.T.T.L.#...Z C C C C C C V V M M M M M B B v w - X   . X X X X                   8 { nXCXZXCXCXCXCXCXZXAXAXAXAXAXAXAXAXAXAXAXAXAXAXAXAXAXAXAXAXAXAXAXAXAXAXAXAX",
"AXAXAXAXAXAXAXAXAXAXAXAXAXAXAXAXAXAXAXAXAXAXAXAXAXAXAXAXAXAXAXAXAXAXAXAXAXAXAXAXAXAXAXAXAXCXvX( O             + : 2 w e w w w w v A $.P.T.T.I.I.I.I.I.I.I.I.I.I.I.I.I.I.I.I.I.I.I.I.I.I.I.I.I.I.I.I.I.I.I.I.I.I.I.I.I.I.I.I.I.I.I.I.I.I.I.I.I.I.Y.J.G.d.g.g.g.g.d.g.g.!.!.!.!.!.!.!.!.!.!.!.!.!.!.!.!.!.!.sXdXhXjXjXjXjXjXjXjXjXjXjXjXjXjXkXjXdXsXQ.Y.I.I.I.I.I.I.I.I.I.I.I.I.I.I.I.I.I.I.I.I.I.I.I.I.I.I.I.I.I.I.I.I.I.I.I.I.I.I.I.I.I.I.I.I.I.I.I.I.I.I.T.T.P.$.@...............A A V M M M M B M v r 1 : - - : : : - @ X               = _ zXvXvXvXvXcXcXbXmXVXAXAXAXAXAXAXAXAXAXAXAXAXAXAXAXAXAXAXAXAXAXAXAXAXAXAXAX",
"AXAXAXAXAXAXAXAXAXAXAXAXAXAXAXAXAXAXAXAXAXAXAXAXAXAXAXAXAXAXAXAXAXAXAXAXAXAXAXAXAXAXAXAXAXCXvX( O             - r A ..X.........o.#.H.I.T.I.I.I.I.I.I.I.I.I.I.I.I.I.I.I.I.I.I.I.I.I.I.I.I.I.I.I.I.I.I.I.I.I.I.I.I.I.I.I.I.I.I.I.I.I.I.I.I.I.I.I.K.G.g.f.f.f.f.f.f.f.eXaXaXaXdXdXdXdXaXaXaXaXaXaXdXaXaXaXdXdXhXhXjXjXjXjXjXjXjXjXjXjXjXjXjXkXjXdXsXQ.Y.I.I.I.I.I.I.I.I.I.I.I.I.I.I.I.I.I.I.I.I.I.I.I.I.I.I.I.I.I.I.I.I.I.I.I.I.I.I.I.I.I.I.I.I.I.I.I.I.I.I.I.I.P.L.2.$.$.$.$.$.$.$.O...C M M M M M M M v t e e e e r r w , @               O 7 0 ( ( ( ( ( ( _ xXMXZXAXAXAXAXAXAXAXAXAXAXAXAXAXAXAXAXAXAXAXAXAXAXAXAXAXAX",
"AXAXAXAXAXAXAXAXAXAXAXAXAXAXAXAXAXAXAXAXAXAXAXAXAXAXAXAXAXAXAXAXAXAXAXAXAXAXAXAXAXAXAXAXAXCXvX( O             , B #.L.P.L.L.L.L.L.P.P.I.I.I.I.I.I.I.I.I.I.I.I.I.I.I.I.I.I.I.I.I.I.I.I.I.I.I.I.I.I.I.I.I.I.I.I.I.I.I.I.I.I.I.I.I.I.I.I.I.I.I.I.I.K.d.f.0XqX0X0X0X0X0XrXpXpXhXhXhXhXhXhXhXhXhXhXhXhXhXhXhXhXhXhXjXjXjXjXjXjXjXjXjXjXjXjXjXjXkXjXdXsX!.Y.I.I.I.I.I.I.I.I.I.I.I.I.I.I.I.I.I.I.I.I.I.I.I.I.I.I.I.I.I.I.I.I.I.I.I.I.I.I.I.I.I.I.I.I.I.I.I.I.I.I.I.I.I.I.P.P.P.P.P.P.I.P.$.o.Z M M M M M M M M M M M M M M M v w - .                 O O O O O     7 ] nXZXAXAXAXAXAXAXAXAXAXAXAXAXAXAXAXAXAXAXAXAXAXAXAXAXAXAX",
"AXAXAXAXAXAXAXAXAXAXAXAXAXAXAXAXAXAXAXAXAXAXAXAXAXAXAXAXAXAXAXAXAXAXAXAXAXAXAXAXAXAXAXAXAXCXvX( O             , Z H./././.E.E.E.T.T.I.I.I.I.I.I.I.I.I.I.I.I.I.I.I.I.I.I.I.I.I.I.I.I.I.I.I.I.I.I.I.I.I.I.I.I.I.I.I.I.I.I.I.I.I.I.I.I.I.I.I.I.I.I.K.g.f.0XqXqXqXqXqXqXrXpXgXkXkXkXkXkXkXkXkXkXkXkXkXkXkXkXkXjXjXjXjXjXjXjXjXjXjXjXjXjXjXjXjXkXjXdXsX!.Y.I.I.I.I.I.I.I.I.I.I.I.I.I.I.I.I.I.I.I.I.I.I.I.I.I.I.I.I.I.I.I.I.I.I.I.I.I.I.I.I.I.I.I.I.I.I.I.I.I.I.I.I.I.I.T.T.T.T.T.T.T.I.H.o.Z M M M M M M M B V V V V V C C M r : X                               * _ nXZXAXAXAXAXAXAXAXAXAXAXAXAXAXAXAXAXAXAXAXAXAXAXAXAXAXAX",
"AXAXAXAXAXAXAXAXAXAXAXAXAXAXAXAXAXAXAXAXAXAXAXAXAXAXAXAXAXAXAXAXAXAXAXAXAXAXAXAXAXAXAXAXAXCXvX( O             , C 2././.T.T.T.T.T.T.I.I.I.I.I.I.I.I.I.I.I.I.I.I.I.I.I.I.I.I.I.I.I.I.I.I.I.I.I.I.I.I.I.I.I.I.I.I.I.I.I.I.I.I.I.I.I.I.T.T.I.I.I.I.K.g.f.0XqXqXqXqX9XqXrXpXfXkXkXjXkXkXkXkXjXjXjXjXkXkXkXjXkXjXjXjXjXjXjXjXjXjXjXjXjXjXjXjXjXkXjXdXsX!.Y.I.I.I.I.I.I.I.I.I.I.I.I.I.I.I.I.I.I.I.I.I.I.I.I.I.I.I.I.I.I.I.I.I.I.I.I.I.I.I.I.I.I.I.I.I.I.I.I.I.I.I.I.I.I.T.T.T.T.T.T.T.I.H.o.Z M M M M M M M M B V B B B C C M r - X                               * _ nXZXAXAXAXAXAXAXAXAXAXAXAXAXAXAXAXAXAXAXAXAXAXAXAXAXAXAX",
"AXAXAXAXAXAXAXAXAXAXAXAXAXAXAXAXAXAXAXAXAXAXAXAXAXAXAXAXAXAXAXAXAXAXAXAXAXAXAXAXAXAXAXAXAXCXvX( O             , C $.T./.I.I.I.I.I.I.I.I.I.I.I.I.I.I.I.I.I.I.I.I.I.I.I.I.I.I.I.I.I.I.I.I.I.I.I.I.I.I.I.I.I.I.I.I.I.I.I.I.I.I.I.I.I.T.T.T.I.I.I.I.K.g.f.0XqXqXqXqX9X0XrXpXfXjXjXjXjXjXjXjXjXjXjXjXjXjXjXjXjXjXjXjXjXjXjXjXjXjXjXjXjXjXjXjXjXkXjXdXsXQ.Y.I.I.I.I.I.I.I.I.I.I.I.I.I.I.I.I.I.I.I.I.I.I.I.I.I.I.I.I.I.I.I.I.I.I.I.I.I.I.I.I.I.I.I.I.I.I.I.I.I.I.I.I.I.I.I.I.I.I.I.T.T.I.2.o.Z M M M M M M M M M M M M M B B M e - X                               = _ nXZXAXAXAXAXAXAXAXAXAXAXAXAXAXAXAXAXAXAXAXAXAXAXAXAXAXAX",
"AXAXAXAXAXAXAXAXAXAXAXAXAXAXAXAXAXAXAXAXAXAXAXAXAXAXAXAXAXAXAXAXAXAXAXAXAXAXAXAXAXAXAXAXAXCXvX( O             , C $.T.E.I.I.I.I.I.I.I.I.I.I.I.I.I.I.I.I.I.I.I.I.I.I.I.I.I.I.I.I.I.I.I.I.I.I.I.I.I.I.I.I.I.I.I.I.I.I.I.I.I.I.I.I.I.I.T.T.I.I.~.I.K.g.f.0XqXqXqXqXqXqXrXpXgXlXlXjXjXjXjXjXjXjXjXjXjXjXjXjXjXjXjXjXjXjXjXjXjXjXjXjXjXjXjXjXjXkXkXhXsXQ.T.~.~.I.I.I.I.I.I.I.I.I.I.I.I.I.I.I.I.I.I.I.I.I.I.I.I.I.I.I.I.I.I.I.I.I.I.I.I.I.I.I.I.I.I.I.I.I.I.I.I.I.I.I.I.I.I.I.I.I.T.T.I.2.o.Z M M M M M M M M M M M M M B B M e - .                               = _ nXZXAXAXAXAXAXAXAXAXAXAXAXAXAXAXAXAXAXAXAXAXAXAXAXAXAXAX",
"AXAXAXAXAXAXAXAXAXAXAXAXAXAXAXAXAXAXAXAXAXAXAXAXAXAXAXAXAXAXAXAXAXAXAXAXAXAXAXAXAXAXAXAXAXZXvX( O             , C $.T.E.I.I.I.I.I.I.I.I.I.I.I.I.I.I.I.I.I.I.I.I.I.I.I.I.I.I.I.I.I.I.I.I.I.I.I.I.I.I.I.I.I.I.I.I.I.I.I.I.I.I.I.I.I.I.I.T.~.I.~.~.Y.G.f.0XqXqXqXqX9XqXrXpXgXlXlXjXlXjXlXlXlXlXjXjXjXjXjXjXjXjXjXjXjXjXjXjXjXjXjXjXjXjXjXjXjXkXkXpXsXQ.T.~.~.~.~.I.I.I.I.I.I.I.I.I.I.I.I.I.I.I.I.I.I.I.I.I.I.I.I.I.I.I.I.I.I.I.I.I.I.I.I.I.I.I.I.I.I.I.I.I.I.I.I.I.I.I.I.I.I.I.T.T.I.2.o.Z M M M M M M M M M M M M M B B M e -                                 = _ nXZXAXAXAXAXAXAXAXAXAXAXAXAXAXAXAXAXAXAXAXAXAXAXAXAXAXAX",
"AXAXAXAXAXAXAXAXAXAXAXAXAXAXAXAXAXAXAXAXAXAXAXAXAXAXAXAXAXAXAXAXAXAXAXAXAXAXAXAXAXAXAXAXAXVXcX( O             , C $.T.E.I.I.I.I.I.I.I.I.I.I.I.I.I.I.I.I.I.I.I.I.I.I.I.I.I.I.I.I.I.I.I.I.I.I.I.I.I.I.I.I.I.I.I.I.I.I.I.I.I.I.I.I.T.Y.Y.Y.Y.Y.I.I.J.g.f.0XqXqXqXqX9XqXrXpXfXjXjXgXgXgXgXgXgXhXgXgXgXgXgXgXgXhXjXjXjXjXjXjXjXjXjXjXjXjXjXjXjXkXkXpXsX!.Y.I.I.Y.Y.Y.Y.Y.Y.I.I.I.I.I.I.I.I.I.I.I.I.I.I.I.I.I.I.I.I.I.I.I.I.I.I.I.I.I.I.I.I.I.I.I.I.I.I.I.I.I.I.I.I.I.I.I.I.I.I.I.T.T.I.2.o.Z B M B B B V V M M M M M M B B M e : X                               = _ nXZXAXAXAXAXAXAXAXAXAXAXAXAXAXAXAXAXAXAXAXAXAXAXAXAXAXAX",
"AXAXAXAXAXAXAXAXAXAXAXAXAXAXAXAXAXAXAXAXAXAXAXAXAXAXAXAXAXAXAXAXAXAXAXAXZXBXMXnXnXnXmXmXmXbX} 0 O             , C $.T.E.I.I.I.I.I.I.I.I.I.I.I.I.I.I.I.I.I.I.I.I.I.I.I.I.I.I.I.I.I.I.I.I.I.I.I.I.I.I.I.I.I.I.I.I.I.I.I.I.I.I.I.Y.J.J.G.G.G.G.G.G.G.g.s.0XqXqXqXqX9XqXwXyXpXpXpXpXpXpXpXpXpXpXpXpXpXpXpXpXpXfXgXhXjXjXjXjXjXjXjXjXjXjXjXjXjXkXjXhXaXg.G.G.G.G.G.G.G.J.K.Y.I.I.I.I.I.I.I.I.I.I.I.I.I.I.I.I.I.I.I.I.I.I.I.I.I.I.I.I.I.I.I.I.I.I.I.I.I.I.I.I.I.I.I.I.I.I.I.I.I.I.I.T.I.H.@...A A A A A A A Z C M M M M B B M t 1 - @ @ @ @ @ @ @ X               = _ nXZXAXAXAXAXAXAXAXAXAXAXAXAXAXAXAXAXAXAXAXAXAXAXAXAXAXAX",
"AXAXAXAXAXAXAXAXAXAXAXAXAXAXAXAXAXAXAXAXAXAXAXAXAXAXAXAXAXAXAXAXAXAXAXAXVXnXzX] ] ] ] ] ] ] ( =               , C $.T.E.I.I.I.I.I.I.I.I.I.I.I.I.I.I.I.I.I.I.I.I.I.I.I.I.I.I.I.I.I.I.I.I.I.I.I.I.I.I.I.I.I.I.I.I.I.I.I.I.I.I.I.K.G.g.f.f.f.f.f.f.f.f.eX0XqXqXqXqXqXqXwXrXyXyXyXyXyXyXyXyXyXyXyXyXyXyXyXyXyXpXpXgXjXjXjXjXjXjXjXjXjXjXjXjXjXkXkXhXdXiXf.f.f.f.f.f.f.g.G.Y.I.I.I.I.I.I.I.I.I.I.I.I.I.I.I.I.I.I.I.I.I.I.I.I.I.I.I.I.I.I.I.I.I.I.I.I.I.I.I.I.I.I.I.I.I.I.I.I.I.I.I.I.I.L.2.#.@.@.@.@.#.#.O...Z M M M M M M M v r w 2 2 2 2 2 2 , - X             = _ nXZXAXAXAXAXAXAXAXAXAXAXAXAXAXAXAXAXAXAXAXAXAXAXAXAXAXAX",
"AXAXAXAXAXAXAXAXAXAXAXAXAXAXAXAXAXAXAXAXAXAXAXAXAXAXAXAXAXAXAXAXAXAXAXAXBXxX( = * = = = = = * O               , C $.T.E.I.I.I.I.I.I.I.I.I.I.I.I.I.I.I.I.I.I.I.I.I.I.I.I.I.I.I.I.I.I.I.I.I.I.I.I.I.I.I.I.I.I.I.I.I.I.I.I.I.I.I.J.g.f.0X0X0XeXeXeX0X0X0XqXqXqXqXqXqXqXqXwXwXwXwXwXwXwXwXwXwXwXwXwXwXwXwXwXwXyXpXgXjXjXjXjXjXjXjXjXjXjXjXjXjXjXjXfXpXrXeXs.0X0X0X0Xs.f.G.K.I.I.I.I.I.I.I.I.I.I.I.I.I.I.I.I.I.I.I.I.I.I.I.I.I.I.I.I.I.I.I.I.I.I.I.I.I.I.I.I.I.I.I.I.I.I.I.I.I.I.I.I.I.P.L.L.H.H.H.L.L.L.2.O.A B M M M M M M M b v v v v v v v e , +             = _ nXZXAXAXAXAXAXAXAXAXAXAXAXAXAXAXAXAXAXAXAXAXAXAXAXAXAXAX",
"AXAXAXAXAXAXAXAXAXAXAXAXAXAXAXAXAXAXAXAXAXAXAXAXAXAXAXAXAXAXAXAXAXAXAXAXBX} 8                                 , C $.T.E.I.I.I.I.I.I.I.I.I.I.I.I.I.I.I.I.I.I.I.I.I.I.I.I.I.I.I.I.I.I.I.I.I.I.I.I.I.I.I.I.I.I.I.I.I.I.I.I.I.I.I.J.g.s.qXqXqXqXqXqXqXqXqXqXqXqXqXqXqXqXqXqXqXqXqXqXqXqXqXqXqXqXqXqXqXqX9X9XqXrXpXgXjXjXjXjXjXjXjXjXjXjXjXjXjXjXjXfXpXrXqX9XqXqXqXqX0Xf.g.K.I.I.I.I.I.I.I.I.I.I.I.I.I.I.I.I.I.I.I.I.I.I.I.I.I.I.I.I.I.I.I.I.I.I.I.I.I.I.I.I.I.I.I.I.I.I.I.I.I.I.I.I.I.I.I.T.T.T.T.T.T.T.L.#.A M M M M M M M M M B B B B B C B v 1 @             = _ nXZXAXAXAXAXAXAXAXAXAXAXAXAXAXAXAXAXAXAXAXAXAXAXAXAXAXAX",
"AXAXAXAXAXAXAXAXAXAXAXAXAXAXAXAXAXAXAXAXAXAXAXAXAXAXAXAXAXAXAXAXAXAXAXAXBX} 8                                 , C $.T.E.I.I.I.I.I.I.I.I.I.I.I.I.I.I.I.I.I.I.I.I.I.I.I.I.I.I.I.I.I.I.I.I.I.I.I.I.I.I.I.I.I.I.I.I.I.I.I.I.I.I.I.J.g.eXqXqXqXqXqXqXqXqXqXqXqXqXqXqXqXqXqXqX9X9X9X9XqXqXqXqX9X9X9X9XqXqX9X9XqXrXpXgXjXjXjXjXjXjXjXjXjXjXjXjXjXjXjXfXpXrXqXqXqXqXqXqX0Xf.g.K.I.I.I.I.I.I.I.I.I.I.I.I.I.I.I.I.I.I.I.I.I.I.I.I.I.I.I.I.I.I.I.I.I.I.I.I.I.I.I.I.I.I.I.I.I.I.I.I.I.I.I.I.I.I.T.T.T.T.T.T.T.T.L.@.A M M M M M M M M B B V V B C C B v 1 @             * _ nXZXAXAXAXAXAXAXAXAXAXAXAXAXAXAXAXAXAXAXAXAXAXAXAXAXAXAX",
"AXAXAXAXAXAXAXAXAXAXAXAXAXAXAXAXAXAXAXAXAXAXAXAXAXAXAXAXAXAXAXAXAXAXAXAXBX} 8                                 , C $.T.E.I.I.I.I.I.I.I.I.I.I.I.I.I.I.I.I.I.I.I.I.I.I.I.I.I.I.I.I.I.I.I.I.I.I.I.I.I.I.I.I.I.I.I.I.T.T.Y.Y.I.I.T.J.g.s.qXqXqXqXqXqXqXqXqXqXqXqXqXqXqXqXqXqXqXqXqXqXqXqXqXqXqXqXqXqXqXqX9X9XwXrXpXgXjXjXjXjXjXjXjXjXjXjXjXjXjXjXjXfXpXrXqX9X9XqXqXqX0Xf.g.K.I.I.I.I.I.I.I.I.I.I.I.I.I.I.I.I.I.I.I.I.I.I.I.I.I.I.I.I.I.I.I.I.I.I.I.I.I.I.I.I.I.I.I.I.I.I.I.I.I.I.I.I.I.I.I.I.I.I.I.I.T.T.L.@.A V M M M M M M M M M M M M B C M t , +             = _ nXZXAXAXAXAXAXAXAXAXAXAXAXAXAXAXAXAXAXAXAXAXAXAXAXAXAXAX",
"AXAXAXAXAXAXAXAXAXAXAXAXAXAXAXAXAXAXAXAXAXAXAXAXAXAXAXAXAXAXAXAXAXAXAXAXBXzX8                                 , C $.T.E.I.I.I.I.I.I.I.I.I.I.I.I.I.I.I.I.I.I.I.I.I.I.I.I.I.I.I.I.I.I.I.I.I.I.I.I.I.I.I.I.I.I.I.I.I.T.T.Y.I.I.T.J.g.s.qXqXqXqXqXqXqXqXqXqXqXqXqXqXqXqXqXqXqXqXqXqXqXqXqXqXqXqXqXqXqXqX9X9XwXrXpXgXlXjXjXjXjXjXjXjXjXjXjXjXjXlXjXfXpXrXqX9X9XqXqXqX0Xf.g.K.I.I.I.I.I.I.I.I.I.I.I.I.I.I.I.I.I.I.I.I.I.I.I.I.I.I.I.I.I.I.I.I.I.I.I.I.I.I.I.I.I.I.I.I.I.I.I.I.I.I.I.I.I.I.I.I.I.I.I.I.T.T.H.@.A V M M M M M M M M M M M M M V M t , +             * _ nXZXAXAXAXAXAXAXAXAXAXAXAXAXAXAXAXAXAXAXAXAXAXAXAXAXAXAX",
"AXAXAXAXAXAXAXAXAXAXAXAXAXAXAXAXAXAXAXAXAXAXAXAXAXAXAXAXAXAXAXAXAXAXAXAXBXzX8                                 , C $.T.E.I.I.I.I.I.I.I.I.I.I.I.I.I.I.I.I.I.I.I.I.I.I.I.I.I.I.I.I.I.I.I.I.I.I.I.I.I.I.I.I.I.I.I.I.I.I.T.T.I.I.T.J.g.s.qXqXqXqXqXqXqXqX9X9X9X9X9X9X9X9X9X9X9X9X9X9X9X9X9X9X9X9X9X9X9X9X9X9XqXrXpXgXlXlXjXjXjXjXjXjXjXjXjXjXlXlXlXgXpXrXqX9X9XqXqXqX0Xf.g.K./.~.T.T.T.T.T.T.I.I.I.I.I.I.I.I.I.I.I.I.I.I.I.I.I.I.I.I.I.I.I.I.I.I.I.I.I.I.I.I.I.I.I.I.I.I.I.I.I.I.I.I.I.I.I.I.I.I.I.I.T.T.H.@.A V M M M M M M M M M M M M B C M t , +             = ] nXAXAXAXAXAXAXAXAXAXAXAXAXAXAXAXAXAXAXAXAXAXAXAXAXAXAXAX",
"AXAXAXAXAXAXAXAXAXAXAXAXAXAXAXAXAXAXAXAXAXAXAXAXAXAXAXAXAXAXAXAXAXAXAXAXBXzX8                                 , C $.T.E.I.I.I.I.I.I.I.I.I.I.I.I.I.I.I.I.I.I.I.I.I.I.I.I.I.I.I.I.I.I.I.I.I.I.I.I.I.I.I.I.I.I.I.I.I.I.T.T.I.~.I.J.g.s.qXqXqXqXqXqXqXqXqXqXqXqXqXqXqXqXqXqXqXqXqXqXqXqXqXqXqXqXqXqXqXqX9X9XqXrXpXgXlXlXjXjXjXjXjXjXjXjXjXjXjXlXjXfXpXrXqX9X9XqXqXqX0Xf.g.K.I.I.I.T.I.I.I.I.I.I.I.I.I.I.I.I.I.I.I.I.I.I.I.I.I.I.I.I.I.I.I.I.I.I.I.I.I.I.I.I.I.I.I.I.I.I.I.I.I.I.I.I.I.I.I.I.I.I.I.I.T.T.H.@.A V M M M M M M M M M M M M B C M v , +             = ] nXZXAXAXAXAXAXAXAXAXAXAXAXAXAXAXAXAXAXAXAXAXAXAXAXAXAXAX",
"AXAXAXAXAXAXAXAXAXAXAXAXAXAXAXAXAXAXAXAXAXAXAXAXAXAXAXZXCXBXBXBXBXBXVXBXnX] 8               X + @ @ @ @ @ @ - w A 2.T.T.I.I.I.I.I.I.I.I.I.I.I.I.I.I.I.I.I.I.I.I.I.I.I.I.I.I.I.I.I.I.I.I.I.I.I.I.I.I.I.I.I.I.I.I.I.I.I.I.T.I.T.J.g.s.qXqXqXqXqXqXqXqXwXwXwXwXwXwXwXwXwXwXwXwXwXwXwXwXwXwXwXwXwXwXwXwXwXwXwXyXpXfXfXfXfXfXfXfXfXfXfXfXfXfXfXfXfXpXuXrXqX9XqXqXqXqX0Xf.g.G.b.b.H.H.H.H.H.L.P.I.I.I.I.I.I.I.I.I.I.I.I.I.I.I.I.I.I.I.I.I.I.I.I.I.I.I.I.I.I.I.I.I.I.I.I.I.I.I.I.I.I.I.I.I.I.I.I.I.I.I.T.T.H.@.A B M M M M M M M M M M M M B B M v 1 +             * _ cXBXVXBXBXBXBXBXVXZXAXAXAXAXAXAXAXAXAXAXAXAXAXAXAXAXAXAX",
"AXAXAXAXAXAXAXAXAXAXAXAXAXAXAXAXAXAXAXAXAXAXAXAXAXAXAXBXnXcXxXxXxXxXcXxX{ ( =             . - 2 t v v v v t v C O.H.T.T.I.I.I.I.I.I.I.I.I.I.I.I.I.I.I.I.I.I.I.I.I.I.I.I.I.I.I.I.I.I.I.I.I.I.I.I.I.I.I.I.I.I.I.I.I.I.I.I.T.I.T.J.g.s.qXqXqXqXqXqXqXwXrXyXuXuXuXuXuXuXuXuXuXuXuXuXuXuXuXuXuXuXuXuXuXuXuXuXuXuXuXuXuXuXpXpXuXuXuXuXuXuXuXuXuXpXuXuXrXwXqXqXqXqXqXqX0Xs.] +.O.O.O.O.O.O.#.$.L.I.T.I.I.I.I.I.I.I.I.I.I.I.I.I.I.I.I.I.I.I.I.I.I.I.I.I.I.I.I.I.I.I.I.I.I.I.I.I.I.I.I.I.I.I.I.I.I.I.I.I.T.T.H.@.A M M M M M M M M M M M M M M B M v 1 +             O 0 ] zXxXxXxXxXzXxXbXMXZXAXAXAXAXAXAXAXAXAXAXAXAXAXAXAXAXAX",
"AXAXAXAXAXAXAXAXAXAXAXAXAXAXAXAXAXAXAXAXAXAXAXAXAXAXZXmXzX( 0 0 0 0 0 0 8 = O             X 1 B o.@.@.O.O.O.O.#.2.P.I.I.I.I.I.I.I.I.I.I.I.I.I.I.I.I.I.I.I.I.I.I.I.I.I.I.I.I.I.I.I.I.I.I.I.I.I.I.I.I.I.I.I.I.I.I.I.I.I.I.I.I.I.J.g.s.qXqXqXqX9XqXwXrXpXpXfXfXpXpXpXpXpXpXpXpXpXpXpXpXpXpXpXpXpXpXpXpXfXfXpXpXyXrXwXwXrXrXrXrXrXrXrXrXrXrXrXrXrXwXwXqXqXqXqXqXqXqX0X/ _ S A A A A A A ..#.H.I.T.I.I.I.I.I.I.I.I.I.I.I.I.I.I.I.I.I.I.I.I.I.I.I.I.I.I.I.I.I.I.I.I.I.I.I.I.I.I.I.I.I.I.I.I.I.I.I.I.I.T.T.H.@.A M M M M M M M M M M M M M M V M v 1 +               * 8 0 0 0 0 0 0 0 ] bXVXAXAXAXAXAXAXAXAXAXAXAXAXAXAXAXAXAX",
"AXAXAXAXAXAXAXAXAXAXAXAXAXAXAXAXAXAXAXAXAXAXAXAXAXAXZXnX] =                               + w ..H.T.T.P.P.P.P.I.I.I.I.I.I.I.I.I.I.I.I.I.I.I.I.I.I.I.I.I.I.I.I.I.I.I.I.I.I.I.I.I.I.I.I.I.I.I.I.I.I.I.I.I.I.I.I.I.I.I.I.I.I.I.I.J.g.s.qXqXqXqXqXqXwXyXpXgXjXjXjXjXjXjXjXjXjXjXjXjXjXjXjXjXjXjXjXjXjXhXjXjXgXpXyXwXqXqXqXqXqXqXqXqXqXqXqXqXqXqXqXqXqXqXqXqXqXqXqXqX0X/ _ M B B M M M M A O.H.I.T.I.I.I.I.I.I.I.I.I.I.I.I.I.I.I.I.I.I.I.I.I.I.I.I.I.I.I.I.I.I.I.I.I.I.I.I.I.I.I.I.I.I.I.I.I.I.I.I.I.T.T.H.@.A B M M M M M M M M M M M M M V M v 1 +                               O ( cXVXAXAXAXAXAXAXAXAXAXAXAXAXAXAXAXAXAX",
"AXAXAXAXAXAXAXAXAXAXAXAXAXAXAXAXAXAXAXAXAXAXAXAXAXAXZXnX_ O                               + e X.P./././././.E.T.T.I.I.I.I.I.I.I.I.I.I.I.I.I.I.I.I.I.I.I.I.I.I.I.I.I.I.I.I.I.I.I.I.I.I.I.I.I.I.I.I.I.I.I.I.I.I.I.I.I.I.I.I.I.I.J.g.s.qXqXqXqX9X9XwXyXpXjXlXlXjXjXlXlXlXlXjXjXjXjXlXlXlXlXjXjXjXjXjXlXlXlXgXpXrXqX9X9X9X9X9X9X9X9X9X9XqX9X9X9X9X9XqXqXqXqXqXqXqXqX0X/ _ n M M M M M M Z o.2.I.T.I.I.I.I.I.I.I.I.I.I.I.I.I.I.I.I.I.I.I.I.I.I.I.I.I.I.I.I.I.I.I.I.I.I.I.I.I.I.I.I.I.I.I.I.I.I.I.I.I.T.T.H.@.A B M M M M M M M M M M M M M V M t 1 +                                 0 cXVXAXAXAXAXAXAXAXAXAXAXAXAXAXAXAXAXAX",
"AXAXAXAXAXAXAXAXAXAXAXAXAXAXAXAXAXAXAXAXAXAXAXAXAXAXZXnX_ *                               + w ..L././.T.T.T.T.T.I.I.I.I.I.I.I.I.I.I.I.I.I.I.I.I.I.I.I.I.I.I.I.I.I.I.I.I.I.I.I.I.I.I.I.I.I.I.I.I.I.I.I.I.I.I.I.I.I.I.I.I.I.I.I.J.g.s.qXqXqXqX9X9XwXyXpXgXlXlXjXjXjXjXjXjXjXjXjXjXjXjXjXjXjXjXjXjXjXjXlXlXgXpXrXqX9X9XqXqXqXqXqXqXqXqXqXqXqXqXqXqXqXqXqXqXqXqXqXqX0X/ _ n M M M M M M Z o.H.I.T.I.I.I.I.I.I.I.I.I.I.I.I.I.I.I.I.I.I.I.I.I.I.I.I.I.I.I.I.I.I.I.I.I.I.I.I.I.I.I.I.I.I.I.I.I.I.I.I.I.T.T.H.@.A B M M M M M M M M M M M M M V M v 1 +                                 0 cXVXAXAXAXAXAXAXAXAXAXAXAXAXAXAXAXAXAX",
"AXAXAXAXAXAXAXAXAXAXAXAXAXAXAXAXAXAXAXAXAXAXAXAXAXAXZXnX_ *                               + w ..L.E.T.I.I.I.I.I.I.I.I.I.I.I.I.I.I.I.I.I.I.I.I.I.I.I.I.I.I.I.I.I.I.I.I.I.I.I.I.I.I.I.I.I.I.I.I.I.I.I.I.I.I.I.I.I.I.I.I.I.I.I.I.J.g.s.qXqXqXqX9X9XwXyXpXgXjXjXjXjXjXjXjXjXjXjXjXjXjXjXjXjXjXjXjXjXjXjXlXlXgXpXrXwX9X9XqXqXqXqXqXqXqXqXqXqXqXqXqXqXqXqXqXqXqXqXqXqX9X/ _ n B B M M M M Z o.H.I.T.I.I.I.I.I.I.I.I.I.I.I.I.I.I.I.I.I.I.I.I.I.I.I.I.I.I.I.I.I.I.I.I.I.I.I.I.I.I.I.I.I.I.I.I.I.I.I.I.I.T.T.H.@.A B M M M M M M M M M M M M M V M v , +                               O ( cXVXAXAXAXAXAXAXAXAXAXAXAXAXAXAXAXAXAX",
"AXAXAXAXAXAXAXAXAXAXAXAXAXAXAXAXAXAXAXAXAXAXAXAXAXAXZXnX_ =                               + w ..L.E.T.I.I.I.I.I.I.I.I.I.I.I.I.I.I.I.T.Y.Y.Y.Y.Y.Y.Y.Y.Y.Y.Y.Y.Y.Y.Y.Y.Y.Y.Y.Y.Y.U.Y.Y.Y.T.T.I.I.I.I.I.I.I.I.I.I.I.I.I.I.I.I.I.J.g.eXqXqXqXqXqXqXwXyXpXgXjXjXjXjXjXjXjXjXjXjXjXjXjXjXjXjXjXjXjXjXjXlXlXlXgXpXyXwX9X9XqXqXqXqXqXqXqXqXqXqXqXqXqXqXqXqXqXqXqXqXqXqX9X/ _ n M M M M M M Z o.2.I.T.I.I.I.I.I.I.I.I.I.I.I.I.I.I.I.I.I.I.I.I.I.I.I.I.I.I.T.T.T.T.T.T.T.I.I.I.I.I.I.I.I.I.I.I.I.I.I.I.I.T.T.H.@.A B M M M M M M M M M M M M M V M t , +                               O ( cXVXAXAXAXAXAXAXAXAXAXAXAXAXAXAXAXAXAX",
"AXAXAXAXAXAXAXAXAXAXAXAXAXAXAXAXAXAXAXAXAXAXAXAXAXAXZXnX_ =                               + w ..L.E.T.I.I.I.I.I.I.I.I.I.I.I.I.I.I.T.T.Y.Y.Y.T.Y.Y.Y.Y.T.Y.Y.Y.Y.Y.Y.Y.T.Y.Y.Y.Y.Y.Y.Y.Y.Y.T.I.I.I.I.I.I.I.I.I.I.I.I.I.T.I.I.I.J.g.eXqXqXqXqXqXqXwXyXpXgXjXjXjXjXjXjXjXjXjXjXjXjXjXjXjXjXjXjXjXjXjXjXlXlXgXpXyXwX9X9XqXqXqXqXqXqXqXqXqXqXqXqXqXqXqXqXqXqXqXqXqXqX9X/ _ n M M M M M M Z o.2.I.T.I.I.I.I.I.I.I.I.I.I.I.I.I.I.I.I.I.I.I.I.I.I.I.I.I.T.T.T.T.I.I.T.T.I.I.I.I.I.I.I.I.I.I.I.I.I.I.I.I.T.T.H.@.A B M M M M M M M M M M M M M V M t , +                               O ( cXVXAXAXAXAXAXAXAXAXAXAXAXAXAXAXAXAXAX",
"AXAXAXAXAXAXAXAXAXAXAXAXAXAXAXAXAXAXAXAXAXAXAXAXAXAXZXnX_ =                               + w ..L.E.T.I.I.I.I.I.I.I.I.I.I.I.I.I.I.I.R.R.R.R.R.R.R.R.R.R.R.R.R.R.R.R.R.R.R.R.R.R.R.R.R.R.R.I.I.I.I.I.I.I.I.I.I.I.I.I.I.T.I.I.I.J.g.s.0X0X0X0X0X0XwXyXpXgXjXjXjXjXjXjXjXjXjXjXjXjXjXjXjXjXgXgXgXgXgXgXgXgXfXpXrXwX9X9XqXqXqXqXqXqXqXqXqXqXqXqXqXqX0X0X0X0X0X0X0X0Xa./ _ V V B V B B C A O.H.I.T.I.I.I.I.I.I.I.I.I.I.I.I.I.I.I.I.I.I.I.I.I.I.I.P.P.K.K.K.K.K.K.K.K.P.P.I.I.I.I.I.I.I.I.I.I.I.I.I.I.T.T.H.@.A B M M M M M M M M M M M M M V M v 1 @ .     . . .                   O ( cXVXAXAXAXAXAXAXAXAXAXAXAXAXAXAXAXAXAX",
"AXAXAXAXAXAXAXAXAXAXAXAXAXAXAXAXAXAXAXAXAXAXAXAXAXAXZXnX_ =                               + w ..L.E.T.I.I.I.I.I.I.I.I.I.I.I.I.I.R.^.m.m.m.m.m.m.m.m.m.m.m.m.m.m.m.m.m.m.m.m.m.m.m.m.m.m.m.^.R.I.P.I.I.I.I.I.I.I.I.I.T.T.I.I.I.J.G.f.f.f.f.f.f.f.f.tXpXhXjXjXjXjXjXjXjXjXjXjXjXjXjXjXjXgXfXpXpXpXpXpXpXpXpXuXrXqXqXqXqXqXqXqXqXqXqXqXqXqXqXqXqX0XeXs.f.f.f.f.f.f.f.f.' A ........A ..o.#.H.I.T.I.I.I.I.I.I.I.I.I.I.I.I.I.I.I.I.I.I.I.I.I.I.I.P.J.G.G.i.G.v.v.G.G.G.J.P.I.I.I.I.I.I.I.I.I.I.I.I.I.T.T.H.@.A M M M M M M M M M M M M M M V M v w , - - - - - - $ @ X             O ( cXVXAXAXAXAXAXAXAXAXAXAXAXAXAXAXAXAXAX",
"AXAXAXAXAXAXAXAXAXAXAXAXAXAXAXAXAXAXAXAXAXAXAXAXAXAXZXnX_ =                               + w ..L.E.T.I.I.I.I.I.I.I.I.I.I.I.T.I.R.m.A.S.S.S.S.S.S.S.S.S.S.S.S.S.S.S.S.S.S.S.S.S.S.S.S.S.A.M.^.I.Y.Y.I.I.I.I.I.I.I.I.T.T.T.I.I.K.J.G.G.G.G.G.G.G.g.iXdXhXkXjXjXjXjXjXjXjXjXjXjXjXjXjXjXgXpXuXyXrXrXrXyXyXrXrXwXqXqXqXqXqXqXqXqXqXqXqXqXqXqXqXqX0Xf.g.G.G.G.G.G.G.G.G.G.#.#.#.#.#.#.#.$.H.L.I.I.I.I.I.I.I.I.I.I.I.I.I.I.I.I.I.I.I.I.I.I.I.I.I.K.G.u.p.p.p.p.p.p.p.i.G.P.I.I.I.I.I.I.I.I.I.I.I.I.I.T.T.H.@.A M M M M M M M M M M M M M M M M M v r w w w w w w 2 , @             O ( cXVXAXAXAXAXAXAXAXAXAXAXAXAXAXAXAXAXAX",
"AXAXAXAXAXAXAXAXAXAXAXAXAXAXAXAXAXAXAXAXAXAXAXAXAXAXZXnX_ =                               + w ..L.E.T.I.I.I.I.I.I.I.I.I.I.I.Y.I.^.M.S.D.F.F.D.D.D.D.D.D.D.D.D.D.D.D.D.D.D.D.D.D.D.F.F.F.V.A.m.I.U.T.I.I.I.I.I.I.I.I.I.I.I.I.I.Y.Y.Y.K.K.K.K.Y.Y.W.!.dXhXkXkXjXjXjXjXjXjXjXjXjXjXjXlXjXfXpXrXwXqXqXwXwXwXwXqXqXqXqXqXqXqXqXqXqXqXqXqXqXqXqXqXqXeXf.G.K.Y.Y.K.K.K.K.Y.P.L.L.L.L.L.L.L.P.P.I.I.I.I.I.I.I.I.I.I.I.I.I.I.I.I.I.I.I.I.I.I.I.I.T.I.J.i.y.y.r.r.y.r.r.y.p.G.K.I.I.P.I.I.I.I.I.I.I.I.I.I.T.T.H.@.A V M M M M M M M M M M M M M M M M M M v v v M M M v 2 @             O ( cXBXAXAXAXAXAXAXAXAXAXAXAXAXAXAXAXAXAX",
"AXAXAXAXAXAXAXAXAXAXAXAXAXAXAXAXAXAXAXAXAXAXAXAXAXAXZXnX_ =                               + w ..L.E.T.I.I.I.I.I.I.I.I.I.I.I.U.I.^.M.V.C.C.C.C.C.C.C.C.C.C.C.C.C.C.C.C.C.C.C.C.C.C.C.C.C.D.A.m.I.U.T.I.I.I.I.I.I.I.I.I.I.I.I.I.I.I.I.I.I.I.I.~.~.W.!.aXhXkXkXjXjXjXjXjXjXjXjXjXjXjXjXjXfXuXwXqX9X9X9X9X9X9X9XqXqXqXqXqXqXqXqXqXqXqXqXqXqXqXqXqXeXf.G.I.~.~.I.I.I.I.I.I.T.I.I.T.T.T.T.T.I.I.I.I.I.I.I.I.I.I.I.I.I.I.I.I.I.I.I.I.I.I.I.I.I.T.I.G.i.y.r.e.e.r.e.e.r.p.G.K.I.T.P.I.I.I.I.I.I.I.I.I.I.T.T.H.@.A V M M M M M M M M M M M M M M M M B B B B B B C C M w @             O ( cXBXAXAXAXAXAXAXAXAXAXAXAXAXAXAXAXAXAX",
"AXAXAXAXAXAXAXAXAXAXAXAXAXAXAXAXAXAXAXAXAXAXAXAXAXAXZXnX_ =                               + w ..L.E.T.I.I.I.I.I.I.I.I.I.I.I.U.I.^.M.V.C.C.C.C.C.C.C.C.C.C.C.C.C.C.C.C.C.C.C.C.C.C.C.C.C.D.A.m.I.U.T.I.I.I.I.I.I.I.I.I.I.I.I.I.I.T.T.T.T.I.I.~.~.W.!.aXhXkXkXjXjXjXjXjXjXjXjXjXjXjXjXjXfXuXwXqX9X9X9X9X9X9XqXqXqXqXqXqXqXqXqXqXqXqXqXqXqXqXqXqXeXf.G.I.~.~.I.I.I.I.I.I.T.T.I.T.T.T.T.T.I.I.I.I.I.I.I.I.I.I.I.I.I.I.I.I.I.I.I.I.I.I.I.I.I.T.I.G.i.y.r.e.e.e.e.e.r.p.v.K.I.T.T.I.I.I.I.I.I.I.I.I.I.T.T.H.@.A V M M M M M M M M M M M M M M M M B B B B B B C C M w @             O ( cXVXAXAXAXAXAXAXAXAXAXAXAXAXAXAXAXAXAX",
"AXAXAXAXAXAXAXAXAXAXAXAXAXAXAXAXAXAXAXAXAXAXAXAXAXAXZXnX_ =                               + w ..L.E.T.I.I.I.I.I.I.I.I.I.I.I.U.I.^.M.S.C.C.C.C.C.C.C.C.C.C.C.C.C.C.C.C.C.C.C.C.C.C.C.C.C.D.A.m.I.U.T.I.I.I.I.I.I.I.I.I.I.I.I.I.I.Y.T.Y.Y.I.I.I.I.W.!.aXhXkXkXjXjXjXjXjXjXjXjXjXjXjXjXjXfXuXrXqX9XqXqXqXqXqXqXqXqXqXqXqXqXqXqXqXqXqXqXqXqXqXqXqXeXf.G.Y.~.I.I.I.I.I.I.I.I.I.I.I.I.I.I.I.I.I.I.I.I.I.I.I.I.I.I.I.I.I.I.I.I.I.I.I.I.I.I.I.I.I.I.K.i.y.r.e.r.r.e.e.r.p.G.K.I.T.P.I.I.I.I.I.I.I.I.I.I.T.T.H.@.A V M M M M M M M M M M M M M M M M M M M M M M B B v w @             O ( cXVXAXAXAXAXAXAXAXAXAXAXAXAXAXAXAXAXAX",
"AXAXAXAXAXAXAXAXAXAXAXAXAXAXAXAXAXAXAXAXAXAXAXAXAXAXZXnX] =                               X w ..L.E.T.I.I.I.I.I.I.I.I.I.I.I.U.I.^.M.S.F.C.C.C.C.C.C.C.C.C.C.C.C.C.C.C.C.C.C.C.C.C.C.C.C.D.A.m.I.U.T.I.I.I.I.I.I.I.I.I.I.I.I.I.I.I.I.I.I.I.I.I.I.W.!.aXhXkXjXjXjXjXjXjXjXjXjXjXjXjXjXjXfXuXwXqX9X9XqX9X9XqXqXqXqXqXqXqXqXqXqXqXqXqXqXqXqXqXqXqXeXf.G.Y.~.I.I.T.T.I.I.I.I.I.I.I.I.I.I.I.I.I.I.I.I.I.I.I.I.I.I.I.I.I.I.I.I.I.I.I.I.I.I.I.I.~.I.J.i.y.r.e.r.r.r.e.r.p.G.K.T.T.I.I.I.I.I.I.I.I.I.I.I.T.T.H.@.A M M M M M M M M M M M M M M M M M M M M M M M B B v w @             O ( cXVXAXAXAXAXAXAXAXAXAXAXAXAXAXAXAXAXAX",
"AXAXAXAXAXAXAXAXAXAXAXAXAXAXAXAXAXAXAXAXAXAXAXAXAXAXAXnX] =                               X w ..L.E.T.I.I.I.I.I.I.I.I.I.I.I.U.I.^.M.S.F.C.C.C.C.C.C.C.C.C.C.C.C.C.C.C.C.C.C.C.C.C.C.C.C.D.A.m.I.U.Y.I.I.I.I.I.I.I.I.I.I.I.I.I.I.I.I.I.I.I.I.I.I.W.!.aXhXkXjXjXjXjXjXjXjXjXjXjXjXjXjXjXfXuXwX9X9X9X9X9X9X9X9XqXqXqXqXqXqXqXqXqXqXqXqXqXqXqXqXqXeXf.G.Y.I.T.T.T.T.I.I.I.I.I.I.I.I.I.I.I.I.I.I.I.I.I.I.I.I.I.I.I.I.I.I.I.I.I.I.I.T.T.T./././.~.J.i.y.r.e.r.r.r.e.r.p.G.K.T.T.I.I.I.I.I.I.I.I.I.I.I.T.T.H.@.A M M M M M M M M M M M M M M M M M M M M M M M B B v w @             O ( cXCXAXAXAXAXAXAXAXAXAXAXAXAXAXAXAXAXAX",
"AXAXAXAXAXAXAXAXAXAXAXAXAXAXAXAXAXAXAXAXAXAXAXAXAXAXZXnX_ *                               + w ..L.E.T.I.I.I.I.I.I.I.I.I.I.I.U.I.^.M.S.F.C.C.C.C.C.C.C.C.C.C.C.C.C.C.C.C.C.C.C.C.C.C.C.C.D.A.m.I.U.Y.I.I.I.I.I.I.I.I.I.I.I.I.I.I.I.I.I.I.I.I.I.I.W.!.aXhXkXkXjXjXjXjXjXjXjXjXjXjXjXjXjXfXpXrXqX9XqXqXqXqXqXqXqXqXqXqXqXqXqXqXqXqXqXqXqXqXqXqXqXeXf.G.Y.I.I.I.I.I.I.I.I.I.I.I.I.I.I.I.I.I.I.I.I.I.I.I.I.I.I.I.I.I.I.I.I.I.I.I.I.P.P.P.I.I.I.I.J.i.y.r.e.r.r.r.r.r.p.G.K.T.T.I.I.I.I.I.I.I.I.I.I.I.T.T.H.@.A B M M M M M M M M M M M M M M M M M M M M M M B B v w @             O ( cXBXAXAXAXAXAXAXAXAXAXAXAXAXAXAXAXAXAX",
"AXAXAXAXAXAXAXAXAXAXAXAXAXAXAXAXAXAXCXBXMXmXMXMXMXMXmXxX( *             . @ - : , : : - - 1 v o.L.T.T.I.I.I.I.I.I.I.I.I.I.I.U.I.^.M.S.F.C.C.C.C.C.C.C.C.C.C.C.C.C.C.C.C.C.C.C.C.C.C.C.C.D.A.m.I.U.Y.I.I.I.I.I.I.I.I.I.I.I.I.I.I.I.I.I.I.I.I.I.I.W.!.aXhXkXkXjXjXjXjXjXjXjXjXjXjXjXjXjXfXpXyXrXwXwXrXrXrXrXwXwXqXqXqXqXqXqXqXqXqXqXqXqXqXqXqXqXeXf.G.Y.I.I.I.I.I.I.I.I.I.I.I.I.I.I.I.I.I.I.I.I.I.I.I.I.I.I.I.I.I.I.I.I.I.I.P.J.G.G.G.G.G.G.G.G.p.y.r.e.r.r.r.r.r.p.G.K.T.T.I.I.I.I.I.I.I.I.I.I.I.T.I.L.#.X.A A A A A A A A A A A A A A A A A C B M M M M B B v q @               0 { nXMXMXMXMXmXMXBXVXZXAXAXAXAXAXAXAXAX",
"AXAXAXAXAXAXAXAXAXAXAXAXAXAXAXAXAXCXmXcX} { { { } } { _ 8 O             + , t M B M M M M C ..$.P.T.T.I.I.I.I.I.I.I.I.I.I.I.U.I.^.M.V.C.C.C.C.C.C.C.C.C.C.C.C.C.C.C.C.C.C.C.C.C.C.C.C.C.D.A.m.I.U.T.I.I.I.I.I.I.I.I.I.I.I.I.I.I.I.I.I.I.T.T.I.I.W.!.dXhXkXkXjXjXjXjXjXjXjXjXjXjXjXjXjXgXfXpXuXuXuXuXpXpXuXyXwXqXqXqXqXqXqXqXqXqXqXqXqXqXqXqXqXeXf.G.Y.I.I.I.I.I.I.I.I.I.I.I.I.I.I.I.I.I.I.I.I.I.I.I.I.I.I.I.I.I.I.I.I.I.P.J.v.i.p.p.p.u.u.u.p.y.y.r.r.r.r.e.e.r.p.v.K.I.T.I.I.I.I.I.I.I.I.I.I.I.I.I.P.2.#.O.O.O.O.O.O.O.O.O.O.O.O.O.O.O.O.o.A C M M M M V V v w @               = ( ] { } { { { { xXnXVXAXAXAXAXAXAXAXAX",
"AXAXAXAXAXAXAXAXAXAXAXAXAXAXAXAXAXVXvX_ 8 = 7 7 7 7 7 = O               @ t ..#.$.$.#.#.#.$.2.L.I.I.I.I.I.I.I.I.I.I.I.I.I.I.U.I.^.M.V.C.C.C.C.C.C.C.C.C.C.C.C.C.C.C.C.C.C.C.C.C.C.C.C.C.D.A.m.I.U.T.I.I.I.I.I.I.I.I.I.I.I.I.I.I.I.I.I.I.T.T.I.I.W.!.dXhXkXkXjXjXjXjXjXjXjXjXjXjXjXjXjXjXgXfXfXfXfXfXfXfXpXpXrXqX9X9XqXqXqXqXqXqXqXqXqXqXqXqXqXeXf.G.Y.I.I.I.I.I.I.I.I.I.I.I.I.I.I.I.I.I.I.I.I.I.I.I.I.I.I.I.I.I.I.I.I.I.P.G.u.y.y.y.y.y.y.y.y.y.r.r.r.r.r.e.e.r.p.v.K.I.T.I.I.I.I.I.I.I.I.I.I.I.I.I.I.L.L.H.H.H.H.H.H.H.H.H.H.H.H.H.H.H.H.$.X.Z M M M M V V v w @               O * 7 7 7 7 7 = 7 ( xXBXAXAXAXAXAXAXAXAX",
"AXAXAXAXAXAXAXAXAXAXAXAXAXAXAXAXAXVXcX0                                 - v #.T./.T.T.T.T.T.I.I.I.I.I.I.I.I.I.I.I.I.I.I.I.I.U.I.^.M.S.F.C.C.C.C.C.C.C.C.C.C.C.C.C.C.C.C.C.C.C.C.C.C.C.C.D.A.m.I.U.T.I.I.I.I.I.I.I.I.I.I.I.I.I.I.I.I.I.I.I.I.I.I.W.!.aXhXkXjXjXjXjXjXjXjXjXjXjXjXjXjXjXjXjXjXjXjXjXjXlXlXgXpXrXwX9X9XqXqXqXqXqXqXqXqXqXqXqXqXqXeXf.G.Y.I.I.I.I.I.I.I.I.I.I.I.I.I.I.I.I.I.I.I.I.I.I.I.I.I.I.I.I.I.T.I.I.T.P.G.p.y.e.e.r.r.r.r.r.r.r.r.r.r.r.e.e.r.p.G.K.I.T.I.I.I.I.I.I.I.I.I.I.I.I.I.I.I.I.I.I.I.I.I.I.I.I.I.I.I.I.I.T.T.I.H.O.Z M M M M V B v w - .                               7 { MXAXAXAXAXAXAXAXAX",
"AXAXAXAXAXAXAXAXAXAXAXAXAXAXAXAXAXVXcX0                                 - M #./././.E././.T.T.T.I.I.I.I.I.I.I.I.I.I.I.I.I.I.U.I.^.M.S.F.C.C.C.C.C.C.C.C.C.C.C.C.C.C.C.C.C.C.C.C.C.C.C.C.D.A.m.I.U.T.I.I.I.I.I.I.I.I.I.I.I.I.I.I.I.I.I.I.I.I.I.I.W.!.aXhXkXjXjXjXjXjXjXjXjXjXjXjXjXjXjXjXjXjXjXjXjXjXlXlXgXpXyXwX9X9XqXqXqXqXqXqXqXqXqXqXqXqXqXeXf.G.Y.I.I.I.I.I.I.I.I.I.I.I.I.I.I.I.I.I.I.I.I.I.I.I.I.I.I.I.I.I.P.I.I.T.P.G.p.y.e.e.e.e.e.e.e.r.r.r.r.r.r.e.e.y.p.v.K.T.T.I.I.I.I.I.I.I.I.I.I.I.I.I.I.I.T.T.T.T.T.T.T.T.T.T.T.T.T.T.T.E.T.H.O.A M M M M B B v w - .                               = { mXAXAXAXAXAXAXAXAX",
"AXAXAXAXAXAXAXAXAXAXAXAXAXAXAXAXAXVXcX0                                 - v #.T./.T.T.T.T.T.I.I.I.I.I.I.I.I.I.I.I.I.I.I.I.I.U.I.^.M.S.F.C.C.C.C.C.C.C.C.C.C.C.C.C.C.C.C.C.C.C.C.C.C.C.C.D.A.m.I.U.T.I.I.I.I.I.I.I.I.I.I.I.I.I.I.I.I.I.I.I.I.I.I.W.!.dXhXkXkXjXjXjXjXjXjXjXjXjXjXjXjXjXjXjXjXjXjXjXjXjXlXgXpXyXwX9X9XqXqXqXqXqXqXqXqXqXqXqXqXqXeXf.G.Y.~.I.T.T.T.I.I.I.I.I.I.I.I.I.I.I.I.I.I.I.I.I.I.I.I.I.I.I.I.I.I.I.T.P.G.p.y.r.e.r.r.r.r.r.r.r.r.r.r.r.r.r.y.p.G.K.I.I.P.I.I.I.I.I.I.I.I.I.I.I.I.I.I.I.I.I.I.I.I.I.I.I.I.I.I.I.I.T.T.I.H.O.Z M M M M B B v w -                                 7 { mXAXAXAXAXAXAXAXAX",
"AXAXAXAXAXAXAXAXAXAXAXAXAXAXAXAXAXVXcX( O                               - v #.I./.T.I.I.I.I.I.I.I.I.I.I.I.I.I.I.I.I.I.I.I.I.U.I.^.M.S.C.C.C.C.C.C.C.C.C.C.C.C.C.C.C.C.C.C.C.C.C.C.C.C.C.D.A.m.I.U.Y.I.I.I.I.I.I.I.I.I.I.I.I.I.I.I.I.I.I.I.I.I.I.W.!.aXhXkXkXjXjXjXjXjXjXjXjXjXjXjXjXjXjXjXjXjXjXjXjXjXjXgXpXrXwX9X9XqXqXqXqXqXqXqXqXqXqXqXqXqXeXf.G.Y.~.T.T.T.T.I.I.I.I.I.I.I.I.I.I.I.I.I.I.I.I.I.I.I.I.I.I.I.I.I.I.I.T.P.G.p.y.r.e.r.r.r.r.r.r.r.r.r.r.r.r.r.y.p.G.K.T.I.I.I.I.I.I.I.I.I.I.I.I.I.I.I.I.I.I.I.I.I.I.I.I.I.I.I.I.I.I.I.T.I.H.O.Z M M M M B B v w @                                 7 { MXAXAXAXAXAXAXAXAX",
"AXAXAXAXAXAXAXAXAXAXAXAXAXAXAXAXAXVXcX( O                               @ v @.I./.T.I.I.I.I.I.I.I.I.I.I.I.I.I.I.I.I.I.I.I.I.U.I.^.M.V.Z.C.C.Z.Z.C.C.C.C.C.C.C.C.C.C.C.C.C.C.C.C.C.C.C.C.D.A.m.I.U.U.Y.I.U.Y.T.I.I.I.I.I.I.I.I.I.I.I.I.I.I.I.I.I.W.!.dXhXkXkXjXjXjXjXjXjXjXjXjXjXjXjXjXjXjXjXjXjXjXjXjXjXgXpXrXwX9X9XqXqXqXqXqXqXqXqXqXqXqXqXqX0Xf.G.Y.~.I.I.I.I.I.I.I.I.I.I.I.I.I.I.I.I.I.I.I.I.I.I.I.I.I.I.I.I.I.I.I.T.P.G.p.y.r.e.r.r.r.r.r.r.r.r.r.r.r.e.e.r.p.G.P.T./.T.T.T./.T././.T.T.T.T.T.T.T.T.T.T./.T.T.T.T.T.I.I.I.I.I.I.I.T.I.H.O.Z M M M M B B v 2 @                                 7 { MXAXAXAXAXAXAXAXAX",
"AXAXAXAXAXAXAXAXAXAXAXAXAXAXAXAXAXVXcX( O                               $ v @.I./.T.I.I.I.I.I.I.I.I.I.I.I.I.I.I.I.I.I.I.I.I.U.I.^.M.V.C.C.C.C.C.C.C.C.C.C.C.C.C.C.C.C.C.C.C.C.C.C.C.C.C.D.A.m.I.U.Y.T.T.T.T.T.I.I.I.I.I.I.I.I.I.I.I.I.I.I.I.I.I.W.!.dXhXkXkXjXjXjXjXjXjXjXjXjXjXjXjXjXjXjXjXjXjXjXjXjXjXgXpXrXwX9X9XqXqXqXqXqXqXqXqXqXqXqXqXqXeXf.G.Y.~.I.I.I.I.I.I.I.I.I.I.I.I.I.I.I.I.I.I.I.I.I.I.I.I.I.I.I.I.I.I.I.T.P.G.p.y.r.e.r.r.r.r.r.r.r.r.r.r.r.e.e.r.p.G.K.T./.I.I.I.I.I.I.I.I.I.I.I.I.I.I.I.I.I.I.I.I.I.I.I.I.I.I.I.I.I.I.T.I.H.O.Z M M M M B B v w @                                 7 { MXAXAXAXAXAXAXAXAX",
"AXAXAXAXAXAXAXAXAXAXAXAXAXAXAXAXAXVXcX( O             . X @ @ @ @ @ + @ , B #.I.T.T.I.I.I.I.I.I.I.I.I.I.I.I.I.I.I.I.I.I.I.I.Y.I.^.M.S.V.V.V.V.V.V.V.V.C.C.C.C.C.C.C.C.C.C.C.C.C.C.C.C.C.D.A.m.^.R.R.^.^.^.^.R.R.I.I.I.I.I.I.I.I.I.I.I.I.I.I.I.I.W.!.aXhXkXjXjXjXjXjXjXjXjXjXjXjXjXjXjXjXjXjXjXjXjXjXjXjXgXpXrXwX9X9XqXqXqXqX0X0X0Xa.a.a.a.a.a.s.g.G.Y.I.I.I.I.I.I.I.I.I.I.I.I.I.I.I.I.I.I.I.I.I.I.I.I.I.I.I.I.I.I.I.I.T.P.G.p.y.r.e.r.r.r.r.r.r.r.r.r.r.r.r.r.r.p.i.G.K.K.J.J.J.K.K.K.K.K.K.K.K.J.J.J.J.K.K.K.K.J.J.J.J.K.P.P.I.I.I.I.T.I.H.O.A M M M M B B v w - + X X X X X X X                 7 { MXAXAXAXAXAXAXAXAX",
"AXAXAXAXAXAXAXAXAXAXAXAXAXAXAXAXAXVXcX( O             @ , w r r r r e r M ..2.I.T.I.I.I.I.I.I.I.I.I.I.I.I.I.I.I.I.I.I.I.I.I.T.I.R.m.M.N.N.N.N.N.N.N.B.V.C.C.C.C.C.C.C.C.C.C.C.C.C.C.C.C.D.S.A.M.M.M.M.M.M.M.m.^.I.I.I.I.I.I.I.I.I.I.I.I.I.I.I.I.W.!.aXhXkXjXjXjXjXjXjXjXjXjXjXjXjXjXjXjXjXjXjXjXjXjXjXjXgXpXrXwX9X9XqXqXqXqX0X/ / / / / / / / / ' G.Y.I.I.I.I.I.I.I.I.I.I.I.I.I.I.I.I.I.I.I.I.I.I.I.I.I.I.I.I.I.I.I.I.T.P.G.p.y.r.e.r.r.r.r.r.r.r.r.r.r.r.r.r.r.y.p.i.i.i.i.i.i.i.i.i.i.i.i.i.i.i.i.i.i.i.i.i.i.i.i.i.i.G.J.P.I.I.I.I.T.I.H.O.A M M M M B M M t 2 , : : , , , : - +               7 { MXAXAXAXAXAXAXAXAX",
"AXAXAXAXAXAXAXAXAXAXAXAXAXAXAXAXAXVXcX( O             : v A o.o.o.o.X.o.O.$.L.I.T.I.I.I.I.I.I.I.I.I.I.I.I.I.I.I.I.I.I.I.I.I.T.I.b.b.n.c.c.c.c.c.c.c.N.B.F.C.C.C.C.C.C.C.C.C.C.C.C.C.C.C.F.D.V.S.S.S.S.S.S.S.A.m.R.T.T.I.I.I.I.I.I.I.I.I.I.I.I.I.W.!.aXhXkXjXjXjXjXjXjXjXjXjXjXjXjXjXjXjXjXjXjXjXjXjXjXjXgXpXrXwX9X9XqXqXqXqXa./ _ m m m m m m _ ' 2.P.I.I.I.I.I.I.I.I.I.I.I.I.I.I.I.I.I.I.I.I.I.I.I.I.I.I.I.I.I.I.I.I.T.P.G.p.y.r.e.r.r.r.r.r.r.r.r.r.r.r.r.r.r.y.y.y.p.y.y.y.y.y.y.y.y.y.p.y.y.y.y.y.y.y.y.y.y.y.y.y.p.u.G.K.I.I.I.I.T.I.H.O.A M M M M M M M v t r r r r r r r 2 - X             7 { MXAXAXAXAXAXAXAXAX",
"AXAXAXAXAXAXAXAXAXAXAXAXAXAXAXAXAXVXcX( O           X 1 Z $.I.I.L.L.L.L.P.P.I.I.I.I.I.I.I.I.I.I.I.I.I.I.I.I.I.I.I.I.I.I.I.I.T.I.b.b.v.z.z.z.z.z.z.x.c.N.F.C.C.C.C.C.C.C.C.C.C.C.C.C.C.C.C.C.F.F.F.F.F.C.C.D.S.m.R.Y.Y.I.I.I.I.I.I.I.I.I.I.I.I.I.W.!.aXhXkXjXjXjXjXjXjXjXjXjXjXjXjXjXjXjXjXjXjXjXjXjXjXjXgXpXrXwX9X9XqXqXqX0X/ / m M M M M M M C ..$.P.T.T.I.I.I.I.I.I.I.I.I.I.I.I.I.I.I.I.I.I.I.I.I.I.I.I.I.I.I.I.I.I.T.P.G.p.y.r.e.r.r.r.r.r.r.r.r.r.r.r.r.r.r.r.r.r.r.r.r.r.r.r.r.r.r.r.r.r.r.r.r.r.r.r.r.r.r.r.r.r.r.p.i.K.T.T.I.I.T.I.H.O.A M M M M M M M M M M M M M M M M r : X             7 { MXAXAXAXAXAXAXAXAX",
"AXAXAXAXAXAXAXAXAXAXAXAXAXAXAXAXAXVXcX(             X 2 A H././././././.T.T.I.I.I.I.I.I.I.I.I.I.I.I.I.I.I.I.I.I.I.I.I.I.I.I.T.I.b.b.k.h.h.h.h.h.h.z.c.N.F.C.C.C.C.C.C.C.C.C.C.C.C.C.C.C.C.C.C.C.C.C.C.C.C.C.S.M.R.Y.Y.I.I.I.I.I.I.I.I.I.I.I.I.I.W.!.aXhXkXkXjXjXjXjXjXjXjXjXjXjXjXjXjXjXjXjXjXjXjXjXjXjXgXpXrXwX9X9XqXqXqXqX/ / m B M B B M M Z X.$.P.I.T.I.I.I.I.I.I.I.I.I.I.I.I.I.I.I.I.I.I.I.I.I.I.I.I.I.I.I.I.I.I.I.P.G.p.y.r.e.r.r.r.r.r.r.r.r.r.r.r.r.r.r.r.r.e.e.e.e.e.e.e.e.e.e.e.e.e.e.e.e.e.e.e.e.e.e.e.e.e.r.p.i.K.T.T.I.I.T.I.H.O.Z M M M M M M M M V V V V V C C M r , X             7 { MXAXAXAXAXAXAXAXAX",
"AXAXAXAXAXAXAXAXAXAXAXAXAXAXAXAXAXVXcX( O           . 1 A H././.T.T.T.T.T.T.I.I.I.I.I.I.I.I.I.I.I.I.I.I.I.I.I.I.I.I.I.I.I.I.T.I.b.b.k.z.h.h.h.h.h.z.c.N.F.C.C.C.C.C.C.C.C.C.C.C.C.C.C.C.C.C.C.C.C.C.C.C.C.F.S.M.R.Y.Y.I.I.I.I.I.I.I.I.I.I.I.I.I.W.!.aXhXkXkXjXjXjXjXjXjXjXjXjXjXjXjXjXjXjXjXjXjXjXjXjXjXgXpXrXwX9X9XqXqXqXqX/ / m B B B B M M Z X.$.P.I.T.I.I.I.I.I.I.I.I.I.I.I.I.I.I.I.I.I.I.I.I.I.I.I.I.I.I.I.I.I.I.I.P.G.p.y.r.e.r.r.r.r.r.r.r.r.r.r.r.r.r.r.r.r.r.r.r.r.r.r.r.r.r.r.r.r.r.r.r.r.r.r.r.r.r.r.r.e.e.r.p.i.K.T.T.I.I.T.I.H.O.Z M M M M M M M M M B B B B V C M r , X             7 { MXAXAXAXAXAXAXAXAX",
"AXAXAXAXAXAXAXAXAXAXAXAXAXAXAXAXAXVXcX( O           . 1 A H.T.T.I.I.I.I.I.I.I.I.I.I.I.I.I.I.I.I.I.I.I.I.I.I.I.I.I.I.I.I.I.I.T.I.P.b.v.z.z.z.z.h.h.x.c.N.F.C.C.C.C.C.C.C.C.C.C.C.C.C.C.C.C.C.C.C.C.C.C.C.C.D.S.M.R.Y.Y.I.I.I.I.I.I.I.I.I.I.I.I.I.W.!.aXhXkXkXjXjXjXjXjXjXjXjXjXjXjXjXjXjXjXjXjXjXjXjXjXjXgXpXrXwX9X9XqXqXqXqX/ / m M B M M M M Z X.$.P.I.T.I.I.I.I.I.I.I.I.I.I.I.I.I.I.I.I.I.I.I.I.I.I.I.I.I.I.I.I.I.I.I.P.G.p.y.r.e.r.r.r.r.r.r.r.r.r.r.r.r.r.r.r.r.r.r.r.r.r.r.r.r.r.r.r.r.r.r.r.r.r.r.r.r.r.r.r.e.e.r.p.i.K.T.I.I.I.I.I.H.O.Z M M M M M M M M M M M M M B V M r , X             7 { MXAXAXAXAXAXAXAXAX",
"AXAXAXAXAXAXAXAXAXAXAXAXAXAXAXAXAXVXcX( O           . 1 A 2.T.T.I.I.I.I.I.I.I.I.I.I.I.I.I.I.I.I.I.I.I.I.I.I.I.I.T.T.T.T.T.T.T.T.P.b.v.z.z.z.z.h.h.x.c.N.F.C.C.C.C.C.C.C.C.C.C.C.C.C.C.C.C.C.C.C.C.C.C.C.C.F.S.M.R.Y.Y.I.I.I.I.I.I.I.I.I.I.I.I.I.W.!.dXhXkXkXkXkXkXkXkXkXkXkXkXjXkXkXkXkXjXjXjXjXjXjXjXjXgXpXrXwX9X9XqXqXqXqX/ / m B B B B M B Z X.$.P.I.T.I.I.I.I.I.I.I.I.I.I.I.I.I.I.I.I.I.I.I.I.I.I.I.I.I.I.I.I.I.I.I.P.G.p.y.r.e.r.r.r.r.r.r.r.r.r.r.r.r.r.r.r.r.r.r.r.r.r.r.r.r.r.r.r.r.r.r.r.r.r.r.r.r.r.r.r.r.e.r.p.i.K./.~.I.I.T.I.2.O.Z M M M M M M M M M M M M M B B M r : X             7 { MXAXAXAXAXAXAXAXAX",
"AXAXAXAXAXAXAXAXAXAXAXAXAXAXAXAXAXCXcX( O           . 1 A 2.T.T.I.I.I.I.I.I.I.I.I.I.I.I.I.I.I.I.I.I.I.I.I.I.I.I.T.Y.U.U.U.U.U.U.P.b.v.z.z.z.z.h.h.x.c.N.F.C.C.C.C.C.C.C.C.C.C.C.C.C.C.C.C.C.C.C.C.C.C.C.C.F.S.M.R.Y.Y.I.I.I.I.I.I.I.I.I.I.I.I.I.W.!.dXjXkXkXkXkXkXkXkXkXkXkXkXkXkXkXkXkXjXjXjXjXjXjXjXjXgXpXrXwXqX9XqXqXqX0X/ _ m B B B B M M Z X.$.P.I.I.I.I.I.I.I.I.I.I.I.I.I.I.I.I.I.I.I.I.I.I.I.I.I.I.I.I.I.I.I.I./.P.G.p.y.r.e.r.r.r.r.r.r.r.r.r.r.r.r.r.r.r.r.r.r.r.r.r.r.r.r.r.r.r.r.r.r.r.r.r.r.r.r.r.r.r.r.e.r.p.i.K././.T.T./.T.2.O.A M M M M M M M M M M M M M B V M r , X             7 { MXAXAXAXAXAXAXAXAX",
"AXAXAXAXAXAXAXAXAXAXZXZXZXZXZXAXAXBXxX0 O           . 1 A 2.T.T.I.I.I.I.I.I.I.I.I.I.I.I.I.I.I.I.I.I.I.I.I.I.I.I.I.I.R.R.R.R.R.R.b.b.x.z.z.z.z.h.h.x.c.N.F.C.C.C.C.C.C.C.C.C.C.C.C.C.C.C.C.C.C.C.C.C.C.C.C.F.S.M.R.Y.Y.I.I.I.I.I.I.I.I.I.I.I.I.I.W.!.aXhXjXhXhXhXhXhXhXhXhXhXhXhXhXhXhXhXhXjXjXjXjXjXjXjXgXpXrXwX9X9XqXqXqX0X/ / m M V M M M M C X.2.P.I.I.I.I.I.I.I.I.I.I.I.I.I.I.I.I.I.I.I.I.I.I.I.I.I.I.I.I.I.I.I.I.T.P.G.p.y.r.e.r.r.r.r.r.r.r.r.r.r.r.r.r.r.r.r.r.r.r.r.r.r.r.r.r.r.r.r.r.r.r.r.r.r.r.r.r.r.r.r.e.r.p.i.J.P.P.P.P.P.P.H.o.Z M M M M M M M M M M M M M B B M r , X             7 { MXAXAXAXAXAXAXAXAX",
"AXAXAXAXAXAXAXAXCXBXmXnXnXnXnXnXnXvX] 8             . 1 A 2.T.T.I.I.I.I.I.I.I.I.I.I.I.I.I.I.I.I.I.I.I.I.I.I.I.R.^.m.m.m.m.m.m.m.m.n.x.z.h.z.z.h.h.x.c.N.F.C.C.C.C.C.C.C.C.C.C.C.C.C.C.C.C.C.C.C.C.C.C.C.C.F.S.M.R.Y.Y.I.I.I.I.I.I.I.I.I.I.I.I.I.W.!.iXaXdXdXaXaXdXdXaXaXaXaXaXaXaXaXaXdXdXhXjXjXjXjXjXjXgXpXrXwX9X9XqXqXqXqXa./ _ m m m ( ( ( _ ' H.P.I.I.I.I.I.I.I.I.I.I.I.I.I.I.I.I.I.I.I.I.I.I.I.I.I.I.I.I.I.I.I.I.T.P.G.p.y.r.e.r.r.r.r.r.w.0.0.0.0.0.0.0.0.w.w.r.r.r.r.r.r.r.r.w.0.0.0.0.0.0.0.0.0.0.0.0.0.0.0.0.0.q.u.i.G.G.G.G.G.G.v.F V M M M M M M M M M M M M M B B M r , X             7 { MXAXAXAXAXAXAXAXAX",
"AXAXAXAXAXAXAXAXBXbX{ _ _ _ ] ] ] _ 0 =             . 1 A 2.T.T.I.I.I.I.I.I.I.I.I.I.I.I.I.I.I.I.I.I.I.I.I.T.I.^.M.A.A.A.A.A.S.A.A.n.x.z.h.z.z.h.z.x.c.N.F.C.C.C.C.C.C.C.C.C.C.C.C.C.C.C.C.C.C.C.C.C.C.C.C.F.S.M.R.Y.Y.I.I.I.I.I.I.I.I.I.I.I.I.I.Y.W.!.!.!.!.!.!.!.!.!.!.!.!.!.!.!.!.!.iXaXdXjXjXjXjXjXjXgXpXrXwX9X9XqXqXqXqX0X/ / / / / / / / / [ G.P.I.I.I.I.I.I.I.I.I.I.I.I.I.I.I.I.I.I.I.I.I.I.I.I.I.I.I.I.I.I.I.I.T.P.G.p.y.r.e.r.r.r.r.r.0.9.z x x x x x z 9.w.r.r.r.r.r.r.r.w.0.9.x x x x x x x x x x x x x x x z 9.q.p.p.p.p.p.p.p.u.D V M M M M M M M M M M M M M B B M r , X             7 { MXAXAXAXAXAXAXAXAX",
"AXAXAXAXAXAXAXAXMXzX0 * * * = = = * O               . 1 A H.T.T.I.I.I.I.I.I.I.I.I.I.I.I.I.I.I.I.I.I.I.I.T.Y.I.m.A.V.D.F.D.D.D.D.B.N.c.z.h.h.z.h.z.x.c.N.F.C.C.C.C.C.C.C.C.C.C.C.C.C.C.C.C.C.C.C.C.C.C.C.C.F.S.M.R.Y.Y.I.I.I.I.I.I.I.I.I.I.I.I.I.I.Y.Y.W.W.W.W.W.W.W.W.W.W.W.W.W.W.Y.W.Q.iXdXjXkXjXjXjXjXgXpXrXqX9X9XqXqXqXqX0X0X0X0X0X0X0X0X0Xs.f.G.Y.I.I.I.I.I.I.I.I.I.I.I.I.I.I.I.I.I.I.I.I.I.I.I.I.I.I.I.I.I.I.I.I.T.P.G.p.y.r.e.r.r.r.r.w.9.l h h h h h h l z 0.r.r.r.r.r.r.r.w.9.l h h h h h h h h h h h h h h h h x 0.w.y.y.y.y.r.y.y.c D M B M M M M M M M M M M M B B M r , X             7 { MXAXAXAXAXAXAXAXAX",
"AXAXAXAXAXAXAXAXmX{ 7                               . 1 A H.T.T.I.I.I.I.I.I.I.I.I.I.I.I.I.I.I.I.I.I.I.I.T.U.I.m.A.D.C.C.C.C.C.C.V.N.c.z.h.h.z.h.z.x.c.N.F.C.C.C.C.C.C.C.C.C.C.C.C.C.C.C.C.C.C.C.C.C.C.C.C.F.S.M.R.Y.Y.I.I.I.I.I.I.I.I.I.I.I.I.I.I.I.I.I.I.I.I.I.I.I.I.I.I.I.I.I.I.~.I.W.iXdXhXkXjXjXjXjXgXpXrXqX9X9XqXqXqXqXqXqXqXqXqXqXqXqXqX0Xf.G.Y.I.I.I.I.I.I.I.I.I.I.I.I.I.I.I.I.I.I.I.I.I.I.I.I.I.I.I.I.I.I.I.I./.P.G.p.y.r.e.r.r.r.r.w.9.l g f f f f f h x 0.r.r.r.r.t.r.r.0.z h f f f g g g g g g g g g g f f h l 9.w.r.e.e.e.e.e.w.q.m M B M M M M M M M M M M M B B M r , X             7 { MXAXAXAXAXAXAXAXAX",
"AXAXAXAXAXAXAXAXmX{ 7                               . 1 A H.T.T.I.I.I.I.I.I.I.I.I.I.I.I.I.I.I.I.I.I.I.I.T.U.I.m.A.D.C.C.C.C.C.C.V.N.c.z.h.h.z.h.z.x.c.N.C.C.C.C.C.C.C.C.C.C.C.C.C.C.C.C.C.C.C.C.C.C.C.C.C.F.S.M.R.T.T.I.I.I.I.I.I.I.I.I.I.I.I.I.I.I.I.I.I.I.I.I.I.I.I.I.I.I.I.I.I.~.I.W.iXdXjXkXjXjXjXjXgXpXrXwX9X9XqXqXqXqXqXqXqXqXqXqXqXqXqX0Xf.G.Y.I.I.I.I.I.I.I.I.I.I.I.I.I.I.I.I.I.I.I.I.I.I.I.I.I.I.I.I.I.I.I.I.~.P.G.p.y.r.e.r.r.r.r.w.9.l g f f f f f h x 0.r.r.r.r.r.r.r.0.z h f f f f f f f f f f f f f f f g l 9.w.e.e.e.e.e.e.w.q.m M B M M M M M M M M M M M B V M r , X             7 { MXAXAXAXAXAXAXAXAX",
"AXAXAXAXAXAXAXAXMX{ 7                               . 1 A H.T.T.I.I.I.I.I.I.I.I.I.I.I.I.I.I.I.I.I.I.I.I.T.U.I.m.A.D.C.C.C.C.C.C.V.N.c.z.h.h.z.h.z.x.c.N.F.C.C.C.C.C.C.C.C.C.C.C.C.C.C.C.C.C.C.C.C.C.C.C.C.D.S.M.^.T.I.I.I.I.I.I.I.I.I.I.I.I.I.I.I.I.I.I.I.I.I.I.I.I.I.I.I.I.I.I.I.I.I.W.iXdXjXkXjXjXjXjXgXpXrXwX9X9XqXqXqXqXqXqXqXqXqXqXqXqXqXeXf.G.Y.I.I.I.I.I.I.I.I.I.I.I.I.I.I.I.I.I.I.I.I.I.I.I.I.I.I.I.I.I.I.I.I.~.P.G.p.y.r.e.r.r.r.r.w.9.l g f g g f f h x 0.r.r.r.r.r.r.r.w.z l g f g g g g g g g g g g g f f h l 0.r.r.r.r.r.r.r.w.q.D M B M M M M M M M M M M M B V M r , X             7 { MXAXAXAXAXAXAXAXAX",
"AXAXAXAXAXAXAXAXMX{ 7                                 1 Z 2.T.T.I.I.I.I.I.I.I.I.I.I.I.I.I.I.I.I.I.I.I.I.T.U.I.m.A.D.C.C.C.C.C.C.V.N.c.z.h.h.z.h.h.x.c.N.F.C.C.C.C.C.C.C.C.C.C.C.C.C.C.C.C.C.C.C.C.C.C.C.C.F.S.M.^.T.T.T.T.T.T.I.I.I.I.I.I.I.I.I.I.I.I.I.I.I.I.I.I.I.I.I.I.I.I.I.I.I.I.W.iXdXjXkXkXjXkXkXgXpXyXqXqXqXqXqXqXqXqXqXqXqXqXqXqXqXqXeXf.G.Y.~.I.I.I.I.I.I.I.I.I.I.I.I.I.I.I.I.I.I.I.I.I.I.I.I.I.I.I.I.I.I.I.~.P.G.p.y.r.e.r.r.r.r.w.9.l g f g g f f h x 0.r.r.r.r.r.r.r.w.z l g f g g g g g g g g g g g f f h x 0.w.r.r.r.r.e.r.w.q.D M B M M M M M M M M M M M B V M r , X             7 { MXAXAXAXAXAXAXAXAX",
"AXAXAXAXAXAXAXAXMX{ 7                                 , Z 2.T.T.I.I.I.I.I.I.I.I.I.I.I.I.I.I.I.I.I.I.I.I.T.U.I.m.A.D.C.C.C.C.C.C.V.N.c.z.h.h.z.h.h.x.c.B.C.Z.Z.C.C.C.C.C.C.C.C.C.C.C.C.C.C.C.C.C.C.C.C.C.C.F.S.M.^.T.T.T.T.T.T.T.T.I.I.I.I.I.I.I.I.I.I.I.I.I.I.I.I.I.I.I.I.I.I.I.I.I.I.W.iXdXkXkXkXkXkXkXgXpXyXqXqXqXqXqXqXqXqXqXqXqXqXqXqXqXqX0Xf.G.Y.~.I.I.I.I.I.I.I.I.I.I.I.I.I.I.I.I.I.I.I.I.I.I.I.I.I.T.T.T.~.~.~.~.I.G.p.y.r.e.r.r.r.r.w.9.l g f g g f f h x 0.r.r.r.r.r.r.r.w.9.l g f g g g g g g g f f f f f f h x 9.w.e.r.r.e.e.e.w.q.D M M M M M M M M M M M M M V V M r : .             7 { NXAXAXAXAXAXAXAXAX",
"AXAXAXAXAXAXAXAXMX{ 7                               . 1 A 2.T.T.I.I.I.I.I.I.I.I.I.I.I.I.I.I.I.I.I.I.I.I.T.U.I.m.A.D.C.C.C.C.C.C.V.N.c.z.h.z.z.z.h.x.c.N.F.C.C.C.C.C.C.C.C.C.C.C.C.C.C.C.C.C.C.C.C.C.C.C.C.D.S.M.^.U.Y.I.I.I.I.I.I.I.I.I.I.I.I.I.I.I.I.I.I.I.I.I.I.I.I.I.I.I.I.I.I.I.I.W.iXdXjXkXjXjXjXjXgXpXrXwX9X9XqXqXqXqXqXqXqXqXqXqXqXqXqXeXf.G.Y.~.I.I.I.I.I.I.I.I.I.I.I.I.I.I.I.I.I.I.I.I.I.I.I.I.I.I.I.I.I.I.I.I.P.G.p.y.r.e.r.r.r.r.w.9.l g f g g f f h x 0.r.r.r.r.r.r.r.w.9.l g f g g g g g g g g g g g f f h x 0.r.r.r.r.r.r.r.w.q.D M B M M M M M M M M M M M B V M r , X             7 { MXAXAXAXAXAXAXAXAX",
"AXAXAXAXAXAXAXAXMX{ 7               X @ - - - - @ @ : r ..H.T.T.I.I.I.I.I.I.I.I.I.I.I.I.I.I.I.I.I.I.I.I.T.U.I.m.A.D.C.C.C.C.C.C.V.N.c.z.h.z.z.z.h.x.c.N.B.V.V.V.V.V.V.V.V.V.V.V.V.V.V.V.V.V.V.V.V.V.V.V.V.B.A.m.b.P.b.b.b.b.b.P.P.I.I.I.I.I.I.I.I.I.I.I.I.I.I.I.I.I.I.I.I.I.I.I.I.I.I.W.!.aXdXdXdXdXdXdXdXdXtXeXs.s.s.s.s.s.s.s.a.a.a.a.a.a./ s.g.G.Y.~.I.I.I.I.I.I.I.I.I.I.I.I.I.I.I.I.I.I.I.I.I.I.I.P.K.J.G.G.G.G.G.J.G.i.p.w.w.0.w.w.w.w.0.z l g g g g g g h l 9.0.w.w.w.w.w.w.0.x h g f g g g g g j j j j j j j j j x q.y.y.y.y.y.y.y.q.u.D A Z Z A A A Z C V M M M M B V M t 1 @ + + + + X + 7 ] bXMXBXBXBXBXBXBXBX",
"AXAXAXAXAXAXAXAXMX{ 7             X - w v M v v v v M A @.L.T.T.I.I.I.I.I.I.I.I.I.I.I.I.I.I.I.I.I.I.I.I.T.U.I.m.A.D.C.C.C.C.C.C.V.N.c.z.h.h.z.h.h.z.c.c.N.N.N.N.N.N.N.N.N.N.N.N.N.N.N.N.N.N.N.N.N.N.N.N.N.N.n.n.b.b.b.b.b.b.b.b.b.P.I.T.I.I.I.T.I.I.I.I.I.I.I.I.I.I.I.I.I.I.I.I.I.I.I.W.Q.!.iXiXiXiXiXiXiXg.g.g.g.g.g.g.g.g.g.] / / / / / / / _ ' G.P.I.I.I.I.I.I.I.I.I.I.I.I.I.I.I.I.I.I.I.I.I.I.I.I.P.G.i.i.u.u.u.i.i.u.p.q.9.9.9.9.9.9.9.z l h g g g g g g h l x z 9.9.9.9.9.9.z l h g g g g g g h j k k k k k k k k c u.u.i.i.u.u.u.i.i.i.+.o.O.O.O.O.O.o...Z B M M M M B M v e 2 , , , , , , 9 ) [ } zXzXzXzXzX} } ",
"AXAXAXAXAXAXAXAXMX{ 7             + w Z O.#.#.#.@.@.#.$.H.P.I.I.I.I.I.I.I.I.I.I.I.I.I.I.I.I.I.I.I.I.I.I.T.U.I.m.A.D.C.C.C.C.C.C.V.N.c.z.h.h.z.z.z.z.z.x.c.c.c.c.c.c.c.c.c.c.c.c.c.c.c.c.c.c.c.c.c.c.c.c.c.c.x.x.x.k.k.k.k.k.k.v.b.P.I.T.I.I.T.T.I.I.I.I.I.I.I.I.I.I.I.I.I.I.I.I.I.I.T.Y.W.W.W.Q.W.W.Q.Q.W.Q.W.J.J.J.J.J.J.J.G.' m m m m m m m Z X.2.P.I.I.I.I.I.I.I.I.I.I.I.I.I.I.I.I.I.I.I.I.I.I.T.I.K.G.p.y.y.y.y.y.y.y.q.9.l l l l l l l l h h g g g g g g g h h l l l l l l l l h h g g g g g g j k t n b n n n n n D +.b.G.G.G.G.G.G.J.J.H.H.2.H.H.H.H.$.O.A V M M M M M M M v v t t v v v t r e 9 8 8 8 8 8 8 8 8 ",
"AXAXAXAXAXAXAXAXMX{ 7             @ r o.P.E.T.I.I.I.I.I.I.I.I.I.I.I.I.I.I.I.I.I.I.I.I.I.I.I.I.I.I.I.I.I.T.U.I.m.A.D.C.C.C.C.C.C.V.N.c.z.h.h.z.z.z.z.z.z.z.z.z.z.z.z.z.h.h.h.z.h.z.z.z.z.z.h.h.h.z.z.z.z.h.h.z.z.z.z.z.z.z.z.z.k.b.b.I.T.T.I.I.I.I.I.I.I.I.I.I.I.I.I.I.I.I.I.I.I.I.I.I.I.I.I.I.I.T.T.T.T.I.I.I.I.I.T.T.T.T.Y.2.o.Z M M M M M M Z X.$.P.I.T.I.I.I.I.I.I.I.I.I.I.I.I.I.I.I.I.I.I.I.I.T.T.K.i.p.r.e.r.r.r.r.r.0.z h g f g g g g g g g g g g g g g g g g g g g g g g g g g g g g g g f g j k n M M M M M M B ..#.L.T.T.I.I.I.I.I.I.I.I.I.I.I.T.T.L.#.A V M M M M M M M M M M M M M V B v 2 @                 ",
"AXAXAXAXAXAXAXAXMX{ 7             @ t O.I./././././.E.E.T.I.I.I.I.I.I.I.I.I.I.I.I.I.I.I.I.I.I.I.I.I.I.I.T.U.I.m.A.D.C.C.C.C.C.C.V.N.c.z.h.h.z.z.z.z.z.h.h.h.h.h.h.h.h.h.h.h.h.h.h.h.h.h.h.h.h.h.h.h.h.h.h.h.h.h.l.z.z.z.l.l.l.k.b.b.I.T.T.I.I.I.I.I.I.I.I.I.I.I.I.I.I.I.I.I.I.I.I.I.I.I.I.I.I.I.I.I.I.I.I.I.I.I.I.I.T.I.I.I.$.o.Z B M M B B B Z X.$.P.T.T.I.I.I.I.I.I.I.I.I.I.I.I.I.I.I.I.I.I.I.I.T.T.K.i.p.r.e.e.e.e.e.e.0.z h f f f f f f f f g g g g g g g g g g f f f f f f f f g g g g g g f g j k n M B B B M M B ..$.I././.T.T.T.~.I.I.I.T.I.I.I.T.T.L.#.A V M M M M M M M B B V B B C C C v , +                 ",
"AXAXAXAXAXAXAXAXMX{ 7             @ r o.P././.T.T.T.T.T.I.I.I.I.I.I.I.I.I.I.I.I.I.I.I.I.I.I.I.I.I.I.I.I.Y.U.I.m.A.D.C.C.C.C.C.C.V.N.c.z.h.h.z.z.z.z.z.z.z.z.z.z.z.z.z.z.h.h.h.h.z.z.z.z.z.z.z.z.z.z.z.z.h.z.z.z.z.z.z.z.z.l.z.k.b.b.I.T.T.I.I.I.I.I.I.I.I.I.I.I.I.I.I.I.I.I.I.I.I.I.I.I.I.I.I.I.I.I.I.I.I.I.I.I.I.I.I.I.T.P.$.o.Z M M M M M M Z X.$.P.T.T.I.I.I.I.I.I.I.I.I.I.I.I.I.I.I.I.I.I.I.I.T.T.K.i.p.r.e.e.r.r.r.r.0.z h f f g g g g g g g g g g g g g g g g g g g g g g g g g g g g g g f g j k n M B B M M M B A #.L.T.T.I.I.I.I.I.I.I.I.I.I.I.T.T.L.#.A C M M M M M M M B B B M M B C B v 1 +                 ",
"AXAXAXAXAXAXAXAXMX{ 7             @ r o.L./.T.I.I.I.I.I.I.I.I.I.I.I.I.I.I.I.I.I.I.I.I.I.I.I.I.I.I.I.I.I.T.U.I.m.A.D.C.C.C.C.C.C.V.N.c.z.h.h.z.z.z.z.z.z.z.z.z.z.z.z.z.z.h.h.z.z.z.z.z.z.z.z.z.z.z.z.z.z.z.z.z.z.z.z.z.z.z.z.z.k.b.b.I.T.T.I.I.I.I.I.I.I.I.I.I.I.I.I.I.I.I.I.I.I.I.I.I.I.I.I.I.I.I.I.I.I.I.I.I.I.I.I.I.T.T.P.2.o.Z M M M M M M C X.$.P.T.T.I.I.I.I.I.I.I.I.I.I.I.I.I.I.I.I.I.I.I.I.T.T.K.i.p.r.e.r.r.r.r.r.0.z h g f g g g g g g g g g g g g g g g g g g g g g g g g g g g g g g f g j k n M B M M M M B A #.L.T.T.I.I.I.I.I.I.I.I.I.I.I.T.T.L.#.A V M M M M M M M M M M M M M V M v 2 @                 ",
"AXAXAXAXAXAXAXAXMX} 7             @ r o.I././.T.T.T.T.T.T.I.I.I.I.I.I.I.I.I.I.I.I.I.I.I.I.I.I.I.I.I.I.I.Y.U.I.m.A.D.C.C.C.C.C.C.V.N.c.z.h.h.z.z.z.z.z.z.z.z.z.z.z.z.z.z.z.z.z.z.z.z.z.z.z.z.z.z.z.z.z.z.z.z.z.z.z.z.z.z.z.z.z.k.b.b.I.T.T.I.I.I.I.I.I.I.I.I.I.I.I.I.I.I.I.I.I.I.I.I.I.I.I.I.I.I.I.I.I.I.I.I.I.I.I.I.I.T.T.I.2.o.C M M M M M M C ..$.P.T.T.I.I.I.I.I.I.I.I.I.I.I.I.I.I.I.I.I.I.I.I.T.T.K.i.p.r.e.r.r.r.r.r.0.z h g f g g g g g g g f f f f f f f g g g g g g g g g g g g g g g g f g j k n M M M M M M M A #.L.T.T.I.I.I.I.I.I.I.I.I.I.I.T.T.L.#.A B M M M M M M M M M M M M M V M v 2 @                 ",
"AXAXAXAXAXAXAXAXMX} 7             @ r o.I././.T.T.T.T.T.T.I.I.I.I.I.I.I.I.I.I.I.I.I.I.I.I.I.I.I.I.I.I.I.T.U.I.m.A.D.C.C.C.C.C.C.V.N.c.z.h.h.z.z.z.z.z.z.z.z.z.z.z.z.z.z.z.z.z.z.z.z.z.z.z.z.z.z.z.z.z.z.z.z.z.z.z.z.z.z.z.z.z.v.b.b.I.T.T.I.I.I.I.I.I.I.I.I.I.I.I.I.I.I.I.I.I.I.I.I.I.I.I.I.I.I.I.I.I.I.I.I.I.I.I.I.I.T.T.I.2.o.C M M M M M M C X.$.P.T.T.I.I.I.I.I.I.I.I.I.I.I.I.I.I.I.I.I.I.I.I.T.T.K.i.p.r.e.e.r.r.r.r.0.z h g f g g g g g g g g f f g f f g g g g g g g g g g g g g g g g g f g j k n M M M M M M B A #.L.T.T.I.I.I.I.I.I.I.I.I.I.I.T.T.L.#.A B M M M M M M M M M M M M M V M v 2 @                 ",
"CXCXCXCXCXCXZXVXnX] 7             @ w A $.H.H.2.2.2.2.H.L.I.I.I.I.I.I.I.I.I.I.I.I.I.I.I.I.I.I.I.I.I.I.I.T.U.I.m.A.D.C.C.C.C.C.C.V.N.c.z.h.h.z.z.z.z.z.z.z.z.z.z.z.z.z.z.z.z.z.z.z.z.z.z.z.h.h.h.h.h.h.h.h.h.h.z.z.z.z.z.z.z.z.v.b.b.T.T.T.I.I.I.I.I.I.I.I.I.I.I.I.I.I.I.I.I.I.I.I.I.I.I.I.I.I.I.I.I.I.I.I.I.I.I.I.I.I.I.T.I.2.O.A C C C C C C A o.$.P.T.T.I.I.I.I.I.I.I.I.I.I.I.I.I.I.I.I.I.I.I.I.T.T.K.i.p.r.w.w.r.r.r.w.0.x h g f g g g g g h h h h h h h h h h h g g g g g g g g g g g g g g f g j k n C Z Z C V C Z ..#.L.T.T.I.I.I.I.I.I.I.I.I.I.I.T.T.L.#...Z C C C C C C C B M M M M M V M v 2 @                 ",
"vXvXvXvXvXvXvXcX} ( =             X , v Z A A A Z Z A X.$.L.T.T.I.I.I.I.I.I.I.I.I.I.I.I.I.I.I.I.I.I.I.I.T.U.I.m.A.D.C.C.C.C.C.C.V.N.c.z.h.h.z.z.z.z.z.z.z.z.z.z.z.z.z.z.z.z.z.z.z.z.z.z.h.h. . . . . . . . .j.h.h.z.z.z.z.z.z.v.b.b.T.T.T.I.I.I.I.I.I.I.I.I.I.I.I.I.I.I.I.I.I.I.I.I.I.I.I.I.I.I.I.I.I.I.I.I.I.I.I.I.I.I.T.I.H.#.o.............o.#.H.I.T.I.I.I.I.I.I.I.I.I.I.I.I.I.I.I.I.I.I.I.I.I.T.T.K.i.q.0.0.9.0.0.0.9.9.l h g g g g g g h l l x z z x z z x l h h g g g g g g g g g g g g g f g j c V ..X...........O.$.L.T.T.I.I.I.I.I.I.I.I.I.I.I.T.T.L.$.O...............A Z V M M M M V M v 2 @                 ",
"( ( ( ( ( ( ( ( 0 7 O               @ : 1 2 1 1 , , 2 v X.H.T.T.I.I.I.I.I.I.I.I.I.I.I.I.I.I.I.I.I.I.I.I.T.U.I.m.A.D.C.C.C.C.C.C.V.N.c.z.h.h.z.z.z.z.z.z.z.z.z.z.z.z.z.z.z.z.z.z.z.z.z.z.h. .F A Z A A Z A A F j.h.z.z.z.z.z.z.k.b.b.T.T.T.I.I.I.I.I.I.I.I.I.I.I.I.I.I.I.I.I.I.I.I.I.I.I.I.I.I.I.I.I.I.I.I.I.I.I.I.I.I.I.I.I.L.H.$.$.$.$.$.$.$.$.H.L.I.I.I.I.I.I.I.I.I.I.I.I.I.I.I.I.I.I.I.I.I.I.I.T.T.H.i.c x l l x x x l l h h g g g g g g h x 9.0.0.0.0.0.0.0.9.l h g g g g g g g g g g g g g f f j c F #.2.$.$.#.$.$.2.L.P.I.I.I.I.I.I.I.I.I.I.I.I.I.I.I.P.L.$.$.$.$.$.$.$.#.O.A C M M M M V M v 2 @                 ",
"O O O O O O O O O                       . X . .     + 2 A 2.T.T.I.I.I.I.I.I.I.I.I.I.I.I.I.I.I.I.I.I.I.I.T.U.I.m.A.D.C.C.C.C.C.C.V.N.c.z.h.h.z.z.z.z.z.z.z.z.z.z.z.z.z.z.z.z.z.z.z.z.z.z.h. .A V M M V M M V A  .h.z.z.z.z.z.z.k.b.b.I.T.T.I.I.I.I.I.I.I.I.I.I.I.I.I.I.I.I.I.I.I.I.I.I.I.I.I.I.I.I.I.I.I.I.I.I.I.I.I.I.I.I.I.I.P.P.P.P.P.P.P.P.P.P.I.I.I.I.I.I.I.I.I.I.I.I.I.I.I.I.I.I.I.I.I.I.I.I.T.T.H.F c j f f h h h h h h g g g g g f g l z 0.r.r.r.r.r.r.w.0.x h f f g g g g g g g g g g g f f j D +.L.T.I.P.P.P.P.P.I.I.I.I.I.I.I.I.I.I.I.I.I.I.I.I.I.I.I.P.P.P.P.P.P.I.L.$...C M M M M V M v 2 @                 ",
"                                                      , Z 2.E.T.I.I.I.I.I.I.I.I.I.I.I.I.I.I.I.I.I.I.I.I.T.U.I.m.A.D.C.C.C.C.C.C.V.N.c.z.h.h.z.z.z.z.z.z.z.z.z.z.z.z.z.z.z.z.z.z.z.z.z.z.j.F Z M M M M M M M Z F h.z.z.z.z.z.z.k.b.b.I.T.T.T.I.I.I.I.I.I.I.I.I.I.I.I.I.I.I.I.I.I.I.I.I.I.I.I.I.I.I.I.I.I.I.I.I.I.I.I.I.I.I.I.I.T.T.T.T.T.T.T.T.T.T.I.I.I.I.I.I.I.I.I.I.I.I.I.I.I.I.I.I.I.I.I.I.I.I.T.T.H.F c j f f f f f f g g g g g g g f g l 9.w.r.r.r.r.r.r.r.0.x h f f g g g g g g g g h h h f g j D +.P./.T.T.T.T.T.T.I.I.I.I.I.I.I.I.I.I.I.I.I.I.I.I.I.I.I.T.T.T.T.T.T.T.I.$.o.Z M M M M B M v 2 @                 ",
"                                                      1 Z 2.E./.I.I.I.I.I.I.I.I.I.I.I.I.I.I.I.I.I.I.I.I.T.U.I.m.A.D.C.C.C.C.C.C.V.N.c.z.h.h.z.z.z.z.z.z.z.z.z.z.z.z.z.z.z.z.z.z.z.z.z.z.j.F Z M M M M M M M A  .h.z.z.z.z.z.z.k.b.b.I.T.T.T.I.I.I.I.I.I.I.I.I.I.I.I.I.I.I.I.I.I.I.I.I.I.I.I.I.I.I.I.I.I.I.I.I.I.I.I.I.I.I.I.I.I.T.T.T.T.T.T.T.T.I.I.I.I.I.I.I.I.I.I.I.I.I.I.I.I.I.I.I.I.I.I.I.I.I.T.T.H.F c j f f g g g g g g g g g g g f g l 9.w.r.r.r.r.r.r.r.0.x h f f g g g g g g g g h h h f g j D +.P./.T.T.T.T.T.T.I.I.I.I.I.I.I.I.I.I.I.I.I.I.I.I.I.I.I.T.T.T.T.T.T.T.I.$.o.Z M M M M B M v 2 @                 ",
"                                                    X 1 A 2.T./.I.I.I.I.I.I.I.I.I.I.I.I.I.I.I.I.I.I.I.I.T.U.I.m.A.D.C.C.C.C.C.C.V.N.c.z.h.h.z.z.z.z.z.z.z.z.z.z.z.z.z.z.z.z.z.z.z.z.z.z.j. .Z B M M M M M V A  .h.z.z.z.z.z.z.k.b.b.T.T.T.T.I.I.I.I.I.I.I.I.I.I.I.I.I.I.I.I.I.I.I.I.I.I.I.I.I.I.I.I.I.I.I.I.I.I.I.I.I.I.I.I.I.I.I.I.I.I.I.I.I.I.I.I.I.I.I.I.I.I.I.I.I.I.I.I.I.I.I.I.I.I.I.I.I.I.I.T.T.H.F c j f f g g g g g g g g g g f f g l 9.w.r.r.r.r.r.r.r.0.x h f f g g g g g g g g g h h f f j D +.P.T.T.I.I.I.I.I.I.I.I.I.I.I.I.I.I.I.I.I.I.I.I.I.I.I.I.I.I.I.I.I.T.T.P.$.X.Z M M M M B M v 2 @                 ",
"                                                      1 Z 2.E.T.I.I.I.I.I.I.I.I.I.I.I.I.I.I.I.I.I.I.I.I.T.U.I.m.A.D.C.C.C.C.C.C.V.N.c.z.h.h.z.z.z.z.z.z.z.z.z.z.z.z.z.z.z.z.z.z.z.z.z.z.j. .Z M M M M M M M A F h.z.z.z.z.l.z.k.b.b.T.T.T.T.I.I.I.I.I.I.I.I.I.I.I.I.I.I.I.I.I.I.I.I.I.I.I.I.I.I.I.I.I.I.I.I.I.I.I.I.I.I.I.I.I.I.I.I.I.I.I.I.I.I.I.I.I.I.I.I.I.I.I.I.I.I.I.I.I.I.I.I.I.I.I.I.I.I.I.T.T.H.F c j f f g g g g g g g g g g f f f l 9.0.r.r.r.r.r.r.r.0.x h f f g g g f f f f f f f f f f j D +.P.T.T.I.I.I.I.I.I.I.I.I.I.I.I.I.I.I.I.I.I.I.I.I.I.I.I.I.I.I.I.I.T.T.P.$.X.Z M M M M V M v 2 @                 ",
"                                                      , Z 2.T.T.I.I.I.I.I.I.I.I.I.I.I.I.I.I.I.I.I.I.I.I.T.U.I.m.A.D.C.C.C.C.C.C.V.N.c.z.h.h.l.l.z.z.z.z.l.l.l.l.z.z.z.z.z.z.z.z.z.z.z.z.h.F V M M M M M M M Z F h.z.z.z.l.l.l.k.b.b.I.T.T.I.I.I.I.I.I.I.I.I.I.I.I.I.I.I.I.I.I.I.I.I.I.I.I.I.I.I.I.I.I.I.I.I.I.I.I.I.I.I.I.I.I.I.I.I.I.I.I.I.I.I.I.I.I.I.I.I.I.I.I.I.I.I.I.I.I.I.I.I.I.I.I.I.I.I.I.T.T.H.F c j f f f f f f g g g g g g g f g l 9.0.e.e.e.e.e.e.w.0.x h f f f f f f f f f f f f f f f j D +.P.T.T.I.I.I.I.I.I.I.I.I.I.I.I.I.I.I.I.I.I.I.I.I.I.I.I.I.I.I.I.I.T.T.P.$...C M M M M V M v 2 @                 ",
"                                                    X 2 A 2.T.T.I.I.I.I.I.I.I.I.I.I.I.I.I.I.I.I.I.I.I.I.T.U.I.m.A.V.C.C.F.F.C.F.V.N.c.k.h.z.z.z.z.z.z.z.z.z.z.z.z.z.z.z.z.z.z.z.z.z.z.z.h.F Z V M B B M M V A  .j.z.z.z.z.z.z.v.b.b.I.T.T.I.I.I.I.I.I.I.I.I.I.I.I.I.I.I.I.I.I.I.I.I.I.I.I.I.I.I.I.I.I.I.I.I.I.I.I.I.I.I.I.I.I.I.I.I.I.I.I.I.I.I.I.I.I.I.I.I.I.I.I.I.I.I.I.I.I.I.I.I.I.I.I.I.I.I.I.T.T.H.F c j f h h h h h h g g g g g g f g l z 0.r.r.r.r.r.r.r.0.x h f f g g g g h h h g g h h g h k D +.P.T.T.T.T.I.I.I.I.I.I.I.I.I.I.I.I.I.I.I.I.I.I.I.I.I.I.I.I.I.I.I.T.T.P.$.X.Z M M M M V M v 2 @                 ",
"                X @ : , , , , , , , , , , , , , , , 1 v ..H.T.T.I.I.I.I.I.I.I.I.I.I.I.I.I.I.I.I.I.I.I.I.T.Y.I.^.M.S.S.S.S.S.S.S.A.M.n.v.v.v.v.v.v.v.v.v.v.v.v.v.v.v.v.v.j.j. . .j. .j.j. . .A A A A A A A A  .+.v.v.v.v.v.v.v.b.b.P.I.T.I.I.I.I.I.I.I.I.I.I.I.I.I.I.I.I.I.I.I.I.I.I.I.I.I.I.I.I.I.I.I.I.I.I.I.I.I.I.I.I.I.I.I.I.I.I.I.I.I.I.I.I.I.I.I.I.I.I.I.I.I.I.I.I.I.I.I.I.I.I.I.I.I.I.I.I.I.T.T.K.F c x l l l l l l l h h g g g g f g j x q.y.p.y.y.y.y.y.q.c k j j k k k k k k c c c c c c c c F b.P.T.T.T.T.T.I.I.I.I.I.I.I.I.I.I.I.I.I.I.I.I.I.I.I.I.I.I.I.I.I.I.T.T.P.$.X.Z M M M M V M v 2 @                 ",
"                @ 2 v C Z C C C C C C C C C C C C C Z ..#.L.T.T.I.I.I.I.I.I.I.I.I.I.I.I.I.I.I.I.I.I.I.I.I.T.I.R.m.M.M.M.M.M.M.M.M.m.b.b.b.b.b.b.b.b.b.b.b.b.b.b.b.b.b.v.+.F F A F F F F F  .o.@.#.@.O.@.@.@.#.b.b.b.b.b.b.b.b.b.b.P.I.T.I.I.I.I.I.I.I.I.I.I.I.I.I.I.I.I.I.I.I.I.I.I.I.I.I.I.I.I.I.I.I.I.I.I.I.I.I.I.I.I.I.I.I.I.I.I.I.I.I.I.I.I.I.I.I.I.I.I.I.I.I.I.I.I.I.I.I.I.I.I.I.I.I.I.I.I.I.T.T.K.i.q.9.9.9.9.9.9.9.z l h g g g g f g j c u.i.i.i.i.i.i.i.u.D m k k m k t m m D F F F F F F F F +.H.P.T.I.T.T.T.T.I.I.I.I.I.I.I.I.I.I.I.I.I.I.I.I.I.I.I.I.I.I.I.I.I.T.T.P.$.X.Z M M M M V M v 2 @                 ",
"                - v o.$.2.$.$.$.2.2.2.$.$.$.$.$.$.$.$.H.L.P.I.I.I.I.I.I.I.I.I.I.I.I.I.I.I.I.I.I.I.I.I.I.I.I.I.I.R.^.^.^.^.^.^.^.R.R.P.P.P.P.P.P.P.P.P.P.P.P.P.P.P.P.P.b.o.Z V V V V V V A X.#.H.L.L.H.H.H.L.L.P.P.P.P.P.P.P.P.P.P.I.I.I.I.I.I.I.I.I.I.I.I.I.I.I.I.I.I.I.I.I.I.I.I.I.I.I.I.I.I.I.I.I.I.I.I.I.I.I.I.I.I.I.I.I.I.I.I.I.I.I.I.I.I.I.I.I.I.I.I.I.I.I.I.I.I.I.I.I.I.I.I.I.I.I.I.I.I.I.I.T.T.K.i.p.r.w.w.w.w.r.w.0.x h g f g g f h j D v.K.K.J.J.K.K.J.+.F V b b b b b b V X.#.H.H.H.H.H.H.H.K.P.P.I.I.I.I.I.I.I.I.I.I.I.I.I.I.I.I.I.I.I.I.I.I.I.I.I.I.I.I.I.I.I.T.T.P.$.X.Z M M M M V M v 2 @                 ",
"                : M $.E./.T.T.T.T.T.T.T.T.T.T.T.T.T.T.T.I.I.I.I.I.I.I.I.I.I.I.I.I.I.I.I.I.I.I.I.I.I.I.I.I.I.I.I.I.T.T.T.T.T.T.T.I.I.I.I.T.T.T.T.I.I.I.I.T.T.T.T.I.T.I.2.o.Z M M M M M M C X.$.I.T.I.T.T.T.T.T.T.I.I.I.I.T.T.T.T.I.I.I.I.I.I.I.I.I.I.I.I.I.I.I.I.I.I.I.I.I.I.I.I.I.I.I.I.I.I.I.I.I.I.I.I.I.I.I.I.I.I.I.I.I.I.I.I.I.I.I.I.I.I.I.I.I.I.I.I.I.I.I.I.I.I.I.I.I.I.I.I.I.I.I.I.I.I.I.I.I.T.T.K.i.p.r.e.r.r.r.r.r.0.z h g f g f f h k D @.I./.T.T.T.T.L.$...V M M M M M B A O.L.T.T.T.T.T.T.T.T.I.I.I.I.I.I.I.I.I.I.I.I.I.I.I.I.I.I.I.I.I.I.I.I.I.I.I.I.I.I.I.I.I.T.T.P.$.X.Z M M M M V M v 2 @                 ",
"                : B $./././.E.E.E.E./.E.E.E.E.E.E.E.T.T.T.I.I.I.I.I.I.I.I.I.I.I.I.I.I.I.I.I.I.I.I.I.I.I.I.I.I.P.T.U.U.U.Y.Y.U.Y.P.P.T.T.T.T.T.T.T.T.T.T.T.T.T.T.T.T.I.2.o.Z M M M M M M Z X.2.I.T.T.T.T.T.T.I.I.T.T.T.T.T.T.T.T.T.I.T.I.I.I.I.I.I.I.I.I.I.I.I.I.I.I.I.I.I.I.I.I.I.I.I.I.I.I.I.I.I.I.I.I.I.I.I.I.I.I.I.I.I.I.I.I.I.I.I.I.I.I.I.I.I.I.I.I.I.I.I.I.I.I.I.I.I.I.I.I.I.I.I.I.I.I.I.I.I.T.T.K.i.p.r.e.r.r.r.r.r.w.z h g f h h f h k D #.T././.T././.I.$...C M B B M M B A @.L././.T.T.T.T.T.T.I.I.I.I.I.I.I.I.I.I.I.I.I.I.I.I.I.I.I.I.I.I.I.I.I.I.I.I.I.I.I.I.I.T.T.P.$.X.Z M M M M V M v 2 @                 ",
"                : M #.T./.T.I.I.I.I.I.I.I.I.I.I.I.I.I.I.I.I.I.I.I.I.I.I.I.I.I.I.I.I.I.I.I.I.I.I.I.I.I.I.I.I.I.I.I.I.I.I.I.I.I.I.I.P.I.I.I.I.I.I.I.I.I.I.I.I.I.I.I.I.I.$.o.Z M M M M M M Z X.$.I.T.T.I.I.I.I.I.I.I.I.I.I.I.I.I.I.T.I.I.I.I.I.I.I.I.I.I.I.I.I.I.I.I.I.I.I.I.I.I.I.I.I.I.I.I.I.I.I.I.I.I.I.I.I.I.I.I.I.I.I.I.I.I.I.I.I.I.I.I.I.I.I.I.I.I.I.I.I.I.I.I.I.I.I.I.I.I.I.I.I.I.I.I.I.I.I.I.T.I.K.i.p.r.e.r.r.r.r.r.0.z h h g h h f h k D v.I./.T.T.T.T.L.#...C M M M M M M A O.H.T.T.T.I.T.T.T.T.I.I.I.I.I.I.I.I.I.I.I.I.I.I.I.I.I.I.I.I.I.I.I.I.I.I.I.I.I.I.I.I.I.T.T.P.$.X.Z M M M M V M v 2 @                 ",
"                : M #.T.E.T.I.I.I.I.I.I.I.I.I.I.I.I.I.I.I.I.I.I.I.I.I.I.I.I.I.I.I.I.I.I.I.I.I.I.I.I.I.I.I.I.I.I.I.I.I.I.I.I.I.I.I.I.I.I.I.I.I.I.I.I.I.I.I.I.I.I.T.T.I.2.o.Z M M M M M M C ..$.I.T.T.I.I.I.I.I.I.I.I.I.I.I.I.I.I.I.I.I.I.I.I.I.I.I.I.I.I.I.I.I.I.I.I.I.I.I.I.I.I.I.I.I.I.I.I.I.I.I.I.I.I.I.I.I.I.I.I.I.I.I.I.I.I.I.I.I.I.I.I.I.I.I.I.I.I.I.I.I.I.I.I.I.I.I.I.I.I.I.I.I.I.I.I.I.I.I.I.I.K.i.p.r.e.e.r.r.r.r.0.z h h f h f f f k D @.P.T.T.I.T.T.L.#...C M M M M M M A O.H.I.T.I.I.I.I.I.I.I.I.I.I.I.I.I.I.I.I.I.I.I.I.I.I.I.I.I.I.I.I.I.I.I.I.I.I.I.I.I.I.I.T.T.P.$.X.Z M M M M B M v 2 @                 ",
"                : M #.T.E.T.I.I.I.I.I.I.I.I.I.I.I.I.I.I.I.I.I.I.I.I.I.I.I.I.I.I.I.I.I.I.I.I.I.I.I.I.I.I.I.I.I.I.I.I.I.I.I.I.I.I.I.I.I.I.I.I.I.I.I.I.I.I.I.I.I.I.T.T.I.2.o.Z M M M M M M C ..$.P.T.T.I.I.I.I.I.I.I.I.I.I.I.I.I.I.I.I.I.I.I.I.I.I.I.I.I.I.I.I.I.I.I.I.I.I.I.I.I.I.I.I.I.I.I.I.I.I.I.I.I.I.I.I.I.I.I.I.I.I.I.I.I.I.I.I.I.I.I.I.I.I.I.I.I.I.I.I.I.I.I.I.I.I.I.I.I.I.I.I.I.I.I.I.I.I.I.I.I.K.i.p.r.e.e.e.e.e.e.0.z h f f f f f f j D @.P./.T.I.T.T.L.#.A B M M M M v M A O.H.I.T.I.I.I.I.I.I.I.I.I.I.I.I.I.I.I.I.I.I.I.I.I.I.I.I.I.I.I.I.I.I.I.I.I.I.I.I.I.I.I.T.T.P.$.X.Z M M M M V M v 2 @                 ",
"                : M #.T.E.T.I.I.I.I.I.I.I.I.I.I.I.I.I.I.I.I.I.I.I.I.I.I.I.I.I.I.I.I.I.I.I.I.I.I.I.I.I.I.I.I.I.I.I.I.I.I.I.I.I.I.I.I.I.I.I.I.I.I.I.I.I.I.I.I.I.I.T.T.I.2.o.Z M M M M M M C ..$.P.T.T.I.I.I.I.I.I.I.I.I.I.I.I.I.I.I.I.I.I.I.I.I.I.I.I.I.I.I.I.I.I.I.I.I.I.I.I.I.I.I.I.I.I.I.I.I.I.I.I.I.I.I.I.I.I.I.I.I.I.I.I.I.I.I.I.I.I.I.I.I.I.I.I.I.I.I.I.I.I.I.I.I.I.I.I.I.I.I.I.I.I.I.I.I.I.I.I.T.K.i.p.r.e.e.r.r.r.r.0.z h f h g f f f k D @.P.T.T.I.T.T.L.#...B M M M M M M A O.H.I.T.I.I.I.I.I.I.I.I.I.I.I.I.I.I.I.I.I.I.I.I.I.I.I.I.I.I.I.I.I.I.I.I.I.I.I.I.I.I.I.T.T.P.$.X.Z M M M M V M v 2 @                 ",
"                : M #.T.E.T.I.I.I.I.I.I.I.I.I.I.I.I.I.I.I.I.I.I.I.I.I.I.I.I.I.I.I.I.I.I.I.I.I.I.I.I.I.I.I.I.I.I.I.I.I.I.I.I.I.I.I.I.I.I.I.I.I.I.I.I.I.I.I.I.I.I.I.T.I.H.O.A Z Z Z Z Z Z A o.$.P.T.T.I.I.I.I.I.I.I.I.I.I.I.I.I.I.I.I.I.I.I.I.I.I.I.I.I.I.I.I.I.I.I.I.I.I.I.I.I.I.I.I.I.I.I.I.I.I.I.I.I.I.I.I.I.I.I.I.I.I.I.I.I.I.I.I.I.I.I.I.I.I.I.I.I.I.I.I.I.I.I.I.I.I.I.I.I.I.I.I.I.I.I.I.I.I.I.I.I.K.G.p.y.y.y.y.y.y.y.q.x c k k k k j k c D b.P.T.T.I.T.T.L.$.X.A Z Z Z Z Z Z ..#.H.I.T.I.I.I.I.I.I.I.I.I.I.I.I.I.I.I.I.I.I.I.I.I.I.I.I.I.I.I.I.I.I.I.I.I.I.I.I.I.I.I.T.T.P.$.X.Z M M M M V M v 2 @                 ",
"                : M #.T.E.T.I.I.I.I.I.I.I.I.I.I.I.I.I.I.I.I.I.I.I.I.I.I.I.I.I.I.I.I.I.I.I.I.I.I.I.I.I.I.I.I.I.I.I.I.I.I.I.I.I.I.I.I.I.I.I.I.I.I.I.I.I.I.I.I.I.I.I.T.I.H.$.O.o.o.o.o.o.o.O.#.H.I.T.I.I.I.I.I.I.I.I.I.I.I.I.I.I.I.I.I.I.I.I.I.I.I.I.I.I.I.I.I.I.I.I.I.I.I.I.I.I.I.I.I.I.I.I.I.I.I.I.I.I.I.I.I.I.I.I.I.I.I.I.I.I.I.I.I.I.I.I.I.I.I.I.I.I.I.I.I.I.I.I.I.I.I.I.I.I.I.I.I.I.I.I.I.I.I.I.I.I.P.G.i.u.p.p.u.p.p.p.u.u.D D D D D D D D +.H.I.T.I.I.I.T.P.H.#.o.o.o.o.o.o.o.@.$.L.I.T.I.I.I.I.I.I.I.I.I.I.I.I.I.I.I.I.I.I.I.I.I.I.I.I.I.I.I.I.I.I.I.I.I.I.I.I.I.I.I.T.T.P.$.X.Z M M M M V M v 2 @                 ",
"                : M #.T.E.T.I.I.I.I.I.I.I.I.I.I.I.I.I.I.I.I.I.I.I.I.I.I.I.I.I.I.I.I.I.I.I.I.I.I.I.I.I.I.I.I.I.I.I.I.I.I.I.I.I.I.I.I.I.I.I.I.I.I.I.I.I.I.I.I.I.I.I.I.I.P.H.H.2.$.2.2.2.2.2.H.P.I.I.I.I.I.I.I.I.I.I.I.I.I.I.I.I.I.I.I.I.I.I.I.I.I.I.I.I.I.I.I.I.I.I.I.I.I.I.I.I.I.I.I.I.I.I.I.I.I.I.I.I.I.I.I.I.I.I.I.I.I.I.I.I.I.I.I.I.I.I.I.I.I.I.I.I.I.I.I.I.I.I.I.I.I.I.I.I.I.I.I.I.I.I.I.I.I.I.I.I.P.K.J.G.G.G.G.G.G.G.G.b.v.@.@.@.v.@.@.b.H.P.I.I.I.I.I.I.I.L.H.2.2.2.2.2.2.2.H.L.P.I.I.I.I.I.I.I.I.I.I.I.I.I.I.I.I.I.I.I.I.I.I.I.I.I.I.I.I.I.I.I.I.I.I.I.I.I.I.I.I.I.T.T.P.$.X.Z M M M M V M v 2 @                 ",
"                : M #.T.E.T.I.I.I.I.I.I.I.I.I.I.I.I.I.I.I.I.I.I.I.I.I.I.I.I.I.I.I.I.I.I.I.I.I.I.I.I.I.I.I.I.I.I.I.I.I.I.I.I.I.I.I.I.I.I.I.I.I.I.I.I.I.I.I.I.I.I.I.I.I.I.I.I.I.I.I.I.I.I.I.I.I.I.I.I.I.I.I.I.I.I.I.I.I.I.I.I.I.I.I.I.I.I.I.I.I.I.I.I.I.I.I.I.I.I.I.I.I.I.I.I.I.I.I.I.I.I.I.I.I.I.I.I.I.I.I.I.I.I.I.I.I.I.I.I.I.I.I.I.I.I.I.I.I.I.I.I.I.I.I.I.I.I.I.I.I.I.I.I.I.I.I.I.I.I.I.I.I.I.I.I.I.I.I.I.I.I.I.I.P.Y.P.P.P.P.Y.P.P.P.P.P.P.I.P.I.T.T.I.I.I.I.I.I.I.I.I.I.I.I.I.I.I.I.I.I.I.I.I.I.I.I.I.I.I.I.I.I.I.I.I.I.I.I.I.I.I.I.I.I.I.I.I.I.I.I.I.I.I.I.I.I.I.I.I.T.T.P.$.X.Z M M M M V M v 1 @                 ",
"                : M #.T.E.T.I.I.I.I.I.I.I.I.I.I.I.I.I.I.I.I.I.I.I.I.I.I.I.I.I.I.I.I.I.I.I.I.I.I.I.I.I.I.I.I.I.I.I.I.I.I.I.I.I.I.I.I.I.I.I.I.I.I.I.I.I.I.I.I.I.I.I.I.I.I.T.T.T.T.T.T.T.T.T.T.I.I.I.I.I.I.I.I.I.I.I.I.I.I.I.I.I.I.I.I.I.I.I.I.I.I.I.I.I.I.I.I.I.I.I.I.I.I.I.I.I.I.I.I.I.I.I.I.I.I.I.I.I.I.I.I.I.I.I.I.I.I.I.I.I.I.I.I.I.I.I.I.I.I.I.I.I.I.I.I.I.I.I.I.I.I.I.I.I.I.I.I.I.I.I.I.I.I.I.I.I.I.I.I.~./././.T./.T.T./.T.T.T.T.T.T.T.T.T.T.T.T.T.I.I.I.I.I.T.T.T.T.T.T.T.T.T.T.I.I.I.I.I.I.I.I.I.I.I.I.I.I.I.I.I.I.I.I.I.I.I.I.I.I.I.I.I.I.I.I.I.I.I.I.I.I.I.I.I.I.T.T.P.$.X.Z M M M M V M v 1 @                 ",
"                : M #.T.E.T.I.I.I.I.I.I.I.I.I.I.I.I.I.I.I.I.I.I.I.I.I.I.I.I.I.I.I.I.I.I.I.I.I.I.I.I.I.I.I.I.I.I.I.I.I.I.I.I.I.I.I.I.I.I.I.I.I.I.I.I.I.I.I.I.I.I.I.I.I.I.I.I.T.T.T.T.T.T.I.I.I.I.I.I.I.I.I.I.I.I.I.I.I.I.I.I.I.I.I.I.I.I.I.I.I.I.I.I.I.I.I.I.I.I.I.I.I.I.I.I.I.I.I.I.I.I.I.I.I.I.I.I.I.I.I.I.I.I.I.I.I.I.I.I.I.I.I.I.I.I.I.I.I.I.I.I.I.I.I.I.I.I.I.I.I.I.I.I.I.I.I.I.I.I.I.I.I.I.I.I.I.I.I.I.I.I.I.I.I.I.I.I.T.T.T.T.T.T.T.T.T.I.I.I.I.I.I.I.I.I.I.I.I.T.T.T.T.T.T.I.I.I.I.I.I.I.I.I.I.I.I.I.I.I.I.I.I.I.I.I.I.I.I.I.I.I.I.I.I.I.I.I.I.I.I.I.I.I.I.I.I.I.I.T.T.P.$.X.Z M M M M V M v 1 @                 ",
"                : M #.T.E.T.I.I.I.I.I.I.I.I.I.I.I.I.I.I.I.I.I.I.I.I.I.I.I.I.I.I.I.I.I.I.I.I.I.I.I.I.I.I.I.I.I.I.I.I.I.I.I.I.I.I.I.I.I.I.I.I.I.I.I.I.I.I.I.I.I.I.I.I.I.I.I.I.I.I.I.I.I.I.I.I.I.I.I.I.I.I.I.I.I.I.I.I.I.I.I.I.I.I.I.I.I.I.I.I.I.I.I.I.I.I.I.I.I.I.I.I.I.I.I.I.I.I.I.I.I.I.I.I.I.I.I.I.I.I.I.I.I.I.I.I.I.I.I.I.I.I.I.I.I.I.I.I.I.I.I.I.I.I.I.I.I.I.I.I.I.I.I.I.I.I.I.I.I.I.I.I.I.I.I.I.I.I.I.I.I.I.I.I.I.I.I.I.I.I.I.I.I.I.I.I.I.I.I.I.I.I.I.I.I.I.I.I.I.I.I.I.I.I.I.I.I.I.I.I.I.I.I.I.I.I.I.I.I.I.I.I.I.I.I.I.I.I.I.I.I.I.I.I.I.I.I.I.I.I.I.I.I.I.I.I.I.I.I.T.T.P.$.X.Z M M M M V M v 1 @                 ",
"                : M #.T.E.T.I.I.I.I.I.I.I.I.I.I.I.I.I.I.I.I.I.I.I.I.I.I.I.I.I.I.I.I.I.I.I.I.I.I.I.I.I.I.I.I.I.I.I.I.I.I.I.I.I.I.I.I.I.I.I.I.I.I.I.I.I.I.I.I.I.I.I.I.I.I.I.I.I.I.I.I.I.I.I.I.I.I.I.I.I.I.I.I.I.I.I.I.I.I.I.I.I.I.I.I.I.I.I.I.I.I.I.I.I.I.I.I.I.I.I.I.I.T.T.T.T.T.T.T.T.T.T.T.T.T.T.T.T.T.T.T.T.T.T.T.T.T.T.T.T.T.T.T.T.T.T.T.T.T.T.T.T.T.T.T.T.T.T.T.T.T.T.T.T.T.T.T.T.T.T.T.T.T.T.T.T.T.T.I.I.I.I.I.I.I.I.I.I.I.I.I.I.I.I.I.I.I.I.I.I.I.I.I.I.I.I.I.I.I.I.I.I.I.I.I.I.I.I.I.I.I.I.I.I.I.I.I.I.I.I.I.I.I.I.I.I.I.I.I.I.I.I.I.I.I.I.I.I.I.I.I.I.I.I.I.I.I.I.T.T.P.$.X.Z M M M M V M v 1 @                 ",
"                : M #.T.E.T.I.I.I.I.I.I.I.I.I.I.I.I.I.I.I.I.I.I.I.I.I.I.I.I.I.I.I.I.I.I.I.I.I.I.I.I.I.I.I.I.I.I.I.I.I.I.I.I.I.I.I.I.I.I.I.I.I.I.I.I.I.I.I.I.I.I.I.I.I.I.I.I.I.I.I.I.I.I.I.I.I.I.I.I.I.I.I.I.I.I.I.I.I.I.I.I.I.I.I.I.I.I.I.I.I.I.I.I.I.I.I.I.I.I.I.I.I.T.T.T.T.T.T.T.T.T.T.T.T.T.T.T.T.T.T.T.T.T.T.T.T.T.T.T.T.T.T.T.T.T.T.T.T.T.T.T.T.T.T.T.T.T.T.T.T.T.T.T.T.T.T.T.T.T.T.T.T.T.T.T.T.T.T.I.I.I.I.I.I.I.I.I.I.I.I.I.I.I.I.I.I.I.I.I.I.I.I.I.I.I.I.I.I.I.I.I.I.I.I.I.I.I.I.I.I.I.I.I.I.I.I.I.I.I.I.I.I.I.I.I.I.I.I.I.I.I.I.I.I.I.I.I.I.I.I.I.I.I.I.I.I.I.I.T.T.P.$.X.Z M M M M V M v 1 @                 ",
"                : M #.T.E.T.I.I.I.I.I.I.I.I.I.I.I.I.I.I.I.I.I.I.I.I.I.I.I.I.I.I.I.I.I.I.I.I.I.I.I.I.I.I.I.I.I.I.I.I.I.I.I.I.I.I.I.I.I.I.I.I.I.I.I.I.I.I.I.I.I.I.I.I.I.I.I.I.I.I.I.I.I.I.I.I.I.I.I.I.I.I.I.I.I.I.I.I.I.I.I.I.I.I.I.I.I.I.I.I.I.I.I.I.I.I.I.I.I.I.I.I.I.P.L.L.L.L.L.L.L.L.P.P.L.L.L.L.L.L.L.L.L.L.L.L.L.L.L.L.L.L.L.L.L.L.P.P.P.P.L.L.L.L.L.L.L.L.L.L.L.L.L.L.L.L.L.L.L.L.P.P.P.L.L.L.L.L.P.P.I.I.I.I.I.I.I.I.I.I.I.I.I.I.I.I.I.I.I.I.I.I.I.I.I.I.I.I.I.I.I.I.I.I.I.I.I.I.I.I.I.I.I.I.I.I.I.I.I.I.I.I.I.I.I.I.I.I.I.I.I.I.I.I.U.U.U.U.U.U.U.U.U.U.T.I.I.I.I.T.T.P.$.X.Z M M M M B M v 1 @                 ",
"                : M #.T.E.T.I.I.I.I.I.I.I.I.I.I.I.I.I.I.I.I.I.I.I.I.I.I.I.I.I.I.I.I.I.I.I.I.I.I.I.I.I.I.I.I.I.I.I.I.I.I.I.I.I.I.I.I.I.I.I.I.I.I.I.I.I.I.I.I.I.I.I.I.I.I.I.I.I.I.I.I.I.I.I.I.I.I.I.I.I.I.I.I.I.I.I.I.I.I.I.I.I.I.I.I.I.I.I.I.I.I.I.I.I.I.I.I.I.I.I.I.L.2.$.#.#.#.#.#.#.#.#.#.#.#.#.#.#.#.#.#.#.#.#.#.#.#.#.#.#.#.#.#.#.#.#.#.#.#.#.#.#.#.#.#.#.#.#.#.#.#.#.#.#.#.#.#.#.#.#.#.#.#.#.#.#.$.2.L.I.I.I.I.I.I.I.I.I.I.I.I.I.I.I.I.I.I.I.I.I.I.I.I.I.I.I.I.I.I.I.I.I.I.I.I.I.I.I.I.I.I.I.I.I.I.I.I.I.I.I.I.I.I.I.I.I.I.I.I.I.I.I.U.3.4.4.4.4.4.4.4.8.3.U.I.I.I.I.T.T.P.$.X.Z M M M M V M v 1 @                 ",
"                : M #.T.E.T.I.I.I.I.I.I.I.I.I.I.I.I.I.I.I.I.I.I.I.I.I.I.I.I.I.I.I.I.I.I.I.I.I.I.I.I.I.I.I.I.I.I.I.I.I.I.I.I.I.I.I.I.I.I.I.I.I.I.I.I.I.I.I.I.I.I.I.I.I.I.I.I.I.I.I.I.I.I.I.I.I.I.I.I.I.I.I.I.I.I.I.I.I.I.I.I.I.I.I.I.I.I.I.I.I.I.I.I.I.I.I.I.I.I.T.P.H.#.X...............................................................................................................................@.2.P.T.T.I.I.I.I.I.I.I.I.I.I.I.I.I.I.I.I.I.I.I.I.I.I.I.I.I.I.I.I.I.I.I.I.I.I.I.I.I.I.I.I.I.I.I.I.I.I.I.I.I.I.I.I.I.I.I.I.I.I.I.I.3.4.7.6.-.6.6.-.-.6.7.3.T.I.I.I.T.T.P.$.X.Z M M M M V M v 1 @                 ",
"                : M #.T.E.T.I.I.I.I.I.I.I.I.I.I.I.I.I.I.I.I.I.I.I.I.I.I.I.I.I.I.I.I.I.I.I.I.I.I.I.I.I.I.I.I.I.I.I.I.I.I.I.I.I.I.I.I.I.I.I.I.I.I.I.I.I.I.I.I.I.I.I.I.I.I.I.I.I.I.I.I.I.I.I.I.I.I.I.I.I.I.I.I.I.I.I.I.I.I.I.I.I.I.I.I.I.I.I.I.I.I.I.I.I.I.I.I.I.T.T.P.$.o.Z B B C C C C C V V V V C C C C C C C C C C C C C C C C C C C C C C V V C C C C C C C C C C C C C C C C C C C C V V V V C B B Z X.$.P.T.T.I.I.I.I.I.I.I.I.I.I.I.I.I.I.I.I.I.I.I.I.I.I.I.I.I.I.I.I.I.I.I.I.I.I.I.I.I.I.I.I.I.I.I.I.I.I.I.I.I.I.I.I.I.I.I.I.I.I.I.I.3.7.-.,.,.,.,.:.,.,.6.4.U.I.I.I.I.T.P.$.X.Z M M M M V M v 1 @                 ",
"                : M #.T.E.T.I.I.I.I.I.I.I.I.I.I.I.I.I.I.I.I.I.I.I.I.I.I.I.I.I.I.I.I.I.I.I.I.I.I.I.I.I.I.I.I.I.I.I.I.I.I.I.I.T.T.I.I.I.I.I.I.T.T.I.I.I.I.I.I.I.I.I.I.I.I.I.I.I.I.I.I.I.I.I.I.T.T.I.I.I.I.I.I.I.I.I.I.I.I.I.I.I.I.I.I.I.I.I.I.I.I.I.I.I.I.I.I.I.T.T.P.$...C M M M M M M M M M M M M M M M M M M M M M M M M M M M M M M M M M M M M M M M M M M M M M M M M M M M M M M M M M M M M M M C ..$.P.T.T.I.I.I.I.I.I.I.I.I.I.I.I.I.I.I.I.I.I.I.I.I.I.I.I.I.I.I.I.I.I.I.I.I.I.I.I.I.I.I.I.I.I.I.I.I.I.I.I.I.I.I.I.I.I.I.I.I.I.P.I.3.7.,.:.;.;.;.;.;.,.6.4.U.I.I.I.I.T.I.$...C M M M M V M v 1 @                 ",
"                : M #.T.E.T.I.I.I.I.I.I.I.I.I.I.I.I.I.I.I.I.I.I.I.I.I.I.I.I.I.I.I.I.I.I.I.I.I.I.I.I.I.I.I.I.I.I.I.I.I.I.I.I.I.T.I.I.I.I.I.I.T.T.I.I.I.I.I.I.I.I.I.I.I.I.I.I.I.I.I.I.I.I.I.I.I.T.I.I.I.I.I.I.I.I.I.I.I.I.I.I.I.I.I.I.I.I.I.I.I.I.I.I.I.I.I.I.I.T.T.P.$...C M M M M M M M M M M M M M M M M M M M M M M M M M M M M M M M M M M M M M M M M M M M M M M M M M M M M M M M M M M M M M M C ..$.P.T.T.I.I.I.I.I.I.I.I.I.I.I.I.I.I.I.I.I.I.I.I.I.I.I.I.I.I.I.I.I.I.I.I.I.I.I.I.I.I.I.I.I.I.I.I.I.I.I.I.I.I.I.I.I.I.I.I.I.I.I.I.3.7.,.:.;.;.;.;.;.,.6.4.U.I.I.I.T.T.P.$.X.Z M M M M V M v 1 @                 ",
"                : M #.T.E.T.I.I.I.I.I.I.I.I.I.I.I.I.I.I.I.I.I.I.I.I.I.I.I.I.I.I.I.I.I.I.I.I.I.I.T.T.T.T.I.I.I.I.I.I.I.I.I.I.T.I.I.I.I.I.I.I.T.T.I.I.I.I.I.I.I.I.T.T.T.T.I.I.I.I.I.I.I.I.I.I.T.T.I.I.I.I.I.I.I.I.I.I.I.I.I.I.I.I.I.I.I.I.I.I.I.I.I.I.I.I.I.I.I.T.T.P.$.X.Z M M M M M M M M M M M M M M M M M M M M M M M M M M M M M M M M M M M M M M M M M M M M M M M M M M M M M M M M M M M M M M C ..$.P.T.T.I.I.I.I.I.I.I.I.I.I.I.I.I.I.I.I.I.I.I.I.I.I.I.I.I.I.I.I.I.I.I.I.I.I.I.I.I.I.I.I.I.I.I.I.I.I.I.I.I.I.I.I.I.I.I.I.I.I.I.I.3.7.-.:.;.:.:.:.:.,.6.4.U.I.I.I.T.T.P.$.X.Z M M M M V M v 1 @                 ",
"                : M #.T.E.T.I.I.I.I.I.I.I.I.I.I.I.I.I.I.I.I.I.I.I.I.I.I.I.I.I.I.I.I.I.I.I.I.I.I.T.I.I.I.I.I.I.I.I.I.I.I.I.I.I.I.I.I.I.I.I.I.I.I.I.I.I.I.I.I.I.I.I.I.I.I.I.I.I.I.I.I.I.I.I.I.T.T.I.I.I.I.I.I.I.I.I.I.I.I.I.I.I.I.I.I.I.I.I.I.I.I.I.I.I.I.I.I.I.T.T.P.$.X.Z M M M M M M M M M B B B B B B B B B B B B B B M M M M B B B B B B M M B B B B B B B B B M M M M M M M M M M M M M M M M M M C ..$.P.T.T.I.I.I.I.I.I.I.I.I.I.I.I.I.I.I.I.I.I.I.I.I.I.I.I.I.I.I.I.I.I.I.I.I.I.I.I.I.I.I.I.I.I.I.I.I.I.I.I.I.I.I.I.I.I.I.I.I.I.R.I.3.7.-.:.;.:.:.;.;.,.6.4.U.I.I.I.T.T.P.$.X.Z M M M M V M v 1 @                 ",
"                : M #.T.E.T.I.I.I.I.I.I.I.I.I.I.I.I.I.I.I.I.I.I.I.I.I.I.I.I.I.I.T.T.T.T.I.I.I.I.I.I.~.I.R.R.I.R.I.I.I.I.I.I.I.I.I.I.I.I.I.I.^.I.R.R.R.R.I.I.I.I.R.I.^.I.I.I.I.R.I.I.I.I.I.I.I.T.I.I.I.I.I.I.I.I.I.I.I.I.I.I.I.I.I.I.I.I.I.I.I.I.I.I.I.I.I.I.I.T.I.P.$.X.C M M M M M M M B B B B V V V V B B B B B B V B V V V V B B B B B B B B V V V V B V V B V V M M M M M M M M M M M M M M M M M C ..$.P.T.T.I.I.I.I.I.I.I.I.I.I.I.I.I.I.I.I.I.I.I.I.I.I.I.I.I.I.I.I.I.I.I.I.I.I.I.I.I.I.I.I.I.I.I.I.I.I.I.I.I.I.I.I.I.I.I.I.I.I.R.I.3.7.-.:.;.:.:.:.:.,.6.4.U.I.I.I.T.T.P.$.X.Z M M M M V M v 2 @                 ",
"                : M #.T.E.T.I.I.I.I.I.I.I.I.I.I.I.I.I.I.I.I.I.I.I.I.I.I.I.I.I.I.T.T.T.T.I.I.T.T.T.T.T.T.T.T.T.T.Y.Y.Y.Y.T.Y.T.T.Y.Y.Y.Y.T.T.T.T.T.T.T.T.Y.Y.Y.Y.T.T.T.T.T.T.T.T.Y.Y.Y.Y.Y.T.T.T.I.I.I.I.I.I.I.I.I.I.I.I.I.I.I.I.I.I.I.I.I.I.I.I.I.I.I.I.I.I.I.T.I.P.$...C M M M M M M M M M M M M M M M M M M M M M M M M M M M M M M M M M M M M M M M M M M M M M M M M M M M M M M M M M M M M M M C ..$.P.I.T.I.I.I.I.I.I.I.I.I.I.I.I.I.I.I.I.I.I.I.I.I.I.I.I.I.I.I.I.I.I.I.I.I.I.I.I.I.I.I.I.I.I.I.I.I.I.I.I.I.I.I.I.I.I.I.I.I.I.I.I.3.7.-.:.;.:.:.:.:.,.6.4.U.I.I.I.T.T.P.$.X.Z M M M M V M v 1 @                 ",
"                : M #.T.E.T.I.I.I.I.I.I.I.I.I.I.I.I.I.I.I.I.I.I.I.I.I.I.I.I.I.I.I.I.I.I.I.Y.K.1.1.1.1.1.1.1.1.1.1.1.1.1.1.1.1.1.1.1.1.1.1.1.1.1.1.1.1.1.1.1.1.1.1.1.1.1.1.1.1.1.1.1.1.1.1.1.U.T.I.I.I.I.I.I.I.I.I.I.I.I.I.I.I.I.I.I.I.I.I.I.I.I.I.I.I.I.I.I.I.T.T.P.$...Z M M M M M M M v t t r t t t t t t t t t t t t t t t t t t t t t t t t t t t t t t t r t v b M M M M M M M M M M M M M M M M C ..$.P.T.T.I.I.I.I.I.I.I.I.I.I.I.I.I.I.I.I.I.I.I.I.I.I.I.I.I.I.I.I.I.I.I.I.U.3.3.3.3.3.3.3.3.3.3.3.3.3.3.3.3.3.3.3.3.3.3.3.3.3.3.3.4.6.,.:.:.:.:.:.:.,.6.4.U.I.I.I.T.T.P.$.X.Z M M M M V M v 1 @                 ",
"                : M #.T.E.T.I.I.I.I.I.I.I.I.I.I.I.I.I.I.I.I.I.I.I.I.I.I.I.I.I.I.I.I.I.I.I.U.1.5.] $X$X$X$X$X$X$X$X$X$X$X$X$X$X$X$X$X$X$X$X$X$X$X$X$X$X$X$X$X$X$X$X$X$X$X$X$X$X$X$X$X$X$X] 5.1.Y.I.I.I.I.I.I.I.I.I.I.I.I.I.I.I.I.I.I.I.I.I.I.I.I.I.I.I.I.I.I.I.T.T.P.$.X.Z M M M M B M v r 2 , , , , , , , , , , , , , , , , , , , , , , , , , , , , , , , , , , , 2 t M M B M M M M M M M M M M M M M C ..$.P.T.T.I.I.I.I.I.I.I.I.I.I.I.I.I.I.I.I.I.I.I.I.I.I.I.I.I.I.I.I.I.I.I.I.3.4.7.7.7.7.7.7.7.7.7.7.7.7.7.7.7.7.7.7.7.7.7.7.7.7.7.7.6.-.,.:.:.:.:.:.:.,.6.4.U.I.I.I.T.T.P.$.X.Z M M M M V M v 1 @                 ",
"                : M #.T.E.T.I.I.I.I.I.I.I.I.I.I.I.I.I.I.I.I.I.I.I.I.I.I.I.I.I.I.I.I.I.I.I.K.5.$X@X].].@X@X@X@X@X@X@X@X@X@X@X@X@X@X@X@X@X@X@X@X@X@X@X@X@X@X@X@X@X@X@X@X@X@X@X@X@X@X@X].].OX] 1.Y.I.I.I.I.I.I.I.I.I.I.I.I.I.I.I.I.I.I.I.I.I.I.I.I.I.I.I.I.I.I.I.T.T.I.$.X.Z M M M M B M v 2 - + X X X X X X X X X X X X X X X X X X X X X X X X X X X X X X X X X + : w M B B M M M M M M M M M M M M M C ..$.P.T.T.I.I.I.I.I.I.I.I.I.I.I.I.I.I.I.I.I.I.I.I.I.I.I.I.I.I.I.I.I.I.I.I.3.7.-.,.,.,.,.,.,.,.,.,.,.,.,.,.,.,.,.,.,.,.,.,.,.,.,.,.,.,.:.:.:.:.:.:.:.,.6.4.U.I.I.I.T.T.I.$.X.Z M M M M V M v 1 @                 ",
"                : M #.T.E.T.I.I.I.I.I.I.I.I.I.I.I.I.I.I.I.I.I.I.I.I.I.I.I.I.I.I.I.I.I.I.I.K.5.#X[.'.'.'.'.'.'.'.'.'.'.'.'.'.'.'.[.[.'.'.'.'.'.'.'.'.'.'.'.'.'.'.'.'.'.'.'.'.'.'.'.'.'.'.].$X5.Y.R.I.I.I.I.I.I.I.I.I.I.I.I.I.I.I.I.I.I.I.I.I.I.I.I.I.I.I.I.I.I.T.T.I.$.X.Z M M M M V M v 1 @                                                                       @ w v B B M M M M M M M M M M M M M C ..$.P.T.T.I.I.I.I.I.I.I.I.I.I.I.I.I.I.I.I.I.I.I.I.I.I.I.I.I.I.I.I.I.I.I.I.3.7.,.:.;.:.:.:.:.:.:.:.:.:.:.:.:.:.:.:.:.:.:.:.:.:.:.:.:.:.:.:.:.:.:.;.;.,.6.4.U.I.I.I.T.T.P.$.X.Z M M M M V M v 1 @                 ",
"                : M #.T.E.T.I.I.I.I.I.I.I.I.I.I.I.I.I.I.I.I.I.I.I.I.I.I.I.I.I.I.I.I.I.I.I.K.5.OX[.'.'.'.'.'.'.'.'.'.'.'.'.'.'.'.'.'.'.'.'.'.'.'.'.'.'.'.'.'.'.'.'.'.'.'.'.'.'.'.'.'.'.'.].$X5.Y.R.I.I.I.I.I.I.I.I.I.I.I.I.I.I.I.I.I.I.I.I.I.I.I.I.I.I.I.I.I.I.T.T.P.$.X.Z M M M M V M v 1 +                                                                       @ q v B B M M M M M M M M M M M M M C ..$.P.T.T.I.I.I.I.I.I.I.I.I.I.I.I.I.I.I.I.I.I.I.I.I.I.I.I.I.I.I.I.I.I.I.I.3.7.,.;.;.;.:.:.:.:.:.:.:.:.:.:.:.:.:.:.:.:.:.:.:.:.:.:.:.:.:.:.:.:.:.:.;.,.6.4.U.I.I.I.T.T.P.$.X.Z M M M M B M v 1 @                 ",
"                : M #.T.E.T.I.I.I.I.I.I.I.I.I.I.I.I.I.I.I.I.I.I.I.I.I.I.I.I.I.I.I.I.I.I.I.K.5.#X[.'.'.'.'.'.'.'.'.'.'.'.'.'.'.'.[.'.[.'.'.'.'.'.'.'.'.'.'.'.'.'.'.'.'.'.'.'.'.'.'.'.'.'.].$X5.Y.R.I.I.I.I.I.I.I.I.I.I.I.I.I.I.I.I.I.I.I.I.I.I.I.I.I.I.I.I.I.I.T.T.P.$.X.Z M M M M V M v 1 @                                                                       @ w v B B M M M M M M M M M M M M M C ..$.P.T.T.I.I.I.I.I.I.I.I.I.I.I.I.I.I.I.I.I.I.I.I.I.I.I.I.I.I.I.I.I.I.I.I.3.7.,.:.;.:.:.:.:.:.:.:.:.:.:.:.:.:.:.:.:.:.:.:.:.:.:.:.:.:.:.:.:.:.:.:.:.,.6.4.U.I.I.I.T.T.P.$.X.Z M M M M B M v 1 @                 ",
"                : M #.T./.T.T.I.I.I.I.I.I.I.I.I.I.I.I.I.I.I.I.I.I.I.I.I.T.T.T.T.I.I.I.R.I.K.5.#X].'.'.[.[.[.[.[.[.[.[.[.[.[.[.[.[.[.[.[.[.[.[.[.[.[.[.[.[.[.[.[.[.[.[.[.[.[.[.[.[.'.'.'.].$X5.Y.I.I.I.I.I.I.I.I.I.I.I.I.I.I.I.I.I.I.I.I.I.I.I.I.I.I.I.I.I.I.I.T.T.P.$.X.Z M M M M B B v 2 @                                                                       @ w v B B B M M M M M M M M M M M M C ..$.P.T.T.I.I.I.I.I.I.I.I.I.I.I.I.I.I.I.I.I.I.I.I.I.I.I.I.I.I.I.I.I.I.R.I.3.7.,.:.:.:.:.:.:.:.:.:.:.:.:.:.:.:.:.:.:.:.:.:.:.:.:.:.:.:.:.:.:.:.:.:.:.,.6.4.U.I.I.I.T.T.P.$.X.Z M M M M V M v 1 @                 ",
"                , B $././././.E.E.T.T.T.I.I.I.I.I.I.I.I.I.I.I.I.I.I.I.T.I.I.I.~.I.I.R.^.^.U.5.#X[.'.'.[.[.[.[.[.[.[.[.[.[.[.[.[.[.[.[.[.[.[.[.[.[.[.[.[.[.[.[.[.[.[.[.[.[.[.[.[.[.[.'.{.].$X5.Y.I.I.I.I.I.I.I.I.I.I.I.I.I.I.I.I.I.I.I.I.I.I.I.I.I.I.I.I.I.I.I.T.T.P.$.o.Z B M B B C B v 2 @                                                                       @ w M C C B B V V B B M M M M M M M C ..$.P.T.T.I.I.I.I.I.I.I.I.I.I.I.I.I.I.I.I.I.I.I.I.I.I.I.I.I.I.P.I.R.R.R.I.3.7.,.:.:.:.:.:.:.:.:.:.:.:.:.:.:.:.:.:.:.:.:.:.:.:.:.:.:.:.:.:.:.:.:.;.;.,.6.8.T.R.R.T.T.T.I.$.o.Z M M M M V M v 1 @                 ",
"                : M $.T./.T.T.T.T.T.T.I.I.I.I.I.I.I.I.I.I.I.I.I.I.I.I.T.T.T.T.T.I.I.I.^.R.H.5.#X].'.'.[.[.[.[.[.[.[.[.[.[.[.[.[.[.[.[.[.[.[.[.[.[.[.[.[.[.[.[.[.[.[.[.[.[.[.[.[.[.[.'.'.].$X5.Y.I.I.I.I.I.I.I.I.I.I.I.I.I.I.I.I.I.I.I.I.I.I.I.I.I.I.I.I.I.I.I.T.T.P.$.X.Z M M M B C B v 2 @                                                                       @ w v C C B B B B B M M M M M M M M C ..$.P.T.T.I.I.I.I.I.I.I.I.I.I.I.I.I.I.I.I.I.I.I.I.I.I.I.I.I.I.I.I.I.R.R.I.3.7.,.:.:.:.:.:.:.:.:.:.:.:.:.:.:.:.:.:.:.:.:.:.:.:.:.:.:.:.:.:.:.:.:.;.;.,.6.4.U.R.I.T.T.T.I.$.o.Z M M M M V M v 1 @                 ",
"                - v o.$.2.$.$.$.$.2.H.L.I.I.I.I.I.I.I.I.I.I.I.I.I.I.I.T.Y.U.K.4.4.4.K.K.K.1.[ OX`.`.`.`.`.`.`.`.`.[.[.[.[.[.[.[.[.[.[.[.[.[.[.[.[.[.[.`.`.`.`.`.`.`.`.`.`.`.`.`.`.`.`.`.@X$X5.Y.I.I.I.I.I.I.I.I.I.I.I.I.I.I.I.I.I.I.I.I.I.I.I.I.I.I.I.I.I.I.I.T.T.P.$...M v v v v v v r , +                                                                       @ 2 t v v v v v v v M M M M M M M M C ..$.P.T.T.I.I.I.I.I.I.I.I.I.I.I.I.I.I.I.I.I.I.I.I.I.I.I.T.U.3.3.3.3.U.U.3.4.6.,.:.:.:.:.:.:.:.:.:.:.:.:.:.:.:.;.;.;.*.*.*.*.*.*.*.*.*.,.,.,.,.,.*.*.-.6.4.2.H.H.H.L.L.H.#...C M M M M V M v 1 @                 ",
"                @ 2 v C Z C C C C A o.2.P.T.T.I.I.I.I.I.I.I.I.I.I.I.I.I.U.1.5.[ [ [ [ 5.5.] ^ _.(.(.(.(.(.(.(.).`.`.[.[.[.[.[.[.[.[.[.[.[.[.[.[.[.[.`.).(.(.(.(.(.(.(.(.(.(.(.(.(.(.(.(._.` 1.Y.~.I.I.I.I.I.I.I.I.I.I.I.I.I.I.I.I.I.I.I.I.I.I.I.I.I.I.I.I.I.I.T.T.P.#.Z r 2 2 2 2 2 2 , - X                                                                       + - 1 2 2 2 2 2 2 w t v M B B M M M C ..$.P.I.T.I.I.I.I.I.I.I.I.I.I.I.I.I.I.I.I.I.I.I.I.I.I.T.3.4.4.7.7.7.7.7.7.7.-.,.:.:.:.:.:.:.:.:.:.:.:.:.:.:.:.;.*.*.&.&.&.&.&.&.&.&.=.=.=.=.=.=.=.=.=.| O.O.@.@.@.#.#.@.o.A C M M M M B M v 2 @                 ",
"                X @ : , , , , , , 2 B @.P.T.T.I.I.I.I.I.I.I.I.I.I.I.I.I.1.5.$XOXOXOXOXOXOXOX_.T Y Y Y Y Y Y Y (.).`.[.[.[.[.[.[.[.[.[.[.[.[.[.[.[.`.).(.Y Y Y Y Y Y Y Y Y Y Y Y Y Y Y Y T ) 1.U.^.I.I.I.I.I.I.I.I.I.I.I.I.I.I.I.I.I.I.I.I.I.I.I.I.I.I.I.I.I.I.T.T.P.O.v , @ + @ @ @ @ @ X                                                                           + @ @ @ @ @ @ @ : w v M B B M M M C ..$.P.I.T.I.I.I.I.I.I.I.I.I.I.I.I.I.I.I.I.I.I.I.I.I.I.U.3.7.-.-.-.-.-.-.-.-.,.,.:.:.:.:.:.:.:.:.:.:.:.:.:.:.:.;.*.&.a a a a a a a a a d d S d | S S S S S A A A A A A A A C B M M M M V M v 1 @                 ",
"                                  @ t o.L.E.T.I.I.I.I.I.I.I.I.I.I.I.I.I.1.] OX[.'.[.[.[.[.[.).Y J J J J J J J Y (.`.[.[.[.[.[.[.[.[.[.[.[.[.[.[.[.`.).Y J J J J J J J J J J J J J J H H I ) 1.U.^.I.I.I.I.I.I.I.I.I.I.I.I.I.I.I.I.I.I.I.I.I.I.I.I.I.I.I.I.I.I.T.E.L.o.r @                                                                                                           + , v M V B M M M C ..$.P.I.T.I.I.I.I.I.I.I.I.I.I.I.I.I.I.I.I.I.I.I.I.I.I.U.4.6.,.:.:.:.:.:.,.:.:.:.:.:.:.:.:.:.:.:.:.:.:.:.:.:.:.;.*.&.a u u u u u u p d d B B B B B B B B B B B B V V V V B M M M M M M V M v 1 @                 ",
"                                  + e X.L./.T.I.I.I.I.I.I.I.I.I.I.I.I.I.1.] @X'.'.'.'.'.'.'.(.Y J G G H G G J Y (.`.[.[.[.[.[.[.[.[.[.[.[.[.[.[.[.`.).Y J G G J H H H J H H H H H H H H I ) 1.U.^.I.I.I.I.I.I.I.I.I.I.I.I.I.I.I.I.I.I.I.I.I.I.I.I.I.I.I.I.I.I.T./.L.X.r +                                                                                                           X , t M V M M M M C ..$.P.T.T.I.I.I.I.I.I.I.I.I.I.I.I.I.I.I.I.I.I.I.I.I.I.U.4.-.,.;.;.:.:.;.:.:.:.:.:.:.:.:.:.:.:.:.:.:.:.:.:.:.:.;.*.a u y y u u y u p s M M V M M M M M M M M M M M M M M M M M M M M M V M v 1 @                 ",
"                                  + r o.L./.T.I.I.I.I.I.I.I.I.I.T.T.~.T.1.] @X'.'.'.'.'.'.`.(.Y J G H H H G J Y (.`.[.[.[.[.[.[.[.[.[.[.[.[.[.[.[.`.).Y J H H J H H H H H H H J H H H H I ) 1.U.I.I.I.I.I.I.I.I.I.I.I.I.I.I.I.I.I.I.I.I.I.I.I.I.I.I.I.I.I.I.I.T./.L.o.r +                                                                                                           + , t M B M M M M C ..$.P.T.T.I.I.I.I.I.I.I.I.I.I.I.I.I.I.I.I.I.I.I.I.I.I.U.4.-.:.;.;.:.:.:.:.:.:.:.:.:.:.:.:.:.:.:.:.:.:.:.;.:.:.;.*.a u y y u u u u p s M M M M M M M M M M M M M M M M M M M M M M M M V M v 1 @                 ",
"                                  @ r o.L./.T.I.I.I.I.I.I.I.I.I.T.T.~.T.1.] @X[.'.'.'.'.[.`.(.Y J H H J J J J Y (.`.[.[.[.[.[.[.[.[.[.[.[.[.[.[.[.`.).Y J H H J J J J J J J J J H H H H I ) 1.U.I.I.I.I.I.I.I.I.I.I.I.I.I.I.I.I.I.I.I.I.I.I.I.I.I.I.I.I.I.I.I.T./.L.o.r @                                                                                                           + , t M B M M M M C ..$.P.T.T.I.I.I.I.I.I.I.I.I.I.I.I.I.I.I.I.I.I.I.I.I.I.U.4.6.,.:.;.:.:.:.:.:.:.:.:.:.:.:.:.:.:.:.:.:.:.:.:.:.:.;.*.&.u u u u u u u p s M M M B B M M M M M M M M M M M M M M M M M M M V M v 1 @                 ",
"                                  @ r o.L./.T.I.I.I.I.I.I.I.I.I.T.T.I.T.1.] @X[.'.'.'.'.[.`.(.Y J H H J H H J Y (.`.[.{.[.[.[.[.[.[.[.[.[.[.[.[.{.'.).Y J J J J J J J J H J H H H H H H I ) 1.U.I.I.I.I.I.I.I.I.I.I.I.I.I.I.I.I.I.I.I.I.I.I.I.I.I.T.T.T.T.T.T././.I.o.r @                                                                                                           + , t M V M M M M C ..$.P.T.T.I.I.I.I.I.I.I.I.I.I.I.I.I.I.I.I.I.I.I.I.I.I.U.4.6.,.:.;.:.:.:.:.:.:.:.:.:.:.:.:.:.:.:.:.:.:.:.:.:.:.;.*.a u u u u u u u p s M M M M M M M M M M M M M M M M M M M B B B B B C B v 1 +                 ",
"                                  @ r o.L./.T.I.I.I.I.I.I.I.I.I.T.T.~.T.1.] @X[.'.'.[.'.[.`.(.Y J H H J H G J Y (.`.{.{.[.[.[.[.[.[.[.[.[.[.[.{.{.[.).Y J H J J J J J J H H H H H H H H I ) 1.U.I.I.I.I.I.I.I.I.I.I.I.I.I.I.I.I.I.I.I.I.I.I.I.I.I.T.T.T.E.E.E././.I.o.r @                                                                                                           + , t M B B M M M C ..$.P.T.T.I.I.I.I.I.I.I.I.I.I.I.I.I.I.I.I.I.I.I.I.I.I.U.4.6.,.:.;.:.:.:.:.:.:.:.:.:.:.:.:.:.:.:.:.:.:.:.:.:.>.;.*.&.i u u u u y u p s M M M M M M M M M M M M M M M M M M B B V V V C C B v , +                 ",
"                                  @ r o.L./.T.I.I.I.I.I.I.I.I.I.I.I.I.I.1.] @X'.'.'.'.{.[.`.).Y J H H J H H J Y (.`.[.[.[.`.`.`.'.'.'.'.[.[.`.[.[.`.).Y J H H J J J J J J J J J J H H H I ) 1.Y.~.I.I.I.I.I.I.I.I.I.I.I.I.I.I.I.I.I.I.I.I.I.I.I.I.P.L.L.L.L.L.L.P.H...e +                   o       o o o     o       o o o         o o o o o                                       + , t M V B M M M C ..$.P.T.T.I.I.I.I.I.I.I.I.I.I.I.I.I.I.I.I.I.I.I.I.I.I.U.4.6.,.:.:.:.:.:.:.:.:.:.:.:.:.:.:.:.;.;.;.;.;.;.;.;.;.*.*.&.a u u u u u u p s d M M M M M M M M M M M M M M M M M M M M M M M M M v 2 = O O O O O O O O ",
"                                  @ r o.L./.T.I.I.I.I.I.I.I.I.I.I.I.I.I.1.] @X[.'.'.'.'.[.`.).Y J H H J J H J Y (.).).).).).).).).).).).).).).).).).(.Y J H H J J J J J J J J J J H H H I ) 1.Y.^.I.I.I.I.I.I.I.I.I.I.I.I.I.I.I.I.I.I.I.I.I.T.T.L.$.O...........X...M 1 X               & 3 4 4 4 4 4 4 4 4 4 4 4 4 4 4 4 4 4 4 4 4 4 4 4 4 4 4 & o                                 + , t M V B M M M C ..$.P.T.T.I.I.I.I.I.I.I.I.I.I.I.I.I.I.I.I.I.I.I.I.I.I.U.4.6.,.:.:.:.:.:.:.:.:.:.:.:.:.:.:.:.;.*.*.*.*.*.*.*.*.*.&.a i u u u u u u p s M M M M M M M M M M M M M M M M M v t r e e e e e e r s ( ( ( ( ( ( ( ( ( ",
"                                  @ r o.L./.T.I.I.I.I.I.I.I.I.I.I.I.I.I.1.] @X[.'.'.[.[.[.`.).Y J H H J J J J J Y Y Y Y Y Y Y Y Y Y Y Y Y Y Y Y Y Y Y J J J J J J J J J J J J J J H H H I ) 1.U.^.I.I.I.I.I.I.I.I.I.I.I.I.I.I.I.I.I.I.I.I.I.T.T.H.o.M r w w w w w w , @ .             o 4 L R Q Q R R R R R R R R R R R R R R R R R R R R Q Q R 5 &                                 + , t M B B M M M C ..$.P.T.T.I.I.I.I.I.I.I.I.I.I.I.I.I.I.I.I.I.I.I.I.I.I.U.4.6.,.:.:.:.:.:.:.:.:.:.:.:.:.:.:.:.;.*.&.&.a a a a a a a a i u u u u u u p s M M B M M M M M M M M M M M M B M v w , - - - - - - 9 _ zXcXvXvXvXvXvXvXvX",
"                                  @ r o.L./.T.I.I.I.I.I.I.I.I.I.I.I.I.I.1.] @X[.'.'.[.[.[.`.).Y J H H J J J J J J J J J J J J J J J J J J J J J J J J J J J J J J J J J J J J J J H H H I ) 1.U.^.I.I.I.T.I.I.I.I.I.I.I.I.I.I.I.I.I.I.I.I.I.T.T.H.A w @ X X + + + + X .               % 6 ! }.|.|.}.}.}.}.}.}.}.}.}.}.}.|.|.|.|.}.}.}.}.}.|.|.~ R 3                                 + , t M B B M M M C ..$.P.T.T.I.I.I.I.I.I.I.I.I.I.I.I.I.I.I.I.I.I.I.I.I.I.U.4.6.,.:.:.:.:.:.:.:.:.:.:.:.:.:.:.:.*.&.a a i u u u u u u u u u u u u u u p s M M B M M M M M M M M M M M M B M t , +     .       7 ] nXVXZXCXCXCXCXCXCX",
"                                  @ r o.L./.T.I.I.I.I.I.I.I.I.I.T.T.~.T.1.] @X'.'.'.[.[.[.`.(.Y J H H J J J J J J H H H H H H H J J J J H H H H H H H J J H J J J J J J J J J J H H H H I ) 1.U.I.I.I.I.I.I.I.I.I.I.I.I.I.I.I.I.I.I.I.I.I.I.E.T.2.Z ,                                 & L ~ XX%XoXoXoXoXXXoXoXoXoXoXoXoXoXoXoXoXoXoXoXoXXX%XXX}.R 3                                 + , t M V B M M M C ..$.P.T.T.I.I.I.I.I.I.I.I.I.I.I.P.P.P.I.I.I.I.I.I.I.I.U.4.-.,.;.:.:.:.:.:.:.:.:.:.:.:.:.:.:.*.&.a u y u u u u u u u u u u u u u u p s d M M M M M M M M M M M M M B B M r : .             7 { MXAXAXAXAXAXAXAXAX",
"                                  @ r o.L./.T.I.I.I.I.I.I.I.I.I.T.T.~.T.1.] @X[.'.'.[.[.[.`.(.Y J H J J J J J J J J H H H H H H J J J J H H H H H H H J J J J J J J J J J J J J H H H H I ) 1.L.I.I.I.I.I.I.I.I.I.I.I.I.I.I.I.I.I.I.I.I.I.I.T.T.2.Z ,                                 & L ~ XX%X%XoXoXoXXXoXoXoXoXoXoXoXoXoXoXoXoXoXoXoXXX%XXX}.R 4                                 + , t M V B M M M C ..$.P.I.T.I.I.I.I.I.I.I.I.I.I.I.I.P.P.I.I.I.I.I.I.I.I.U.4.-.,.;.:.:.:.:.:.:.:.:.:.:.:.:.:.:.*.&.a u y u u u u u u u u u u u u u u p s d M M M M M M M M M M M M M B B M r : .             7 { MXAXAXAXAXAXAXAXAX",
"                                  @ r o.L./.T.I.I.I.I.I.I.I.I.I.T.T.~.T.1.] @X[.'.'.[.[.[.`.(.Y J J J J J J J J J J J J J J J J J J J J J J J J J J J J J J J J J J J J J J J J H H H H I ) 1.U.I.I.I.I.I.I.I.I.I.I.I.I.I.I.I.I.I.I.I.I.I.I./.T.2.Z 1 .                               & L ~ XXoXXXXXXXXXXXXXXXXXXXXXXXXXXXXXXXXXXXXXXXXXXXXXXX}.R 3                                 + , t M B B M M M C ..$.P.T.T.I.I.I.I.I.I.I.I.I.I.I.I.I.I.I.I.I.I.I.I.I.I.U.4.-.,.;.:.:.:.:.:.:.:.:.:.:.:.:.:.:.*.&.a u u u u u u u u u u u u u u u u p s d M M M M M M M M M M M M M B B M r : X             7 { MXAXAXAXAXAXAXAXAX",
"                                  @ r o.L./.T.I.I.I.I.I.I.I.I.I.T.T.~.T.1.] @X{.'.'.[.[.[.`.(.Y J J J J J J J J J J J J J J J J J J J J H H H H J J J H H H H H H H H H H H H H H H H H I ) 1.U.I.I.I.I.I.I.I.I.I.I.I.I.I.I.I.I.I.I.I.I.I.I./.T.2.Z 1 .                               & L ~  XoXXXXXXXXXXXXXXXXXXXXXXXXXXXXXXXXXXXXXXXXXXXoXXX}.R 3                                 + , t M V M M M M C ..$.P.T.T.I.I.I.I.I.I.I.I.I.I.I.I.I.I.I.I.I.I.I.I.R.R.U.8.-.,.;.:.:.:.:.:.:.:.:.:.:.:.:.:.:.*.&.a u u u u u u u u u u u u u u u u p s M M M M M M M M M M M M M M B B M r : X             7 { MXAXAXAXAXAXAXAXAX",
"                                  + e X.L./.T.I.I.I.I.I.I.I.I.I.I.I.I.I.1.] @X{.'.'.[.{.{.`.(.Y J H J J J J J J J J J J J J J J J H H H H H H H H H H H H H H H H H H H H H H H H H H H J ) 1.Y.~.I.I.I.I.I.I.I.I.I.I.I.I.I.I.I.I.I.I.I.I.I.T.T.2.Z 1 .                               % L ~ XXoXXXXXXXXXXXXXXXXXXXXXXXXXXXXXXXXXXXXXXXXXXXoXXX}.R 3                                 + , t M B M M M M C ..$.P.T.T.I.I.I.I.I.I.I.R.I.I.I.I.I.I.R.R.R.E.E./.E.E.T.8.6.,.:.:.:.:.:.:.:.:.:.:.:.:.:.>.:.*.&.a i u u u u u u u u u u u u u u u p s d M V M M M M M M M M M M M B V M r : X             7 { MXAXAXAXAXAXAXAXAX",
"                                  @ r o.L./.T.I.I.I.I.I.I.I.I.I.I.I.I.I.1.] @X[.'.'.[.[.[.`.(.Y J G H J J J J J J J J J J J J J J J J J J J J J H H J J J J J J J J J J J J J J H H H H I ) 1.Y.I.I.I.I.I.I.I.I.I.I.I.I.I.I.I.I.I.I.I.I.I.I.T.T.2.Z 1 .                               & L ~ XXoXXXXXXXXXXXXXXXXXXXXXXXXXXXXXXXXXXXXXXXXXXXoXXX}.R 3                                 + , t M B M M M M C ..$.P.T.T.I.I.I.I.I.I.I.I.I.I.I.I.I.I.I.I.I.I.I.T.R.I.U.4.6.,.:.:.:.:.:.;.;.:.:.:.:.:.:.:.:.*.&.a u u u u u u u u u u u u u u u u p s M M V M M M M M M M M M M M B V M r : X             7 { MXAXAXAXAXAXAXAXAX",
"                . + @ - - - - @ $ , M O.P.T.T.I.I.I.I.I.I.I.I.I.I.I.I.I.1.] _.`.`.`.`.`.`.).(.Y J H H J J J J J J J J J J J H J J J J I I I I I J I I I U U U U U U U U U U U U U U I I U ` 1.P.I.I.I.I.I.I.I.I.I.I.I.I.I.I.I.I.I.I.I.I.I.I.T.T.2.Z 1 .               % & & & & & & & 4 R ~ XXoXXXXXXXXXXXXXXXXXXXXXXXXXXXXXXXXXXXXXXXXXXXoXXX}.R 3                                 + , t M V M M M M C ..$.P.T.T.I.I.I.I.U.3.3.3.3.3.3.3.3.3.3.2.2.2.2.2.2.2.2.7.=.*.*.*.*.*.*.*.*.*.*.*.*.*.*.*.*.*.&.a u u u u u u u u u u u u u u u u p s M M V M M M M M M M M M M M B V M r : X             7 { MXAXAXAXAXAXAXAXAX",
"                @ , t v M v v v v B ..$.P.T.T.I.I.I.I.I.I.I.I.I.I.I.~.I.1.` T (.(.(.(.(.(.(.Y Y J H J J J J J J J J J J J J H J J I U U U U U 0 0 U ( ) ) ` ) ) ` ` ) ) ) ) ` ` ) ) ) ) ` 1.2.P.I.I.I.I.I.I.I.I.I.I.I.I.I.I.I.I.I.I.I.I.I.I.T.T.2.Z 1 .             % 4 L L L L L L L R ! }.XXXXXXXXXXXXXXXXXXXXXXXXXXXXXXXXXXXXXXXXXXXXXXoXXX}.R 3                                 + , t M B B M M M C ..$.P.T.T.I.I.I.I.3.4.7.7.7.7.7.7.7.7.7.| | | | | | | | | &.&.&.&.&.&.&.&.&.&.&.&.&.&.&.&.&.&.a a u u u u u u u u u u u u u u u u p s M M V M M M M M M M M M M M B V M r : X             7 { MXAXAXAXAXAXAXAXAX",
"                - t ..#.#.#.#.@.@.#.2.L.I.I.I.I.I.I.I.I.I.I.I.I.I.I.^.I.1.` T Y Y Y Y Y Y Y J J J J J J J J J J J J J J J J H H J U s n n n n n n n S 1.1.1.1.1.1.1.1.1.1.1.1.1.1.1.1.1.1.2.L.I.I.I.I.I.I.I.I.I.I.I.I.I.I.I.I.I.I.I.I.I.I.I./.T.2.Z 1 .             & L ! ~ ~ ~ ~ ~ ~ ~ }.|.XXXXXXXXXXXXXXXXXXXXXXXXXXXXXXXXXXXXXXXXXXXXXXoXXX}.R 3                                 + , t M V B M M M C ..$.P.T.T.I.I.I.T.3.7.-.,.,.,.-.<.-.-.=.a p p p p p p p a a a a a a a a a a a a a a a a a a a a u u u u u u u u u u u u u u u u u p s M M M M M M M M M M M M M M B B M r : X             7 { MXAXAXAXAXAXAXAXAX",
"                : M #.T.E.T.I.I.I.I.I.I.I.I.I.I.I.I.I.I.I.I.I.I.I.I.^.I.1.` U J H H H J J J J J J J J J J J J J J J J J J J H H J U n M B M M M M V ..#.L.T.T.I.T.T.I.I.I.I.I.I.I.I.I.I.I.I.I.I.I.I.I.I.I.I.I.I.I.I.I.I.I.I.I.I.I.I.I.I.I.I./.T.2.Z 1 .             3 R }.XXoXXXXXXXXXXXXXXXXXXXXXXXXXXXXXXXXXXXXXXXXXXXXXXXXXXXXXXXXXXXXXoXXX}.R 3                                 + , t M V B M M M C ..$.P.T.T.I.I.R.T.3.6.,.:.;.:.:.:.:.*.&.a u u u u u u u u u u u u u u u u u u u u u u u u u u u u u u u u u u u u u u u u u u u u p s M M V M M M M M M M M M M M B B M r : X             7 { MXAXAXAXAXAXAXAXAX",
"                , B $././././././.T.T.T.I.I.I.I.I.I.I.I.I.I.I.I.I.I.I.I.1.) U G H G G G H H H J J J J J J J J J J J J J J J H H J U n B V B B M B Z ..$.I.^.^.^.I.I.I.I.~.I.^.^.^.^.~.I.~.I.I.I.I.I.I.I.I.I.I.I.I.I.I.I.I.I.I.I.I.I.I.I.I.I./.T.2.Z 1 .             4 R |.%X%X%XoXoXoXoXXXXXXXXXXXXXXXXXXXXXXXXXXXXXXXXXXXXXXXXXXXXXXXXXXXoXXX}.R 3                                 + , t M V B M M M C ..$.P.T.T.I.I.I.U.4.6.,.;.;.;.;.:.:.*.&.a u y y y y y y u y u y u u u u u u y y y y u u u u u u u u u u u u u u u u u u u u u u u p s M M M M M M M M M M M M M M B B M r : X             7 { MXAXAXAXAXAXAXAXAX",
"                : M $.T./.T.T.T.T.T.I.I.I.I.I.I.I.I.I.I.I.I.I.I.I.I.I.I.1.) U H H H H H J J J J J J J J J J J J J J J J J J H H J U n M B B B M M V ..$.P.I.I.I.I.I.I.I.I.I.I.I.I.I.I.I.I.I.I.I.I.I.I.I.I.I.I.I.I.I.I.I.I.I.I.I.I.I.I.I.I.I.T.T.2.Z 1 .             3 R }.oXoXXXXXXXXXXXXXXXXXXXXXXXXXXXXXXXXXXXXXXXXXXXXXXXXXXXXXXXXXXXXXoXXX}.R 3                                 + , t M V B M M M C ..$.P.T.T.I.I.I.U.4.6.,.;.;.:.:.:.:.*.&.a u u u u u u u u u u u u u u u u u u u u u u u u u u u u u u u u u u u u u u u u u u y u p s M M M M M M M M M M M M M M B B M r : X             7 { MXAXAXAXAXAXAXAXAX",
"                : M #.T.E.T.I.I.I.I.I.I.I.I.I.I.I.I.I.I.I.I.I.I.I.I.I.I.1.) U J H H H H H J J J J J J J J J J J J J J J J H H H K U n M B B M M M V ..#.L.T.T.I.I.I.I.I.I.I.I.I.I.I.I.I.I.I.I.I.I.I.I.I.I.I.I.I.I.I.I.I.I.I.I.I.I.I.I.I.I.I.E.T.2.A 1 .             3 R }.XXoXXXXXXXXXXXXXXXXXXXXXXXXXXXXXXXXXXXXXXXXXXXXXXXXXXXXXXXXXXXXXoXXX}.R 3                                 + , t M V M M M M C ..$.P.T.T.I.I.I.T.4.6.,.:.:.:.:.:.:.*.&.a u u u u u u u u u u u u u u u u u u u u u u u u u u u u u u u u u u u u u u u u u u y u p s d M M M M M M M M M M M M M B V M r : X             7 { MXAXAXAXAXAXAXAXAX",
"                : M #.T.E.T.I.I.I.I.I.I.I.I.I.I.I.I.I.I.I.I.I.I.I.I.~.I.1.) I H H H H H H H H H J J J J J J J J J J J J J H H H K U n B V V B M M V ..#.L.T.T.I.I.I.I.I.I.I.I.I.I.I.I.I.I.I.I.I.I.I.I.I.I.I.T.T.T.T.T.T.T.E././.T.T.T.T././././.H.A 1 .             3 R }.XXXXXX X X XXX XXXXXXXXXXXXXXXXXXXXXXXXXXXXXXXXXXXXXXXXXXXXXXXXXoXXX}.R 3                                 + , t M V M M M M C ..$.P.T.T.I.I.I.T.4.6.,.:.:.:.:.:.:.*.&.a u u u u u u u u u u u u u u u u u u u u u u u u u u u u u u u u u u u u u u u u u y y u p s d M M M M M M M M B B B B B C C M r -               = { mXAXAXAXAXAXAXAXAX",
"                : M #.T.E.T.I.I.I.I.I.I.I.I.I.I.I.I.I.I.I.I.I.I.I.I.~.I.1.) U H H H H H H H H H J J J J J J J J J J J J J H H H K U n M V B B M M V ..#.P.T.T.T.I.I.I.I.I.I.I.I.I.I.I.I.I.I.I.I.I.I.I.I.I.I.T.T.T.T.T.T.T.T.T.T.T.T.T.T.T.E././.H.A 2 .             3 R }.XXXXXX XXXXXXXXXXXXXXXXXXXXXXXXXXXXXXXXXXXXXXXXXXXXXXXXXXXXXXXXXoXXX}.R 3                                 + , t M V M M M M C ..$.P.T.T.I.I.I.T.4.6.,.:.;.:.:.:.:.*.&.a i u u u u u u u u u u u u u u u u u u u u u u u u u u u u u u u u u u u u u u u u u u u p s d M B M M M M M M B V B B B C C M r :               7 { mXAXAXAXAXAXAXAXAX",
"                : M #.T.E.T.I.I.I.I.I.I.I.I.I.I.I.I.I.I.I.I.I.I.I.I.I.I.1.` U I J J J J K J J J J H J J J J J J J J J J J H H H K U s n M M n n n M A #.L.T.T.T.I.I.I.I.I.I.I.I.I.I.I.I.I.I.I.I.I.I.I.I.I.I.L.H.H.2.2.2.2.2.2.2.2.2.2.2.H.H.H.H.#.C , .             4 R |.%X%X%X%X%X%X%XoXXXXXXXXXXXXXXXXXXXXXXXXXXXXXXXXXXXXXXXXXXXXXXXXXoXXX}.R 3                   . . . . .   X @ 2 v M V M M M M C ..$.P.T.T.I.I.I.T.4.6.,.:.;.:.:.:.:.*.&.a u u u u u u u u u u u u u u u u u u u u u u u u u u u u u u u u u u u u u p p p p p p p p s M M B M M M M M M M v v v v v b v r 2 = * * * * O * 0 zXMXAXAXAXAXAXAXAXAX",
"                : M #.T.E.T.I.I.I.I.I.I.I.I.I.I.I.I.I.I.I.I.I.I.I.I.I.P.2.1.) ) W W W ) ) W U I J H H J J J J J J J J J J H H H J I U s s s s s s s S 1.H.I.T.I.I.I.I.I.I.I.I.I.I.I.I.I.I.I.I.I.I.I.I.T.T.P.$.o.A Z Z Z Z Z Z Z Z Z Z Z Z A A A C e -               4 ! *X:X:X-X-X-X-X-X&X%XXXXXXXXXXXXXXXXXXXXXXXXXXXXXXXXXXXXXXXXXXXXXXXoXXX}.R 3               X @ - - - - - - - , w v M V M M M M C ..$.P.T.T.I.I.I.T.4.6.,.:.:.:.:.:.:.*.&.a u u u u u u u u u u u u u u u u u u u u u u u u u u u u u u u u u u u p p s s p s s s s s d M M M M M M M M v r w 2 2 w q 2 w e ) _ _ ] _ _ _ _ { bXBXAXAXAXAXAXAXAXAX",
"                : M #.T.E.T.I.I.I.I.I.I.I.I.I.I.I.I.I.I.I.I.I.I.I.I.I.I.U.2.1.1.1.1.1.1.1.' ) U J H H J J J J J J J J J J J H J J J I I I I I I I U ) 1.H.I.I.I.I.I.I.I.I.I.I.I.I.I.I.I.I.I.I.I.I.I.I.T.T.L.O.M w , , 1 1 1 1 1 1 1 1 1 1 1 1 1 , - +               6 +X>X2X2X1X1X1X1X<X-X&XXXXXXXXXXXXXXXXXXXXXXXXXXXXXXXXXXXXXXXXXXXXXXXoXXX}.R 3               @ , w e r e e e e r v M M M M M M M C ..$.P.I.T.I.I.I.I.4.6.,.:.:.:.:.:.:.*.&.a u u u u u u u u u u u u u u u u u u u u u u u u u u u u u u u u u u u p s d d d d d d d d M M M M M M V B M r , - @ @ @ @ $ : r [ vXnXnXnXnXnXnXmXBXCXAXAXAXAXAXAXAXAX",
"                : M #.T.E.T.I.I.I.I.I.I.I.I.I.I.I.I.I.I.I.I.I.I.I.I.P.P.P.P.U.U.U.U.U.Y.Y.2.' U J H H J J J J J J J J J J J J J H J J J J J J J H I W 1.H.I.I.P.I.I.I.I.I.I.I.I.I.I.I.I.I.I.I.I.I.I.I.T.T.L...r @     . . . . . . . . . . . . . .                 o L +X<X6X6X6X6X6X6X2X>X&XXXXXXXXXXXXXXXXXXXXXXXXXXXXXXXXXXXXXXXXXXXXXXXoXXX}.R 3               @ 2 v M M M M M M M M M M M M M M M C ..$.P.T.I.I.I.I.U.4.6.,.:.:.:.:.:.:.*.&.a u u u u u u u u u u u u u u u u u u u u u u u u u u u u u u u u u y u p d M M M M M M M M M M M M M M V V b w - .           O m xXBXAXAXZXZXZXZXZXAXAXAXAXAXAXAXAXAXAX",
"                : M #.T.E.T.I.I.I.I.I.I.I.I.I.I.I.I.I.I.I.I.I.I.I.I.P.Y.I.I.I.~.I.I.~.^.^.U.' U J H H J J J J J J J J J J J J J H H H H H H H H H J W ' H.I.I.P.I.I.I.I.I.I.I.I.I.I.I.I.I.I.I.I.I.I.I.T.E.L...w X                                                 o L %X2X7X8X6X6X7X6X5X,X*XXXXX XXXXXXXXXXXXXXXXXXXXXXXXXXXXXXXXXXXXXXXXXoXXX}.R 3               @ w M C C B B B B B B M M M M M M M C ..$.P.T.T.I.I.I.T.4.7.,.:.:.:.:.:.:.*.&.a u u u u u u u u u u u u u u u u u u u u u u u u u u u u u u u u u u u p d M M V M M M M M M M M M M M V V v 2 @               ( cXCXAXAXAXAXAXAXAXAXAXAXAXAXAXAXAXAXAX",
"                : M #.T.E.T.I.I.I.I.I.I.I.I.I.I.I.I.I.I.I.I.I.I.I.I.I.I.I.I.I.I.I.I.I.^.^.H.' U J H H J J J J J J J J J J J J J J H H H H H H H H J W ' H.I.I.T.I.I.I.I.I.I.I.I.I.I.I.I.I.I.I.I.I.I.I.T.E.L...w X                                                   L +X2X7X8X6X6X7X6X3X,X*XXXXXXXXXXXXXXXXXXXXXXXXXXXXXXXXXXXXXXXXXXXXXXXoXXX}.R 3               @ w M C C B B V V B M M M M M M M M C ..$.P.T.T.I.I.I.T.4.6.,.:.:.:.:.:.:.*.&.a u u u u u u u u u u u u u u u u u u u u u u u u u u u u u u u u u u u p d M B V V V M M M M M M M M M B B v 2 @               ( cXVXAXAXAXAXAXAXAXAXAXAXAXAXAXAXAXAXAX",
"                : M #.T.E.T.I.I.I.I.I.I.I.I.I.I.I.I.I.I.I.I.I.I.I.I.I.I.I.I.I.I.I.I.I.I.I.H.' U J H H J J J J J J J J J J J J J J J J J J J J H H J W 1.H.I.I.T.I.I.I.I.I.I.I.I.I.I.I.I.I.I.I.I.I.I.I.T.E.L...w +                                                 o L +X1X6X7X6X6X6X6X3X>X*XXXXXXXXXXXXXXXXXXXXXXXXXXXXXXXXXXXXXXXXXXXXXXXoXXX}.R 3               @ w v B B M M M M M M M M M M M M M C ..$.P.T.T.I.I.I.T.4.6.,.:.:.:.:.:.:.*.&.a u u u u u u u u u u u u u u u u u u u u u u u u u u u u u u u u u u u p d M M V M M M M M M M M M M M B B v w @               ( cXVXAXAXAXAXAXAXAXAXAXAXAXAXAXAXAXAXAX",
"                : M $.T./.T.T.T.T.T.T.I.I.I.I.I.I.I.I.I.I.I.I.I.I.I.I.I.I.I.I.I.I.I.I.I.I.H.' U J H H H H H H H H J J J J J J J J J J J J J J H H J W ' H.I.I.T.I.I.I.I.I.I.I.I.I.I.I.I.I.T.T.T.T.T.T././.P...w +                                                   6 +X1X6X7X6X6X6X6X3X>X*XXXXXXXXXXXXXXXXXXXXXXXXXXXXXXXXXXXXXXXXXXXXXoX%XoX}.R 3               @ w v B B M M M M M M M M M M M M M C ..$.I.T.T.T.I.R.T.3.6.,.:.:.:.:.>.:.*.&.a u u u u u u u u u u u u u u u u u u u u u u u u u u u u u u u u u u u p d M M V M M M M M M B B B B B C C v q @               0 cXVXAXAXAXAXAXAXAXAXAXAXAXAXAXAXAXAXAX",
"                , C $././././././.T.T.T.I.I.I.I.I.I.I.I.I.I.I.I.I.I.I.I.I.I.I.I.I.I.I.I.I.H.' U J H H H H H H H H H J J J J J J J J J J J J J H H J W 1.H.I.I.T.I.I.I.I.I.I.I.I.I.I.I.I.I.T.T.E./././././.I.X.w +                                                   6 +X1X6X7X6X6X6X6X3X>X*XXXXXXXXXXXXXXXXXXXXXXXXXXXXXXXXXXXXXoXoXoXoXoX%X%X}.R 4               @ w v B B M M M M M M M M M M M M M C ..$.I.T.T.T.T.R.T.8.6.,.:.;.:.>.>.:.*.&.a u u u u u u u u u u u u u u u u u u u u u u u u u u u u u u u u y y u p d M M V M M M M M B B B B V V C C v 2 $               0 cXVXAXAXAXAXAXAXAXAXAXAXAXAXAXAXAXAXAX",
"                : M #.P.I.P.L.L.L.P.P.I.I.I.I.I.I.I.I.I.I.I.I.I.I.I.I.I.I.I.I.I.I.I.I.I.I.H.' U J H J J J K J J J J J J J J J J J J J J J J J H H K W ' H.R.I.I.I.I.I.I.I.I.I.I.I.I.I.I.I.P.P.L.L.L.L.I.I.H...w +                     o o o o o             o     o P %X1X6X6X6X6X6X6X3X>X*XXX XXXXXXXXXXXXXXXXXXXXXXXXXXXXXXX X X X X X XXXXX}.R 3               @ w v B B M M M M M M M M M M M M M C ..#.L.I.I.I.P.P.L.4.6.,.;.:.;.:.:.;.*.&.a u u u u u u u u u u u u u u u u u u u u u u u u u u u u u u u u u u p s d M M M M M M M M M M M M M M M M v w : O   o o     O ( cXVXAXAXAXAXAXAXAXAXAXAXAXAXAXAXAXAXAX",
"                @ r A o.O.o.o.X.o.O.#.H.I.T.I.I.I.I.I.I.I.I.I.I.I.I.I.I.I.I.I.I.I.I.I.I.I.H.1.) U U U U U U U U I J H H J J J J J J J J J J J H H K W ' H.R.I.I.I.I.I.I.I.I.I.I.I.I.T.I.L.2.@.o.X.o.o.o.o...M , X             o & 5 L P P P L L L L L L L L L 6 6 P ^ ;X2X6X6X6X6X6X6X3X>X*XXX XXXXXXXXXXXXXXXXXXXXXXXXXXXXX|.}.~ ~ ! ! ~ ~ ~ Q L &               @ w v B B M M M M M M M M M M M M M V A O.$.2.$.$.$.$.$.4.7.=.*.*.*.*.*.=.=.&.a p p p p p p p p p p p p p p p p p p u u u u u u u u p p p p p p p p p s d M M M M M M M M v t r r r r r r r e r m ( ( ( 0 0 ( { nXCXAXAXAXAXAXAXAXAXAXAXAXAXAXAXAXAXAX",
"                + , w r t r r e r v A #.P.T.T.I.I.I.I.I.I.I.I.I.I.I.I.I.I.I.I.I.I.I.I.I.I.U.1.1.' ` ` ' ' ' ` ) U J H H H J J J J J J J J J J H H K W ' H.R.I.I.I.I.I.I.I.I.I.I.I.I.T.T.H.o.B t e r r r t e 1 @               & P ^ +X%X%X+X+X+X+X+X+X+X+X+X+X+X+X%X;X<X5X6X6X6X6X6X6X3X>X*XXX XXXXXXXXXXXXXXXXXXXXXXXXXXXXX}.Q L 6 6 6 6 6 6 5 3 o               @ w v B B M M M M M M M M M M M M M B Z A ..o.X.X...o.X...| | | | | | | | | d d d d d d d d d d d d d d d d d d s p p u u u u u u u p s d d d d s d d d M M M M M M B M v w , : : , , - : 2 ) [ xXcXcXcXcXcXcXnXBXZXAXAXAXAXAXAXAXAXAXAXAXAXAXAXAXAXAX",
"                  X + @ @ @ @ + + : v O.P.T.T.I.I.I.I.I.I.I.I.I.I.I.I.I.I.I.I.I.I.I.I.I.I.P.U.H.2.2.2.2.2.H.2.' ) I H H H J J J J J J J J J J H H K W ' H.R.I.I.I.I.I.I.I.I.I.I.I.I.T.T.2.A 2 @ + + @ @ @ @ + .               4 ^ ;X1X4X2X1X1X1X1X1X1X1X1X1X1X1X<X1X2X5X6X6X6X6X6X6X6X3X>X*XXX XXXXXXXXXXXXXXXXXXXXXXXXXoXXX~ L 3 % o o % % % o o                 @ w v B B M M M M M M M M M M M M M M B C C Z Z Z C Z Z Z C C C C C C C C M M M M M M M M M M M M M M M M M M M d s p u u u u u u p s d M M M M M M M M M M M M M M B M v 2 @ X . X X     = _ vXBXCXVXVXVXVXVXCXZXAXAXAXAXAXAXAXAXAXAXAXAXAXAXAXAXAXAX",
"                                  + r o.L./.T.I.I.I.I.I.I.I.I.I.I.I.I.I.I.I.I.I.I.I.I.I.I.I.I.I.T.I.I.I.I.^.P.1.) I H H H J H H J J J J J J J H H J W ' H.I.I.I.I.I.I.I.I.I.I.I.I.I.E.T.2.C ,                                 5 +X<X6X8X6X6X6X6X6X6X6X6X6X6X6X6X6X6X6X6X6X6X6X6X6X6X6X3X>X*XXXXXXXXXXXXXXXXXXXXXXXXXXXXXoXXX~ L &                                 @ w v B B M M M M M M M M M M M M M M M M M M M M M M M M M M M M M M M M M M M M M M M M M M M M M M M M M V M d s p u u u u u u p s d M V V M M M M M M M M M M M V M t , +             * ] nXAXAXAXAXAXAXAXAXAXAXAXAXAXAXAXAXAXAXAXAXAXAXAXAXAXAXAX",
"                                  + e X.L./.T.I.I.I.I.I.I.I.I.I.I.I.I.I.I.I.I.I.I.I.I.I.I.I.I.I.^.~.I.~.^.^.I.1.) I H H H J H H J J J J J J J H H J W ' H.I.I.I.I.I.I.I.I.I.I.I.I.I.E.T.2.C ,                                 5 +X<X6X8X8X6X6X6X6X6X6X6X6X6X8X8X7X7X6X6X6X6X6X6X6X6X6X3X>X*XXXXXXXXXXXXXXXXXXXXXXXXXXXXXoXXX~ L %                                 - w v B B M M M M M M M M M M M M M M M M M M M M M M M M M M V V V V M M V V V V V V M V M M V V V M M M V V M d s p u u u u u u p s d M V V V V M M M M M M M M M B M v , +             * ] nXAXAXAXAXAXAXAXAXAXAXAXAXAXAXAXAXAXAXAXAXAXAXAXAXAXAXAX",
"                                  @ r o.L./.T.I.I.I.I.I.I.I.I.I.I.I.I.I.I.I.I.I.I.I.I.I.I.I.I.I.T.I.I.T.I.R.P.1.) I H H H J H H J J J J J J J H H K W ' H.R.I.I.I.I.I.I.I.I.I.I.I.I.E.T.2.C ,                                 4 +X<X6X8X6X6X6X6X6X6X6X6X6X6X6X6X6X6X6X6X6X6X6X6X6X6X6X3X,X*XXX XXXXXXXXXXXXXXXXXXXXXXXXXoXXX~ L &                                 @ w v B B M M M M M M M M M M M M M M M M M M M M M M M M M M M M M M M M M M M M M M M M M M M M M M M M M V M d s p u u u u u u p s d M M M M M M M M M M M M M M V M t , +             * _ nXZXAXAXAXAXAXAXAXAXAXAXAXAXAXAXAXAXAXAXAXAXAXAXAXAXAXAX",
"                                  @ r o.L./.T.I.I.I.I.I.I.I.I.I.I.I.I.I.I.I.I.I.I.I.I.I.I.I.I.I.T.I.T.T.I.I.Y.1.) I H H H H H H H H H J H H H H H J W ' H.I.I.T.I.I.I.I.I.I.I.I.I.I.E.T.2.C ,                                 4 ^ <X6X7X6X6X6X6X6X6X6X6X6X6X6X6X6X6X6X6X6X6X6X6X6X6X6X3X,X*XXX XXXXXXXXXXXXXXXXXXXXXXXoX%XXX~ L &                                 @ w v B B M M M M M M M M M M M M M M M M M M M M M M M M M M M M M M M M M M M M M M M M M M M M M M M M M V M d s p u y u u y u p s d M M M M M M M M M M M M M M B M t , +             * _ nXZXAXAXAXAXAXAXAXAXAXAXAXAXAXAXAXAXAXAXAXAXAXAXAXAXAXAX",
"                                  @ r o.L./.T.I.I.I.I.I.I.I.I.I.I.I.I.I.I.I.I.I.I.I.I.I.I.I.I.I.I.I.I.I.I.I.U.1.) I H H H H H H H H H H H H H H H K U ' H.I.~.I.I.I.I.I.I.I.I.I.I.I.E.T.2.C ,                                 4 ^ ,X6X7X6X6X6X6X6X6X6X6X6X6X6X6X6X6X6X6X6X6X6X6X6X6X6X3X,X*XXX XXXXXXXXXXXXXXXXXoXoXoX%X%XXX~ L %                                 @ 2 v V V M M M M M M M M M M M M M M M M M M M M M M M M M M M M M M M M M M M M M M M M M M M M M M M M M M M d s p u y u y y y u s d M M M M M M M M M M M M M B V M t , +             * _ nXZXAXAXAXAXAXAXAXAXAXAXAXAXAXAXAXAXAXAXAXAXAXAXAXAXAXAX",
"                                  @ r o.L./.T.I.I.I.I.I.I.I.I.I.I.I.I.I.I.I.I.I.I.I.I.I.I.I.I.I.I.I.I.I.I.I.Y.1.) I H H H H H H H H J J H H H H H K W ' H.I.I.I.I.I.I.I.I.I.I.I.I.I.E.T.2.C ,                                 4 ^ <X6X8X6X6X6X6X6X6X6X6X6X6X6X6X6X6X6X6X6X6X6X6X6X6X6X3X,X*XXX XXXXXXXXXXXXXXXXXXXXXXXoX%XXX~ L &                                 @ w v V V M M M M M M M M M M M M M M M M M M M M M M M M M M M M M M M M M M M M M M M M M M M M M M M M M M M d s p u u u u y y p s d B M M M M M M M M M M M M B V M t , +             * _ nXZXAXAXAXAXAXAXAXAXAXAXAXAXAXAXAXAXAXAXAXAXAXAXAXAXAXAX",
"                                  @ r o.L./.T.I.I.I.I.I.I.I.I.I.I.I.I.I.I.I.I.I.I.I.I.I.I.I.I.I.I.I.I.I.I.I.P.1.) U I I I I I I I I I I I I I I I U ) 1.U.I.I.I.I.I.I.I.I.I.I.I.I.I.E.T.2.C ,               o & 3 4 4 4 3 & 4 E +X<X6X6X6X6X6X6X6X6X6X6X6X6X6X6X6X6X6X6X6X6X6X6X6X6X6X3X,X*XXXXXXXXXXXXXXX|.}.}.~ ~ ~ }.}.~ Q 6 & X X X X X X X X X X X X X X X + : w v V V M M M M M M M M M M M M M M M M M M M M M M M M M M M M M M M M M M M M M M M M M M M M M M M M M M M M d p p p p p p p p s d M B M M M M M M M M M M M B V M t , +             * _ nXZXAXAXAXAXAXAXAXAXAXAXAXAXAXAXAXAXAXAXAXAXAXAXAXAXAXAX",
"                                  @ r o.L./.T.I.I.I.I.I.I.I.I.I.I.I.I.I.I.I.I.I.I.I.I.I.I.I.I.I.I.I.I.I.I.I.P.2.1.` ) ) ) ) ) ) ) ) ) ) ) ) ) ) ) ) ' 1.U.I.I.I.I.I.I.I.I.I.I.I.I.I.E.T.2.C ,               3 P Q ^ ^ ^ ^ Q ^ +X;X2X6X6X6X6X6X6X6X6X6X6X6X6X6X6X6X6X6X6X6X6X6X6X6X6X6X3X,X&XXXXXXXXXXXXX X~ Q R E E R R R R P 6 > , , , , , , , , , , , , , , , , 2 t M M B M M M M M M M M M M M M M M M M M M M M M M M M M M M M M M M M M M M M M M M M M M M M M M M M M M M M d s s s s s s s s d M M M M M M M M M M M M M M B V M t , +             * _ nXZXAXAXAXAXAXAXAXAXAXAXAXAXAXAXAXAXAXAXAXAXAXAXAXAXAXAX",
"                                  @ r o.L./.T.I.I.I.I.I.I.I.I.I.I.I.I.I.I.I.I.I.I.I.I.I.I.I.I.I.I.I.I.I.I.I.I.U.2.1.1.1.1.1.1.1.1.1.1.1.1.1.1.1.1.1.2.H.P.I.I.I.I.I.I.I.I.I.I.I.I.I.E.T.$.C ,             o 6 ^ ;X,X,X,X>X,X>X<X2X5X6X6X6X6X6X6X6X6X6X6X6X6X6X6X6X6X6X6X6X6X6X6X6X6X6X3X>X*XXXXXXXXXXXoX|.! L 4 & & 3 3 3 3 ; 1 e t t t t t t t t t t t t t t r t v b M M M M M M M M M M M M M M M M M M M M M M M M M M M M M M M M M M M M M M M M M M M M M M M M M M M M M M M M M M d d d M M M M M M M M M M M M M M M M M M M V M t , +             * _ nXZXAXAXAXAXAXAXAXAXAXAXAXAXAXAXAXAXAXAXAXAXAXAXAXAXAXAX",
"                                  @ r o.L./.T.I.I.I.I.I.I.I.I.I.I.I.I.I.I.I.I.I.I.I.I.I.I.I.I.I.I.I.I.I.I.I.I.I.Y.Y.P.I.P.P.P.P.P.P.I.I.I.I.P.P.P.P.P.I.I.I.I.I.I.I.I.I.I.I.I.I.I.I.E.T.$.C ,             o P %X2X6X6X6X6X6X6X6X6X6X6X6X6X6X6X6X6X6X6X6X6X6X6X6X6X6X6X6X6X6X6X6X6X6X6X3X>X*XXXXXXXXXoXoX|.Q 5 o             @ 1 v M B M M M M M M M M M M M M M M M M M M M M M M M M M M M M M M M M M M M M M M M M M M M M M M M M M M M M M M M M M M M M M M M M M M M M M M M M M M M M M M M M M M M M M M M M M M M M M M M M V M v , +             * _ nXZXAXAXAXAXAXAXAXAXAXAXAXAXAXAXAXAXAXAXAXAXAXAXAXAXAXAX",
"                                  @ r o.L./.T.I.I.I.I.I.I.I.I.I.I.I.I.I.I.I.I.I.I.I.I.I.I.I.I.I.I.I.I.I.I.I.I.I.T.I.~.~.I.I.I.I.I.I.I.I.^.I.I.~.~.I.I.I.I.I.I.I.I.I.I.I.I.I.I.I.I.I./.T.$.C ,             o E *X5X8X8X7X6X8X6X6X6X6X6X6X6X6X6X6X6X6X6X6X6X6X6X6X6X6X6X6X6X6X6X6X6X6X6X3X,X*XXX XXXXXoXoX|.Q 4               @ 1 v C C B V V V V B B B B B B B B V V M M M M M M M M M M M M M M M M M M M M M M M M M M M M M M M M M M M M M M M M M M M M M M M M M M M M M M M M M V V M M M V M V M M M M M M M M M M M M M M M M B M t , +             * _ nXZXAXAXAXAXAXAXAXAXAXAXAXAXAXAXAXAXAXAXAXAXAXAXAXAXAXAX",
"                                  @ r o.L./.T.I.I.I.I.I.I.I.I.I.I.I.I.I.I.I.I.I.I.I.I.I.I.I.I.I.I.I.I.I.I.I.I.I.T.T.I.I.I.I.I.I.I.I.I.I.I.I.I.I.I.I.I.I.I.I.I.I.I.I.I.I.I.I.I.I.I.I.E.T.$.C ,             o E *X4X8X8X6X6X6X6X6X6X6X6X6X6X6X6X6X6X6X6X6X6X6X6X6X6X6X6X6X6X6X6X6X6X6X6X3X,X*XXX XXXXXXXoX|.Q 4               @ 1 v B C B B B B B B B B B B B B B B M M M M M M M M M M M M M M M M M M M M M M M M M M M M M M M M M M M M M M M M M M M M M M M M M M M M M M M M M M M M M M M M M M M M M M M M M M M M M M M M M M B M t , +             * _ nXZXAXAXAXAXAXAXAXAXAXAXAXAXAXAXAXAXAXAXAXAXAXAXAXAXAXAX",
"                                  @ r o.L./.T.I.I.I.I.I.I.I.I.I.I.I.I.I.I.I.I.I.I.I.I.I.I.I.I.I.I.I.I.I.I.I.I.I.I.I.I.I.I.I.I.I.I.I.I.I.I.I.I.I.I.I.T.T.I.I.I.I.I.I.I.I.I.I.I.I.I.I.E.T.$.C ,             o P *X4X7X6X6X6X6X6X6X6X6X6X6X6X6X6X6X6X6X6X6X6X6X6X6X6X6X6X6X6X6X6X6X6X6X6X3X,X*XXX XXXXXXXoX|.Q 5 o             @ 1 v M B M M M M M M M M M M M M M M M M M M M M M M M M M M M M M M M M M M M M M M M M M M M M M M M M M M M M M M M M M M M M M M M M M M M M M M M M M M M M M M M M M M M M M M M M M M M M M M M M V M t , +             * _ nXZXAXAXAXAXAXAXAXAXAXAXAXAXAXAXAXAXAXAXAXAXAXAXAXAXAXAX",
"                                  @ r o.L./.T.I.I.I.I.I.I.I.I.I.I.I.I.I.I.I.I.I.I.I.I.I.I.I.I.I.I.I.I.I.I.I.I.I.I.I.I.I.I.I.I.I.I.I.I.I.I.I.I.I.I.I.T.T.T.T.T.T.T.T.E.T.T.T.T.T.T.T././.2.Z ,             o P *X4X7X6X6X6X6X6X6X6X6X6X6X6X6X6X6X6X6X6X6X6X6X6X6X6X6X6X6X6X6X6X6X6X6X6X3X,X*XXX XXXXXXXXX|.Q 5 o             @ 1 v M B M M M M M M M M M M M M M M M M M M M M M M M M M M M M M M M M M M M M M M M M M M M M M M M M M M M M M M M M M M M M M M M M M M M M M M M M M M M M M M M M M M M M M M M M M M B V V B B C C B t , X             * _ nXZXAXAXAXAXAXAXAXAXAXAXAXAXAXAXAXAXAXAXAXAXAXAXAXAXAXAX",
"                                  @ r o.L./.T.I.I.I.I.I.I.I.I.I.I.I.I.I.I.I.I.I.I.I.I.I.I.I.I.I.I.I.I.I.I.I.I.I.I.I.I.I.I.I.I.I.I.I.I.I.I.I.I.I.I.I.T.I.T.T././././.T.T.T.T.T.T.T./././.H.Z ,             o P *X4X7X6X6X6X6X6X6X6X6X6X6X6X6X6X6X6X6X6X6X6X6X6X6X6X6X6X6X6X6X6X6X6X6X6X3X,X*XXXXXXXXXXXXX|.Q 5 o             @ 1 v M B M M M M M M M M M M M M M M M M M M M M M M M M M M M M M M M M M M M M M M M M M M M M M M M M M M M M M M M M M M M M M M M M M M M M M M M M M M M M M M M M M M M M M M M M M M B V V B B B C B t , X             * _ nXZXAXAXAXAXAXAXAXAXAXAXAXAXAXAXAXAXAXAXAXAXAXAXAXAXAXAX",
"                                  @ r o.L./.T.I.I.I.I.I.I.I.I.I.I.I.I.I.I.I.I.I.I.I.I.I.I.I.I.I.I.I.I.I.I.I.I.I.I.I.I.I.I.I.I.I.I.I.I.I.I.I.I.I.I.I.P.L.H.H.H.H.H.H.H.H.H.H.H.H.H.H.L.L.#.M ,             o P *X4X6X6X6X6X6X6X6X6X6X6X6X6X6X6X6X6X6X6X6X6X6X6X6X6X6X6X6X6X6X6X6X6X6X6X3X,X&XXXXXXXXXXXXX|.Q 5 o             @ 1 v M B M M M M M M M M M M M M M M M M M M M M M M M M M M M M M M M M M M M M M M M M M M M M M M M M M M M M M M M M M M M M M M M M M M M M M M M M M M M M M M M M M M M M M M M M M M M M b M v M M v t 2 = * O * * O O 7 ] nXZXAXAXAXAXAXAXAXAXAXAXAXAXAXAXAXAXAXAXAXAXAXAXAXAXAXAX",
"                                  @ r o.L./.T.I.I.I.I.I.I.I.I.I.I.I.I.I.I.I.I.I.I.I.I.I.I.I.I.I.I.I.I.I.I.I.I.I.I.I.I.I.I.I.I.I.I.I.I.I.I.I.I.T.T.P.$.O...A A A A A A A A A A A A A ..A C e -             o P *X2X6X6X6X6X6X6X6X6X6X6X6X6X6X6X6X6X6X6X6X6X6X6X6X6X6X6X6X6X6X6X6X6X6X6X3X>X*XXXXXXXXXoXXX|.Q 5 o             @ 1 v M V M M M M M M M M M M M M M M M M M M M M M M M M M M M M M M M M M M M M M M M M M M M M M M M M M M M M M M M M M M M M M M M M M M M M M M M M M M M M M M M M M M M M M M M M M v t w w w w w q w r m ) _ _ _ _ ( _ ] cXMXZXAXAXAXAXAXAXAXAXAXAXAXAXAXAXAXAXAXAXAXAXAXAXAXAXAXAX",
"                                  @ r o.L./.T.I.I.I.I.I.I.I.I.I.I.I.I.I.I.I.I.I.I.I.I.I.I.I.I.I.I.I.I.I.I.I.I.I.I.I.I.I.I.I.I.I.I.I.I.I.I.I.I.T.T.L.O.M w 2 2 2 2 2 2 2 2 2 2 2 2 2 w 2 1 - +             o P *X2X6X6X6X6X6X6X6X6X6X6X6X6X6X6X6X6X6X6X6X6X6X6X6X6X6X6X6X6X6X6X6X6X6X6X3X>X*XXXXXXXXXXXXX|.Q 5 o             @ 1 v M V B M M M M M M M M M M M M M M M M M M M M M M M M M M M M M M M M M M M M M M M M M M M M M M M M M M M M M M M M M M M M M M M M M M M M M M M M M M M M M M M M M M M M M B B M t 2 : - - - - $ - 9 ] xXbXnXbXbXbXbXnXMXVXAXAXAXAXAXAXAXAXAXAXAXAXAXAXAXAXAXAXAXAXAXAXAXAXAXAXAX",
"                                  @ r o.L./.T.I.I.I.I.I.I.I.I.I.I.I.I.I.I.I.I.I.I.I.I.I.I.I.I.I.I.I.I.I.I.I.I.I.I.I.I.I.I.I.I.I.I.I.I.I.I.I.I.T.T.H...w @ . . X X X X X X X X X X X X X X .               o P *X2X6X6X6X6X6X6X6X6X6X6X6X6X6X6X6X6X6X6X6X6X6X6X6X6X6X6X6X6X6X6X6X6X6X6X3X>X*XXXXXXXXXoXoX|.Q 5 o             @ 1 v M V M M M M M M M M M M M M M M M M M M M M M M M M M M M M M M M M M M M M M M M M M M M M M M M M M M M M M M M M M M M M M M M M M M M M M M M M M M M M M M M M M M M M M M V V M r , X             8 } mXCXZXZXCXCXCXZXZXAXAXAXAXAXAXAXAXAXAXAXAXAXAXAXAXAXAXAXAXAXAXAXAXAXAXAXAX",
"                                  @ r o.L./.T.I.I.I.I.I.I.I.I.I.I.I.I.I.I.I.I.I.I.I.I.I.I.I.I.I.I.I.I.I.I.I.I.I.I.I.I.I.I.I.I.I.I.I.I.I.I.I.I.T.T.H.A 2 .                                                 o E *X2X6X6X6X6X6X6X6X6X6X6X6X6X6X6X6X6X6X6X6X6X6X6X6X6X6X6X6X6X6X6X6X6X6X6X3X>X*XXXXXXXXXXXXX|.Q 5 o             @ 1 v M V M M M M M M M M M M M M M M M M M M M M M M M M M M M M M M M M M M M M M M M M M M M M M M M M M M M M M M M M M M M M M M M M M M M M M M M M M M M M M M M M M M M M M M V V M e -               8 zXBXAXAXAXAXAXAXAXAXAXAXAXAXAXAXAXAXAXAXAXAXAXAXAXAXAXAXAXAXAXAXAXAXAXAXAXAX",
"                                  @ r o.L./.T.I.I.I.I.I.I.I.I.I.I.I.I.I.I.I.I.I.I.I.I.I.I.I.I.I.I.I.I.I.I.I.I.I.I.I.I.I.I.I.I.I.I.I.I.I.I.T.T.E.T.H.A 2 .                                                 o P *X2X6X6X6X6X6X6X6X6X6X6X6X6X6X6X6X6X6X6X6X6X6X6X6X6X6X6X6X6X6X6X6X6X6X6X3X>X*XXXXXXXXXoXoX|.Q 5 o             @ 1 v M B M M M M M M M M M M M M M M M M M M M M M M M M M M M M M M M M M M M M M M M M M M M M M M M M M M M M M M M M M M M M M M M M M M M M M M M M M M M M M M M M M M M M M M B B M e -               8 zXBXAXAXAXAXAXAXAXAXAXAXAXAXAXAXAXAXAXAXAXAXAXAXAXAXAXAXAXAXAXAXAXAXAXAXAXAX",
"                                  @ r o.L./.T.I.I.I.I.I.I.I.I.I.I.I.I.I.I.I.I.I.I.I.I.I.I.I.I.I.I.I.I.I.I.I.I.I.I.I.I.I.I.I.I.I.I.I.I.I.I.I.I.E.T.H.A 2 X                                                 o P *X2X6X7X6X6X6X6X6X6X6X6X6X6X6X6X6X6X6X6X6X6X6X6X6X6X6X6X6X6X6X6X6X6X6X6X3X>X*XXXXXXXXXoXoX|.Q 5 o             @ 1 v M B M M M M M M M M M M M M M M M M M M M M M M M M M M M M M M M M M M M M M M M M M M M M M M M M M M M M M M M M M M M M M M M M M M M M M M M M M M M M M M M M M M M M M M B B M e - .             8 zXBXAXAXAXAXAXAXAXAXAXAXAXAXAXAXAXAXAXAXAXAXAXAXAXAXAXAXAXAXAXAXAXAXAXAXAXAX",
"                                  @ r o.P././.T.T.T.T.T.T.T.T.T.T.T.T.T.T.T.I.I.I.I.I.I.I.I.I.I.I.I.I.I.I.I.I.I.T.T.T.T.T.T.T.T.T.T.T.T.T.T.T././.L.A 2 X                                                 o P %X4X7X7X6X6X6X6X6X6X6X6X6X6X6X6X6X6X6X6X6X6X6X6X6X6X6X6X6X6X6X6X6X6X6X6X3X>X*XoXXXXXXXoX%X|.Q 5 o             @ 2 v B C B B B B B B B B B B B B B B B B B B B B B B B M M M M M M M M M M M M M M M M M M M M M M M M M M M M M M M M M M M M M M M M M M M M M M M M M M B B B B B B B B B B B B M B C M e -               8 } BXAXAXAXAXAXAXAXAXAXAXAXAXAXAXAXAXAXAXAXAXAXAXAXAXAXAXAXAXAXAXAXAXAXAXAXAX",
"                                  @ t O.I./././././././././././././././.T.T.I.I.I.I.I.I.I.I.I.I.I.I.I.I.I.I.I.T.T.T./././././././././././././././.L...w X                                                   P %X4X7X7X6X6X6X6X6X6X6X6X6X6X6X6X6X6X6X6X6X6X6X6X6X6X6X6X6X6X6X6X6X6X6X6X3X,X*X%XXXXXoX%X%X XQ 5 o             @ 2 v C C C V V B B V V V V B B V V B B V V V V V V V V V B M M M M M M M M M M M M M M M M M M M M M M M M M M M M M M M M M M M M M M M M M M M M M M B B V V B B V V V V B B V V B C C M e -               7 } BXAXAXAXAXAXAXAXAXAXAXAXAXAXAXAXAXAXAXAXAXAXAXAXAXAXAXAXAXAXAXAXAXAXAXAXAX",
"                                  @ r X.L.T.I.P.P.P.P.I.I.P.P.P.P.P.P.P.P.I.I.I.I.I.I.I.I.I.I.I.I.I.I.I.I.I.I.I.I.P.P.P.P.I.I.P.P.P.P.I.I.P.P.T.T.H.A 2 X                                                 % E *X2X6X6X6X6X6X6X6X6X6X6X6X6X6X6X6X6X6X6X6X6X6X6X6X6X6X6X6X6X6X6X6X6X6X6X3X>X*XXX X X XXXXX|.Q 5 o             @ 1 v M B M M M M M M M M M M M M M M M M M M M M M M M M M M M M M M M M M M M M M M M M M M M M M M M M M M M M M M M M M M M M M M M M M M M M M M M M M M M M M M M M M M M M M M M B M e : X             8 zXBXAXAXAXAXAXAXAXAXAXAXAXAXAXAXAXAXAXAXAXAXAXAXAXAXAXAXAXAXAXAXAXAXAXAXAXAX",
"0 0 0 0 0 0 0 0 8 = O             + 2 C o.@.@.O.O.O.O.O.O.O.O.O.O.O.O.O.#.2.L.I.T.I.I.I.I.I.I.I.I.I.I.I.I.T.I.H.$.@.O.O.O.O.O.O.O.O.O.O.O.O.O.@.@.X.M , X             o & 5 6 6 6 6 6 6 6 6 6 6 6 6 6 5 5 L ^ ;X4X6X6X6X6X6X6X6X6X6X6X6X6X6X6X6X6X6X6X6X6X6X6X6X6X6X6X6X6X6X6X6X6X6X6X2X:XXX~ ~ ~ ~ ~ ~ ! E 4 o             + , w t t t t t t t t t t t t t t t t t t t t t t t r t t v M M M M M M M M M M M M M M M M M M M M M M M M M M M M M M M M M M M M M M M M M M M M M M v t t r t t t t t t t t t t r t t r r e 0 0 0 0 0 8 0 _ cXBXAXAXAXAXAXAXAXAXAXAXAXAXAXAXAXAXAXAXAXAXAXAXAXAXAXAXAXAXAXAXAXAXAXAXAXAX",
"xXxXxXxXxXxXcXxX] ( *             X - w t v v v v v v v v v v v v t t v M ..2.I.T.I.I.I.I.I.I.I.I.I.I.I.T.T.P.$.A M t t v v v v v v v v v v v v v r 2 @               & E ^ +X+X+X+X+X+X+X+X+X+X+X+X+X+X+X+X=X<X5X6X6X6X6X6X6X6X6X6X6X6X6X6X6X6X6X6X6X6X6X6X6X6X6X6X6X6X6X6X6X6X6X6X6X2X*X! L 6 L L L L L 4 &               . @ : , , , , , , , , , , , , , , , , , , , , , , , , , 2 e v M B M M M M M M M M M M M M M M M M M M M M M M M M M M M M M M M M M M M M M M M M B M v e 1 , , , , , , , , , , , , , , , 1 m ] zXxXxXxXxXzXxXcXmXCXAXAXAXAXAXAXAXAXAXAXAXAXAXAXAXAXAXAXAXAXAXAXAXAXAXAXAXAXAXAXAXAXAXAXAXAX",
"BXBXBXBXBXBXVXBXbX] 7               X @ @ @ @ @ @ @ @ @ @ @ @ @ @ @ @ @ 2 C #.I.T.T.I.I.I.I.I.I.I.I.I.I.T.T.P.O.v , @ @ @ @ @ @ @ @ @ @ @ @ @ @ @ @ + .               4 ^ ;X<X1X<X<X<X<X<X<X<X<X<X<X<X<X<X<X2X5X6X6X6X6X6X6X6X6X6X6X6X6X6X6X6X6X6X6X6X6X6X6X6X6X6X6X6X6X6X6X6X6X6X6X6X<X+XP & o % & & & & o                   . X X X X X X X X X X X X X X X X X X X X X X X X X X $ 2 v M B M M M M M M M M M M M M M M M M M M M M M M M M M M M M M M M M M M M M M M M M V M t 1 @ X X X X X X X X X X X X X . . @ ( xXmXVXVXBXBXBXBXVXCXAXAXAXAXAXAXAXAXAXAXAXAXAXAXAXAXAXAXAXAXAXAXAXAXAXAXAXAXAXAXAXAXAXAXAXAXAX",
"AXAXAXAXAXAXAXAXMX{ 7                                                   - v #.I./.T.I.I.I.I.I.I.I.I.I.I.T./.L.o.r @                                                   5 +X<X6X8X6X6X6X6X6X6X6X6X6X6X6X6X6X6X6X6X6X6X6X6X6X6X6X6X6X6X6X6X6X6X6X6X6X6X6X6X6X6X6X6X6X6X6X6X6X6X6X6X6X8X6X<X+X5                                                                                         + , t M V B M M M M M M M M M M M M M M M M M M M M M M M M M M M M M M M M M M M M M M B V M t , X                               O ( vXCXAXAXAXAXAXAXAXAXAXAXAXAXAXAXAXAXAXAXAXAXAXAXAXAXAXAXAXAXAXAXAXAXAXAXAXAXAXAXAXAXAXAXAXAXAX",
"AXAXAXAXAXAXAXAXBX} 7                                                   @ v @.I./.T.I.I.I.I.I.I.I.I.I.I.T./.L.X.e +                                                   6 +X1X8X8X8X7X7X7X6X6X6X6X6X6X6X8X7X7X6X6X6X6X6X6X6X6X6X6X6X6X6X6X6X6X6X6X6X6X6X6X6X6X6X6X6X6X6X6X6X6X6X6X6X8X6X<X+X5                                                                                         X , t M V B M M M M M M M M M M M M M M M M M M M M M M M M M M M M M M M M M M M M M M B V M r , X                               O ( vXCXAXAXAXAXAXAXAXAXAXAXAXAXAXAXAXAXAXAXAXAXAXAXAXAXAXAXAXAXAXAXAXAXAXAXAXAXAXAXAXAXAXAXAXAXAX",
"AXAXAXAXAXAXAXAXMX{ 7                                                   - v #.I./.T.I.I.I.I.I.I.I.I.I.I.T./.L.o.r @                                                   5 +X<X6X8X6X6X6X6X6X6X6X6X6X6X6X6X6X6X6X6X6X6X6X6X6X6X6X6X6X6X6X6X6X6X6X6X6X6X6X6X6X6X6X6X6X6X6X6X6X6X6X6X6X8X6X<X+X6                                                                                         + , t M V B M M M M M M M M M M M M M M M M M M M M M M M M M M M M M M M M M M M M M M B V M t , X                               O ( vXCXAXAXAXAXAXAXAXAXAXAXAXAXAXAXAXAXAXAXAXAXAXAXAXAXAXAXAXAXAXAXAXAXAXAXAXAXAXAXAXAXAXAXAXAXAX",
"AXAXAXAXAXAXAXAXMX{ 7                                                   - v #.I./.T.I.I.I.I.I.I.I.I.I.I.T./.P.o.r @                                                   5 +X<X6X7X6X6X6X6X6X6X6X6X6X6X6X6X6X6X6X6X6X6X6X6X6X6X6X6X6X6X6X6X6X6X6X6X6X6X6X6X6X6X6X6X6X6X6X6X6X6X6X6X6X8X6X<X+X5                                                                                         + , t M C B M M M M M M M M M M M M M M M M M M M M M M M M M M M M M M B B M M M M M M V V M t , X                               O ( vXCXAXAXAXAXAXAXAXAXAXAXAXAXAXAXAXAXAXAXAXAXAXAXAXAXAXAXAXAXAXAXAXAXAXAXAXAXAXAXAXAXAXAXAXAXAX",
"AXAXAXAXAXAXAXAXMX{ 7                                                   $ b #.E././.E.E././././.E.E.E.E././.T.o.t @                                                   6 +X<X6X6X6X6X6X6X6X6X6X6X6X6X6X6X6X6X6X6X6X6X6X6X6X6X6X6X6X6X6X6X6X6X6X6X6X6X6X6X6X6X6X6X6X6X6X6X7X7X7X7X8X8X8X1X+X6                                                                                         + , v B C B V V V V B B B B B B B B B B B B B B B B B B B B B B B B B B B B B B B B B B C C B t : .                                 ( cXVXAXAXAXAXAXAXAXAXAXAXAXAXAXAXAXAXAXAXAXAXAXAXAXAXAXAXAXAXAXAXAXAXAXAXAXAXAXAXAXAXAXAXAXAXAX",
"AXAXAXAXAXAXAXAXMX{ 7                                                   $ b #.I./.T.T.T.T.T.T.T.T.T.T.T././.I.o.r @                                                   6 +X<X6X7X6X6X6X6X6X6X6X6X6X6X6X6X6X6X6X6X6X6X6X6X6X6X6X6X6X6X6X6X6X6X6X6X6X6X6X6X6X6X6X6X6X6X6X6X6X6X6X6X7X8X7X<X+X6                                                                                         + , v B C B B B B B B B B B B B B B B B B B B B B B B B B B B B B B B B B B B B B B B B B C M t , .                                 ( cXCXAXAXAXAXAXAXAXAXAXAXAXAXAXAXAXAXAXAXAXAXAXAXAXAXAXAXAXAXAXAXAXAXAXAXAXAXAXAXAXAXAXAXAXAXAX",
"AXAXAXAXAXAXAXAXMX{ 7                                 o & & & & 3 & & & > n o.$.2.$.$.$.$.$.$.$.$.$.$.$.2.2.$.A w +               o o % & % % % & % o                 6 +X<X6X6X6X6X6X6X6X6X6X6X6X6X6X6X6X6X6X6X6X6X6X6X6X6X6X6X6X6X6X6X6X6X6X6X6X6X6X6X6X6X6X6X6X6X6X4X2X1X1X1X1X4X2X>X^ 5                 o % % % % % % % o o                 O * = = = = = = = * O               + , r v v v v v v v v v v v v v v v v v v v v v v v v v v v v v v v v v v v v v v v v v v v v r 2 < = = = = = = = = = = = = = = * 8 ] bXCXAXAXAXAXAXAXAXAXAXAXAXAXAXAXAXAXAXAXAXAXAXAXAXAXAXAXAXAXAXAXAXAXAXAXAXAXAXAXAXAXAXAXAXAXAX",
"AXAXAXAXAXAXAXAXMX{ 7                                 & P Q Q Q Q Q Q Q Q ) M C C C C C C C C C C C C C C Z C t , X             o & 5 6 L 6 6 L L 6 4 &               5 +X<X6X7X6X6X6X6X6X6X6X6X6X6X6X6X6X6X6X6X6X6X6X6X6X6X6X6X6X6X6X6X6X6X6X6X6X6X6X6X6X6X6X6X6X6X2X>X*X+X+X+X+X%X%X+XE 3               & 4 6 6 6 6 6 L 6 5 & o             O 8 ( ] ] ] ] ] ] ] ( 7 O             X @ , 2 2 2 2 2 2 2 2 2 2 2 2 2 2 2 2 2 2 2 2 2 2 2 2 2 2 2 2 2 2 2 2 2 2 2 2 2 2 2 2 2 2 2 2 e ) ] ] ] ] ] ] ] ] ] ] ] ] ] ] ] ] { cXMXZXAXAXAXAXAXAXAXAXAXAXAXAXAXAXAXAXAXAXAXAXAXAXAXAXAXAXAXAXAXAXAXAXAXAXAXAXAXAXAXAXAXAXAXAXAX",
"AXAXAXAXAXAXAXAXMX{ 7                               o 6 ^ =X>X>X>X>X>X:X*X^ s , , , , , , , , , , , , , , , , - +               % 5 R ! ~ ~ ! ~ ~ ! L 3               5 +X<X6X7X6X6X6X6X6X6X6X6X6X6X6X6X6X6X6X6X6X6X6X6X6X6X6X6X6X6X6X6X6X6X6X6X6X6X6X6X6X6X6X6X7X6X,X+XE 6 6 L L P L 6 3 o             o 3 L ! ~ ~ ! ~ ~ ! R 5 %             * ( xXnXmXmXmXmXmXnXxX( *               X @ @ @ @ @ @ @ @ @ @ @ @ @ @ @ @ @ @ @ @ @ @ @ @ @ @ @ @ @ @ @ @ @ @ @ @ @ @ @ @ @ @ @ + @ 0 [ vXmXmXmXnXnXnXnXnXnXnXmXmXnXnXnXmXBXVXAXAXAXAXAXAXAXAXAXAXAXAXAXAXAXAXAXAXAXAXAXAXAXAXAXAXAXAXAXAXAXAXAXAXAXAXAXAXAXAXAXAXAXAXAXAX",
"AXAXAXAXAXAXAXAXMX{ 7                               o P %X1X6X6X6X6X6X6X,X^ 5                                                   & L ~ |.XX X XXXXX}.Q 4 o             5 +X<X6X7X6X6X6X6X6X6X6X6X6X6X6X6X6X6X6X6X6X6X6X6X6X6X6X6X6X6X6X6X6X6X6X6X6X6X6X6X6X6X6X6X6X6X>XQ 3           o                   o 5 Q }.XXXX XXXXX|.~ L &             = ] nXZXAXAXAXAXAXCXnX_ *                                                                                                           0 zXBXAXAXAXAXAXAXAXAXAXZXAXAXAXAXZXZXAXAXAXAXAXAXAXAXAXAXAXAXAXAXAXAXAXAXAXAXAXAXAXAXAXAXAXAXAXAXAXAXAXAXAXAXAXAXAXAXAXAXAXAXAXAXAXAX",
"AXAXAXAXAXAXAXAXMX{ 7                               o E *X5X8X8X7X8X8X7X<X+X4                                                   & L ~ XX%X%XoX%X%X XQ 5 o             5 +X<X6X6X6X6X6X6X6X6X6X6X6X6X6X6X6X6X6X6X6X6X6X6X6X6X6X6X6X6X6X6X6X6X6X6X6X6X6X6X6X6X6X6X7X6X;XQ &                               o 5 !  X%X%XoX%X%XXX~ L &             = ] mXAXAXAXAXAXAXAXnX] =                                                                                                           0 xXVXAXAXAXAXAXAXAXAXAXAXAXAXAXAXAXAXAXAXAXAXAXAXAXAXAXAXAXAXAXAXAXAXAXAXAXAXAXAXAXAXAXAXAXAXAXAXAXAXAXAXAXAXAXAXAXAXAXAXAXAXAXAXAXAX",
"AXAXAXAXAXAXAXAXMX{ 7                               o E *X4X8X8X7X7X8X6X<X+X4                                                   & L ~ XX%XoXXX%X%X|.Q 5 o             5 +X<X6X6X6X6X6X6X6X6X6X6X6X6X6X6X6X6X6X6X6X6X6X6X6X6X6X6X6X6X6X6X6X6X6X6X6X6X6X6X6X6X6X6X8X6X:XQ &                               o 5 Q |.%X%XXXoX%XXX~ L &             = ] mXAXAXAXAXAXAXZXnX] *                                                                                                           0 xXBXAXAXAXAXAXAXAXAXAXAXAXAXAXAXAXAXAXAXAXAXAXAXAXAXAXAXAXAXAXAXAXAXAXAXAXAXAXAXAXAXAXAXAXAXAXAXAXAXAXAXAXAXAXAXAXAXAXAXAXAXAXAXAXAX",
"AXAXAXAXAXAXAXAXMX{ 7                               o P *X4X7X7X6X6X7X6X<X+X5                                                   & L ~  XoXXXXXoXXX|.Q 5 o             5 +X<X6X7X6X6X6X6X6X6X6X6X6X6X6X6X6X6X6X6X6X6X6X6X6X6X6X6X6X6X6X6X6X6X6X6X6X6X6X6X6X6X6X6X7X6X:XQ &                               o 5 Q |.oXoXXXXXoXXX~ L &             = ] nXAXAXAXAXAXAXZXnX_ *                                                                                                           0 xXBXAXAXAXAXAXAXAXAXAXAXAXAXAXAXAXAXAXAXAXAXAXAXAXAXAXAXAXAXAXAXAXAXAXAXAXAXAXAXAXAXAXAXAXAXAXAXAXAXAXAXAXAXAXAXAXAXAXAXAXAXAXAXAXAX",
"AXAXAXAXAXAXAXAXmX{ 7                               o P *X4X7X7X6X6X7X6X<X^ 4                                                   & L ~  XoXXXXXoXXX|.Q 5 o             5 +X<X6X7X6X6X6X6X6X6X6X6X6X6X6X6X6X6X6X6X6X6X6X6X6X6X6X6X6X6X6X6X6X6X6X6X6X6X6X6X6X6X6X6X8X6X:XQ &                               o 5 Q |.oXoXXXXXoXXX~ L &             = ] nXAXAXAXAXAXAXZXnX_ *                                                                                                           0 xXBXAXAXAXAXAXAXAXAXAXAXAXAXAXAXAXAXAXAXAXAXAXAXAXAXAXAXAXAXAXAXAXAXAXAXAXAXAXAXAXAXAXAXAXAXAXAXAXAXAXAXAXAXAXAXAXAXAXAXAXAXAXAXAXAX",
"AXAXAXAXAXAXAXAXmX{ =                               o P *X2X7X7X6X6X8X6X,X^ 4                                                   % L ~ XXoXXXXXoXXX|.Q 5 o             5 +X<X6X7X6X6X6X6X6X6X6X6X6X6X6X6X6X6X6X6X6X6X6X6X6X6X6X6X6X6X6X6X6X6X6X6X6X6X6X6X6X6X6X7X8X6X>XQ &                               o 5 Q |.oXoXXXXXoX X~ L &             = ] nXAXAXAXAXAXAXZXnX_ O                                                                                                           0 zXBXAXAXAXAXAXAXAXAXAXAXAXAXAXAXAXAXAXAXAXAXAXAXAXAXAXAXAXAXAXAXAXAXAXAXAXAXAXAXAXAXAXAXAXAXAXAXAXAXAXAXAXAXAXAXAXAXAXAXAXAXAXAXAXAX",
"AXAXAXAXAXAXAXAXMX} 0 O   O O O O O O               o P *X2X7X7X6X6X6X6X<X+X6 o   o o o o o o o o o o o o o o o o o o o o       & L ~ XXoXXXXXoXXX|.Q 5 o             5 +X<X6X7X6X6X6X6X6X6X6X6X6X6X6X6X6X6X6X6X6X6X6X6X6X6X6X6X6X6X6X6X6X6X6X6X6X6X6X6X6X6X6X6X6X5X:XQ 3       o o o                   o 5 Q |.oXoXXXXXoX X~ L &             = ] nXAXAXAXAXAXAXZXnX] 7     O O O O O O O O O O O O O O O O O O O O O O O O O O O O O O O O O O O O O O O O O O O O O O O O O   O ( cXBXAXAXAXAXAXAXAXAXAXAXAXAXAXAXAXAXAXAXAXAXAXAXAXAXAXAXAXAXAXAXAXAXAXAXAXAXAXAXAXAXAXAXAXAXAXAXAXAXAXAXAXAXAXAXAXAXAXAXAXAXAXAXAXAX",
"AXAXAXAXAXAXAXAXBXcX] ( ( ( ( ( ( ( 8 *             o P *X2X6X7X6X6X7X6X<X*XQ P P P P P P P P P P P P P P E P P 6 4 4 4 4 4 4 4 6 R ~ XXXXXXXXXXXX|.Q 5 o             6 +X<X6X6X6X6X6X6X6X6X6X6X6X6X6X6X6X6X6X6X6X6X6X6X6X6X6X6X6X6X6X6X6X6X6X6X6X5X2X1X<X1X1X1X2X<X=X~ L 4 3 4 4 4 4 3 & o             o 5 Q |.oXoXXXXXoX X~ L &             = ] nXAXAXAXAXAXAXZXMXxX_ ( ( ( ( ( ( ( ( ( ( ( ( ( ( ( ( ( ( ( ( ( ( ( ( ( ( ( ( ( ( ( ( ( ( ( ( ( ( ( ( ( ( ( ( ( ( ( ( ( ( ( ( ( { bXVXAXAXAXAXAXAXAXAXAXAXAXAXAXAXAXAXAXAXAXAXAXAXAXAXAXAXAXAXAXAXAXAXAXAXAXAXAXAXAXAXAXAXAXAXAXAXAXAXAXAXAXAXAXAXAXAXAXAXAXAXAXAXAXAX",
"AXAXAXAXAXAXAXAXCXMXbXvXcXvXvXvXvXxX_ 8             o P *X2X7X7X6X6X6X6X4X,X;X*X%X%X*X*X*X*X*X*X*X*X*X*X*X*X%X+X~ Q R R R R R R Q ~ }.XXXXXXXXXXXX|.Q 5 o             6 +X<X6X6X6X6X6X6X6X6X6X6X6X6X6X6X6X6X6X6X6X6X6X6X6X6X6X6X6X6X6X6X6X6X6X6X6X2X,X-X-X-X-X-X:X-X*X}.! R R R R Q R E 5 &             o 5 Q |.oXoXXXXXoX X~ L &             = ] nXAXAXAXAXAXAXAXVXmXbXcXcXvXvXvXvXvXvXvXvXvXvXvXvXvXvXvXvXvXvXvXvXvXvXvXvXvXvXvXvXvXvXvXvXvXvXvXvXvXvXvXvXvXvXvXvXvXvXvXvXcXcXvXnXBXZXAXAXAXAXAXAXAXAXAXAXAXAXAXAXAXAXAXAXAXAXAXAXAXAXAXAXAXAXAXAXAXAXAXAXAXAXAXAXAXAXAXAXAXAXAXAXAXAXAXAXAXAXAXAXAXAXAXAXAXAXAXAXAXAX",
"AXAXAXAXAXAXAXAXAXZXCXCXCXCXCXZXCXMXxX0 O           o P *X2X6X6X6X6X6X6X6X5X4X4X4X4X4X4X2X2X4X4X4X4X2X2X4X4X2X,X-XXX}.}.}.}.}.|.|.|.XXXXXXXXXXXXXX|.Q 5 o             6 +X<X6X7X6X6X6X6X6X6X6X6X6X6X6X6X6X6X6X6X6X6X6X6X6X6X6X6X6X6X6X6X6X6X6X6X5X<X-X%X%X%X%X%X%X%XoX X|.}.}.|.|.|.|.~ L &             o 5 Q |.oXoXXXXXoXXX~ L &             = ] mXAXAXAXAXAXAXAXAXZXCXCXVXCXCXCXCXCXCXCXCXCXCXCXCXCXCXCXCXCXCXCXCXCXCXCXCXCXCXCXCXCXCXCXCXCXCXCXCXCXCXCXCXCXCXCXCXCXCXCXCXCXVXCXCXZXAXAXAXAXAXAXAXAXAXAXAXAXAXAXAXAXAXAXAXAXAXAXAXAXAXAXAXAXAXAXAXAXAXAXAXAXAXAXAXAXAXAXAXAXAXAXAXAXAXAXAXAXAXAXAXAXAXAXAXAXAXAXAXAXAX",
"AXAXAXAXAXAXAXAXAXAXAXAXAXAXAXAXAXVXcX( O           o P *X2X6X6X6X6X6X6X6X6X6X7X7X7X7X7X6X6X7X7X7X6X6X6X7X8X6X2X:X&XXXXXXXoXoXoXXXXXXXXXXXXXXXXXXX|.Q 5 o             6 +X<X6X7X6X6X6X6X6X6X6X6X6X6X6X6X6X6X6X6X6X6X6X6X6X6X6X6X6X6X6X6X6X6X6X6X5X<X-XXX|. XXXXX XXXXXXXoXoXoXoXoX%XoX}.R 3             o 5 Q |.oXoXXXXXoXXX~ L &             = ] mXAXAXAXAXAXAXAXAXAXAXAXAXAXAXAXAXAXAXAXAXAXAXAXAXAXAXAXAXAXAXAXAXAXAXAXAXAXAXAXAXAXAXAXAXAXAXAXAXAXAXAXAXAXAXAXAXAXAXAXAXAXAXAXAXAXAXAXAXAXAXAXAXAXAXAXAXAXAXAXAXAXAXAXAXAXAXAXAXAXAXAXAXAXAXAXAXAXAXAXAXAXAXAXAXAXAXAXAXAXAXAXAXAXAXAXAXAXAXAXAXAXAXAXAXAXAXAXAXAXAX",
"AXAXAXAXAXAXAXAXAXAXAXAXAXAXAXAXAXCXcX( O           o P *X2X6X6X6X6X6X6X6X6X6X6X6X6X6X6X6X6X6X6X6X6X6X7X8X8X6X2X:X&XXXXXXXoXoXoXoXXXXXXXXXXXXXoXoX|.Q 5 o             6 +X<X6X6X6X6X6X6X6X6X6X6X6X6X6X6X6X6X6X6X6X6X6X6X6X6X6X6X6X6X6X6X6X6X6X6X5X<X-XXX|.|. X X X XXXXXXXoXoXoXoX%XoX}.R 3             o 5 Q |.oXoXXXXXoXXX~ L &             = ] nXAXAXAXAXAXAXAXAXAXAXAXAXAXAXAXAXAXAXAXAXAXAXAXAXAXAXAXAXAXAXAXAXAXAXAXAXAXAXAXAXAXAXAXAXAXAXAXAXAXAXAXAXAXAXAXAXAXAXAXAXAXAXAXAXAXAXAXAXAXAXAXAXAXAXAXAXAXAXAXAXAXAXAXAXAXAXAXAXAXAXAXAXAXAXAXAXAXAXAXAXAXAXAXAXAXAXAXAXAXAXAXAXAXAXAXAXAXAXAXAXAXAXAXAXAXAXAXAXAXAX",
"AXAXAXAXAXAXAXAXAXAXAXAXAXAXAXAXAXVXcX( O           o P *X2X6X6X6X6X6X6X6X6X6X6X6X6X6X6X6X6X6X6X6X6X6X6X6X6X6X2X:X%XXX XXXXXXXXXXXXXXXXXXXXXXXoXoX|.Q 5 o             6 +X<X6X6X6X6X6X6X6X6X6X6X6X6X6X6X6X6X6X6X6X6X6X6X6X6X6X6X6X6X6X6X6X6X6X6X5X<X-XoX XXXXXXXXXXXXXXXXXXXXXXXXXoXXX~ R 3             o 5 Q |.oXoXXXXXoXXX~ L &             = ] nXAXAXAXAXAXAXAXAXAXAXAXAXAXAXAXAXAXAXAXAXAXAXAXAXAXAXAXAXAXAXAXAXAXAXAXAXAXAXAXAXAXAXAXAXAXAXAXAXAXAXAXAXAXAXAXAXAXAXAXAXAXAXAXAXAXAXAXAXAXAXAXAXAXAXAXAXAXAXAXAXAXAXAXAXAXAXAXAXAXAXAXAXAXAXAXAXAXAXAXAXAXAXAXAXAXAXAXAXAXAXAXAXAXAXAXAXAXAXAXAXAXAXAXAXAXAXAXAXAXAX",
"AXAXAXAXAXAXAXAXAXAXAXAXAXAXAXAXAXVXcX( O           o P *X4X6X6X6X6X6X6X6X6X6X6X6X6X6X6X6X6X6X6X6X6X6X6X6X6X6X2X:X%XXX XXXXXXXXXXXXXXXXXXXXXXXoXoX|.Q 5               5 +X<X6X6X6X6X6X6X6X6X6X6X6X6X6X6X6X6X6X6X6X6X6X6X6X6X6X6X6X6X6X6X6X6X6X6X5X<X-XoX XXXXXXXXXXXXXXXXXXXXXXXXXXXXX~ R 3             o 5 Q |.oXoXXXXXoXXX~ L &             = ] mXAXAXAXAXAXAXAXAXAXAXAXAXAXAXAXAXAXAXAXAXAXAXAXAXAXAXAXAXAXAXAXAXAXAXAXAXAXAXAXAXAXAXAXAXAXAXAXAXAXAXAXAXAXAXAXAXAXAXAXAXAXAXAXAXAXAXAXAXAXAXAXAXAXAXAXAXAXAXAXAXAXAXAXAXAXAXAXAXAXAXAXAXAXAXAXAXAXAXAXAXAXAXAXAXAXAXAXAXAXAXAXAXAXAXAXAXAXAXAXAXAXAXAXAXAXAXAXAXAXAX",
"AXAXAXAXAXAXAXAXAXAXAXAXAXAXAXAXAXVXcX( O           o P *X4X7X7X6X6X6X6X6X6X6X6X6X6X6X6X6X6X6X6X6X6X6X7X7X7X6X2X:X%XXX XXXXXXXXXXXXXoXoXoXoXoX%X%X XQ 4               5 +X<X6X6X6X6X6X6X6X6X6X6X6X6X6X6X6X6X6X6X6X6X6X6X6X6X6X6X6X6X6X6X6X6X6X6X5X<X-XoX XXXXXXXXXXXXXXX X X X XXXXXXX~ E 3             o 5 Q |.oXoXXXXXoXXX~ L &             = ] mXAXAXAXAXAXAXAXAXAXAXAXAXAXAXAXAXAXAXAXAXAXAXAXAXAXAXAXAXAXAXAXAXAXAXAXAXAXAXAXAXAXAXAXAXAXAXAXAXAXAXAXAXAXAXAXAXAXAXAXAXAXAXAXAXAXAXAXAXAXAXAXAXAXAXAXAXAXAXAXAXAXAXAXAXAXAXAXAXAXAXAXAXAXAXAXAXAXAXAXAXAXAXAXAXAXAXAXAXAXAXAXAXAXAXAXAXAXAXAXAXAXAXAXAXAXAXAXAXAXAX",
"AXAXAXAXAXAXAXAXAXAXAXAXAXAXAXAXAXVXcX(             o P *X4X7X7X6X6X6X6X6X6X6X6X6X6X6X6X6X6X6X6X6X6X6X6X6X6X6X2X:X%XXX XXXXXXXXXXXXXXXXXXXXXXXoXoX|.Q 5 o             6 +X<X6X6X6X6X6X6X6X6X6X6X6X6X6X6X6X6X6X6X6X6X6X6X6X6X6X6X6X6X6X6X6X6X6X6X5X<X-XoX XXXXXXXXXXXXXXXXXXXXXXXXXoXXX~ R 3             o 5 Q |.oXoXXXXXoXXX~ L &             = ] nXZXAXAXAXAXAXAXAXAXAXAXAXAXAXAXAXAXAXAXAXAXAXAXAXAXAXAXAXAXAXAXAXAXAXAXAXAXAXAXAXAXAXAXAXAXAXAXAXAXAXAXAXAXAXAXAXAXAXAXAXAXAXAXAXAXAXAXAXAXAXAXAXAXAXAXAXAXAXAXAXAXAXAXAXAXAXAXAXAXAXAXAXAXAXAXAXAXAXAXAXAXAXAXAXAXAXAXAXAXAXAXAXAXAXAXAXAXAXAXAXAXAXAXAXAXAXAXAXAXAX",
"AXAXAXAXAXAXAXAXAXAXAXAXAXAXAXAXAXVXcX(             o P *X4X7X7X6X6X6X6X6X6X6X6X6X6X6X6X6X6X6X3X3X2X2X2X3X3X2X<X-X%XXXXXXXXXXXXX X|.~ ~ ~ ~ ~ ~ ~ ~ R L 5 4 4 4 4 4 5 E %X1X6X6X6X6X6X6X6X6X6X6X6X6X6X6X6X6X6X6X6X6X6X6X6X6X6X6X6X6X6X6X6X6X6X6X5X<X-XoX XXXXXXXXXXXoX%X&X&X&X&X&X*X*X XR 3             o 5 Q |.oXoXXXXXoXXX~ L &             = _ cXMXBXBXBXBXBXBXBXCXAXAXAXAXAXAXAXAXAXAXAXAXAXAXAXAXAXAXAXAXAXAXAXAXAXAXAXAXAXAXAXAXAXAXAXAXAXAXAXAXAXAXAXAXAXAXAXAXAXAXAXAXAXAXAXAXAXAXAXAXAXAXAXAXAXAXAXAXAXAXAXAXAXAXAXAXAXAXAXAXAXAXAXAXAXAXAXAXAXAXAXAXAXAXAXAXAXAXAXAXAXAXAXAXAXAXAXAXAXAXAXAXAXAXAXAXAXAXAXAXAX",
"AXAXAXAXAXAXAXAXAXAXAXAXAXAXAXAXAXVXcX(             o P *X4X7X7X6X6X6X6X6X6X6X6X6X6X6X6X6X6X2X<X>X>X>X>X>X>X:X-X*XoXXX XXXXXXXXX|.~ R L L L L L L E R Q ^ +X+X+X^ ^ +X%X>X4X6X6X6X6X6X6X6X6X6X6X6X6X6X6X6X6X6X6X6X6X6X6X6X6X6X6X6X6X6X6X6X6X6X6X5X<X-XoX X XXXXXXXoX%X-X:X>X>X>X>X,X>X*XQ 4             o 5 Q |.oXoXXXXXoX X~ L &             O 0 ] } zXzX} } } zXvXBXZXAXAXAXAXAXAXAXAXAXAXAXAXAXAXAXAXAXAXAXAXAXAXAXAXAXAXAXAXAXAXAXAXAXAXAXAXAXAXAXAXAXAXAXAXAXAXAXAXAXAXAXAXAXAXAXAXAXAXAXAXAXAXAXAXAXAXAXAXAXAXAXAXAXAXAXAXAXAXAXAXAXAXAXAXAXAXAXAXAXAXAXAXAXAXAXAXAXAXAXAXAXAXAXAXAXAXAXAXAXAXAXAXAXAXAXAXAXAXAXAX",
"AXAXAXAXAXAXAXAXAXAXAXAXAXAXAXAXAXVXcX(             o P *X4X7X6X6X6X6X6X6X6X6X6X6X6X6X6X6X5X<X:X*X&X&X&X&X*X&X%X%XXXXXXXXXXXoXXX}.R 5 & & & & & & 4 E +X>X<X<X<X<X<X<X<X2X6X6X6X6X6X6X6X6X6X6X6X6X6X6X6X6X6X6X6X6X6X6X6X6X6X6X6X6X6X6X6X6X6X6X6X5X<X-XoX X XXXXX XXX*X>X1X3X3X2X3X3X3X>X+X5             o 5 Q |.oXoXXXXXoX X~ L &               * 7 8 8 8 8 8 7 0 ] nXCXAXAXAXAXAXAXAXAXAXAXAXAXAXAXAXAXAXAXAXAXAXAXAXAXAXAXAXAXAXAXAXAXAXAXAXAXAXAXAXAXAXAXAXAXAXAXAXAXAXAXAXAXAXAXAXAXAXAXAXAXAXAXAXAXAXAXAXAXAXAXAXAXAXAXAXAXAXAXAXAXAXAXAXAXAXAXAXAXAXAXAXAXAXAXAXAXAXAXAXAXAXAXAXAXAXAXAXAXAXAXAXAXAXAXAXAXAXAXAXAX",
"AXAXAXAXAXAXAXAXAXAXAXAXAXAXAXAXAXVXcX( O           o P *X2X6X6X6X6X6X6X6X6X6X6X6X6X6X6X6X5X<X-XoX XXXXXXXXXXXXXXXXXXXXXXXXXoXXX~ R 3             % E =X4X6X6X6X6X6X6X6X6X6X6X6X6X6X6X6X6X6X6X6X6X6X6X6X6X6X6X6X6X6X6X6X6X6X6X6X6X6X6X6X6X6X6X6X5X<X-XoX XXXXXXX XXX-X<X3X6X6X6X6X7X6X<X+X6             o 5 Q |.XXXXXXXXXX X~ L &                               O ( vXCXAXAXAXAXAXAXAXAXAXAXAXAXAXAXAXAXAXAXAXAXAXAXAXAXAXAXAXAXAXAXAXAXAXAXAXAXAXAXAXAXAXAXAXAXAXAXAXAXAXAXAXAXAXAXAXAXAXAXAXAXAXAXAXAXAXAXAXAXAXAXAXAXAXAXAXAXAXAXAXAXAXAXAXAXAXAXAXAXAXAXAXAXAXAXAXAXAXAXAXAXAXAXAXAXAXAXAXAXAXAXAXAXAXAXAXAXAXAXAXAX",
"AXAXAXAXAXAXAXAXAXAXAXAXAXAXAXAXAXVXcX( O           o P *X2X6X6X6X6X6X6X6X6X6X6X6X6X6X6X6X5X<X-XXX|.|. X X X X XXXXXXXXXXXXXoXXX~ E &             o E =X5X8X8X7X7X7X6X6X6X6X6X6X6X6X6X6X6X6X6X6X6X6X6X6X6X6X6X6X6X6X6X6X6X6X6X6X6X6X6X6X6X6X6X6X5X<X-XoX XXXXXXX XXX-X<X5X7X6X6X7X8X7X<X+X6             o 5 Q |.XXXXXXXXXX X~ L &                                 ( cXVXAXAXAXAXAXAXAXAXAXAXAXAXAXAXAXAXAXAXAXAXAXAXAXAXAXAXAXAXAXAXAXAXAXAXAXAXAXAXAXAXAXAXAXAXAXAXAXAXAXAXAXAXAXAXAXAXAXAXAXAXAXAXAXAXAXAXAXAXAXAXAXAXAXAXAXAXAXAXAXAXAXAXAXAXAXAXAXAXAXAXAXAXAXAXAXAXAXAXAXAXAXAXAXAXAXAXAXAXAXAXAXAXAXAXAXAXAXAXAXAX",
"AXAXAXAXAXAXAXAXAXAXAXAXAXAXAXAXAXVXcX( O           o P *X4X7X7X6X6X6X6X6X6X6X6X6X6X6X6X6X5X<X-XoX X XXXXXXXXXXXXXXXXXXXXXXXoXXX~ R &             o E =X5X8X7X6X6X6X6X6X6X6X6X6X6X6X6X6X6X6X6X6X6X6X6X6X6X6X6X6X6X6X6X6X6X6X6X6X6X6X6X6X6X6X6X6X5X<X-XoX X XXXXX XXX-X<X5X6X6X6X6X8X6X<X+X6             o 5 Q |.oXXXXXXXoX X~ L &                               O ( cXCXAXAXAXAXAXAXAXAXAXAXAXAXAXAXAXAXAXAXAXAXAXAXAXAXAXAXAXAXAXAXAXAXAXAXAXAXAXAXAXAXAXAXAXAXAXAXAXAXAXAXAXAXAXAXAXAXAXAXAXAXAXAXAXAXAXAXAXAXAXAXAXAXAXAXAXAXAXAXAXAXAXAXAXAXAXAXAXAXAXAXAXAXAXAXAXAXAXAXAXAXAXAXAXAXAXAXAXAXAXAXAXAXAXAXAXAXAXAXAXAX",
"AXAXAXAXAXAXAXAXAXAXAXAXAXAXAXAXAXVXcX( O           o P *X4X7X7X6X6X6X6X6X6X6X6X6X6X6X6X6X5X<X-XoX XXXXXXXXXXXXXXXXXXXXXXXXXoXXX~ R 3             % E =X4X6X6X6X6X6X6X6X6X6X6X6X6X6X6X6X6X6X6X6X6X6X6X6X6X6X6X6X6X6X6X6X6X6X6X6X6X6X6X6X6X6X6X6X5X<X-XoX X XXXXX XoX-X<X5X6X6X6X6X7X6X<X+X6             o 5 Q |.oXXXXXXXoX X~ L &                               O ( vXCXAXAXAXAXAXAXAXAXAXAXAXAXAXAXAXAXAXAXAXAXAXAXAXAXAXAXAXAXAXAXAXAXAXAXAXAXAXAXAXAXAXAXAXAXAXAXAXAXAXAXAXAXAXAXAXAXAXAXAXAXAXAXAXAXAXAXAXAXAXAXAXAXAXAXAXAXAXAXAXAXAXAXAXAXAXAXAXAXAXAXAXAXAXAXAXAXAXAXAXAXAXAXAXAXAXAXAXAXAXAXAXAXAXAXAXAXAXAXAXAX",
"AXAXAXAXAXAXAXAXAXAXAXAXAXAXAXAXAXVXcX( O           o E *X4X7X7X6X6X6X6X6X6X6X6X6X6X6X6X6X5X<X-XoX XXXXXXXXXXXXXXXXXXXXXXXXXoXXX~ R 3             % E =X4X6X6X6X6X6X6X6X6X6X6X6X6X6X6X6X6X6X6X6X6X6X6X6X6X6X6X6X6X6X6X6X6X6X6X6X6X6X6X6X6X6X6X6X5X<X-XoX|.|. X|.|.XX*X,X5X6X7X6X6X7X6X<X+X6             o 5 Q |.oXoXXXXXoXXX~ L %                               O ( vXCXAXAXAXAXAXAXAXAXAXAXAXAXAXAXAXAXAXAXAXAXAXAXAXAXAXAXAXAXAXAXAXAXAXAXAXAXAXAXAXAXAXAXAXAXAXAXAXAXAXAXAXAXAXAXAXAXAXAXAXAXAXAXAXAXAXAXAXAXAXAXAXAXAXAXAXAXAXAXAXAXAXAXAXAXAXAXAXAXAXAXAXAXAXAXAXAXAXAXAXAXAXAXAXAXAXAXAXAXAXAXAXAXAXAXAXAXAXAXAXAX",
"AXAXAXAXAXAXAXAXAXAXAXAXAXAXAXAXAXVXcX( O           o E *X4X6X6X6X6X6X6X6X6X6X6X6X6X6X6X6X5X<X-XoX XXXXXXXXXXXXXXXXXXXXXXXXXoXXX~ R 3             % E =X4X6X6X6X6X6X6X6X6X6X6X6X6X6X6X6X6X6X6X6X6X6X6X6X6X6X6X6X6X6X6X6X6X6X6X6X6X6X6X6X6X6X6X6X5X<X-XoX|.|. X|.|.XX*X<X5X6X7X6X6X7X6X<X+X6             o 5 Q |.oXoXXXXXoXXX~ L %                               O ( vXCXAXAXAXAXAXAXAXAXAXAXAXAXAXAXAXAXAXAXAXAXAXAXAXAXAXAXAXAXAXAXAXAXAXAXAXAXAXAXAXAXAXAXAXAXAXAXAXAXAXAXAXAXAXAXAXAXAXAXAXAXAXAXAXAXAXAXAXAXAXAXAXAXAXAXAXAXAXAXAXAXAXAXAXAXAXAXAXAXAXAXAXAXAXAXAXAXAXAXAXAXAXAXAXAXAXAXAXAXAXAXAXAXAXAXAXAXAXAXAXAX",
"AXAXAXAXAXAXAXAXAXAXAXAXAXAXAXAXAXVXcX( O           o P *X4X6X6X6X6X6X6X6X6X6X6X6X6X6X6X6X5X<X-XoX XXXXXXXXXXXXXXXXXXXXXXXXXoXXX~ R 3             % E =X4X6X6X6X6X6X6X6X6X6X6X6X6X6X6X6X6X6X6X6X6X6X6X6X6X6X6X6X6X6X6X6X6X6X6X6X6X6X6X6X6X6X6X6X5X<X-X%X%X%X%X%XoX%X-X<X5X6X6X6X6X6X6X<X+X6             o 5 Q |.oXoXXXXXoXXX~ L 3 o o o o o o o o               O ( vXCXAXAXAXAXAXAXAXAXAXAXAXAXAXAXAXAXAXAXAXAXAXAXAXAXAXAXAXAXAXAXAXAXAXAXAXAXAXAXAXAXAXAXAXAXAXAXAXAXAXAXAXAXAXAXAXAXAXAXAXAXAXAXAXAXAXAXAXAXAXAXAXAXAXAXAXAXAXAXAXAXAXAXAXAXAXAXAXAXAXAXAXAXAXAXAXAXAXAXAXAXAXAXAXAXAXAXAXAXAXAXAXAXAXAXAXAXAXAXAXAX",
"AXAXAXAXAXAXAXAXAXAXAXAXAXAXAXAXAXVXcX( X           o P *X4X7X6X6X6X6X6X6X6X6X6X6X6X6X6X6X5X<X-XoX XXXXXXXXXXXXXXXXXXXXXXXXXoXXX~ R 3             % E =X4X6X6X6X6X6X6X6X6X6X6X6X6X6X6X6X6X6X6X6X6X6X6X6X6X6X6X6X6X6X6X6X6X6X6X6X6X6X6X6X6X6X6X6X6X2X,X:X-X-X-X-X-X-X>X2X5X6X6X6X6X6X6X<X+X6             o 5 Q |.oXoXXXXXXXXX}.Q L 5 5 5 6 6 6 5 3 o             O ( vXCXAXAXAXAXAXAXAXAXAXAXAXAXAXAXAXAXAXAXAXAXAXAXAXAXAXAXAXAXAXAXAXAXAXAXAXAXAXAXAXAXAXAXAXAXAXAXAXAXAXAXAXAXAXAXAXAXAXAXAXAXAXAXAXAXAXAXAXAXAXAXAXAXAXAXAXAXAXAXAXAXAXAXAXAXAXAXAXAXAXAXAXAXAXAXAXAXAXAXAXAXAXAXAXAXAXAXAXAXAXAXAXAXAXAXAXAXAXAXAXAX",
"AXAXAXAXAXAXAXAXAXAXAXAXAXAXAXAXAXVXcX( O           o P *X2X6X6X6X6X6X6X6X6X6X6X6X6X6X6X6X5X<X-XoX X XXXXXXXXXXXXXXXXXXXXXXXoXXX~ R 3             % E =X4X6X7X6X6X6X6X6X6X6X6X6X6X6X6X6X6X6X6X6X6X6X6X6X6X6X6X6X6X6X6X6X6X6X6X6X6X6X6X6X6X6X6X6X6X5X2X1X<X1X1X1X<X1X2X3X6X6X6X6X6X6X6X<X+X6             o 5 Q |.oXoXXXXXXXXX|.~ ~ ! ! ! ! ! ! R 6 &             O ( vXCXAXAXAXAXAXAXAXAXAXAXAXAXAXAXAXAXAXAXAXAXAXAXAXAXAXAXAXAXAXAXAXAXAXAXAXAXAXAXAXAXAXAXAXAXAXAXAXAXAXAXAXAXAXAXAXAXAXAXAXAXAXAXAXAXAXAXAXAXAXAXAXAXAXAXAXAXAXAXAXAXAXAXAXAXAXAXAXAXAXAXAXAXAXAXAXAXAXAXAXAXAXAXAXAXAXAXAXAXAXAXAXAXAXAXAXAXAXAXAXAX",
"AXAXAXAXAXAXAXAXAXAXAXAXAXAXAXAXAXVXcX( O           o P *X2X6X6X6X6X6X6X6X6X6X6X6X6X6X6X6X5X<X-XoX X XXXXXXXXXXXXXXXXXXXXXXXoXXX~ R 3             % E *X4X7X7X6X6X6X6X6X6X6X6X6X6X6X6X6X6X6X6X6X6X6X6X6X6X6X6X6X6X6X6X6X6X6X6X6X6X6X6X6X6X6X6X6X6X6X6X6X6X6X6X6X6X6X6X6X6X6X6X6X6X6X6X<X+X6             o 5 Q |.oXoXXXXXXXXXXX X|.|.|.|.|.XX X~ R 3             O ( vXCXAXAXAXAXAXAXAXAXAXAXAXAXAXAXAXAXAXAXAXAXAXAXAXAXAXAXAXAXAXAXAXAXAXAXAXAXAXAXAXAXAXAXAXAXAXAXAXAXAXAXAXAXAXAXAXAXAXAXAXAXAXAXAXAXAXAXAXAXAXAXAXAXAXAXAXAXAXAXAXAXAXAXAXAXAXAXAXAXAXAXAXAXAXAXAXAXAXAXAXAXAXAXAXAXAXAXAXAXAXAXAXAXAXAXAXAXAXAXAXAX",
"AXAXAXAXAXAXAXAXAXAXAXAXAXAXAXAXAXVXcX( O           o P *X4X6X6X6X6X6X6X6X6X6X6X6X6X6X6X6X5X<X-XoX X XXXXXXXXXXXXXXXXXXXXXXXoXXX~ R 3             % E =X4X6X6X6X6X6X6X6X6X6X6X6X6X6X6X6X6X6X6X6X6X6X6X6X6X6X6X6X6X6X6X6X6X6X6X6X6X6X6X6X6X6X6X6X6X6X6X6X6X6X6X6X6X6X6X6X6X6X6X6X6X6X6X<X+X6             o 5 Q |.oXoXXXXXXXXXXXXXoXXXXXXXoX%X%X}.R 4             O ( vXCXAXAXAXAXAXAXAXAXAXAXAXAXAXAXAXAXAXAXAXAXAXAXAXAXAXAXAXAXAXAXAXAXAXAXAXAXAXAXAXAXAXAXAXAXAXAXAXAXAXAXAXAXAXAXAXAXAXAXAXAXAXAXAXAXAXAXAXAXAXAXAXAXAXAXAXAXAXAXAXAXAXAXAXAXAXAXAXAXAXAXAXAXAXAXAXAXAXAXAXAXAXAXAXAXAXAXAXAXAXAXAXAXAXAXAXAXAXAXAXAX",
"AXAXAXAXAXAXAXAXAXAXAXAXAXAXAXAXAXVXcX( O           o P *X4X7X7X6X6X6X6X6X6X6X6X6X6X6X6X6X5X<X-XoX X XXXXXXXXXXXXXXXXXXXXXXXoXXX~ R 3             % E =X4X6X6X6X6X6X6X6X6X6X6X6X6X6X6X6X6X6X6X6X6X6X6X6X6X6X6X6X6X6X6X6X6X6X6X6X6X6X6X6X6X6X6X6X6X6X6X6X6X6X6X6X6X6X6X6X6X6X6X6X6X6X6X<X+X6             o 5 Q |.oXoXXXXXXXXXXXXXXXXXXXXXoX%XoX}.R 3             O ( vXCXAXAXAXAXAXAXAXAXAXAXAXAXAXAXAXAXAXAXAXAXAXAXAXAXAXAXAXAXAXAXAXAXAXAXAXAXAXAXAXAXAXAXAXAXAXAXAXAXAXAXAXAXAXAXAXAXAXAXAXAXAXAXAXAXAXAXAXAXAXAXAXAXAXAXAXAXAXAXAXAXAXAXAXAXAXAXAXAXAXAXAXAXAXAXAXAXAXAXAXAXAXAXAXAXAXAXAXAXAXAXAXAXAXAXAXAXAXAXAXAX",
"AXAXAXAXAXAXAXAXAXAXAXAXAXAXAXAXAXVXcX(             o P *X4X7X7X6X6X6X6X6X6X6X6X6X6X6X6X6X5X<X-XoX XXXXXXXXXXXXXXXXXXXXXXXXXoXXX~ R 3             % E =X4X6X6X6X6X6X6X6X6X6X6X6X6X6X6X6X6X6X6X6X6X6X6X6X6X6X6X6X6X6X6X6X6X6X6X6X6X6X6X6X6X6X6X6X6X6X6X6X6X6X6X6X6X6X6X6X6X6X6X6X6X7X6X<X+X6             o 5 Q |.oXoXXXXXXXXXXXXXXXXXXXXXXXoXXX}.R 3             O ( vXCXAXAXAXAXAXAXAXAXAXAXAXAXAXAXAXAXAXAXAXAXAXAXAXAXAXAXAXAXAXAXAXAXAXAXAXAXAXAXAXAXAXAXAXAXAXAXAXAXAXAXAXAXAXAXAXAXAXAXAXAXAXAXAXAXAXAXAXAXAXAXAXAXAXAXAXAXAXAXAXAXAXAXAXAXAXAXAXAXAXAXAXAXAXAXAXAXAXAXAXAXAXAXAXAXAXAXAXAXAXAXAXAXAXAXAXAXAXAXAXAX",
"AXAXAXAXAXAXAXAXAXAXAXAXAXAXAXAXAXVXcX(             o E *X4X8X8X6X6X6X6X6X6X6X6X6X6X6X6X6X5X<X-XoX XXXXXXXXXXXXXXXXXXXXXXXXXoXXX~ R 3             % E =X4X6X6X6X6X6X6X6X6X6X6X6X6X6X6X6X6X6X6X6X6X6X6X6X6X6X6X6X6X6X6X6X6X6X6X6X6X6X6X6X6X6X6X6X6X6X6X6X6X6X6X6X6X6X6X6X7X6X6X6X7X8X6X<X+X5               4 Q |.oXoXXXXXXXXXXXXXXXXXXXXXXXoXXX}.R 3             O ( vXCXAXAXAXAXAXAXAXAXAXAXAXAXAXAXAXAXAXAXAXAXAXAXAXAXAXAXAXAXAXAXAXAXAXAXAXAXAXAXAXAXAXAXAXAXAXAXAXAXAXAXAXAXAXAXAXAXAXAXAXAXAXAXAXAXAXAXAXAXAXAXAXAXAXAXAXAXAXAXAXAXAXAXAXAXAXAXAXAXAXAXAXAXAXAXAXAXAXAXAXAXAXAXAXAXAXAXAXAXAXAXAXAXAXAXAXAXAXAXAXAX",
"AXAXAXAXAXAXAXAXAXAXAXAXAXAXAXAXAXVXcX(             o E *X4X8X8X7X6X6X6X6X6X6X6X6X6X6X6X6X5X<X-XoX XXXXXXXXXXXXXXXXXXXXXXXXXoXXX~ R 3             & E =X4X6X7X6X6X6X6X6X6X6X6X6X6X6X6X6X6X6X6X6X6X6X6X6X6X6X6X6X6X6X6X6X6X6X6X6X6X6X6X6X6X6X6X6X6X6X6X6X6X6X6X6X6X6X6X6X7X7X7X7X8X8X8X1X+X6               4 Q |.oXoXXXXXXXXXXXXXXXXXXXXXXXoXXX}.R 3             O ( vXCXAXAXAXAXAXAXAXAXAXAXAXAXAXAXAXAXAXAXAXAXAXAXAXAXAXAXAXAXAXAXAXAXAXAXAXAXAXAXAXAXAXAXAXAXAXAXAXAXAXAXAXAXAXAXAXAXAXAXAXAXAXAXAXAXAXAXAXAXAXAXAXAXAXAXAXAXAXAXAXAXAXAXAXAXAXAXAXAXAXAXAXAXAXAXAXAXAXAXAXAXAXAXAXAXAXAXAXAXAXAXAXAXAXAXAXAXAXAXAXAX",
"AXAXAXAXAXAXAXAXAXAXAXAXAXAXAXAXAXVXcX(             o P %X1X6X6X6X6X6X6X6X6X6X6X6X6X6X6X6X5X<X-XoX XXXXXXXXXXXXXXXXXXXXXXXXXoXXX~ R 3             % E =X4X6X6X6X6X6X6X6X6X6X6X6X6X6X6X6X6X6X6X6X6X6X6X6X6X6X6X6X6X6X6X6X6X6X6X6X6X6X6X6X6X6X6X6X6X6X6X6X6X6X6X6X6X6X6X6X6X5X6X6X6X6X6X<X+X6 o           o 5 Q |.oXoXXXXXXXXXXXXXXXXXXXXXXXoXXX}.R 3             O ( vXCXAXAXAXAXAXAXAXAXAXAXAXAXAXAXAXAXAXAXAXAXAXAXAXAXAXAXAXAXAXAXAXAXAXAXAXAXAXAXAXAXAXAXAXAXAXAXAXAXAXAXAXAXAXAXAXAXAXAXAXAXAXAXAXAXAXAXAXAXAXAXAXAXAXAXAXAXAXAXAXAXAXAXAXAXAXAXAXAXAXAXAXAXAXAXAXAXAXAXAXAXAXAXAXAXAXAXAXAXAXAXAXAXAXAXAXAXAXAXAXAX",
"AXAXAXAXAXAXAXAXAXAXAXAXAXAXAXAXAXVXcX( O           o 6 ^ =X>X>X>X:X;X:X,X<X5X6X6X6X6X6X6X5X<X-XoX XXXXXXXXXXXXXXXXXXXXXXXXXoXXX~ R 3             % E =X4X6X6X6X6X6X6X6X6X6X6X6X6X6X6X6X6X6X6X6X6X6X6X6X6X6X6X6X6X6X6X6X6X6X6X6X6X6X6X6X6X6X6X6X6X6X6X6X6X6X6X6X7X6X4X<X,X:X:X:X>X>X>X*X~ P 4 3 3 3 3 3 4 L ~ |.XXXXXXXXXXXXXXXXXXXXXXXXXXoXXX}.R 3             O ( vXCXAXAXAXAXAXAXAXAXAXAXAXAXAXAXAXAXAXAXAXAXAXAXAXAXAXAXAXAXAXAXAXAXAXAXAXAXAXAXAXAXAXAXAXAXAXAXAXAXAXAXAXAXAXAXAXAXAXAXAXAXAXAXAXAXAXAXAXAXAXAXAXAXAXAXAXAXAXAXAXAXAXAXAXAXAXAXAXAXAXAXAXAXAXAXAXAXAXAXAXAXAXAXAXAXAXAXAXAXAXAXAXAXAXAXAXAXAXAXAXAX",
"AXAXAXAXAXAXAXAXAXAXAXAXAXAXAXAXAXVXcX( O             & P Q Q Q Q Q Q Q +X;X4X6X6X6X6X6X6X5X<X-XoX XXXXXXXXXXXXXXXXXXXXXXXXXoXXX~ R &             % E =X4X6X7X6X6X6X6X6X6X6X6X6X6X6X6X6X6X6X6X6X6X6X6X6X6X6X6X6X6X6X6X6X6X6X6X6X6X6X6X6X6X6X6X6X6X6X6X6X6X6X6X6X6X6X<X*X^ Q Q Q Q Q Q Q Q R R R R R R R R ! }. XXXXXXXXXXXXXXXXXXXXXXXXXXXoXXX}.R 3             O ( vXCXAXAXAXAXAXAXAXAXAXAXAXAXAXAXAXAXAXAXAXAXAXAXAXAXAXAXAXAXAXAXAXAXAXAXAXAXAXAXAXAXAXAXAXAXAXAXAXAXAXAXAXAXAXAXAXAXAXAXAXAXAXAXAXAXAXAXAXAXAXAXAXAXAXAXAXAXAXAXAXAXAXAXAXAXAXAXAXAXAXAXAXAXAXAXAXAXAXAXAXAXAXAXAXAXAXAXAXAXAXAXAXAXAXAXAXAXAXAXAXAX",
"AXAXAXAXAXAXAXAXAXAXAXAXAXAXAXAXAXVXcX( O             o & & & & & & & & P +X<X6X6X6X6X6X6X5X<X-XoX X XXXXXXXXXXXXXXXXXXXXXXXoXXX~ R 3             % E =X4X6X6X6X6X6X6X6X6X6X6X6X6X6X6X6X6X6X6X6X6X6X6X6X6X6X6X6X6X6X6X6X6X6X6X6X6X6X6X6X6X6X6X6X6X6X6X6X6X6X6X6X7X6X,X^ 6 & & & & & & 4 L ! }.}.}.}.}.}.}.|.|.XXXXXXXXXXXXXXXXXXXXXXXXXXXXoXXX}.R 3             O ( vXCXAXAXAXAXAXAXAXAXAXAXAXAXAXAXAXAXAXAXAXAXAXAXAXAXAXAXAXAXAXAXAXAXAXAXAXAXAXAXAXAXAXAXAXAXAXAXAXAXAXAXAXAXAXAXAXAXAXAXAXAXAXAXAXAXAXAXAXAXAXAXAXAXAXAXAXAXAXAXAXAXAXAXAXAXAXAXAXAXAXAXAXAXAXAXAXAXAXAXAXAXAXAXAXAXAXAXAXAXAXAXAXAXAXAXAXAXAXAXAXAX",
"AXAXAXAXAXAXAXAXAXAXAXAXAXAXAXAXAXVXcX( O                               4 ^ <X6X8X6X6X6X6X5X<X-XoX XXXXXXXXXXXXXXXXXXXXXXXXXoXXX~ R 3             % E =X4X6X6X6X6X6X6X6X6X6X6X6X6X6X6X6X6X6X6X6X6X6X6X6X6X6X6X6X6X6X6X6X6X6X6X6X6X6X6X6X6X6X6X6X6X6X6X6X6X6X6X6X7X5X:XQ &             & L ~ XX%XoXXXXXXXXXXXXXXXXXXXXXXXXXXXXXXXXXXXXXXXXXoXXX}.R 3             O ( vXCXAXAXAXAXAXAXAXAXAXAXAXAXAXAXAXAXAXAXAXAXAXAXAXAXAXAXAXAXAXAXAXAXAXAXAXAXAXAXAXAXAXAXAXAXAXAXAXAXAXAXAXAXAXAXAXAXAXAXAXAXAXAXAXAXAXAXAXAXAXAXAXAXAXAXAXAXAXAXAXAXAXAXAXAXAXAXAXAXAXAXAXAXAXAXAXAXAXAXAXAXAXAXAXAXAXAXAXAXAXAXAXAXAXAXAXAXAXAXAXAX",
"AXAXAXAXAXAXAXAXAXAXAXAXAXAXAXAXAXVXcX( O                               4 ^ <X6X8X6X6X6X6X5X<X-XoX X XXXXXXXXXXXXXXXXXXXXXXXoXXX~ R 3             % E =X4X6X6X6X6X6X6X6X6X6X6X6X6X6X6X6X6X6X6X6X6X6X6X6X6X6X6X6X6X6X6X6X6X6X6X6X6X6X6X6X6X6X6X6X6X6X6X6X6X6X6X6X8X6X:XQ &             % L ~ XX%XoXoXoXoXoXXXXXXXXXXXXXXXXXXXXXXXXXXXXXXXXXoXXX}.R 3             O ( vXCXAXAXAXAXAXAXAXAXAXAXAXAXAXAXAXAXAXAXAXAXAXAXAXAXAXAXAXAXAXAXAXAXAXAXAXAXAXAXAXAXAXAXAXAXAXAXAXAXAXAXAXAXAXAXAXAXAXAXAXAXAXAXAXAXAXAXAXAXAXAXAXAXAXAXAXAXAXAXAXAXAXAXAXAXAXAXAXAXAXAXAXAXAXAXAXAXAXAXAXAXAXAXAXAXAXAXAXAXAXAXAXAXAXAXAXAXAXAXAXAX",
"AXAXAXAXAXAXAXAXAXAXAXAXAXAXAXAXAXVXcX( O                               4 ^ <X6X8X6X6X6X6X5X<X-XoX X XXXXXXXXXXXXXXXXXXXXXXXoXXX~ R 3             % E =X4X6X6X6X6X6X6X6X6X6X6X6X6X6X6X6X6X6X6X6X6X6X6X6X6X6X6X6X6X6X6X6X6X6X6X6X6X6X6X6X6X6X6X6X6X6X6X6X6X6X6X6X7X6X:XQ &             & L ~ XXoXXXXXXXXXXXXXXXXXXXXXXXXXXXXXXXXXXXXXXXXXXXoXXX}.R 3             O ( vXCXAXAXAXAXAXAXAXAXAXAXAXAXAXAXAXAXAXAXAXAXAXAXAXAXAXAXAXAXAXAXAXAXAXAXAXAXAXAXAXAXAXAXAXAXAXAXAXAXAXAXAXAXAXAXAXAXAXAXAXAXAXAXAXAXAXAXAXAXAXAXAXAXAXAXAXAXAXAXAXAXAXAXAXAXAXAXAXAXAXAXAXAXAXAXAXAXAXAXAXAXAXAXAXAXAXAXAXAXAXAXAXAXAXAXAXAXAXAXAXAX",
"AXAXAXAXAXAXAXAXAXAXAXAXAXAXAXAXAXVXcX0                                 5 +X<X6X6X6X6X6X6X5X<X-XoX X XXXXXXXXXXXXXXXXXXXXXXXoXXX~ R &             o E *X4X7X7X6X6X6X6X6X6X6X6X6X6X6X6X6X6X6X6X6X6X6X6X6X6X6X6X6X6X6X6X6X6X6X6X6X6X6X6X6X6X6X6X6X6X6X6X6X6X6X6X6X7X6X:XQ &             & L ~ XXoXXXXXXXXXXXXXXXXXXXXXXXXXXXXXXXXXXXXXXXXXXXoXXX}.R 3             O ( vXCXAXAXAXAXAXAXAXAXAXAXAXAXAXAXAXAXAXAXAXAXAXAXAXAXAXAXAXAXAXAXAXAXAXAXAXAXAXAXAXAXAXAXAXAXAXAXAXAXAXAXAXAXAXAXAXAXAXAXAXAXAXAXAXAXAXAXAXAXAXAXAXAXAXAXAXAXAXAXAXAXAXAXAXAXAXAXAXAXAXAXAXAXAXAXAXAXAXAXAXAXAXAXAXAXAXAXAXAXAXAXAXAXAXAXAXAXAXAXAXAX",
"AXAXAXAXAXAXAXAXAXAXAXAXAXAXAXAXAXBXcX0                                 4 ^ <X6X6X6X6X6X6X5X<X-XoX X XXXXXXXXXXXXXXXXXXXXXXXoXXX~ L &             o E *X4X7X7X6X6X6X6X6X6X6X6X6X6X6X6X6X6X6X6X6X6X6X6X6X6X6X6X6X6X6X6X6X6X6X6X6X6X6X6X6X6X6X6X6X6X6X6X6X6X6X6X6X6X6X:XQ &             & L ~ XXoXXXXXXXXXXXXXXXXXXXXXXXXXXXXXXXXXXXXXXXXXXXoXXX}.R 3             O ( vXCXAXAXAXAXAXAXAXAXAXAXAXAXAXAXAXAXAXAXAXAXAXAXAXAXAXAXAXAXAXAXAXAXAXAXAXAXAXAXAXAXAXAXAXAXAXAXAXAXAXAXAXAXAXAXAXAXAXAXAXAXAXAXAXAXAXAXAXAXAXAXAXAXAXAXAXAXAXAXAXAXAXAXAXAXAXAXAXAXAXAXAXAXAXAXAXAXAXAXAXAXAXAXAXAXAXAXAXAXAXAXAXAXAXAXAXAXAXAXAXAX",
"AXAXAXAXAXAXAXAXAXAXAXAXAXAXAXAXAXVXcX0                                 4 ^ <X6X7X6X6X6X6X5X<X-XoX XXXXXXXXXXXXXXXXXXXXXXXXXoXXX~ E &             o E =X4X6X6X6X6X6X6X6X6X6X6X6X6X6X6X6X6X6X6X6X6X6X6X6X6X6X6X6X6X6X6X6X6X6X6X6X6X6X6X6X6X6X6X6X6X6X6X6X6X6X6X6X7X6X:XQ &             & L ~ XXoXXXXXXXXXXXXXXXXXXXXXXXXXXXXXXXXXXXXXXXXXXXoXXX}.R 3             O ( vXCXAXAXAXAXAXAXAXAXAXAXAXAXAXAXAXAXAXAXAXAXAXAXAXAXAXAXAXAXAXAXAXAXAXAXAXAXAXAXAXAXAXAXAXAXAXAXAXAXAXAXAXAXAXAXAXAXAXAXAXAXAXAXAXAXAXAXAXAXAXAXAXAXAXAXAXAXAXAXAXAXAXAXAXAXAXAXAXAXAXAXAXAXAXAXAXAXAXAXAXAXAXAXAXAXAXAXAXAXAXAXAXAXAXAXAXAXAXAXAXAX",
"AXAXAXAXAXAXAXAXAXAXAXAXAXAXAXAXAXVXvX_ 8 = 7 7 7 7 7 = O               4 ^ <X6X7X6X6X6X6X5X<X-XoX X XXXXXXXXXXXXXXXXXXXXXXXXXXX}.Q 6 4 3 3 3 & & 5 Q ;X5X6X6X6X6X6X6X6X6X6X6X6X6X6X6X6X6X6X6X6X6X6X6X6X6X6X6X6X6X6X6X6X6X6X6X6X6X6X6X6X6X6X6X6X6X6X6X6X6X6X6X6X7X5X:XQ &             & L ~ XXoXXXXXXXXXXXXXXXXXXXXXXXXXXXXXXXXXXXXXXXXXXXoXXX}.R 3             O ( vXCXAXAXAXAXAXAXAXAXAXAXAXAXAXAXAXAXAXAXAXAXAXAXAXAXAXAXAXAXAXAXAXAXAXAXAXAXAXAXAXAXAXAXAXAXAXAXAXAXAXAXAXAXAXAXAXAXAXAXAXAXAXAXAXAXAXAXAXAXAXAXAXAXAXAXAXAXAXAXAXAXAXAXAXAXAXAXAXAXAXAXAXAXAXAXAXAXAXAXAXAXAXAXAXAXAXAXAXAXAXAXAXAXAXAXAXAXAXAXAXAX",
"AXAXAXAXAXAXAXAXAXAXAXAXAXAXAXAXAXCXmXcX} { { { } } { _ 8 O             4 ^ <X6X8X6X6X6X6X5X<X-XoX XXXXXXXXXXXXXXXXXXXXXXXXXXXXX|.}.~ ~ ^ ^ ~ ^ ^ ^ *X<X5X6X6X6X6X6X6X6X6X6X6X6X6X6X6X6X6X6X6X6X6X6X6X6X6X6X6X6X6X6X6X6X6X6X6X6X6X6X6X6X6X6X6X6X6X6X6X6X6X6X6X6X7X5X:XQ &             & L ~  XoXXXXXXXXXXXXXXXXXXXXXXXXXXXXXXXXXXXXXXXXXXXoXXX}.R 3             O ( vXCXAXAXAXAXAXAXAXAXAXAXAXAXAXAXAXAXAXAXAXAXAXAXAXAXAXAXAXAXAXAXAXAXAXAXAXAXAXAXAXAXAXAXAXAXAXAXAXAXAXAXAXAXAXAXAXAXAXAXAXAXAXAXAXAXAXAXAXAXAXAXAXAXAXAXAXAXAXAXAXAXAXAXAXAXAXAXAXAXAXAXAXAXAXAXAXAXAXAXAXAXAXAXAXAXAXAXAXAXAXAXAXAXAXAXAXAXAXAXAXAX",
"AXAXAXAXAXAXAXAXAXAXAXAXAXAXAXAXAXAXCXBXMXMXMXMXMXMXmXxX( *             4 ^ <X6X8X6X6X6X6X5X<X-XoX XXXXXXXXXXXXXXXXXXXXXXXXX XXX%X*X;X,X,X,X>X,X,X,X<X4X6X6X6X6X6X6X6X6X6X6X6X6X6X6X6X6X6X6X6X6X6X6X6X6X6X6X6X6X6X6X6X6X6X6X6X6X6X6X6X6X6X6X6X6X6X6X6X6X6X6X6X6X7X5X:XQ &             & L ~ XXoXXXXXXXXXXXXXXXXXXXXXXXXXXXXXXXXXXXXXXXXXXXoXXX}.R 3             O ( vXCXAXAXAXAXAXAXAXAXAXAXAXAXAXAXAXAXAXAXAXAXAXAXAXAXAXAXAXAXAXAXAXAXAXAXAXAXAXAXAXAXAXAXAXAXAXAXAXAXAXAXAXAXAXAXAXAXAXAXAXAXAXAXAXAXAXAXAXAXAXAXAXAXAXAXAXAXAXAXAXAXAXAXAXAXAXAXAXAXAXAXAXAXAXAXAXAXAXAXAXAXAXAXAXAXAXAXAXAXAXAXAXAXAXAXAXAXAXAXAXAX",
"AXAXAXAXAXAXAXAXAXAXAXAXAXAXAXAXAXAXAXAXAXAXAXAXAXAXZXnX_ *             4 +X<X6X6X6X6X6X6X5X<X-XoX X XXXXXXXXXXXXXXXXXXXXXXX XXX%X:X2X6X6X6X6X6X6X6X6X6X6X6X6X6X6X6X6X6X6X6X6X6X6X6X6X6X6X6X6X6X6X6X6X6X6X6X6X6X6X6X6X6X6X6X6X6X6X6X6X6X6X6X6X6X6X6X6X6X6X6X6X6X8X6X:XQ &             & L ~  XoXXXXXXXXXXXXXXXXXXXXXXXXXXXXXXXXXXXXXXXXXXXoXXX}.R 3             O ( vXCXAXAXAXAXAXAXAXAXAXAXAXAXAXAXAXAXAXAXAXAXAXAXAXAXAXAXAXAXAXAXAXAXAXAXAXAXAXAXAXAXAXAXAXAXAXAXAXAXAXAXAXAXAXAXAXAXAXAXAXAXAXAXAXAXAXAXAXAXAXAXAXAXAXAXAXAXAXAXAXAXAXAXAXAXAXAXAXAXAXAXAXAXAXAXAXAXAXAXAXAXAXAXAXAXAXAXAXAXAXAXAXAXAXAXAXAXAXAXAXAX",
"AXAXAXAXAXAXAXAXAXAXAXAXAXAXAXAXAXAXAXAXAXAXAXAXAXAXAXnX] =             4 +X<X6X6X6X6X6X6X5X<X-XoX X XXXXXXXXXXXXXXXXXXXXXXX XXX&X>X3X6X8X8X8X8X7X7X7X6X6X6X6X6X6X6X6X6X6X6X6X6X6X6X6X6X6X6X6X6X6X6X6X6X6X6X6X6X6X6X6X6X6X6X6X6X6X6X6X6X6X6X6X6X6X6X6X6X6X6X6X6X8X6X:XQ &             & L ~  XoXXXXXXXXXXXXXXXXXXXXXXXXXXXXXXXXXXXXXXXXXXXoXXX}.R 3             O ( vXCXAXAXAXAXAXAXAXAXAXAXAXAXAXAXAXAXAXAXAXAXAXAXAXAXAXAXAXAXAXAXAXAXAXAXAXAXAXAXAXAXAXAXAXAXAXAXAXAXAXAXAXAXAXAXAXAXAXAXAXAXAXAXAXAXAXAXAXAXAXAXAXAXAXAXAXAXAXAXAXAXAXAXAXAXAXAXAXAXAXAXAXAXAXAXAXAXAXAXAXAXAXAXAXAXAXAXAXAXAXAXAXAXAXAXAXAXAXAXAXAX",
"AXAXAXAXAXAXAXAXAXAXAXAXAXAXAXAXAXAXAXAXAXAXAXAXAXAXZXnX] =             4 +X<X6X8X6X6X6X6X5X<X-XoX X XXXXXXXXXXXXXXXXXXXXXXX XXX&X>X2X6X7X6X6X6X6X6X6X6X6X6X6X6X6X6X6X6X6X6X6X6X6X6X6X6X6X6X6X6X6X6X6X6X6X6X6X6X6X6X6X6X6X6X6X6X6X6X6X6X6X6X6X6X6X6X6X6X6X6X6X6X7X6X:XQ &             & L ~  XoXXXXXXXXXXXXXXXXXXXXXXXXXXXXXXXXXXXXXXXXXXXoXXX}.R 3             O ( vXCXAXAXAXAXAXAXAXAXAXAXAXAXAXAXAXAXAXAXAXAXAXAXAXAXAXAXAXAXAXAXAXAXAXAXAXAXAXAXAXAXAXAXAXAXAXAXAXAXAXAXAXAXAXAXAXAXAXAXAXAXAXAXAXAXAXAXAXAXAXAXAXAXAXAXAXAXAXAXAXAXAXAXAXAXAXAXAXAXAXAXAXAXAXAXAXAXAXAXAXAXAXAXAXAXAXAXAXAXAXAXAXAXAXAXAXAXAXAXAXAX",
"AXAXAXAXAXAXAXAXAXAXAXAXAXAXAXAXAXAXAXAXAXAXAXAXAXAXZXnX_ =             4 +X<X6X8X6X6X6X6X5X<X-XoX X XXXXXXXXXXXXXXXXXXXXXXX XXX&X:X2X6X6X6X6X6X6X6X6X6X6X6X6X6X6X6X6X6X6X6X6X6X6X6X6X6X6X6X6X6X6X6X6X6X6X6X6X6X6X6X6X6X6X6X6X6X6X6X6X6X6X6X6X6X6X6X6X6X6X6X6X6X7X6X:XQ &             & L ~  XoXXXXXXXXXXXXXXXXXXXXXXXXXXXXXXXXXXXXXXXXXXXoXXX}.R 3             O ( vXCXAXAXAXAXAXAXAXAXAXAXAXAXAXAXAXAXAXAXAXAXAXAXAXAXAXAXAXAXAXAXAXAXAXAXAXAXAXAXAXAXAXAXAXAXAXAXAXAXAXAXAXAXAXAXAXAXAXAXAXAXAXAXAXAXAXAXAXAXAXAXAXAXAXAXAXAXAXAXAXAXAXAXAXAXAXAXAXAXAXAXAXAXAXAXAXAXAXAXAXAXAXAXAXAXAXAXAXAXAXAXAXAXAXAXAXAXAXAXAXAX",
"AXAXAXAXAXAXAXAXAXAXAXAXAXAXAXAXAXAXAXAXAXAXAXAXAXAXZXnX_ =             4 +X<X6X8X6X6X6X6X5X<X-XoX X XXXXXXXXXXXXXXXXXXXXXXX XXX&X:X2X6X6X6X6X6X6X6X6X6X6X6X6X6X6X6X6X6X6X6X6X6X6X6X6X6X6X6X6X6X6X6X6X6X6X6X6X6X6X6X6X6X6X6X6X6X6X6X6X6X6X6X6X6X6X6X6X6X6X6X6X6X7X6X:XQ &             & L ~ XXoXXXXXXXXXXXXXXXXXXXXXXXXXXXXXXXXXXXXXXXXXXXoXXX}.R 3             O ( vXCXAXAXAXAXAXAXAXAXAXAXAXAXAXAXAXAXAXAXAXAXAXAXAXAXAXAXAXAXAXAXAXAXAXAXAXAXAXAXAXAXAXAXAXAXAXAXAXAXAXAXAXAXAXAXAXAXAXAXAXAXAXAXAXAXAXAXAXAXAXAXAXAXAXAXAXAXAXAXAXAXAXAXAXAXAXAXAXAXAXAXAXAXAXAXAXAXAXAXAXAXAXAXAXAXAXAXAXAXAXAXAXAXAXAXAXAXAXAXAXAX",
"AXAXAXAXAXAXAXAXAXAXAXAXAXAXAXAXAXAXAXAXAXAXAXAXAXAXZXnX_ =             4 +X<X6X8X6X6X6X6X5X<X-XoX X XXXXXXXXXXXXXXXXXXXXXXX XXX&X:X2X6X6X6X6X6X6X6X6X6X6X6X6X6X6X6X6X6X6X6X6X6X6X6X6X6X6X6X6X6X6X6X6X6X6X6X6X6X6X6X6X6X6X6X6X6X6X6X6X6X6X6X6X6X6X6X6X6X6X6X6X6X6X6X:XQ &             & L ~ XXoXXXXXXXXXXXXXXXXXXXXXXXXXXXXXXXXXXXXXXXXXXXoXXX}.R 3             O ( vXCXAXAXAXAXAXAXAXAXAXAXAXAXAXAXAXAXAXAXAXAXAXAXAXAXAXAXAXAXAXAXAXAXAXAXAXAXAXAXAXAXAXAXAXAXAXAXAXAXAXAXAXAXAXAXAXAXAXAXAXAXAXAXAXAXAXAXAXAXAXAXAXAXAXAXAXAXAXAXAXAXAXAXAXAXAXAXAXAXAXAXAXAXAXAXAXAXAXAXAXAXAXAXAXAXAXAXAXAXAXAXAXAXAXAXAXAXAXAXAXAX",
"AXAXAXAXAXAXAXAXAXAXAXAXAXAXAXAXAXAXAXAXAXAXAXAXAXAXZXnX_ =             4 ^ <X6X8X6X6X6X6X5X<X-XoX X XXXXXXXXXXXXXXXXXXXXXXX XXX&X:X2X6X6X6X6X6X6X6X6X6X6X6X6X6X6X6X6X6X6X6X6X6X6X6X6X6X6X6X6X6X6X6X6X6X6X6X6X6X6X6X6X6X6X6X6X6X6X6X6X6X6X6X6X6X6X6X6X6X6X6X6X6X6X6X:XQ &             & L ~ XXoXXXXXXXXXXXXXXXXXXXXXXXXXXXXXXXXXXXXXXXXXXXoXXX}.R 3             O ( vXCXAXAXAXAXAXAXAXAXAXAXAXAXAXAXAXAXAXAXAXAXAXAXAXAXAXAXAXAXAXAXAXAXAXAXAXAXAXAXAXAXAXAXAXAXAXAXAXAXAXAXAXAXAXAXAXAXAXAXAXAXAXAXAXAXAXAXAXAXAXAXAXAXAXAXAXAXAXAXAXAXAXAXAXAXAXAXAXAXAXAXAXAXAXAXAXAXAXAXAXAXAXAXAXAXAXAXAXAXAXAXAXAXAXAXAXAXAXAXAXAX",
"AXAXAXAXAXAXAXAXAXAXAXAXAXAXAXAXAXAXAXAXAXAXAXAXAXAXZXnX_ =             4 ^ <X6X8X6X6X6X6X5X<X-XoX X XXXXXXXXXXXXXXXXXXXXXXX XXX&X:X2X6X6X6X6X6X6X6X6X6X6X6X6X6X6X6X6X6X6X6X6X6X6X6X6X6X6X6X6X6X6X6X6X6X6X6X6X6X6X6X6X6X6X6X6X6X6X6X6X6X6X6X6X6X6X6X6X6X6X6X6X6X6X6X:XQ &             & L ~ XXoXXXXXXXXXXXXXXXXXXXXXXXXXXXXXXXXXXXXXXXXXXXoXXX}.R 3             O ( vXCXAXAXAXAXAXAXAXAXAXAXAXAXAXAXAXAXAXAXAXAXAXAXAXAXAXAXAXAXAXAXAXAXAXAXAXAXAXAXAXAXAXAXAXAXAXAXAXAXAXAXAXAXAXAXAXAXAXAXAXAXAXAXAXAXAXAXAXAXAXAXAXAXAXAXAXAXAXAXAXAXAXAXAXAXAXAXAXAXAXAXAXAXAXAXAXAXAXAXAXAXAXAXAXAXAXAXAXAXAXAXAXAXAXAXAXAXAXAXAXAX"
};
