/* XPM */
static char *wall_anim_1[] = {
/* columns rows colors chars-per-pixel */
"128 128 217 2 ",
"   c #000000",
".  c #080702",
"X  c #0D0B02",
"o  c #03020A",
"O  c #0A0A09",
"+  c #070809",
"@  c #120E06",
"#  c #100F0E",
"$  c #1F1B01",
"%  c #14110B",
"&  c #171406",
"*  c #090712",
"=  c #080716",
"-  c #161513",
";  c #1B1915",
":  c #211D02",
">  c #231C0B",
",  c #291E0F",
"<  c #201E1C",
"1  c #2A1F14",
"2  c #282409",
"3  c #262209",
"4  c #332E0B",
"5  c #3B3302",
"6  c #3C360E",
"7  c #292419",
"8  c #362814",
"9  c #3C2C17",
"0  c #352715",
"q  c #090526",
"w  c #110E23",
"e  c #0C0634",
"r  c #0E083A",
"t  c #161038",
"y  c #2C2A27",
"u  c #2D2B28",
"i  c #312D27",
"p  c #34302C",
"a  c #3B352C",
"s  c #3E3B37",
"d  c #3F3C38",
"f  c #463C03",
"g  c #413A0E",
"h  c #443219",
"j  c #49351B",
"k  c #4C381C",
"l  c #54351B",
"z  c #542626",
"x  c #4A3C28",
"c  c #433C33",
"v  c #413E39",
"b  c #483F33",
"n  c #542B34",
"m  c #71312F",
"M  c #723B2D",
"N  c #78382F",
"B  c #6C2F36",
"V  c #6F3133",
"C  c #6D343F",
"Z  c #703232",
"A  c #6E3E0D",
"S  c #4D4203",
"D  c #5A4E03",
"F  c #4C4311",
"G  c #574D14",
"H  c #5B5114",
"J  c #5F530B",
"K  c #645605",
"L  c #685C17",
"P  c #695D17",
"I  c #7A5C19",
"U  c #79571C",
"Y  c #7F6E0F",
"T  c #7F700D",
"R  c #796817",
"E  c #7E701C",
"W  c #4C453B",
"Q  c #4C4439",
"!  c #564B3A",
"~  c #50422E",
"^  c #754527",
"/  c #764925",
"(  c #785120",
")  c #775020",
"_  c #756820",
"`  c #110946",
"'  c #130B4D",
"]  c #150B5C",
"[  c #150B56",
"{  c #150E4A",
"}  c #241457",
"|  c #2D1A4D",
" . c #170D61",
".. c #180E60",
"X. c #1B1165",
"o. c #1E1369",
"O. c #251A73",
"+. c #21176C",
"@. c #302966",
"#. c #312A68",
"$. c #2D2278",
"%. c #362D75",
"&. c #352D72",
"*. c #2A2359",
"=. c #502545",
"-. c #6B3850",
";. c #4F306D",
":. c #633D74",
">. c #421F48",
",. c #594E41",
"<. c #574E42",
"1. c #5D5344",
"2. c #5E5E5F",
"3. c #625748",
"4. c #645949",
"5. c #615546",
"6. c #676559",
"7. c #6F6F6D",
"8. c #925311",
"9. c #894C14",
"0. c #80710D",
"q. c #867405",
"w. c #82741D",
"e. c #8A7B1F",
"r. c #B6651B",
"t. c #BF6C18",
"y. c #B9671B",
"u. c #AF611D",
"i. c #914B27",
"p. c #8F7F20",
"a. c #807221",
"s. c #AC5F1D",
"d. c #C26E17",
"f. c #C06D18",
"g. c #C57017",
"h. c #C87218",
"j. c #A18B06",
"k. c #AB9306",
"l. c #938321",
"z. c #9D8B23",
"x. c #A79425",
"c. c #AC9926",
"v. c #B19D27",
"b. c #B39F28",
"n. c #A08F24",
"m. c #BAA629",
"M. c #BAA629",
"N. c #C1AC2B",
"B. c #C7B12C",
"V. c #CCB52D",
"C. c #CFB82E",
"Z. c #D3BB2F",
"A. c #D6BE30",
"S. c #DBC231",
"D. c #352A89",
"F. c #3E3485",
"G. c #3E3295",
"H. c #342988",
"J. c #403688",
"K. c #433688",
"L. c #42369C",
"P. c #45399F",
"I. c #483D9A",
"U. c #493CA4",
"Y. c #5D418D",
"T. c #5C4394",
"R. c #4D41A4",
"E. c #4F42AB",
"W. c #5145AE",
"Q. c #5845A4",
"!. c #5446B2",
"~. c #5548B5",
"^. c #5649B8",
"/. c #584ABB",
"(. c #4D42B0",
"). c #BAB9B6",
"_. c #CCBBAF",
"`. c #DED6CC",
"'. c #DED6CB",
"]. c #DBD7D3",
"[. c #D4CFC9",
"{. c #E0D7CE",
"}. c #E1D9CE",
"|. c #E5DDD5",
" X c #E8DFD6",
".X c #E7DFD8",
"XX c #E8DFD8",
"oX c #E0D7D0",
"OX c #E7E0D6",
"+X c #E8E0D7",
"@X c #E7E0D8",
"#X c #EBE3DA",
"$X c #EAE2D9",
"%X c #ECE3DA",
"&X c #EBE4DA",
"*X c #EBE4DB",
"=X c #EAE5DA",
"-X c #ECE5DB",
";X c #ECE4DB",
":X c #ECE6DB",
">X c #EBE5DC",
",X c #ECE5DD",
"<X c #EDE6DC",
"1X c #ECE7DD",
"2X c #EEE7DD",
"3X c #EDE6DE",
"4X c #EAE3DB",
"5X c #EFE8DE",
"6X c #EEE8DE",
"7X c #F0E9DF",
"8X c #EFE9E1",
"9X c #EFE8E0",
"0X c #EEE7E1",
"qX c #F1EAE2",
"wX c #F2EBE5",
"eX c #F9F9FA",
"rX c #F7F3ED",
/* pixels */
"$X|. X|. X$X+X$X$XOX|.+X+X$X$X|.|.$X X|.|. X X|.|.|.|. X$X+X+X$X$X$X$X$X$X$XOX$X9X9X5X$X$X$X+X5X9X9X$X$X$X$X$X$X$X$X9X$X9X5X$XOX+X+X|.|.|.|.|.+X X X X X X|.|. X|. X X X|. X+X+X$XOXOX+X+X$X+X$X+X$X$X$X5X$X$X5X$X$X$X$X$X$X$X$X$X$X$X$X$X$X$X+X$X$X$X$X$X$X$X$X",
"$X+X+X|.|.+X X X$X$X+X+XOXOX$X$X|.|.$X|.|. X|.|.|.|.+X+X+X+X$XOXOX$X$X$X$X$X$X$X9XqXqX5X$X+XOX$X$X7XqX$X5X$X$X$X$X$X5X$X9XqX5X$X X X$X|.{.|. X+X X+X$X$X+X|.|. X+X$X+X+X X|.|.$X$X$X$X+X$X+X X$X$X$X$X$X$X$X$XqX$X$X$X$X$X$X$X5X$X$X$X$X$X$X$X$X$X+X$X$X$X$X$X$X",
"$X$X$X+X|.|. X X$XOX$X$X$X$X$X$X$X$X$X$X|. X|.|.|.|. X X+X+X+X+X+X|.OX|.+X5X$XXX|.|.+X$X+X$X$X$X$X+X$X5X7X$X$X$X$X$X5X$X$X$X5X$X$X$X|.|.|.+X X X X+X$X$X+X|. X X$X$X X+X|.|.`.|.$X$X$X$X$X+X|.$X|.OX$X$X$X$X$X$X$X$X+X+X+X$X+X$X$X$X$X5X$X$X$X$X$X$X$X$X$X$X$X$X",
"$X$X$X+X$X+X|.|.|.OX+X$X$X$X$X$X$XqX@X$X|.|.+X|.|.|.|.+X X|. X$X$X X|.|.+XOX$X$X$XOX|.$X$X$X$X$X$X$X$X$X$X$X$X$X+X$X5X$X$X$X$X$X$X+X|.|.|.|.|.|. X X+X X X|.|. X$X X|.|.$X|.|.|.$XOX+X$X+X$X+X$X|.+X$X$X+X$X$X$X$X|.$X+X|.$X$X$X$X7X$X5X5X$X$X$X$X$X$X$X$X$X$X$X",
"5X9X$X$X$X X|.|.|.OXOX$X$X$X$X$X$X@X$X$X$XOX X|.|.|.|.|.|. X$X+X+X+X$X$X$X$X$X5X$X+X$X$X$X@X$XqX7X$X$X$X$X$X$X$X$XOX|.$X$X$X$X$X$X$X$X$X|. X|. X X X+X X|.|.|. X X X X+X$X+X|.|.|.OX+X|.$X$X$X$X$X$XOX|.|.$X$X$X$X+X$X$X+X$X$X$X$X$X5X$X$X$X$X$X$X$X$X$X$X$X$X5X",
"$X$X$X$X$X$X+X X|.OX+X$X$X$X$X$X$X|.$X9X$X$X|.|.|.|.+X X+X$X+X+X+X$X|.$X$X$X+X$X$X$X$X$X$X$X$X$X$X$X$X$X5X$X$X$X$XOXOX$X$X$X$X$X$X5X$X$X+X|.|.|.|. X+X$X X|.|.+X+X X|.+X+X+X+X X+X$X$X+X+X+X$X+X$X+X|.+X|.$X$X$X$X$X$X$X+X|.$XOX5X$X$X$X+X$X$X$X$X$X$X$X$X$X$X$X",
"$X$X$X$X+X+X+X X|.+X$XOX$X$X$X$X$X$X$X$X$X$X$X|.|.|.|.|.+X$X$X$XOX$X X X$X X$X+X$X$X$XOX$X$X$X$X$X$X$X$X$X$X5X7X+XOX$X+X$X$X$X$X$X$X$X$X$X+X X X$X|. X+X$X+X+X+X|. X|. X X X+X X+X$X$X$X X X$X+X$X|.|. X$X$X$X$X$X$X$X$X$XOX$X+X5XqX7X$X$X$X$X$X$X5X$X5X$X$X$X$X",
"$X$X$X$XOX|.+X X|.|.|.$X$X$X$X$X$X$X$X$X$X$X$X X|.|. X|.OX+X$X+X|.+X|.+X+X$X$X$X|. X$X$XOX+X+X$X$X$X$X$X$X$X$X$X$X+X$X$X$X$X$X$X$X$X$X$X$X$X X|. X+X$X$X X+X$X$X|.|.|.|.|. X|. X$X+X|.$X$X$X|.$X$X X|.|. X$X$X$X$X$X$X$X+X+X$X$X$X$X$X$X$XOX$X$X$X$X5X$X$X5X$X$X",
"qXqX5X$X$X$X X|.|.|.|.|.$X$X$X$X$X$X$X$X.X.X9X+X|.|.|.+XOXOX$X$X|.|.+X+X|.$X$X$X|.|.$X$X$X$X+X$X$X$X$X$X$X$X$X$X5X5X$X$X$X$X+XOX$X$X$X$X+X$X$X+X|.+X+X$X+X$X$X+X|.+X|.|.|. X+X$X+X X X+X+X+X$X$X$X$X$X+X$X$X+X$X$X$X|.+X$X$X$X$X$X$X$X$X+X+X$X$X$X$X$X$X$X$X$X$X",
"$X$X0X$X$X$X|.|. X|.|.|.|.OX$X$X$X$X$X$X$X$X$X@X|.|.|.+X+X$X$X$X+X|.|.|.+X+X+X|.|.|.+X$X$X$X$X$X$X$X$X$X$X$X$X$XOX$X$X$X$X$X$X$X$XqX$X$X$XOX$X$X+X+X+X$X+X$X X|.|.+X+X|.|. X+X$X X|. X$X$X|.+X$X|. X$X+X X+X$X$X$X$X X$X$X$X$X$X$X$X$X$X+X+X$X+XOX$X$X$X$X$X$X5X",
"0XqX$X$X$X$X$X$X|.`.|.+XOX|.OX+XOX$X$X$X$X$X$X$XOX|.|.$X$X$X$X|.+X|.|.|. X$X X|. X|.OX$X$X$X$X$X$X$X$X$X$X@X$X$X X|.$X$X$X$X$X$X$X$X@X$X$X$XOX$X$X$X$X|.|.+X X|.|.|. X+X X|.|.|.$X|. X+X$X X|.$X+X X|.|.|.|.$X$X|.+X$X$X$X+X$X5X$X|.|.OX|.|.|.+X+X$X$X5X$X$X$X5X",
"$X$X$X|. X|.+X$X|. X X|.+X|.|.|.+X$X$X$X$X$X$X X|.|.|.|.|.$X$X+X X|. X|.$X$X+X X|.|.$X$X+XOX$X$X$X$X$X$XOXOX$X$X+X|.$X$X$X$X$X5X$X$X$X$X$XOX|.$X$X+X+X{.|.+X|.|. X X X|.+X X|.|.+X|.|.|.|.+X$X$X X X|. X X|.+X+X|.$X|. X$X+X+XqX$X|.$X|.|.|.+X+X$X$X$X$X$X$X+X$X",
"qX$X$X$X+X X|.|.|.$X|.|.|.|.|.|.|.|.$X+X|.|.|. X X|.|.|.}.|.$X$X$X|.|. X$X+X$X$X|.|.|. X$X$X+X$X$X$XOX$X|.$XOX+X$X$X$X$X$X$X$X$X$X5X$X$X$XOX$X$X+X+X|.{.|.+X|. X|.$X$X+X+X X|. X$X+X X+X+X$X$X+X+X|. X X|. X|.+X X$X$X+X$X$X$X$X$X|.OX$X|.|. X+X$X$X$X$X|.|.|.$X",
"9X$X$X|.|.|.|.|.$X+X$X|.+X|.|.+X|.|.|. X X|.|.|.+X$X|.|.|.|. X|.$X X+X|. X X$X$X$X|.|.|.|.|.|.|.+X$X$X$X$X$X$X$X+X$X$X$X$X$X$X$X$X$X$X$X$X$X$X$XOXOX|.+X$X X|. X|.+X$X X+X|.|.+X X+X+X$X$X$X$X|.+X+X+X+X|.|.+X$X X|. X$X$X$X$X$X$XOX|.+X+X X|.+X+X$X$X$X|.+X$X$X",
"@X|.$XXX$X|.|.|.|.+X+XOX|.$X}.|.$X|.|.|.|. XOX+XOX+X|.|.|.|.|.|.|.+X+X X|. X X$X|.|.+X|.|.|.|.+X|.$X$X$X$X$X$X+X X+X$X$X$X$X$X$X$XOX|.OX$X$X+XOX$X$X+X+X$X+X|.|.|.$X$X|.OXOX X X$X+X+X$X$X$X+X$X+X$X$XOX+X+X|.+X X+X+X$X+X$X$X$X$X$X+XOX$X+X+X+X|. X$X$X$X$X+X$X",
"$X+X$X$X$X$X|.|.|. X|.+XOX+X|.|.|.+X|.|.|. X X|.|.|.+X X|.$X+X|.|.|.|. X|.+X+X X|.|.|.$X+X|.|. X|.+X$X|.|.+X$X+X+X X$X$X$X$X$X$X$X$X$X$X$X$X$X$X$X$XOX|. X X|.|.|. X$X|.OX$X+X|.$X$X+X+X X|.$XOXOX$X$X$X$X$X|. X|.|. X$X X X$X$X$X+X$X$X$X$X$X$X|.|.$X$X+X+X+X$X",
"@X$X$X$X$X$X+X+X$X$X$X$X$XOX$X|.|.$X+X|.|.}.|.|.}.|. X|.|.|. X|.|.|.$X$X$X$X$X$X+X|.|.|.$X$X X|.|. X$X|.|.+X X+X$X$X$X$X$X$X$X$X$X$X$X$X$X$X$X$X$X$X$X+X$X+X|. X$X+X+X|.$XOX|.+X$X$X$X+X+X|.|.+XOX+X$X$X$XOXOX X X|.|.$X$X$X+X$X+X+X$X$X$XOX$X$X+X|.+X$X$X$X$X+X",
"$XqX9X$X$X$X$X$X$X$X$X+X@X$X$XOX$X+X X|.}.`.`.`.}.|.|.|. X|.|.+XOX$X$X$X$X$X$X$X$X$X$X|.|.$X$X|.|. X+X X+X|.|. X X+X$X$X$X$X$X$X$X+X+X$X$X$X$X+XOX$X$X$XOXOX X X$X$X$X$X$X$X$X$X$X$X$X$X X+X|.|.|. X+X X+X$X$XOX$X|. X X X$X X$X$X+X$X$X$X$X$X+X$X$X+X$X$X|.|.$X",
"$X$X$X@X$X5X$X$X$X$X$X$X$X$XOX|.|.+X$X+X+X|.|.|.|.|.|.|.+X|.|.OX|.@X.X$X$X$X$X$X$X$X$X$X$X|.$X+X+X|.|.|.|.|.|.|.|. X|.$X$X$X$X+X$X$X$X$X$X$X$X$XOX$XOX|.$X+X+X|.|.$X$X$X$X$X$X$X$X$X$X$X|.|.+X$X|. X X|.OXOX+X+X$X$X$X X|.+X+X$X$X$X+X$X$X$X$X$X$X$X$X$X$X$X|.$X",
"$X$X$X$X$X7X5X$X$X$X$X$X$X$X+XOX|.|.$X                                                                                                                                                                                    $X+X+X$X$X$X$X$X5X$X$X$X$X$X$X$X$X$X$X",
"$X$X+X+X$X5X$X$X$X$X$X$X$X$X+X$X|.OX$X                                                                                                                                                                                     X+X X|.+X$X$X$X$X$X$X$X$X$X$X$X$X$X$X",
"$X$XOX|.$X$X$XOX$X$X$X$X$X$X$X$X$X$X$X          X : $ $ $ $ $ $ $ $ $ $ $ $ $ $ $ $ $ $ $ $ $ $ $ $ $ $ $ $ $ $ $ $ $ $ : : $ $ $ $ $ $ $ $ $ $ $ $ $ $ $ $ $ $ $ $ $ $ $ $ $ $ $ $ $ $ $ $ $ $ $ $ $ $ $ $ : X            X+X+X$X|.OX$X$X$X$X$X$X$X$X$X$X$X$X$X",
"$X$X+X$X$X$X$X$XOX$X$X$X$X$X$X$X$X+X$X          5 j.j.j.j.j.j.j.j.j.j.j.j.j.j.j.j.j.j.j.j.j.j.j.j.j.j.j.j.j.j.j.j.j.j.j.j.j.j.j.j.j.j.j.j.j.j.j.j.j.j.j.j.j.j.j.j.j.j.j.j.j.j.j.j.j.j.j.j.j.j.j.j.j.j.j.j.j.j.5           +X+X+X$X|.+X$X$XOX+X+X$X$X$X$X$X$X$X$X",
"$X$X$X$X$X$X$X$X$X$X$X$X$X|.$X$X$X$X$X          5 k.j.j.j.j.j.j.j.j.j.j.j.j.j.j.j.j.j.j.j.j.j.j.j.j.j.j.j.j.j.j.j.j.j.j.j.j.j.j.j.j.j.j.j.j.j.j.j.j.j.j.j.j.j.j.j.j.j.j.j.j.j.j.j.j.j.j.j.j.j.j.j.j.j.j.j.j.k.5           $X$X$X+X X|.+X$X$X$X$X$X$X$X$X$X$X$X$X",
"$X$X$X5X$X$X$X$X+X$X$X$X$X$XOX+X+X$X$X    X 5 5 S K K q.j.j.j.j.j.j.j.j.j.j.j.j.j.j.j.j.j.j.j.j.j.j.j.j.j.j.j.j.j.j.j.j.j.j.j.j.j.j.j.j.j.j.j.j.j.j.j.j.j.j.j.j.j.j.j.j.j.j.j.j.j.j.j.j.j.j.j.j.j.j.j.j.q.K K S 5 5 X     $X$X$X+X+X|. X$X$X$X$X$X$X$X$X$X$X$X$X",
"5X$X$X$X$X|.$X$X$X$X+X$X|.OX+X+X+X+X$X    : j.k.K     D j.j.j.j.j.j.j.j.j.j.j.j.j.j.j.j.j.j.j.j.j.j.j.j.j.j.j.j.j.j.j.j.j.j.j.j.j.j.j.j.j.j.j.j.j.j.j.j.j.j.j.j.j.j.j.j.j.j.j.j.j.j.j.j.j.j.j.j.j.j.j.j.D     K k.j.:     $X$X$X+X+X+X|.$X+X+X$X$X$X$X$X$X5X$X$X",
"$X$X$X$X$X$X$X$X+X$X$X$X$X$X$XOX$X$X$X    $ j.j.K     D k.j.j.j.j.j.j.j.j.j.j.j.j.j.j.j.j.j.j.j.k.j.j.j.j.j.j.j.j.j.j.j.j.j.j.j.j.j.j.j.j.j.j.j.k.j.j.j.j.j.j.j.j.j.j.j.j.j.j.j.j.j.j.j.j.j.j.j.j.j.j.k.D     K j.j.$     $X$X$X$X$X$X X$X$X+X|.OX$X$X$X$X$X$X$X",
"$X$X$X$X$X$X$X$X$X$X$X$X$X$X+X|.$X$X$X    $ j.j.q.D D S f f f f f f f f f f f f f f f f f f f f f f f f f f f f f f f f f f f f f f f f f f f f f f f f f f f f f f f f f f f f f f f f f f f f f f f f S D D q.j.j.$     $X$X+X$X+X$X|.$X+X|.|.OX$X$X$X$X$X$X$X",
"qX$X5X5X$X$X$X$X$X+X$X$X$X+X$X$X+X+XOX    $ j.j.j.j.k.f                                                                                                                                                 f k.j.j.j.j.$     $X$X|.OXOX$X|.OX+X|.$X$X$X$X$X5X9X$X$X",
"qXqX9XqX$XqX9X$X$X+X$X$X$X$X$X$XOX$X+X    $ j.j.j.j.j.f                                                                                                                                                 f j.j.j.j.j.$     $X+X|.|.OXOX|.|.|.$X$X$X$X$X$X5XqX$X$X",
"qXqX9XqX5X9XqX$X$X$X$X$X$X$X$X$X+X$X$X    $ j.j.j.j.j.f     A 8.8.8.8.8.8.8.8.8.8.8.8.8.8.8.8.8.8.8.8.8.8.8.8.8.8.8.8.8.8.8.8.8.8.8.8.8.8.8.8.8.8.8.8.8.8.8.8.8.8.8.8.8.8.8.8.8.8.8.8.8.8.8.8.8.8.A     f j.j.j.j.j.$     $X|.|.|.OX+X|.|.+X+X$X$X$X$X$X$X$X$X$X",
"7X9X9XqX9X$X$XqXqX5X$X$X$X$X$X$X+X+X|.    $ j.j.j.j.j.f     8.h.g.g.g.g.g.g.g.g.g.g.g.g.g.g.g.g.g.g.g.g.g.g.g.g.g.g.g.g.g.g.g.g.g.g.g.g.g.g.g.g.g.g.g.g.g.g.g.g.g.g.g.g.g.g.g.g.g.g.g.g.g.g.g.g.h.8.    f j.j.j.j.j.$     +X+X X X X+X+X XOXOX+X$X$X$X5X5X$X$X$X",
"$X5XqXqXqX$X$X9X0X$X$X$X$X$X$X$X+X|.|.    $ j.j.j.j.j.f     8.g.d.d.d.d.d.d.d.d.d.d.d.d.d.d.d.d.d.d.y.y.y.y.y.y.y.y.f.f.f.y.y.y.y.y.y.y.y.f.d.d.f.y.y.y.y.y.y.y.y.y.f.f.f.y.y.y.y.y.y.y.d.d.d.d.g.8.    f j.j.j.j.j.$     +X$X$X$X$X$X X+X$X+X$X$X$X$X$X$X9X$X$X",
"$X$X0X$X$X$X$XqX0X$X$X$X$X$X$X@X$X|.|.    $ j.j.j.j.j.f     8.g.d.d.d.d.d.d.d.d.d.d.d.d.d.d.d.d.d.y.N N N N N N N N N N N N N N N N N N Z i.g.g.i.Z N N N N N N N N N N N N N N N N N N r.d.d.d.g.8.    f j.j.j.j.j.$     $X$X$X$X$X$X|.|.$X+X$X$XOX$X$X$X$XqX9X",
"$X$X$X$X0X$X$X9X$X$X$X$X$X$X$X$X$X$X$X    $ j.j.j.j.j.f     8.g.d.d.d.d.d.d.d.d.d.d.d.d.d.d.d.d.d.y.Z Z Z Z Z Z Z Z Z Z Z Z Z Z Z Z Z Z V i.g.g.i.V Z Z Z Z Z Z Z Z Z Z Z Z Z Z Z Z Z Z r.d.d.d.g.8.    f j.j.j.j.j.$     $X$X$X+XOX X X|.$XOX$X$X$X|.$X$X$X$XqX",
"$X$X0X@X$X$X$X9X$X$X$X0X$X$X$X$X$X$X$X    $ j.j.j.j.j.f     9.y.r.r.r.r.r.r.r.r.r.r.r.r.r.r.r.r.r.u.M M M M M M M M M M M M M M Z Z Z Z V i.y.y.i.M M M M M M M M M M M M M M M M M M M s.y.r.r.y.9.    f j.j.j.j.j.$     +XOX$X+X|.|.|.`.+XOX$X$X$X$X9X$X$X$X$X",
"$X$X9X$X$X$X$X$X$X9X$X$X$X$X$XqXqX$X$X    $ j.j.j.j.j.f     z Z Z Z Z Z Z Z Z Z Z Z Z Z Z Z Z Z Z M Y Y Y Y Y Y Y Y Y Y 0.0.0.Y Z Z Z Z Z Z Z Z U 0.Y Y Y Y Y Y Y Y Y Y 0.0.0.Y Y Y Y Y M Z Z Z Z z     f j.j.j.j.j.$     $X5X$X$X$X|.$X`.`.$X$X$X$X0X$X9XqX$X$X",
"$X$X$X$X$X9X$X$X$X$X$X$X$X9X$X$X$XqX9X    $ j.j.j.j.j.f     z Z Z Z Z Z Z Z Z Z Z Z Z Z Z Z Z Z Z M Y Y Y T T T T T T Y 0.0.T Y Z Z Z Z Z Z Z V U 0.T T T T T T T T T T 0.0.T T T T T Y M Z Z Z Z z     f j.j.j.j.j.$     $X5X$X|.$XOX+X$X|.$X$X$X$X$X$X9X$X$X$X",
"$X$X$X$X$X$X$X$X$X$X$X$X$X$X$X$X9XqX0X    $ j.j.j.j.j.f     l ^ ^ ^ ^ ^ ^ ^ ^ ^ ^ ^ ^ ^ ^ ^ ^ ^ ^ ) Y Y Y I I I I I I I I I I I Z Z Z Z Z Z Z Z ) I I I I I I I I I I I I I I I I I I I ) ^ ^ ^ ^ l     f j.j.j.j.j.$     $X$X$X$X$X$X|.+X|.$X|.$X$X$X$X9X$X$X$X",
"$X$X$X$X$X$X$X$XqX0X$X$X|.|.|.+XqXqX$X    $ j.j.j.j.j.f     K 0.T T T T T T T T T T T T T T T T 0.T Y T I V Z Z Z Z V V V Z Z Z Z Z Z Z Z Z Z Z Z Z Z Z Z Z Z Z Z Z Z V Z Z Z Z Z Z Z Z R T T T 0.K     f j.j.j.j.j.$     5X$X$X$X$X$X$X$X$X$X$X$X0X0XqX$X$X$X$X",
"$X$X$X$X$X$X9X$X$X$X0X$X|.|.|.|.$X$X$X    $ j.j.j.j.k.f     K 0.0.0.0.0.0.0.T Y Y T 0.0.0.0.0.0.0.0.0.0.R Z Z Z Z Z Z Z Z Z Z Z Z Z Z Z Z Z Z Z Z Z Z Z Z Z m m m m m m Z Z Z Z Z Z Z Z Y 0.T Y 0.J     f j.j.j.j.j.$     $X$X$X$X$X$X$X$X$X|.@X$X9X$X9X$X$X$X$X",
"$X$X$X$X$X$X0X$X$X$X$X$X$X$X|.+X+X$X$X    $ j.j.j.j.j.f     l ( ( ( ( ( ( ) I T T R ) ( ( ( ( ( ( ( ( ( ) Z Z Z Z Z Z Z Z Z Z Z Z Z Z Z Z Z Z Z Z Z Z =.>.>.:.:.:.:.:.-.Z Z Z Z Z Z Z Z ) ( U Y 0.J     f j.j.j.j.j.$     $X$X5X$X$X$X$X$X$X$X|.$X$X9X$X0XqX$X$X",
"$X$X$X$X$X$X$X$X$X$X$X|.+X$X$X$X$X+XOX    $ j.j.j.j.j.f     z Z V V V V V V ^ T 0.) V V V V V V V V V V Z Z Z Z Z Z Z Z Z Z Z Z Z Z Z Z Z Z Z Z Z Z Z | ]  .(.^.^.^.^.Y.m Z Z Z Z Z Z Z Z V m Y 0.J     f j.j.j.j.j.$     $X$X$X9X$X5X$X$X$X$X@X$X$X$X$X9X$X$X$X",
"$X9X$X$X$X$X$X$X$X$X$X`.|.5X$X$X$XOX|.    $ j.j.j.j.j.f     z Z Z Z Z Z Z Z ^ 0.0.( V Z Z Z Z Z Z Z m m m m m m m m m m m m m m m m m m m m m m Z Z Z | ] ..E.~.~.~.^.Y.m m Z Z Z Z Z Z Z Z M Y 0.K     f j.j.j.j.j.$     9X$X$X9X$XqX$X$X$X$X|.$X$X$X9X$X$X$X$X",
"$X$X$X$X$X$X$X$X@X@X$X|.|.$X$X9X$X$X|.    $ j.j.j.j.j.f     z Z Z Z Z Z Z Z M ^ ^ M Z Z Z Z V | | | Y.Y.Y.Y.Y.Y.Y.Y.Y.Y.Y.Y.Y.Y.Y.Y.Y.Y.Y.Y.Y.Y.;.| | ] ] ..E.~.~.~.~.Q.Y.Y.;.| | n Z Z Z Z Z ^ ^ l     f j.j.j.j.j.$     qX$X$X9X9X$X$X$X$X$XOX$X$X$X$X$X|.@X$X",
"$X$X$X$X$X$X$X$X$X$X@X@X@X$X$X0X9XqX$X    $ j.j.j.j.j.f     z Z Z Z Z Z Z Z Z Z Z Z Z Z Z Z V } ] X.!.^.^.^.^.^.^.^.^.^.^.^.^.^.^.^.^.^.^.^.^./.H.] ] ] ] ..E.~.~.~.~.~.^.^.D.] ] =.Z Z Z Z Z Z Z z     f j.j.j.j.j.$     $X$X$XqX$X$X$X$X$X$X+X$X$X$X$X$X$X@X$X",
"$X$X$X$X$X$X|.OX|..X|.|.@X$X$X$X$X$X$X    $ j.j.j.j.j.f     z Z Z Z Z Z Z Z Z V V V V V V Z V } ] X.!.~.~.~.~.~.~.~.~.~.~.~.~.~.~.~.~.~.~.~.!.~.H.] ] ] ] ..E.~.~.~.~.~.~.^.D.] ] =.Z Z Z Z Z Z Z z     f j.j.j.j.j.:     $X$X$XqX$X$X$X$X$X$X+X$X$X$X$X$X$X$X$X",
"$X$X$X$X$XOX|.|.OX|.|.|.$X$X$X$X$X$X$X    $ j.j.j.j.j.f     z Z Z Z Z Z Z Z n } } } } } K.Q.Q.R.U.E.~.~.~.~.~.~.~.~.~.~.~.~.~.~.~.~.~.~.~.L.X.o...] ] ] ] ..E.~.~.~.~.~.~.~.W.U.U.R.Q.Q.Q.Q.Y.V Z z     f k.j.j.j.j.:     qXqXqX9X$X$X$X$X$X$X$X|.$X$X$X$X$X$X$X",
"$X@X$X X X$X|.|.|.$X|.$X$X$X$X@X$X$X$X    : j.j.j.j.j.f     z Z Z Z Z Z Z Z n ] ] ] ] ] L.^.~.~.~.~.~.~.~.~.~.~.~.~.~.~.~.~.~.~.~.~.~.~.^.G.] ] ] ] ] ] ] ..E.~.~.~.~.~.~.~.~.~.~.~.~.~.~.~.Q.V Z z     f j.j.j.j.j.$     9XqX$X$X$X$X$X$X$X@X$XOXOX$X$X$X$X$X$X",
"$X|.@X X|.$X`.|.|.$X$X|.$X$X$X$X$X$X$X    : j.j.j.j.j.f     n -.C C C -.C C =.X.X.X.X.X.L.~.~.~.~.~.~.~.!.E.E.E.E.E.!.~.~.~.~.~.E.E.E.R.R.D.[ [ [ [ [ [ [ [ P.R.R.R.R.R.E.E.!.~.~.~.~.~.W.E.R.B V z     f j.j.j.j.j.$     $X$X$X$X$X$X$X$X$X$X$X$X|.$X$X$X$X$X$X",
"$X|.OX+X|.|.|.|.|.|.$X$X$X$X$X$X$X$X$X    $ j.j.j.j.j.f     J.~.W.!.!.!.!.!.!.!.!.!.!.!.!.~.~.~.~.~.~.~.U.] ......] G.~.~.~.~.W.X...'                                 q ..] D.^.~.~.~.!.+.....] ] `     f j.j.j.j.j.$     $X$X$X$X$X$X$X$X$X$XOX@X+X5X$X$X$X$X$X",
"$X$X X+X|.|.|. X$XOX+X$X$X$X$X$X$X$X$X    $ j.j.j.j.j.f     J.^.~.~.~.~.~.~.~.~.~.~.~.~.~.~.~.~.~.~.~.~.P.] ] ] ] ] G.~.~.~.~.!.X. .'                                 =  .] D./.~.~.~.!.o.] ] ] ] `     f j.j.j.j.j.$     $X9X$X$X$X$X$X$X$X$X$XOX|.$X$X$X$X$X$X",
"$X$X+X$X+X+X+X$X$X$X$X$X$X$X$X$X$X$X$X    $ j.j.j.j.j.f     %.U.P.P.P.U.~.~.~.~.~.~.~.~.~.~.~.U.P.U.!.~.U.O.O.O.O.O.L.~.~.U.P.L.' ` t 4 4 4 4 4 4 4 4 4 4 4 4 4 4 4 4 7 ` ` $.U.P.W.~.!.$.O.O.O.O.[     f k.j.j.j.j.$     $X9X9X$X$X5X9X$X$X$X$X|.|.$X$X$X5X$X$X",
"$X+X+X$X$X$X|.|.$X$X$X$X$X$X$X$X$X+XOX    $ j.j.j.j.j.f     ` ] ] ] ] o.!.~.~.~.~.~.~.~.~.~.!.o.] X.!.~.~.~.~.~.~.~.~.~.~.+.] [     2 Z.Z.Z.Z.Z.Z.Z.Z.Z.Z.Z.Z.Z.Z.Z.A.l.    e ] ] L.~.~.~.~.~.~.^.J.    f j.j.j.j.j.$     $X0X$X$X$X$X$X5X$X$X$X|.|.$X$X$X$X5X$X",
"$X$X$X$X$X$X$X$X$X$X$X$X$X$X$X$X$X$X$X    $ j.j.j.j.j.f     ` ] ] ] ] X.!.~.~.^.^.^././././.^.+.] o.!.~.~././././././././.O.] ]     2 Z.C.C.C.C.C.C.C.C.C.C.C.C.C.C.Z.p.    e  .] L././.^.^.~.~.^.J.    f j.j.j.j.j.$     qXqXqX$X$X|.$X$X$X$XOX X|.|.$X$X$X$X$X",
"$X$X$X|.$X$X$X$X$X$X$X$X$X$X$X$X$X$X$X    $ j.j.j.j.j.f     ` ] ] $.H.D.~.~.E.D.G.%.@.@.@.@.@.t e ` !.~.R.@.@.@.@.@.@.@.@.t e e     2 Z.C.C.C.C.C.C.C.C.C.C.C.C.C.C.A.p.    = e e } @.@.D.D.G.!.^.J.    f j.j.j.j.j.$     $X$X9X$X$X$X$X$XOX$X+X|.|.+X$X$X$X5X$X",
"$X$X$X$X$X$X+X$X$X+X+XOX$X$X$X$X$X$X$X    $ j.j.j.j.j.f     ` ] ..W.^.^.~.~.L.] ] e               * W.^.F.                          2 Z.C.C.C.C.C.C.C.C.C.C.C.C.C.C.Z.p.                ' ] X.!.^.J.    f j.j.j.j.j.$     $X|.$X$X$X$X$X$X$X$X+X|.OX|.$X$X$X5X5X",
"+X$X$X$X$X$X+X+X$X$XOX+X$X+X+X$X$X+X$X    $ j.j.j.j.j.f     ` ] ] E.~.~././.L.]  .e               o W.^.J.                          > Z.C.C.C.C.C.C.C.C.C.C.C.C.C.C.Z.e.                [  .o.~./.J.    f j.j.j.j.j.$     $X$X$X$X$X$XqXqX$X$X$X$X+X|.$X$X+XOX$X",
"|.+X$X$X+X$X|.OX$X+X$X|.|.$X$X+XOX@X$X    $ j.j.j.j.j.f     $.G.G.!.~.R.| | t q q o     | &.&.&.&.%.!.~.L.r r q               X E w.l.C.C.C.C.C.C.C.C.C.C.C.C.C.C.C.Z.M.w.e.g     H w.w.w q e $.H.}     f j.j.j.j.j.$     $X$X$X$X$X$X9X5X$X$X$X$X$XOX|.$X+X|.+X",
"$X$X|.|.$X|.|.OX$X$X$X$X+XOX$X+XOX.X$X    $ j.j.j.j.j.f     J./.~.~.~.I.                F./.^.^.^.^.~.~.U.]  .e               X B.Z.Z.C.C.C.C.C.C.C.C.C.C.C.C.C.C.C.C.Z.Z.S.P     l.S.Z.$     [ ] `     f j.j.j.j.j.$     $X+X$X$X$X$X$X$X$X$X$X$X$X$X$X$X+X+X+X",
"$X$X$X X+X+XOXOX|.$X+X$XOXOX$X$X$X$X$X    $ j.j.j.j.j.f     J./.~.~.~.I.                %.^.~.~.~.~.~.~.P.]  .e               X N.C.C.C.C.C.Z.Z.C.C.C.C.C.C.Z.Z.Z.C.C.C.C.A.P     p.A.V.$   o ] ] `     f j.j.j.j.j.$     |.+X$X+X$X$X$X$X$X$X$X$X$X$X$X$X|.$X$X",
"+X$X$X|.|.+X|.|.+X|.$X+X+X+X$X$XOX|.+X    $ j.j.j.j.j.f     = w w w w =           | L.L.W.~.~.~.~.~.~.~.P.]  .e     P c.x.:   X N.C.C.C.Z.l.> > e.Z.C.C.C.V.6 3 g V.C.C.C.A.P     p.Z.V.$   o ] ] `     f j.j.j.j.j.$     |.$X$X$X$X$XOX$X5X$X$X$X$X$X$X$X5X$X$X",
" X+X$X|.|.$X$X|.+X+X+X+X+X+XOXOX|.+X$X    $ j.j.j.j.j.f                           *./.~.~.~.~.~.~.~.~.~.P.]  .e     w.A.Z.2   X N.C.C.C.Z.w.    R Z.C.C.C.B.&   $ V.C.C.C.A.P     p.Z.V.$   o ] ] `     f j.j.j.j.j.$     |.|.$X$X$X$X$X$X$X$X$X$X7X$X$X+X$X$X$X",
"|.$X$X X+X|.$X+X|.OX+X+X$X+XOXOX+X+XOX    $ j.j.j.j.j.f                           *.W.E.E.E.E.!.~.~.~.~.U...X.r     w.Z.Z.2   X N.C.V.N.B.E # # _ B.N.N.N.m.7 # 2 m.N.B.C.A.P     p.Z.V.$   o ] ] `     f j.j.j.j.j.$     |. X$X$X$X$X$X$X$X$X$X$X$X$X$X$X|.+X$X",
".X$X$X$X+X|. X X|. X+X$X$X+X X|. X}.$X    $ j.j.j.j.j.f     0 h h ,.1.1.1.1.a       o o o o o I.~.~.~.~.!.W.!.@.    w.Z.Z.2   X N.Z.c.X . 2.eXeX7.  X X X % ].eX[.@ X F Z.A.P     p.Z.V.$   o ] ] `     f j.j.j.j.j.$      X X$X$X X$X$X$X$X$X$X$X|.$X$X$X|.$X$X",
"|.|.|.|.|. X|.|.$X+X$X$X X$X$X+X|.+X+X    $ j.j.j.j.j.f     8 j k 5.3.3.3.4.c                 I.~.~.~.~.~.~./.@.    w.Z.Z.2   X N.Z.x.    2.eXeX7.        + 0XeX].    6 Z.A.P     p.Z.V.$   o ] ] `     f j.j.j.j.j.$     |. X$X$X$X$X$X$X$X$X$X X+X$X X X+X$X$X",
"|.OX$X|.|.|.|.|.$XOX+X$X$X$X$X$X$X$XOX    $ j.j.j.j.j.f     2 9 9 ,.1.1.3.4.Q # % % % %       F.U.U.~.~.~.~./.@.    w.Z.Z.2   X N.Z.c.2 : 6.].].6.: 2 2 2 4 ).[.).2 3 H Z.A.P     p.Z.V.$   o +.O.[     f k.j.j.j.j.$     |.|.|.|.|.|.|.OX$X$X$X X$X$X+X|.|.$X$X",
"|.XX$X|.|.|.$X X|.$X$X$X$XXX$X$XXX$X$X    $ j.j.j.j.j.f           c W W 3.3.3.3.3.3.3.4.;     ' ] X.!.~.~.~./.@.    w.Z.Z.2   X N.C.C.Z.Z.w.    R A.Z.Z.Z.V.&   $ V.C.C.C.A.P     p.Z.V.$   * W.^.J.    f j.j.j.j.j.$     |. X|.|.|.|.|. X X$X$X$X$X$X+X|.|.$X$X",
"|.|.|.}.|. X|.|.OX$X$X$X$X|.|.XX$X$X$X    $ j.j.j.j.j.f           c W W 3.3.3.3.4.3.3.4.;     [  .o.!.~.~.~./.@.    w.Z.Z.2   X N.C.C.C.Z.w.    R Z.C.C.C.B.@   & V.C.C.C.A.P     p.Z.V.$   * W.^.J.    f j.j.j.j.j.$     |.|.|.|.|.|.|.|.|.$X X|.+X+X X|.|.+X$X",
"|.|. XOX|.|. X$X$X|.OX|. X|.|.|.|.+X|.    $ j.j.j.j.j.f           c x Q 1.1.1.1.1.1.3.4.;     e r ` G.G.L.~./.@.    w.Z.C.2   X N.C.C.C.Z.z.F F l.Z.C.C.C.V.H F H V.C.C.C.A.P     p.Z.V.$   * W.^.J.    f j.j.j.j.j.$     |.|.|.|.|.|.|.|.|.$X|.}.+X+X+X X+X$X$X",
"|.|.$X$X|.|. X|.+X X X$X X|.|.|.|.|. X    $ j.j.j.j.j.f           h j j W W W W W <.4.4.;           [ ] O.~./.@.    w.Z.Z.2   X N.C.C.C.C.Z.Z.Z.Z.C.C.C.C.C.Z.Z.Z.C.C.C.C.A.P     p.Z.V.$   * W.^.J.    f j.j.j.j.j.$     |.|.|. X|.|.|.|.|.+X X$X X|. X$X X$X$X",
"|.@X$X$X$X+X|.|. X X|.$X$X|.|.+X X|.|.    $ j.j.j.j.j.f           h j x W W W W W <.4.4.;         o ] ] O././.#.    w.Z.Z.>   . B.A.Z.C.C.C.C.C.C.C.C.C.C.C.C.C.C.C.C.Z.A.S.P     p.Z.V.$   * W.^.J.    f j.j.j.j.j.$     $X|.|.|.|.$X$X X X|. X|.|.|.|. X X|.$X",
"|.|.$X$X5X$X|.$X$X+XOX$X+X$X$X X|.XX X    $ j.j.j.j.j.f           & & > < < 7 x x ! 4.4.c p p .     q q t H.H.{     w.A.C.e.R R H G R C.C.C.C.C.C.C.C.C.C.C.C.C.C.C.Z.c.G G P R R b.Z.V.$   * W.^.J.    f j.j.j.j.j.$     $X$X.X|.|.|.|.|.|.OX+X X|.|.|.|.+X$X$X",
"|.@X$X$X+X$X$X$X$X$X+X$X X+X+X+X|.|.XX    $ j.j.j.j.j.f                     @ j h ~ 4.3.4.4.4.O         o ] ] e     w.A.C.Z.Z.B..   > Z.C.C.C.C.C.C.C.C.C.C.C.C.C.C.Z.e.    P S.Z.Z.C.V.$   * W.^.J.    f j.j.j.j.j.:     $X$X@X@X@X$X|.|.|.OX$X+X+X+X|.|.+X$X$X",
"|.@X$X$X$X$X$X$X$X$XOX$X+X+X+X$X|.|.|.    $ j.j.j.j.j.f                     % j j ~ 4.4.4.4.3.O         o  . .e     w.A.C.C.C.N.X   2 Z.C.C.C.C.C.C.C.C.C.C.C.C.C.C.Z.p.    P A.C.Z.Z.C.$   * W.^.J.    f j.j.j.j.j.$     $X$X$X$X@X|.|.|.|.$X$X|.$X$X|.+X|.+X$X",
"|.$X$X$X$X$X$X$X$X$X$X$X+XOX$X$X$X@X|.    $ j.j.j.j.j.f     , 8 8 8 8 8 a a y @ @ 0 x x x x x 9 8 8 8 8 1 o = o     w.Z.C.C.C.N.X   2 Z.C.C.C.C.C.C.C.C.C.C.C.C.C.C.Z.p.    P A.Z.L 4 4     * W.^.J.    f j.j.j.j.j.$     $X$X$X$X$X@X|.|.|.|.|.|.OX$X+X$X+XOX$X",
" X|.OX$X+X$XOXOX$X$X$X|.|.|.$X$X$X$X@X    $ j.j.j.j.j.f     8 j j j j x W ! p     > j j j j j j j j j j 8           w.Z.C.C.C.N.X   2 Z.C.C.C.C.C.C.C.C.C.C.C.C.C.C.Z.p.    P A.A.6         * W.^.J.    f j.j.j.j.j.$     $X9X$X$X$X$X@X$X$X{.`.+XOX|.$X$X$X$XOX",
"$X$X$X$X$X+X|.$X$X$X+X}.`.OX|.$X$X$X$X    $ j.j.j.j.j.f     8 j j j j x W W p     > j h j j j j j j j j 8           E V.B.V.C.N.X   3 V.B.V.C.C.V.B.B.B.B.B.V.C.V.B.V.e.    P Z.A.g         = W.^.J.    f j.j.j.j.j.$     $X9X9X$X$X$X$X$XOX$X|.|.|.|.$X$X$X$X|.",
"$X$X$X$X$X$X$X$X X+X|.|.|.+X|.|.$X$X$X    $ j.j.j.j.j.f     b 5.1.1.1.1.W W p       .   0 j j j j j j j 8           X & & c.Z.N.X     & @ H Z.Z.L X & & & $ m.Z.M.& @ F m.m.N.Z.A.g     J.R.R.~.^.J.    f j.j.j.j.j.$     $X$X$X$X$X$X$X$X.X|.|.|.|.|.|.$X$X|.|.",
"|.+X+XOX$X$X$XOX$X$X+X$X$X$X|.|.|.$X$X    $ j.j.j.j.j.f     Q 4.4.3.3.1.W W p           0 j j j j j j j 8                 x.Z.N.X         F Z.A.H           m.Z.v.    g Z.Z.C.C.A.g     I.^.~.~.^.J.    f j.j.j.j.j.$     $X$X$X$X$X$X$X$X$X|.|.|.|.$X`.`.|.|.|.",
"+X$X+XOX$X$X$X$X$X$X+X|.$X+X|.|.{.|.$X    $ j.j.j.j.j.f     a ! ! 5.3.1.W W a X O O O O 2 9 9 9 9 9 9 9 0 O O O O O       x.Z.N.2 $ &     F Z.A.H         . m.Z.v.    g Z.C.C.C.Z.g     F.I.I.U.E.%.    f j.j.j.j.j.$     @X|.$X$X$X$X$X0X9X$X|.|.|.|.|.|.|.[.oX",
"+X$X$X$X$X$X$X$X$X$X+X X X$X|.|.|. X$X    $ j.j.j.j.j.f           ,.3.1.W W W W W W W W -               # d s s s v -     x.Z.C.V.V.x.    F Z.A.H         . m.Z.v.    g Z.C.C.C.Z.g         o ]  .`     f j.j.j.j.j.$     |.+X+X$X$X$X$X$X9XqX$X$X@X@X@X$X|.|.|.",
" X+X+X$X$X$X$X$X$X$X$X$X X X X|.$X$X$X    $ j.j.j.j.j.f           ,.3.1.W W W W W W W W -               # v d d d v -     x.Z.C.C.Z.c.    F Z.A.G           m.Z.v.    g Z.C.Z.Z.S.g         o ] ] `     f j.j.j.j.j.$     |.|.OX$X$X$X$X$X$X$X$X$X$X@X$X@X|.|.$X",
" X$X$X$X$X$X$X$XOX$X$X+X+X+X|.+X|.$X$X    $ j.j.j.j.j.f           ,.3.5.<.<.<.! ! W W W 7 - -           # v d d d v -     x.Z.C.C.Z.c.    F Z.Z.E 6 g g g g N.Z.v.    g Z.Z.c.e.l.2         o ] ] `     f j.j.j.j.j.$     |.|.|.$X@X$X$X$X$X$X$X@X|.|.$X|.|.|..X",
"$X$X$X$X$X$X$X$X$X$XOX$X$X$X$X$X|.|.XX    $ j.j.j.j.j.f           ,.3.3.3.3.3.3.4.<.W W W W W O         # v d d d v -     x.Z.C.C.Z.x.    F Z.C.Z.Z.Z.Z.Z.Z.Z.Z.v.    g Z.A.L               o ] ] `     f j.j.j.j.j.$     $X$X@X@X@X$X$X$X$X$X@X@X$X$X@X.XXX.X|.",
"$X.X$X+X$X$X$X$X$X$X+X$X$X$X$XOX+X|.|.    $ j.j.j.j.j.f           1.4.4.4.4.4.4.4.,.W W W W W O         # v d d d v -     c.S.A.A.S.c.    F S.A.A.A.A.A.A.A.A.A.M.    g S.S.P               o ] ] `     f j.j.j.j.j.$     |.$X|.@X$X$X$X$X$X$X$X$X$X|.@X$X$X$X$X",
"XX|.$X$X$XOX$X$X$X$X$X$X$X|.$X|.$X|.|.    $ j.j.j.j.j.f     & > > i i i i i a ~ ~ ~ x x x x x 1 > >     # v d d d v -     G P P P P G     3 P P P P P P P P P P G     : P P 4     - < ;     o ] ] `     f j.j.j.j.j.$     @X$X|.$X$X$X$X$X$X$X0X$X$X|.$X$X$X$X$X",
"|.|.|.@X|.|.@X$X$X$X$X$X|.|..XXX$X|.$X    $ j.j.j.j.j.f     9 k h           @ j h h j j j j j j j h     # v d d d v -                                                             i v v O   o ] ] `     f j.j.j.j.j.$     |.$X|.$X$X$X$X$X$X0X$X$X$X$X$X$X$X$X|.",
"$X|.|.|.|.@X$X$X@X$X@X$X$X$X|.|.$X$X@X    $ j.j.j.j.j.f     0 j h           @ k j j j j j j j j j h     # v d d d v -                                                             y v s O   o ] ] `     f j.j.j.j.j.$     $X$X|.$XqX$X$X$X$X$X0X$X$X$X$X$X$X$X$X",
"|.|.|..X$X|.|.$X$X$X$X$X$X$XXXXX$X$XXX    $ j.j.j.j.j.f     c ! ! c c c p p 7 @ % % % # 9 j j j j h     # v d d d v -     7 y y y y 7     4 l.l.6           w.l.E     O i i -     y v s O   o ] ] `     f j.j.j.j.j.$     $X$X$X$X$X$X$X$X9X0X$X$X$X$X$X$X$X$X$X",
"@X@X@X$X$X|.|.|.|.|.@X$X.X|..X$XXX|.XX    $ j.j.j.j.j.f     Q 4.4.4.4.3.W ! p           0 j j j j h     # v d d d v -     p v v v v p     F S.S.H         . m.Z.M.    - v v <     y v s O   o ] ] `     f j.j.j.j.j.$     |.$X$X$X$X$X$X$X$X$X|.$X$X$X$X$X$X$X$X",
"$X$X|.@X$X|..X|.|.|.|.$X$X@X|.XXXXXXXX    $ j.j.j.j.j.f     Q 4.5.3.3.1.W W p           0 j h j j h     # v d d d v -     p v d d v p     F Z.A.H         X m.Z.v.    - v v <     y v s O   o ] ] `     f j.j.j.j.j.$     @X$X$X$X$X$X@X$X$X$X$X$X$X$X$X$X$X$X$X",
"XX|.|.|.|.XX|.|.|.|.|.@X|.|.|.$X$X$XXX    $ j.j.j.j.j.f     9 x x 5.3.1.W W W c c c c c - . X 9 j h     # v d d d v -     p v d d v p     F Z.Z.m.c.v.v.v.b.V.Z.v.    - v v <     y v s O   o ] ] `     f j.j.j.j.j.$     $X@X|.$X$X@X|.$X@X$X$X$X0X$X$X$X$XXX$X",
"|.|.$X$X|.|.|..X|.|.|.|.|.@XXX|.$XXX$X    $ j.j.j.j.j.f     8 j j 1.3.1.W W W W W W W W -     9 j h     # v d d d v -     p v d d v p     F A.C.Z.C.Z.Z.Z.Z.Z.Z.v.    - v v <     y v s O   o ] ] `     f j.j.j.j.j.$     $X|.XX$X$X@X|.|.$X$X$X$X$X$X$X$X$X$X$X",
"XX|.|.|.$X|.|.$X$X@X@X|.$X$X|.|.|.$X$X    $ j.j.j.j.j.f     0 h h 1.3.1.W W W W W W W W -     8 h 9     # v d d d v -     p v d d v p     g N.m.B.C.C.C.Z.C.m.m.z.    - v v <     y v s O   o X.o.'     f j.j.j.j.j.$     $X|.XXXXXX$X$X$X$X$X$X$X$X$X$X$X$X$XXX",
"XXXXXX$X.X|.$X|.$X@X@X$X|.XX@X|.|.$X@X    $ j.j.j.j.j.f           ,.3.3.3.3.! h j x W W -               # v d d d v -     p v d d v p       .   R Z.C.C.Z.V.$         - v v <     y v s O   * E.!.F.    f j.j.j.j.j.$     $X|..X.XXX.X|.XX$X$X$X$X$X$X.X@X@X$X$X",
"$XXX$X$XXX|.$X$X$X|.|.$X$XXX$X|.|.|.|.    $ j.j.j.j.j.f           ,.4.4.4.4.! j j x W W -               # v v v v v -     p v v v v p           R S.Z.Z.Z.V.&         - v v <     y v d O   * !./.J.    f j.j.j.j.j.$     $X@X|.|.$X|.|.|.|..X$X$X|.|.|.@X@X@X$X",
"$X$X.X|.|.$X$X$X$X$X$X$X$X$X|..X$X@X@X    $ j.j.j.j.j.f           c Q Q Q Q c 0 0 i a a %               O i i i i i -     y i i i i y           G n.z.z.z.l.@         O i i -     < i i     o F.J.@.    f j.j.j.j.j.$     @X|.$X.X.X@X|.|.|.$X$X|.@X|.|..X@X|.@X",
"$X$X|.$X$X$X$X$X$X$X$X@X$X$X.X$X@X$X$X    $ j.j.j.j.j.f                                                                                                                                                 f j.j.j.j.j.$     $X|.$X|.|.|.|.|.@X$X@X$X$X$X$X.X$X$X$X",
"$X@X@X$X$X$X$X$X$X0X$X$X|..X@X$X$X$X$X    $ j.j.j.j.k.f                                                                                                                                                 f k.j.j.j.j.$     $X$X$X|..X.X|.@X$X@X$X$X$X$X$X@X$X$X$X",
"@X$X$X$X$X$X$X$X$X$X$X$X|.|.|.$X|.$X@X    $ j.j.q.D D S f f f f f f f f f f f f f f f f f f f f f f f f f f f f f f f f f f f f f f f f f f f f f f f f f f f f f f f f f f f f f f f f f f f f f f f f S D D q.j.j.$     $X@X$X|.|.OX$X$X$X$X|.|.$X$X$X$X$X$XqX",
"$X$X@X@X$X$X$X$X@X$X@X|.@X$X X|.|.|.$X    $ j.j.K     D k.j.j.j.j.j.j.j.j.j.j.k.j.j.j.j.j.j.j.j.j.j.j.j.j.j.j.j.j.j.j.j.j.j.j.k.j.j.j.j.j.j.j.k.j.j.j.j.j.j.j.j.j.j.j.j.j.j.j.j.j.j.j.j.j.j.j.k.j.j.j.k.D     K j.j.$     $X$X$X$X$X|.+X$X@X|.|..X|.$X@X$X$X$X$X",
"$X$X0X$X$X$X$X$X$X$X|.|.|.@X|.|.|.$X$X    : j.k.K     D j.j.j.j.j.j.j.j.j.j.j.j.j.j.j.j.j.j.j.j.j.j.j.j.j.j.j.j.j.j.j.j.j.j.j.j.j.j.j.j.j.j.j.j.j.j.j.j.j.j.j.j.j.j.j.j.j.j.j.j.j.j.j.j.j.j.j.j.j.j.j.j.D     K k.j.:     $X$X$X$X$X$X|.|.$X.X|.|.|..X@X$X$X@X$X",
"XXXX$X$X@X|.$X|.|.$X|.|.|.|.|.XX$X|.@X    X 5 5 S K K q.j.j.j.j.j.j.j.j.j.j.j.j.j.j.j.j.j.j.j.j.j.j.j.j.j.j.j.j.j.j.j.j.j.j.j.j.j.j.j.j.j.j.j.j.j.j.j.j.j.j.j.j.j.j.j.j.j.j.j.j.j.j.j.j.j.j.j.j.j.j.j.j.q.K K S 5 5 X     $X$X$X$X$X$X$X|.@X$X|.@X@X$X$X|.|.|.$X",
"$X$X$X$X@X|.$X|.|.|.$X@X|.|.|.XXXX$X@X          5 k.j.j.j.j.j.j.j.j.j.j.j.j.j.j.j.j.j.j.j.j.j.j.j.j.j.j.j.j.j.j.j.j.j.j.j.j.j.j.j.j.j.j.j.j.j.j.j.j.j.j.j.j.j.j.j.j.j.j.j.j.j.j.j.j.j.j.j.j.j.j.j.j.j.j.j.j.k.5           $X$X$X$X$X$X$X.X$X$X.X|..X$X$X$X|..X$X",
"$XXX|.$X$X.X$X$XXX.X|.@X|.|.|.$X.X|.|.          5 j.j.j.j.j.j.j.j.j.j.j.j.j.j.j.j.j.j.j.j.j.j.j.j.j.j.j.j.j.j.j.j.j.j.j.j.j.j.j.j.j.j.j.j.j.j.j.j.j.j.j.j.j.j.j.j.j.j.j.j.j.j.j.j.j.j.j.j.j.j.j.j.j.j.j.j.j.j.5           $X$X$X0X$X$X$X$X|..X$X$X@X$X$X@X|.|.$X",
"$X$X$X$X$X.X$X$X$X.X$X|.@X$X|.|.$X$X$X          X : $ $ $ $ $ $ $ $ $ $ $ $ $ $ $ $ $ $ $ $ $ $ $ $ $ $ $ $ $ $ $ $ $ $ $ $ $ $ $ $ $ $ $ $ $ $ $ $ $ $ $ $ $ $ $ $ $ $ $ $ $ $ $ $ $ $ $ $ $ $ $ $ $ $ $ $ : X           $X$X$X0X9X$X$X$X@X|.$X$X$X@X$X|.|.@X$X",
"$X$X$X$X@X@X$X$X$X$X$X$X$X$X$X$X|.$X$X                                                                                                                                                                                    $X$X$X$X9X$X$X@X.X$X@X@X$X$X$X.X$X.X$X",
"$X|.$X$X@X$X$X$X$XqX$X].$X$X$X$X@X$X$X                                                                                                                                                                                    0X0X$X$X|.@X$X|.|.$X$X.X.X@X@X@X$X@X$X",
"$X|.@X$X$X$X$X$X$X$X$X$X$X$X$X$X$X$X$X$X$X$X$X0X$X$X$XqXqX$X@X$X$X$X$X$X$X$X$X$X$X+X|. X$X|.|.|.XX|.|.|.$X@X.X|.@X$X$X$X$X$X9X$X$X$X$X$X$X$X$X$X$X$X$XXX$X$X$X+X X$X$X|.|.|..XXX$X$X$X$XXXXX$X$X$X$X X$X$X$X9X0X$X$X$X$X$X$X$X$X$X@X$X$X@X|.$X$X|.|.$X$X0X$X|.$X",
"@X.X$X$X$X$X$X$X9X$X.X|.|.|.$X$X$X$X$X$X$X$X$X$X$X$X$X$X$X$X$X$X0X$X$X$X$X$X$X$X+X|.|. X+X|.|.|.$X$X|.@X@X|.|.@X$X$X$X$X$X$X$X0X$X$X$X$X@X$X$X@X$X$X$X.X|.|.+X$X$X$X$XXX|.|..X|.$X$X$X$X$XXX$X$X$X$X$X$X$X$X$X$X$X$X@X$X|.$X$X$X$X@X9X$X@X|.@X$X@X@X$X$X9X$X$X$X",
"$X$X$X$X$X$X$X$X$X$X$X|.|.|.|.OX$X.X$X$X$X$X$X$X$X$X$X$X$X$X9X9X9X$X$X$XqX$X$X$X|.|.|.|.|.$X|.|.@X|.|.$X|.@X.X|.|.|.$X$X$X$X$X$X$X$X$X$X$X$X$X|.@X$X$X|.|.XX$X$X|.+X$X|. X X$X X|.|.$X$X$X+X$X$X$X$X$X$X$X$X$X$X$X|..X$X$X$X@X$X@X.X$X$X$X.X$X$X|.@X$X@X.X$X$X$X",
"$X$X$X$X$X$X$X$X$X$X.X|.{.|.|.$X$X@X|.9X0X$X0X$X@X$X$X$X0X0X$X$X5X9X9X$X$X$X$X$X$X.X.X|.@X$XXX.X@X|.|.$X$X$X$X|.|. X$X$X$X$X$X$X$X$X$X$X$X$X$X$X$X$X$X$XXX$X$X|.|.|. X X+X X|. X|.$X$X$X|.OX$X|.$X$X$X$X$X$X$X$XXX$X.X$X$X$X$X$X@X.X$X$X$X$X$X$X|.|.$X$X|.|.|..X",
"@X|.$X$X$X$X9X$X$XqX$X|.|.|.$X$X$X$X$X$X0X$X$X@X$X$X$X$X$X$X$X$X$X$X9X9X|.$X9X$X$X$X$X@X$X$X.X@X|..X|.$X|.$X@X|.|.+X|.|.$X$X$X$X$X$X$X$X$X$X$X$X$X$X@X$X$X$X$X$X+X$X$X|.$X|.|. X+X XXX$XOX$X$X@X$X@X$X$X$X$X$X$X$X$X$X|.@X0X$X$X$X$X$X$X@X|.|.$X|.|.@X@X|.|.|.$X",
"|.|.$X$X$X$X$X$X$X0X$X|.$X|.@X$X$X$X0X$X$X$X$X$X$X$X$X0X$X$X9X$X$X$X$XqX0X$X$X$X@X$X$X$X$X$X$X|.|.|.|.$X|.|.$X$X|.|.|.|.|.@X$X$X$X$X$X$X9X$X$XXX$X$X$XOX$X$X$X$X$X+X$X X|.|.$X$X$X$X.X$XOX+X+X$X$X$X$X.XXX$X$X$X$X$X$X$X$X$X$X$X$X$X$X0X@X|.|.OX|.OX$X.X|..X$X$X",
"$X$X$X$X$X$X$X$X$X$X.X|.$X$X$X$X$X9X$X$X$X$X|.$X9XqX$X$X$X$X9X$X$X$X$X$X0X$X$X$X$X$X$X$X$X$X$XXXXX|.@X$X].|..X|.|.|.$X|.|.|.$X0X$X$X$X$X$X$X$X$X$X$X$X$X$X$X$X|.|.+X$X$X|.|.|.$X$X@X@X@X|.$X$X+X|.$X@X$X$X$X$X$X$X$X.X$X$X0X$X$X$X$X$X$X$X|.|.|.|.|.|.$X|.|.|.$X",
"$X.X$X$X$X$X$X@X$X$X|.@X9X9X$X$X9X9X$X$X$X$X$X0X$X0X9X$X$X@X$X$X$X$X$X$X$X$X$X0X$X$X$X$X$X X X$X$X|.|.|.|.@X@X|..X|.$X$X$X@X@X$X$XXX.X$X$X$X.X$X$X$X$X$XOX$X+X|.|.|.$X$X|.$X X|..X@X.X$X$XOX+X$X$XOX$X@X.X$X$X|.0X$X$X$X$X$X$X$X$X$X$X$X$XOX|.|.|.|.|..X|.$XOX@X",
".X.X.X|.|.$X$X$X$X$X$X$X$X$X$X$X9X9X$X9X@X$XqXrX9X$X$X$X9X$X$X$X$X$X$X$X$X$X$X$X$X$X$X$X$X@X|.$X$X|.|.$X$X$X$X$X|.$X$X.X$X$X$X$X$X|.@X@X$X$X$X$X$X$X$X$X$X$X+X X+X+X+X$X$X$X$XXX|.@X$X$X$X$X|.$X$X$X$X$X$XOXOX$X9X$X$X9X$X$X$X$X9X$X.X@X$X$X@X|.|.|. X{.|.$X@X$X",
"|.$X$X|.|.|.$X@X$X$X0X0X9X$X$X$X$X9X9XqX$X$X0XwX0X$X$X$X$X0X0X9X9X$X$X$X$X$X$X0X$X$X$X$X$X|.$X$X$X$X|.$X|.|.|.|.OX$X|.$X$X$X$X$X$X$X|.@X$X$X$X$X$X$X$X$X$XXX$X+X|.|.OX$X$X$X$XXX$X$X$X@XOX$X$X$X$X$XXX|.OX+X$X$X$X$X$XqX$X$X$X$X$X$X@X$X$X$X$XOX|.|.|.`.|.|.$X$X",
"|.$X$X|.XX.X$X$X$X9X9X$X$X$X$X$X$XqX$X$XqX$X$X$X$X0X$X$X$XqX$X$X$X$X$X$XqX$X$X$X$X$X$X$X$XOXOX$X@X@X|.|.|.$X`.|.$X|.|.$X$X$X$X$X$X$X$X.X|.$X$X$X$X$X$X$X$X$X|.$X X$X$X$X$XXX$X$X$X$X$X|.$X$X$X$X$X$X$X|.|.$X$X$X$X$X@XqX9X$X$X.X$X$X@X$X$X$X$X$X|.|.|.|.$X|.|. X",
"$X$X$X$X|.$X$X$X$X$X$X$X$X$X$X$X@X$X0X$X|.$X$X$X$X$X$X$X$X$XqX$X$X$X$X$X$X$X$X|.@X$X$X0X$X$X+X|.$X|.|.|.|.XX|.|.|.|.@X$X$X$X$X$X$X$X9X$X$X$X@X@X$X$X$X$X+X$X$X$X$X$X$X$X$X$X$X$X$X$X$XOX$XOX$X$X$X$X$X$X$X$X X$X$X+X|.$X$X0X$X$X$X@X$X$X$X|.|.$X$X$X$X@X$X|.}.$X",
"|.@X$XXX$X9X0X$X$X$X$X0X@X|.qX0X$X$X$X$X.X|.$X$X9X9X$X9X$X$X$X$X$X0X$X$X|.$X$X$X$X$X$X$X+X+X+X X|.|.oX|.|.|.XX|.|.$X$X$X$X$X$X$X$X$X$X0XqX$X0X0X$X$X$X$X|.|.OX@X$X$X$X|.$X$X$X$X@X|.$XOX$X|.@X$X$X$X$X$XXX|.$X$X$X$X@X$X$X$X$X$X$X$X$X@X$X$X$X$X@X@X$X$X$X$XOX+X",
"XX$X$X$X$X$X$X|.$X$X|..X$X9X9X$X0X$X$X$X$X$X$X$X$X$X0XqX$X$X$X$X$X$X$X$X@X$X$X$X$X$X|.$X|.|.|.|.|.|.|.|.|.|.$X@X$X$X$X$X$X$X@X$X$X$X$X$X$X$X$X$X$X0X$XOXOX|.|.|.$X$X$X|.@X$X$X$X@X$X$X$X$X$X|.$X$X$X$X$X$X$X$X$X$X$X$X$X$X|.$X.X$X$X$X$X$X9X0X$X@X|.|.|.|.$X@X|.",
".X|.$X$X$X$X@X$X$X$X0X$X$X9XqX$X0X$X9XqX$X$X$X$X$X$X$X$X$X$X$X$X@X$X$X$X$X$X$X|.|.|.$X$X|.|.|.|.|.|.}.|.+X|.@X$X$X|.$X$X$X$X$X$X$X$X$X$X$X$X$X$X$X$X$X$X+X@X@X|.@X+X+X$X$X$X0X$X$X$X$X$X$X$X$X$X$X@XOX$XXX$X$X$X$X$X$X$X$X$X$X|.|.$X$X$X$X$X$X$X$X$X$X$X@X$X$X$X",
"|.|.$X$XXXXX|.|.$X$X$X$X.X9XqX9X0XqX9X$X9X$X|.$X$X$X$X$X$X$X$X$X$X$X$X$X$X$X|.$X|.|.|.$X|.|.|.|.|.|.|.|.|.$X$X.X$X$X$X$X$X$X@X$X$X$X@X$X$X0X$X@X|.$X$X$XOXOX@X@X|.OXOX$X$X@X$X$X$X$X$X$X$X9X$X.X$X$X$X$X$XXX$X$X$X$X$X$X$X0X$X$X@X$X|.|.$X$X$X$X$X$X$X$X.X|.|.|.",
"|.|.|.|.|.|.$X$X9XqXqX@X.X$XwX9XqX$X9X$X$X$X$X|.|.|.$X$X$X$X$X$X0X$X@X5X$X@X$X$X$X$X$XOX$X$X|.`.}.|.|.{.|.|.$X$X$X$X$X@X$X$X|.@X$X9XqX9X$X$X$X$X.X$XqXqX+X|.XX|.|.XX|.|.$X|.|.@X$XOX$X$X$X$X$X|.$X$X$X$X$X$X$X$X$X$X$X$X$X$X$X|.OX$X@X$X$X$X$X$X$X$X$X$X|.$X$X].",
"|.|.|.{.|.|.$X$X$X.XqX9X$X$X9XwXqX$X$X$X$X|.@X$X$X$X$X$X|.@X@X$XqX$X|.$X|.|.|.$XXX$X$X$X$XXX|.'._.{.|.`.|.|.$X$X$X@X$X$X$X$X$X.X$X$XqXqX$X@X9X9X$X$X9X5X$X$X|.|.XX$X|.|.$XXX.X@X|.OX$X$X+XOX$X$X$X$X$X$X$X$X$X$X$X$X0X$X$X$X$X$XOX$X$X$X@X$X$X$X$X$X$X$X|.@X$X|.",
" X|.|.|. X|.|.|.$X$X5X9XqX$X$X9X0X$X$X$X$X$X|.@X$X@X9X$X$X$X$X@X$X$X|.|..X$X@X$X$X$X|.|.$X$X|.}.[.}. X{.|.|.$X|.@X$X@X@X$X$X$X.X|.$X$X0X$X$XqX9X0X0X$X$X$X$X$X$XXX$X$X|.|.|..X|..XOX|.$X$X+X$X$X$X$X|.XXXX$XXX@X$X$XqX$X$X9X$X$X|.$X$X|.@X$X$X$X$X$X$X$X$X.X@X@X"
};
