/* XPM */
static char *wall_anim_0[] = {
/* columns rows colors chars-per-pixel */
"128 128 215 2 ",
"   c #000000",
".  c #080702",
"X  c #0D0B02",
"o  c #02010A",
"O  c #0B0A09",
"+  c #070809",
"@  c #120E06",
"#  c #110F0D",
"$  c #1F1B01",
"%  c #15110A",
"&  c #181406",
"*  c #070614",
"=  c #161513",
"-  c #1A1815",
";  c #211D02",
":  c #231B0B",
">  c #291E0F",
",  c #201E1C",
"<  c #2A1F14",
"1  c #282409",
"2  c #262209",
"3  c #332E0B",
"4  c #3B3302",
"5  c #3C360E",
"6  c #2A2318",
"7  c #362814",
"8  c #3C2C16",
"9  c #342714",
"0  c #080523",
"q  c #0A052A",
"w  c #0C0734",
"e  c #0E083B",
"r  c #161033",
"t  c #2C2A27",
"y  c #2E2C29",
"u  c #262422",
"i  c #312E2B",
"p  c #382E20",
"a  c #34302B",
"s  c #39342C",
"d  c #3E3B36",
"f  c #3F3C38",
"g  c #463C03",
"h  c #413A0E",
"j  c #433219",
"k  c #49361B",
"l  c #4C381C",
"z  c #54351B",
"x  c #542626",
"c  c #4A3D2B",
"v  c #493822",
"b  c #413E39",
"n  c #423C33",
"m  c #552736",
"M  c #723B2D",
"N  c #78382F",
"B  c #71372F",
"V  c #6C2E35",
"C  c #6F3133",
"Z  c #6D343F",
"A  c #713232",
"S  c #6E3E0D",
"D  c #4D4203",
"F  c #5A4E03",
"G  c #4C4311",
"H  c #574D13",
"J  c #5B5114",
"K  c #5F530B",
"L  c #665804",
"P  c #625506",
"I  c #685C17",
"U  c #6B5F18",
"Y  c #645916",
"T  c #7A5C19",
"R  c #79571C",
"E  c #7F6E0F",
"W  c #7F700D",
"Q  c #796817",
"!  c #7E701C",
"~  c #4B4133",
"^  c #4C453B",
"/  c #4F483E",
"(  c #514A3F",
")  c #754527",
"_  c #764925",
"`  c #785120",
"'  c #775020",
"]  c #756820",
"[  c #0F0843",
"{  c #110946",
"}  c #120A4D",
"|  c #140B54",
" . c #160C5D",
".. c #1B0E5B",
"X. c #1E1158",
"o. c #231157",
"O. c #261756",
"+. c #321850",
"@. c #301751",
"#. c #35194E",
"$. c #170C60",
"%. c #180E60",
"&. c #1B1165",
"*. c #1E1469",
"=. c #22186D",
"-. c #261B74",
";. c #302966",
":. c #312A68",
">. c #2C227A",
",. c #322873",
"<. c #431F48",
"1. c #532642",
"2. c #4E2442",
"3. c #6F3540",
"4. c #676559",
"5. c #696968",
"6. c #925311",
"7. c #894C14",
"8. c #80710D",
"9. c #867405",
"0. c #82741D",
"q. c #8B7C1F",
"w. c #B6651B",
"e. c #BF6C18",
"r. c #B9671B",
"t. c #AF611D",
"y. c #914B27",
"u. c #8F7F20",
"i. c #807221",
"p. c #AC5F1D",
"a. c #C26E17",
"s. c #C06D18",
"d. c #C57017",
"f. c #C87218",
"g. c #A18B06",
"h. c #AB9306",
"j. c #938321",
"k. c #9D8B23",
"l. c #A79425",
"z. c #AC9926",
"x. c #B19D27",
"c. c #B39F28",
"v. c #A08F24",
"b. c #BAA529",
"n. c #BAA629",
"m. c #C1AC2B",
"M. c #C7B12C",
"N. c #CCB52D",
"B. c #CFB82E",
"V. c #D3BB2F",
"C. c #D6BE30",
"Z. c #DBC231",
"A. c #3A2E8E",
"S. c #372B8A",
"D. c #3E3486",
"F. c #3A2E8F",
"G. c #403689",
"H. c #413788",
"J. c #45399F",
"K. c #44389A",
"L. c #463AA1",
"P. c #493DA4",
"I. c #4C3FA8",
"U. c #4E42AB",
"Y. c #4D41A5",
"T. c #5144AE",
"R. c #5446B2",
"E. c #5649B6",
"W. c #574AB8",
"Q. c #584BBB",
"!. c #BAB9B6",
"~. c #CCBBAF",
"^. c #DED6CC",
"/. c #DED6CB",
"(. c #DBD7D3",
"). c #D4CFC9",
"_. c #E0D7CE",
"`. c #E1D9CE",
"'. c #E5DDD5",
"]. c #E8DFD6",
"[. c #E7DFD8",
"{. c #E8DFD8",
"}. c #E0D7D0",
"|. c #E7E0D6",
" X c #E8E0D7",
".X c #E7E0D8",
"XX c #EBE3DA",
"oX c #EAE2D9",
"OX c #ECE3DA",
"+X c #ECE2D9",
"@X c #EBE4DA",
"#X c #EBE4DB",
"$X c #EAE5DA",
"%X c #ECE5DB",
"&X c #ECE4DB",
"*X c #ECE6DB",
"=X c #EBE5DC",
"-X c #ECE5DD",
";X c #EDE6DC",
":X c #ECE7DD",
">X c #EEE7DD",
",X c #EEE6DD",
"<X c #EDE6DE",
"1X c #EAE3DB",
"2X c #EFE8DE",
"3X c #EEE8DE",
"4X c #F0E9DF",
"5X c #F0E6DF",
"6X c #EFE9E1",
"7X c #EFE8E0",
"8X c #EEE7E1",
"9X c #F1EAE2",
"0X c #F2EBE5",
"qX c #F9F9FA",
"wX c #F7F3ED",
/* pixels */
"+X'.].'.].+X X+X+X|.'.|. X+X+X'.'.+X X'.'.].].'.'.'.'.].+X X X+X+X+X+X+X+X+X|.+X3X7X3X+X+X+X X3X3X3X+X+X+X+X+X+X+X+X3X+X3X3X+X|. X X'.`.'.'.'. X].].].].].'.'.].'.].].].'.]. X X+X|.|.|. X+X X+X X+X+X+X3X+X+X3X+X+X+X+X+X+X+X+X+X+X+X+X+X+X+X|.+X+X+X+X+X X+X3X",
"+X X X'.'. X].].+X+X X X|.|.+X+X'.'.+X'.'.].'.'.'.'. X X X X+X|.|.+X+X+X+X+X+X+X3X9X9X3X+X X|.+X+X4X9X+X3X+X+X+X+X+X3X+X3X4X3X+X'. X+X'._.'.]. X]. X+X+X X'.'.]. X+X X X].'.'.+X+X+X+X|.+X X].+X+X+X+X+X+X+X+X4X+X+X+X+X+X+X+X3X+X+X+X+X+X+X+X+X+X|.+X+X+X+X+X+X",
"+X+X+X X'.'.].].+X|.+X+X+X+X+X+X+X+X+X+X'.].'.'.'.'.].]. X X X X X'.|.'.|.3X+X{.'.'. X+X X+X+X+X+X X+X3X3X+X+X+X+X+X3X+X+X+X3X+X+X+X'.'.'. X].].]. X+X+X X'.].].+X+X]. X'.'.^.'.+X+X+X+X+X|.'.+X'.|.+X+X+X+X+X+X+X+X|.|.|. X X+X+X+X+X3X+X+X+X+X+X+X+X+X+X+X+X+X",
"+X+X+X X+X X'.'.'.|. X+X+X+X+X+X+X7X.X+X'.'. X'.'.'.'. X].'.].+X+X].'.'.|.|. X+X+X|.'.+X+X+X+X+X+X+X+X+X+X+X+X+X X+X3X+X+X+X+X+X+X X'.'.'.'.'.'.].]. X].].'.'.].+X].'.'.+X'.'.'.+X|. X+X|.+X|.+X'. X+X+X X+X+X+X+X'. X X'. X+X+X+X4X+X3X3X+X+X+X+X+X+X+X+X+X+X+X",
"3X7X+X+X+X].'.'.'.|.|.+X+X+X+X+X+X.X.X+X+X|.].'.'.'.'.'.'.].+X X X X+X+X+X+X+X3X+X|.+X+X+X.X+X9X4X+X+X+X+X+X+X+X+X|.'.+X+X+X+X+X+X X+X+X|.].'.].].]. X].'.'.'.].].].]. X+X X'.'.'.|. X'.+X+X+X+X+X+X|.'.'.+X+X+X+X X+X+X X+X+X+X+X+X3X+X+X+X+X+X+X+X+X+X+X+X+X3X",
"+X+X+X+X+X+X X'.'.|.|..X+X+X+X+X+X'.+X7X+X+X'.'.'.'. X]. X+X X X X+X'.+X+X+X X+X+X+X+X+X+X+X+X+X+X+X+X+X3X+X+X+X+X|.|.+X+X+X+X+X+X+X+X+X X'.'.'.'.]. X+X].'.'. X X].'. X X X X].|.+X+X|. X X+X X+X|.'. X'.+X+X+X+X+X+X+X X'.+X|.3X+X+X+X X+X+X+X+X+X+X+X+X+X+X+X",
"+X+X+X+X|.|. X'.'. X+X|.+X+X+X+X+X+X+X+X+X+X+X'.'.'.'.'. X+X+X+X|.+X'.'.+X].+X X+X X+X|.+X+X+X+X+X+X+X+X+X+X3X3X|.|.+X|.+X+X+X+X+X+X+X+X3X X].].+X'.]. X+X X X X'.].'.].].]. X]. X+X+X+X].].+X X+X'.'.].+X+X+X+X+X+X+X+X+X|.+X X3X4X3X+X+X+X+X+X+X3X+X3X+X+X+X+X",
"+X+X+X+X|.'. X'.'.'.'.+X+X+X+X+X+X+X+X+X+X+X+X].'.'.].'.|. X+X X'. X'. X X+X+X+X'.'.+X+X|.|.|.+X+X+X+X+X+X+X+X+X+X|.+X+X+X+X+X+X+X+X+X+X+X+X].'.]. X+X+X]. X+X+X'.'.'.'.'.'.'.'.+X X'.+X+X+X'.+X+X'.'.'.].+X+X+X+X+X+X+X X X+X+X+X+X+X+X+X|.+X+X+X+X3X+X+X3X+X+X",
"7X9X3X+X+X+X].'.'.'.'.'.+X+X+X+X+X+X+X+X'.'.7X.X'.'.'.|.|.|.+X+X'.'. X X'.+X+X+X'.'.+X+X+X+X X+X+X+X+X+X+X+X+X+X3X3X+X+X+X+X X|.+X+X+X+X|.+X+X|.'. X X+X X+X+X X'. X'.'.'.]. X+X X].]. X X X+X+X+X+X+X X+X+X X+X+X+X'. X+X+X+X+X+X+X+X+X|. X+X+X+X+X+X+X+X+X+X+X",
"+X+X+X+X+X+X'.'.].'.'.'.'.|.+X+X+X+X+X+X+X+X+X.X'.'.'.|. X+X+X+X X'.'.'. X X X'.'.'. X+X+X+X+X+X+X+X+X+X+X+X+X+X|.+X+X+X+X+X+X+X+X9X+X+X+X|.+X+X X X X+X X+X].'.'. X X'.'.]. X+X].'.].+X+X'. X+X'.].+X X]. X+X+X+X+X'.+X+X+X+X+X+X+X+X+X|.|.+X X|.+X+X+X+X+X+X3X",
"7X9X+X+X+X+X+X+X'.^.'. X|.'.|. X|.+X+X+X+X+X+X.X|.'.'.+X+X+X+X'. X'.'.'.].+X].'.].'.|.+X+X+X+X+X+X+X+X+X+X.X+X+X].'.+X+X3X+X+X+X+X+X.X+X.X.X|.+X+X+X+X'.'. X].'.'.'.]. X].'.'.'.+X'.]. X+X].'.+X X].'.'.'.'.+X+X'. X+X+X+X X+X3X+X'.'.|.'.'.'. X|.+X+X3X+X+X+X3X",
"+X+X+X'.].'. X+X'.].].'. X'.'.'. X+X+X+X+X+X+X'.'.'.'.'.'.+X+X X].'.].'.+X+X X].'.'.+X+X X|.+X+X+X+X+X|.|.|.+X+X X'.+X+X+X+X+X3X+X+X+X+X+X|.|.|.+X X X_.'. X'.'.].].].'. X].'.'. X'.'.'.'. X+X+X].].'.].].'. X X'.+X'.'.+X X X9X+X'.+X'.'.'. X|.+X3X+X+X+X+X X+X",
"7X+X+X+X X].'.'.'.+X'.'.'.'.'.'.'.'.+X X'.'.'.].].'.'.'.`.'.+X+X+X'.'.].+X X+X+X'.'.'.].+X+X X+X+X+X|.+X'.+X|. X+X+X+X+X+X+X+X+X+X3X+X+X+X|.+X+X X X'._.'. X'.].'.+X+X X X].'.].+X X]. X X+X+X X X'.].].'.].'. X].+X+X X+X+X+X+X+X'.|.+X'.'.]. X+X+X+X+X'.'.'.+X",
"7X+X+X'.'.'.'.'.+X X+X'. X'.'. X'.'.'.].].'.'.'. X+X'.'.'.'.].'.+X]. X'.].].+X+X+X'.'.'.'.'.'.'.|.+X+X+X+X+X+X+X X+X+X+X+X+X+X|.+X+X+X+X+X+X+X+X|.|.'. X+X].'.].'. X+X]. X'.'. X]. X X+X+X+X+X'. X X X X'.'. X+X].'.].+X+X+X+X+X+X|.'.|. X'.'. X X+X+X+X'. X+X+X",
".X'.+X{.+X'.'.'.'. X+X|.'.+X`.'.+X'.'.'.'.].|. X|. X'.'.'.'.'.'.'. X X].'.].].+X'.'. X'.'.'.'. X'.+X+X+X+X+X+X X|. X+X+X+X+X+X+X+X|.'.|.+X+X X|.+X+X X X+X X'.'.'.+X+X'.|.|.].].+X X X+X+X+X X+X X+X+X|. X X'. X]. X X+X X+X+X+X+X+X X|.+X X|.|.'.'.+X+X+X+X|.+X",
"+X X+X+X+X+X'.'.'.].'. X|. X'.`.'. X'.'.'.].].'.'.'. X].'.+X X'.'.'.'.].'. X X].'.'.'.+X X'.'.].'. X+X'.'. X X X X X+X.X|.+X+X+X+X+X+X+X+X+X+X+X+X+X|.'.].].'.'.'.].+X'.|.+X X'.+X+X X X].'.+X|.|.+X+X+X+X+X'.].'.'.].+X].].+X+X+X X+X+X+X+X+X+X'.'. X+X X X|.+X",
".X+X+X+X+X+X X X+X+X+X+X.X|.+X|.'.+X X'.'.`.'.'.`.'.].'.'.'.].'.'.'.+X+X+X+X+X+X X'.'.'.+X+X].'.'.'.+X'.'. X]. X+X+X+X+X+X+X+X+X+X+X+X+X+X+X+X+X+X+X+X X+X X'.].+X|. X'.+X|.'. X+X+X+X X X'.'. X|. X+X+X+X|.|.].].'.'.+X+X+X X+X X X+X+X+X|.+X+X|.'. X+X X+X+X X",
"+X9X7X+X+X+X+X+X+X+X+X|..X.X+X|.+X X'.'.`.^.^.^.`.'.'.'.].'.'. X|.+X+X+X+X+X+X+X+X+X+X'.'.+X+X'.'.'. X'. X'.'.].]. X+X+X+X+X+X+X+X X X+X+X+X+X|.|.+X+X+X|.|.].].+X+X+X+X+X+X+X+X+X+X+X+X]. X'.'.'.]. X]. X+X+X|.+X'.].].].+X].+X+X X+X+X+X+X+X|.+X+X X+X+X'.'.+X",
"+X+X+X.X+X3X+X+X+X+X+X+X.X.X|.'.'. X+X|. X'.'.'.'.'.'.'. X'.'.|.'.|.[.+X+X+X+X+X+X+X+X+X+X'.+X X X'.'.'.'.'.'.'.'.].'.+X+X+X+X X+X+X+X+X+X+X+X+X|.+X|.'.+X X X'.'.+X+X+X+X+X+X+X+X+X+X+X'.'. X+X'.].].'.|.|. X X+X+X+X].'. X X+X+X+X X+X+X+X+X+X+X+X+X+X+X+X'.+X",
"+X+X+X+X+X3X3X+X+X+X+X+X.X+X|.|.'.'.+X                                                                                                                                                                                    +X X X+X+X+X+X+X3X+X+X+X+X+X+X+X+X+X+X",
"+X+X|.|.+X3X+X X+X+X+X+X+X+X|.+X'.|.+X                                                                                                                                                                                    ]. X].'. X+X+X+X+X+X+X+X+X+X+X+X+X|.+X",
"+X+X|.'.+X+X+X|.+X+X+X+X+X+X+X+X+X+X+X          X ; $ $ $ $ $ $ $ $ $ $ $ $ $ $ $ $ $ $ $ $ $ $ $ $ $ $ $ $ $ $ $ $ $ $ $ $ $ $ $ $ $ $ $ $ $ $ $ $ $ $ $ $ $ $ $ $ $ $ $ $ $ $ $ $ $ $ $ $ $ $ $ $ $ $ $ $ ; X           ]. X X+X'.|.+X+X+X+X+X+X+X+X+X+X+X+X+X",
"+X X X+X+X+X+X+X|.|.+X+X+X+X+X+X+X X+X          4 g.g.g.g.g.g.g.g.g.g.g.g.g.g.g.g.g.g.g.g.g.g.g.g.g.g.g.g.g.g.g.g.g.g.g.g.g.g.g.g.g.g.g.g.g.g.g.g.g.g.g.g.g.g.g.g.g.g.g.g.g.g.g.g.g.g.g.g.g.g.g.g.g.g.g.g.g.g.4           |. X X+X'. X+X+X|.|.|.+X+X+X+X+X+X+X+X",
"+X+X+X+X3X+X+X+X+X+X+X+X+X'.+X+X+X+X+X          4 h.g.g.g.g.g.g.g.g.g.g.g.g.g.g.g.g.g.g.g.g.g.g.g.g.g.g.g.g.g.g.g.g.g.g.g.g.g.g.g.g.g.g.g.g.g.g.g.g.g.g.g.g.g.g.g.g.g.g.g.g.g.g.g.g.g.g.g.g.g.g.g.g.g.g.g.g.h.4           +X+X+X X'.'. X+X+X+X+X+X+X+X+X+X+X+X+X",
"+X+X+X3X+X+X+X+X|.+X+X.X+X+X|. X X+X+X    X 4 4 D L P 9.g.g.g.g.g.g.g.g.g.g.g.g.g.g.g.g.g.g.g.g.g.g.g.g.g.g.g.g.g.g.g.g.g.g.g.g.g.g.g.g.g.g.g.g.g.g.g.g.g.g.g.g.g.g.g.g.g.g.g.g.g.g.g.g.g.g.g.g.g.g.g.g.9.P L D 4 4 X     +X+X+X X X'.].+X+X+X+X+X+X+X+X+X+X+X+X",
"3X+X+X+X+X'.+X+X+X+X|.+X|.|.|.|.|. X+X    ; g.h.L     F g.g.g.g.g.g.g.g.g.g.g.g.g.g.g.g.g.g.g.g.g.g.g.g.g.g.g.g.g.g.g.g.g.g.g.g.g.g.g.g.g.g.g.g.g.g.g.g.g.g.g.g.g.g.g.g.g.g.g.g.g.g.g.g.g.g.g.g.g.g.g.g.F     L h.g.;     +X+X+X X X X'.+X X|.+X+X+X+X+X+X3X+X+X",
"+X+X+X+X+X+X+X+X X+X+X+X+X+X+X|.+X+X+X    $ g.g.P     F h.g.g.g.g.g.g.g.g.g.g.g.g.g.g.g.g.g.g.g.h.g.g.g.g.g.g.g.g.g.g.g.g.g.g.g.g.g.g.g.g.g.g.g.h.g.g.g.g.g.g.g.g.g.g.g.g.g.g.g.g.g.g.g.g.g.g.g.g.g.g.h.F     P g.g.$     +X+X+X+X+X+X].+X+X X'.|.+X+X+X+X+X+X+X",
"+X+X+X+X+X+X+X+X+X+X+X+X+X+X|.'.+X+X+X    $ g.g.9.F F D g g g g g g g g g g g g g g g g g g g g g g g g g g g g g g g g g g g g g g g g g g g g g g g g g g g g g g g g g g g g g g g g g g g g g g g g D F F 9.g.g.$     +X+X X+X X+X'.+X X'.'.|.+X+X+X+X+X+X+X",
"9X+X3X7X+X+X+X+X+X|.+X+X+X X+X|. X X|.    $ g.g.g.g.h.g                                                                                                                                                 g h.g.g.g.g.$     +X+X'.|.|.+X'.|. X'.+X+X+X+X+X3X3X+X+X",
"7X7X7X7X7X9X7X+X.X X+X+X+X+X+X+X|.+X|.    $ g.g.g.g.g.g                                                                                                                                                 g g.g.g.g.g.$     +X X'.'.|.|.'.'.'.+X+X+X+X+X+X3X7X+X+X",
"7X7X7X7X7X7X9X+X+X+X+X+X+X+X+X+X X+X+X    $ g.g.g.g.g.g     S 6.6.6.6.6.6.6.6.6.6.6.6.6.6.6.6.6.6.6.6.6.6.6.6.6.6.6.6.6.6.6.6.6.6.6.6.6.6.6.6.6.6.6.6.6.6.6.6.6.6.6.6.6.6.6.6.6.6.6.6.6.6.6.6.6.6.S     g g.g.g.g.g.$     +X'.'.'.|. X'.'. X X+X+X+X+X+X+X+X+X+X",
"+X7X7X9X7X+X+X9X9X3X+X+X+X+X+X+X X X'.    $ g.g.g.g.g.g     6.f.d.d.d.d.d.d.d.d.d.d.d.d.d.d.d.d.d.d.d.d.d.d.d.d.d.d.d.d.d.d.d.d.d.d.d.d.d.d.d.d.d.d.d.d.d.d.d.d.d.d.d.d.d.d.d.d.d.d.d.d.d.d.d.d.f.6.    g g.g.g.g.g.$      X X].].]. X X].|.|. X+X+X+X3X3X+X+X+X",
"+X3X9X9X9X+X+X7X7X+X+X+X+X+X+X X X'.'.    $ g.g.g.g.g.g     6.d.a.a.a.a.a.a.a.a.a.a.a.a.a.a.a.a.a.a.r.r.r.r.r.r.r.r.a.a.a.r.r.r.r.r.r.r.r.s.a.a.s.r.r.r.r.r.r.r.r.r.a.a.a.r.r.r.r.r.r.r.a.a.a.a.d.6.    g g.g.g.g.g.$      X+X+X+X+X+X]. X+X|.+X+X.X+X+X+X7X+X+X",
"+X+X+X+X+X+X+X7X7X+X+X+X+X+X+X.X+X'.'.    $ g.g.g.g.g.g     6.d.a.a.a.a.a.a.a.a.a.a.a.a.a.a.a.a.a.r.N N N N N N N N N N N N N N N N N N A y.d.d.y.A N N N N N N N N N N N N N N N N N N w.a.a.a.d.6.    g g.g.g.g.g.$     +X+X+X+X+X+X'.'.+X|.+X+X|..X+X+X+X7X7X",
"+X+X+X+X+X+X+X7X+X+X+X+X+X+X+X+X+X+X+X    $ g.g.g.g.g.g     6.d.a.a.a.a.a.a.a.a.a.a.a.a.a.a.a.a.a.r.A A A A A A A A A A A A A A A A A A C y.d.d.y.C A A A A A A A A A A A A A A A A A A r.d.a.a.d.6.    g g.g.g.g.g.$     +X+X+X|.|.].].'.+X|..X+X+X'.+X+X+X+X9X",
"+X+X7X.X+X+X+X7X+X+X+X7X+X+X+X+X+X+X+X    $ g.g.g.g.g.g     7.r.w.w.w.w.w.w.w.w.w.w.w.w.w.w.w.w.w.t.B B B B B B B B B B B B B B A A A A C y.r.r.y.B B B B B B B B B B B B B B B B B B B t.r.w.w.r.7.    g g.g.g.g.g.$     |.|.+X X'.'.'.^. X|.+X+X+X+X7X+X+X+X+X",
"+X+X7X+X+X7X7X+X+X7X.X.X+X+X+X7X9X+X+X    $ g.g.g.g.g.g     x A A A A A A A A A A A A A A A A A A B E E E E E E E E E E 8.8.8.E A A A A A A A A R 8.E E E E E E E E E E 8.8.8.8.E E E E B A A A A x     g g.g.g.g.g.$     +X3X+X+X+X'.+X^.^.+X+X+X+X7X+X7X7X+X+X",
"+X+X+X+X+X7X+X+X+X+X+X.X+X7X+X+X+X9X7X    $ g.g.g.g.g.g     x A A A A A A A A A A A A A A A A A A B E E E W W W W W W E 8.8.W E A A A A A A A C R 8.W W W W W W W W W W 8.8.W W W W W E B C A A A x     g g.g.g.g.g.$     +X3X+X'.+X|.|.+X'.+X.X+X+X+X+X7X+X+X+X",
"+X+X+X+X+X+X+X+X+X+X+X+X+X.X+X+X7X7X7X    $ g.g.g.g.g.g     z ) ) ) ) ) ) ) ) ) ) ) ) ) ) ) ) ) ) ' E 8.E T T T T T T T T T T T A A A A A A A A ' T T T T T T T T T T T T T T T T T T T ' ) ) ) ) z     g g.g.g.g.g.$     +X+X+X+X+X+X'.|.'.+X'.+X+X+X+X7X+X+X+X",
"+X+X+X+X+X+X+X+X9X+X+X+X'.'.'. X9X7X+X    $ g.g.g.g.g.g     P 8.W W W W W W W W W W W W W W W W 8.W W W T C A A A A A C A A A A A A A A A A A A A A A A A A A A A A A A A A A A A A A A Q W W W 8.P     g g.g.g.g.g.$     3X+X+X+X+X+X+X+X.X+X+X+X7X7X7X+X+X+X+X",
".X.X+X+X+X+X7X+X+X+X+X+X'.'.'.'.+X+X+X    $ g.g.g.g.h.g     P 8.8.8.8.8.8.8.W E E W 8.8.8.8.8.8.8.8.8.8.Q A A A A A A A A A A A A A A A A A A A A A A A A A A A A A A A A A A A A A A A E 8.W E 8.K     g g.g.g.g.g.$     +X+X+X+X+X+X+X+X+X'..X+X7X+X7X+X+X+X+X",
"+X+X+X+X+X+X+X+X+X+X+X+X+X.X'.+X|.+X+X    $ g.g.g.g.g.g     z ` ` ` ` ` ` ' T W W Q ' ` ` ` ` ` ` ` ` ` ' A A A A A A A A A A A A A A A A A A A A A A 2.<.<.<.<.<.<.<.1.A A A A A A A A ' ` R E 8.K     g g.g.g.g.g.$     +X+X3X+X+X+X+X+X+X.X'.+X+X7X+X7X7X+X+X",
"+X+X+X+X+X+X+X+X+X+X+X'.|.+X+X+X+X X|.    $ g.g.g.g.g.g     x A C C C C C C ) W 8.' C C C C C C C C C C A A A A A A A A A A A A A A A A A A A A A A A @. . . . . . . .@.A A A A A A A A A C B E 8.K     g g.g.g.g.g.$     +X+X+X7X+X3X+X+X+X X.X+X+X+X+X7X+X+X+X",
"+X7X+X+X+X+X+X.X+X+X+X^.'.3X+X+X+X|.'.    $ g.g.g.g.g.g     x A A A A A A A ) 8.8.` C A A A A A A A A A A A A A A A A A A A A A A A A A A A A A A A A @. . . . . . . .+.A A A A A A A A A A B E 8.P     g g.g.g.g.g.$     7X+X+X7X+X9X+X+X+X|.'.+X+X+X7X+X.X+X+X",
"+X+X+X+X+X+X+X.X.X.X+X'.'.+X+X7X+X+X'.    $ g.g.g.g.g.g     x A A A A A A A B ) ) B A A A A C #.+.+.+.+.+.+.+.+.+.+.+.+.+.+.+.+.+.+.+.+.+.+.+.+.+.+.+. . . . . . . . .X.+.+.+.+.@.m A A A A A ) ) z     g g.g.g.g.g.$     9X+X+X7X3X+X+X+X+X+X|.+X+X+X+X+X'..X.X",
"+X+X+X+X.X+X+X+X+X+X.X.X.X+X+X7X7X9X+X    $ g.g.g.g.g.g     x A A A A A A A A A A A A A A A C o. . . . . . . . . . . . . . . . . . . . . . . . . . . . . . . . . . . . . . . . . .1.A A A A A A A x     g g.g.g.g.g.$     +X+X+X9X+X+X+X+X+X+X X+X+X+X+X+X+X.X.X",
"+X+X+X.X+X+X'.|.'.[.'.'..X+X+X+X+X+X+X    $ g.g.g.g.g.g     x A A A A A A A A C C C C C C C C o. . . . . . . . . . . . . . . . . . . . . . . . . . . . . . . . . . . . . . . . . .1.A C C C C A A x     g g.g.g.g.g.$     +X+X+X7X+X+X+X+X+X+X|.+X+X+X+X+X+X+X+X",
"+X+X+X+X+X|.'.'.|.'.'.'.+X+X+X+X+X+X+X    $ g.g.g.g.g.g     x A A A A A A A m o.o.o.o.o.o.o.o. . .&.P.I.I.I.I.I.I.I.I.I.I.I.I.P.%. . . . . . . . . . . . . . . . . . .-.U.I.I.I.U.,.o.o.o.o.@.C A x     g h.g.g.g.g.$     7X7X7X7X+X+X+X+X+X+X+X'.+X+X+X+X+X+X+X",
"+X.X+X'.].+X'.'.'.+X'.+X+X+X+X.X+X+X+X    $ g.g.g.g.g.g     x A A A A A A A m  . . . . . . . . . .&.R.E.E.E.E.E.E.E.E.E.E.E.E.R.&. . . . . . . . . . . . . . . . . . .-.W.E.E.E.W.-. . . . .X.C A x     g g.g.g.g.g.$     7X9X+X+X+X+X+X+X+X.X+X|.|.+X+X+X+X+X+X",
"+X'..X'.'.+X^.'.'.+X+X'.+X+X+X+X+X+X+X    $ g.g.g.g.g.g     m Z Z Z Z Z Z Z 1. . . . . .&.&.&.&.&.=.R.E.R.U.U.U.U.U.U.U.U.U.U.P.&. . .| | | | | | | | | | | | | | | | =.T.U.R.E.E.>.&.&. . . .V C x     g g.g.g.g.g.$     +X+X+X+X+X+X+X+X|..X+X+X'.+X+X+X+X+X+X",
"+X'.|.|.'.'.'.'.'.'.+X.X+X+X+X+X+X+X+X    $ g.g.g.g.g.g     H.E.R.R.R.R.R.E.K. . . . . .K.R.R.R.R.R.E.E.L. .%.%.%.%.%.%.%.%.%.%. . .}                                 0 %. .S.W.E.R.R.R.*. . . . .{     g g.g.g.g.g.$     +X+X+X+X+X+X+X+X+X+X|..X X3X+X+X+X+X+X",
"+X+X'.|.'.'.'.].+X|. X+X+X+X+X+X+X+X+X    $ g.g.g.g.g.g     H.W.E.E.E.E.R.E.K. . . . . .K.E.E.E.E.E.E.W.L. . . . . . . . . . . . .$.}                                 * $. .S.Q.E.E.E.R.*. . . . .{     g g.g.g.g.g.$     +X7X+X+X+X+X+X.X+X+X+X|.'.+X+X+X+X X+X",
"+X+X X+X X X X+X+X+X+X+X+X+X+X+X+X+X+X    $ g.g.g.g.g.g     ,.L.J.J.J.P.E.E.L.-.-.-.-.-.L.E.E.P.J.J.J.L.A. . . . . . . . . . . .{ { r 3 3 3 3 3 3 3 3 3 3 3 3 3 3 3 3 6 { [ >.L.J.T.E.R.>.-.-.-.-.X.    g g.g.g.g.g.$     +X7X7X+X+X3X7X+X+X+X+X'.'.+X+X+X3X+X+X",
"+X X X+X+X+X'.'.+X+X+X+X+X+X+X+X+X X|.    $ g.g.g.g.g.g     {  . . . .*.R.E.E.E.E.E.E.E.E.E.R.*. . . . . . . . . . . . . . . .|     1 V.V.V.V.V.V.V.C.V.V.V.V.V.V.V.C.j.    q  . .K.E.E.E.E.E.E.W.H.    g g.g.g.g.g.$     +X7X+X+X+X+X+X3X+X+X+X'.'.+X+X+X+X3X+X",
"+X+X+X+X+X+X+X+X+X+X|.+X+X+X+X+X+X+X+X    $ g.g.g.g.g.g     {  . . . .*.E.W.W.W.W.W.Q.Q.Q.Q.W.=. .$.$.$.$.$.$.$.$.$.$.$.$.$.$. .    1 V.B.B.B.B.B.B.B.B.B.B.B.B.B.B.V.u.    w $. .K.Q.Q.W.W.E.R.W.H.    g g.g.g.g.g.$     9X9X7X+X+X'.+X+X+X+X|.'.'.'.+X+X+X3X+X",
"+X+X+X'.+X+X+X+X+X+X+X.X+X.X+X+X+X+X+X    $ g.g.g.g.g.g     {  . . . .&.A.A.A.A.F.,.;.;.;.;.;.e w w w w w w w w w w w w w w w w     1 V.B.B.B.B.B.B.B.B.B.B.B.B.B.B.C.u.    * w w O.;.;.A.F.F.R.W.H.    g g.g.g.g.g.$     +X+X7X+X|.+X+X+X|.+X|.'.'. X+X+X+X3X+X",
"+X+X+X+X+X+X X+X+X|.|.|.+X+X+X+X+X+X+X    $ g.g.g.g.g.g     {  . . . . . . . . . .q                                                 1 V.B.B.B.B.B.B.B.B.B.B.B.B.B.B.V.u.                }  .&.R.W.H.    g g.g.g.g.g.$     +X'.+X+X+X3X+X+X+X+X|.|.|.|.+X X X+X3X",
" X+X+X.X+X+X X X+X+X|.|.+X|.|.+X+X X+X    $ g.g.g.g.g.g     {  . . . . .$.$.$.$.$.w                                                 : V.B.B.B.B.B.B.B.B.B.B.B.B.B.B.V.q.                | $.*.E.Q.G.    g g.g.g.g.g.$     +X+X+X+X+X+X7X7X+X+X+X+X X'.+X+X|.'.+X",
"'. X+X+X X+X'.|.+X|.+X'.'.+X+X|.|..X+X    $ g.g.g.g.g.g     {  . . . .| 0 0 0 0 0 *     q e e e e e e e e e e 0               X ! 0.j.B.B.B.B.B.B.B.B.B.B.B.B.B.B.B.V.b.0.0.h     J 0.0., 0 q >.S.O.    g g.g.g.g.g.$     +X+X+X+X+X+X7X3X+X+X+X3X+X|.'.+X X'. X",
"+X+X'.'.+X'.'.|.+X+X+X+X|.|.+X|.|.[.+X    $ g.g.g.g.g.g     {  . . . .}                 { $.$.$.$.$.$.$.$.$.$.w               X M.V.V.B.B.B.B.B.B.B.B.B.B.B.B.B.B.B.B.V.V.Z.I     j.Z.V.$     |  .[     g g.g.g.g.g.$     +X X+X+X+X+X+X+X+X+X+X+X+X+X+X+X X X X",
"+X+X+X'. X X|.|.'.+X X+X|.|.+X+X+X+X+X    $ g.g.g.g.g.g     {  . . . .|                 [  . . . . . . . . .$.w               X m.B.B.B.B.B.V.V.B.B.B.B.B.B.V.B.V.B.B.B.B.C.I     u.C.N.$   o  . .{     g g.g.g.g.g.$     '. X+X|.|.+X+X+X+X+X+X+X+X+X+X+X'.+X+X",
" X+X+X'.'. X'.'. X'.+X|.|.|.+X+X|.'. X    $ g.g.g.g.g.g     o * * * * o           0 } } |  . .K.P.P.P.P.F. .$.w     I z.l.;   X m.B.B.B.V.j.: : 0.V.B.B.B.N.5 2 h N.B.B.B.C.I     u.V.N.$   o  . .{     g g.g.g.g.g.$     '.+X+X+X X+X|.+X3X+X+X+X+X+X+X3X3X+X+X",
"'. X+X'.'.+X+X'. X X X|. X X|.|.'. X+X    $ g.g.g.g.g.g                           q $. . . . .U.E.E.E.E.L. .$.w     0.C.V.1   X m.B.B.B.V.0.    Q V.B.B.B.M.&   $ N.B.B.B.C.I     u.V.N.$   o  . .{     g g.g.g.g.g.$     '.'.+X+X+X+X+X+X+X+X+X+X3X+X+X X+X+X+X",
"'.+X+X]. X'.+X X'.|. X X+X X|.|. X X|.    $ g.g.g.g.g.g                           q  .| | |  .P.E.E.E.E.L.%.&.e     0.V.V.1   X m.B.N.m.M.! # # ] M.m.m.m.b.6 # 6 n.m.M.B.C.I     u.V.N.$   o  . .{     g g.g.g.g.g.$     '.].+X+X+X+X+X+X+X+X+X+X+X+X+X+X'. X+X",
"[.+X+X+X|.'.].].'.'. X+X+X X'.'.].`.+X    $ g.g.g.g.g.g     9 j j                           o J.E.E.E.E.R.T.R.;.    0.V.V.1   X m.V.z.X . 4.qXqX5.  X X X % (.qX).@ X G V.C.I     u.V.N.$   o  . .{     g g.g.g.g.g.$     ].].+X+X].+X+X+X+X+X+X+X'.+X+X+X'.+X+X",
"'.'.'.'.'.].'.'.+X X+X+X'.+X+X X'. X|.    $ g.g.g.g.g.g     7 k j                             J.E.E.E.E.E.E.Q.;.    0.V.V.1   X m.V.l.    4.qXqX5.        + 8XqX(.    5 V.C.I     u.V.N.$   o  . .{     g g.g.g.g.g.$     '.].+X+X+X+X+X+X+X+X+X]. X+X].'.|.+X+X",
"'.|.+X'.'.'.'.'.+X|. X+X+X+X+X+X+X+X|.    $ g.g.g.g.g.g     6 8 8 % O O O O O                 D.P.P.P.P.I.E.Q.;.    0.V.V.1   X m.V.z.1 ; 4.(.(.5.; 1 1 1 3 !.).!.1 2 J V.C.I     u.V.N.$   o  . .{     g g.g.g.g.g.$     '.'.'.'.'.'.'.|.+X+X+X].+X+X X'.'.+X+X",
"'.{.+X'.'.'.+X].'.+X+X+X+X[.+X+X{.+X+X    $ g.g.g.g.g.g           n / / / / a                 }  . . . .-.E.Q.;.    0.V.V.1   X m.B.B.V.V.0.    Q C.V.V.V.N.&   $ N.B.B.B.C.I     u.V.N.$   o  . .{     g g.g.g.g.g.$     '.].'.'.'.'.'.'.'.+X+X+X+X+X X'.'.+X+X",
"'.'.'.`.'.].'.'.|.+X+X+X+X'.'.{.+X+X+X    $ g.g.g.g.g.g           n / / / / i                 | $. . . .-.Q.Q.:.    0.V.V.1   X m.B.B.B.V.!     Q V.B.B.B.M.@   & N.B.B.B.C.I     u.V.N.$   o  . .{     g g.g.g.g.g.$     '.'.'.'.'.'.'.'.'.+X].'. X X].'.'. X+X",
"'.'.].|.'.'.].+X+X'.|.'.].'.'.'.'. X'.    $ g.g.g.g.g.g           c c ~ / / d - - O           w e e  . .=.F.K.O.    0.V.V.1   X m.B.B.B.V.k.G G j.V.B.B.B.N.J G J N.B.B.B.C.I     u.V.N.$   o  . .{     g g.g.g.g.g.$     '.'.'.'.'.'.'.'.'.+X'.`. X X X]. X+X+X",
"'.'.+X+X'.'.].'. X].].+X].'.'.'.'.'.].    $ g.g.g.g.g.g           j k k / / / / ( 6                  . . . . .w     0.V.V.1   X m.B.B.B.B.V.V.V.V.B.B.B.B.B.V.V.V.B.B.B.B.C.I     u.V.N.$   o  . .{     g g.g.g.g.g.$     '.'.'.].'.'.'.'.'. X].+X].'.].+X].+X+X",
"'..X+X+X+X X'.'.].].'.+X+X'.'. X].'.'.    $ g.g.g.g.g.g           j k v / / / / / 6               o  .$. . .$.w     0.V.V.:   . M.C.V.B.B.B.B.B.V.C.C.C.C.V.V.B.B.B.B.V.C.Z.I     u.V.N.$   o |  .[     g g.g.g.g.g.$     +X'.'.'.'.+X+X].].'.].'.'.'.'.].].'.+X",
"'.'.+X+X3X+X'.+X+X|.|.+X X+X+X].'.{.].    $ g.g.g.g.g.g           & & : , , 6 c c 8 > > > > >       0 q w  .$.w     0.V.B.0.Q Q J J Q B.B.B.B.V.q.H J J J J m.N.B.B.V.z.H J I Q Q c.V.N.$   o S.F.;.    g g.g.g.g.g.$     +X+X[.'.'.'.'.'.'.|. X].'.'.'.'. X+X+X",
"'..X+X+X|.+X+X+X+X+X|.+X]. X X X'.'.{.    $ g.g.g.g.g.g                     @ k k k k k k k k X         *  .$.w     0.V.B.V.V.M..   : V.B.B.B.C.H           b.V.B.B.V.q.    I Z.V.V.B.N.$   * R.Q.G.    g g.g.g.g.g.$     +X+X.X.X.X+X'.'.'.|.+X X X X'.'. X+X+X",
"'..X+X+X+X+X+X+X+X+X|.+X X X X+X'.'.'.    $ g.g.g.g.g.g                     % k k k k k k k j .         * $.$.w     0.V.B.B.B.m.X   1 V.B.B.B.C.J         . b.V.B.B.V.u.    I C.B.V.V.B.$   * T.W.H.    g g.g.g.g.g.$     +X+X+X+X.X'.'.'.'.|.|.'.+X+X'. X'. X+X",
"'.+X+X+X X+X X+X+X+X+X+X X|.+X+X+X.X'.    $ g.g.g.g.g.g     > 7 7 7 7 7 s s t @ @ 6 k k k k k 8 7 7 7 7 < * * o     0.V.B.B.B.m.X   1 V.B.B.B.C.J         . b.V.B.B.V.u.    I C.V.Y 3 3     * T.W.H.    g g.g.g.g.g.$     +X+X+X+X+X.X'.'.'.'.'.'.|.+X X+X X|.+X",
"].'.|.+X|.+X|.|.+X+X+X'.'.'.+X+X+X+X.X    $ g.g.g.g.g.g     7 k k k k v / / a     : k k k k k k k k k k 7           0.V.B.B.B.m.X   1 V.B.B.B.C.J         . b.V.B.B.V.u.    I C.V.5         * T.W.H.    g g.g.g.g.g.$     +X7X+X+X+X+X.X+X+X^.^. X|.'.+X+X+X+X|.",
"+X+X+X+X+X|.'.+X+X+X|.^.^.|.'.+X+X+X+X    $ g.g.g.g.g.g     7 k k k k v / / a     : k j j k k k k k k k 7           ! N.M.N.B.m.X   2 N.M.N.B.C.J         . b.V.N.M.N.q.    I V.V.h         * T.W.H.    g g.g.g.g.g.$     +X7X7X+X+X+X+X+X|. X'.'.'.'.+X+X+X+X'.",
"+X+X+X+X+X+X+X+X'. X'.'.'. X'.'.+X+X+X    $ g.g.g.g.g.g     7 k k k k k / / a       .   9 k k k k k k k 7           X & & z.V.m.X     & @ J V.C.J         . b.V.b.& @ G n.b.m.V.V.h     G.Y.Y.E.W.H.    g g.g.g.g.g.$     +X+X+X+X+X+X+X+X[.'.'.'.'.'.'.+X+X'.'.",
"'. X X|.+X3X+X|.+X+X X+X+X+X'.'.'.+X+X    $ g.g.g.g.g.g     7 k k k k v / / a           9 k k k k k k k 7                 l.V.m.X         G V.C.J         . b.V.x.    h V.V.B.B.V.h     J.W.E.E.W.H.    g g.g.g.g.g.$     +X+X+X+X+X+X+X+X+X'.'.'.'.+X^.^.'.'.'.",
" X+X|.|.+X+X+X+X+X+X X'.+X X'.'.`.'.+X    $ g.g.g.g.g.g     6 8 8 j k v / / s . O O O X 6 8 8 8 8 8 8 8 9 O O O O O       l.V.m.1 $ &     G V.C.J         . b.V.x.    h V.B.B.B.V.h     D.J.J.I.U.,.    g g.g.g.g.g.$     .X'.+X+X+X+X+X7X7X+X'.'.'.'.'.'.'.).^.",
" X+X+X+X+X+X+X+X+X+X X].].+X'.'.'.'.+X    $ g.g.g.g.g.g           j k v / / / / / / / / =               # f d d d b =     l.V.B.N.N.l.    G V.C.J         . b.V.x.    h V.B.V.B.V.h         o  .$.{     g g.g.g.g.g.$     '. X X+X+X+X+X+X7X7X+X+X.X.X.X+X'.'.'.",
"|. X X+X+X+X+X+X+X+X+X+X].].].'.+X+X+X    $ g.g.g.g.g.g           j k v / / / / / / / / =               # b f f f b =     l.V.B.B.V.z.    G V.C.H           b.V.x.    h V.B.V.V.Z.h         o  . .{     g g.g.g.g.g.$     '.'.|.+X+X.X+X+X+X+X+X+X+X.X+X.X'.'.+X",
"'.+X+X+X+X+X+X+X|.+X+X X X X'. X'.+X+X    $ g.g.g.g.g.g           6 9 7 ~ ~ ~ ~ c ~ / / 6 = =           # b f f f b =     l.V.B.B.V.z.    G V.V.! 5 h h h h m.V.x.    h V.V.z.q.j.1         o  . .{     g g.g.g.g.g.$     '.'.'..X.X+X+X+X+X+X+X.X'.'.+X'.'.'.[.",
"+X+X+X+X+X+X+X+X+X+X|.+X+X+X+X+X'.'.{.    $ g.g.g.g.g.g               . k k k k j c / / / / / O         # b f f f b =     l.V.B.B.V.l.    G V.B.V.V.V.V.V.V.V.V.x.    h V.C.Y               o  . .{     g g.g.g.g.g.$     +X+X.X.X.X+X+X+X+X+X.X.X+X+X.X[.[.[.'.",
"+X[.+X X+X+X+X+X+X+X|.+X+X+X+X|. X'.'.    $ g.g.g.g.g.g               X k k k k j c / / / / / X         # b f f f b =     z.Z.C.C.Z.z.    G Z.C.C.C.C.C.C.C.C.C.b.    h Z.Z.I               o  . .{     g g.g.g.g.g.$     '.+X'..X+X+X+X+X+X+X+X+X+X'..X.X+X+X+X",
"[.'.+X+X.X|.+X+X+X+X+X+X+X'..X'.+X'.'.    $ g.g.g.g.g.g     & : :       : : 6 k j v c c c c c < : :     # b f f f b =     H I I I I H     2 I I I I I I I I I I J     ; I I 3     = , -     o  . .{     g g.g.g.g.g.$     .X+X'.+X+X+X+X+X+X+X7X+X+X'..X+X+X+X+X",
"'.'.'..X'.'..X.X+X.X+X+X'.'.[.{.+X'.+X    $ g.g.g.g.g.g     8 l k .         # k j j j k k k k k k j     # b f f f b =                                                             y b b O   o  . .{     g g.g.g.g.g.$     '.+X'.+X+X+X+X+X+X7X+X+X+X+X+X+X+X.X'.",
"+X'.'.'.'..X+X.X.X+X.X+X.X.X'.'.+X+X.X    $ g.g.g.g.g.g     7 k j           @ l k k k k k k k k k j     # b f f f b =                                                             t b d O   o  . .{     g g.g.g.g.g.$     +X+X'.+X7X+X+X+X+X+X7X+X+X+X+X+X+X+X.X",
"'.'.'.[.+X'.'.+X+X+X+X.X+X+X{.{.+X+X{.    $ g.g.g.g.g.g     7 k j a a a a a 6 @ % % % # 8 k k k k j     # b f f f b =     6 t t t t 6     3 j.j.5           0.j.!     O y y =     t b d O   o  . .{     g g.g.g.g.g.$     +X+X+X+X+X+X+X+X7X7X+X+X+X+X+X+X+X.X+X",
".X.X.X+X+X'.'.'.'.'..X+X[.'.'.+X{.'.{.    $ g.g.g.g.g.g     7 k k / / / / / a           9 k k k k j     # b f f f b =     a b b b b a     G Z.Z.J         . n.V.b.    = b b ,     t b d O   o  . .{     g g.g.g.g.g.$     '.+X+X+X+X+X.X+X+X+X'.+X+X+X+X+X+X+X.X",
"+X+X'..X.X'.[.'.'.'.'.+X+X.X'.{.{.{.{.    $ g.g.g.g.g.g     7 k k ~ / / / / a           9 k j k k j     # b f f f b =     a b f f b a     G V.C.J         X b.V.x.    = b b ,     t b d O   o  . .{     g g.g.g.g.g.$     .X+X+X+X+X.X.X+X+X+X+X+X+X+X+X+X+X.X+X",
"{.'.'.'.'.{.'.'.'.'.'..X'.'.'.+X+X+X{.    $ g.g.g.g.g.g     7 k k k k v / / ~ n n n n n = . X 8 k j     # b f f f b =     a b f f b a     G V.V.n.z.x.x.x.c.N.V.x.    = b b ,     t b d O   o  . .{     g g.g.g.g.g.$     +X.X'.+X+X.X'..X.X+X+X+X7X+X+X+X+X[.+X",
"'.'.+X+X'.'.'.'.'.'.'.'.'..X{.'.+X{.+X    $ g.g.g.g.g.g     7 k j j k k / / / / / / / / =     8 k j     # b f f f b =     a b f f b a     G C.B.V.B.V.V.V.V.V.V.x.    = b b ,     t b d O   o  . .{     g g.g.g.g.g.$     +X'.{.+X+X.X'.'..X+X+X+X+X+X+X+X+X+X+X",
"{.'.[.[.+X'.'.+X+X.X.X'.+X.X'.'.'.+X.X    $ g.g.g.g.g.g     9 j j j j k ~ / ~ ~ / / / / =     7 j 8     # b f f f b =     a b f f b a     h m.b.M.B.B.B.V.B.b.b.k.    = b b ,     t b d X   o &.*.}     g g.g.g.g.g.$     +X'.[.{.[.+X+X+X+X+X+X+X+X+X.X+X+X+X[.",
"{.{.{.+X[.'.+X'.+X.X.X+X'.{..X'.'.+X.X    $ g.g.g.g.g.g           j j k k k j j k c / / =               # b f f f b =     a b f f b a       .   Q V.B.B.V.N.$         = b b ,     t b d X   * U.R.D.    g g.g.g.g.g.$     +X'.[.'.[.[.'.[..X+X+X+X+X+X[..X.X+X+X",
"+X{.+X+X{.'..X+X.X'.'.+X+X[.+X'.'.'.'.    $ g.g.g.g.g.g           j k k k k k k k c / / =               # b b b b b =     a b b b b a           Q Z.V.V.V.N.&         = b b ,     t b f O   * R.Q.H.    g g.g.g.g.g.$     +X.X'.'.+X'.'.'.'.'.+X+X'.'.'..X.X.X+X",
"+X+X'.'.'.+X+X+X+X.X.X+X+X+X'.[.+X.X.X    $ g.g.g.g.g.g           9 7 7 7 7 7 7 9 p s s %               O i y y y i =     u i y y i u           J v.k.k.k.j.@         O i i =     , i y     o D.H.;.    g g.g.g.g.g.$     .X'.+X[.[..X'.'.'.+X+X'..X'.'..X.X'..X",
"+X+X'.+X+X+X+X+X+X+X+X.X.X+X[..X.X+X+X    $ g.g.g.g.g.g                                                                                                                                                 g g.g.g.g.g.$     +X'.+X'.'.'.'.'..X+X.X+X+X+X.X[.+X+X+X",
"+X.X.X+X+X+X+X+X+X7X+X+X'.'..X+X.X+X+X    $ g.g.g.g.h.g                                                                                                                                                 g h.g.g.g.g.$     +X+X+X'.[.[.'..X+X.X+X.X+X+X.X.X+X+X+X",
".X+X+X.X+X.X+X+X+X+X+X+X'.'.'.+X'.+X.X    $ g.g.9.F F D g g g g g g g g g g g g g g g g g g g g g g g g g g g g g g g g g g g g g g g g g g g g g g g g g g g g g g g g g g g g g g g g g g g g g g g g D F F 9.g.g.$     .X.X+X'.'.|.+X.X+X+X'.'.+X.X+X+X+X+X7X",
"+X+X.X.X+X+X+X+X.X+X.X'..X.X'.'.'.'.+X    $ g.g.P     F h.g.g.g.g.g.g.g.g.g.g.h.g.g.g.g.g.g.g.g.g.g.g.g.g.g.g.g.g.g.g.g.g.g.g.h.g.g.g.g.g.g.g.h.g.g.g.g.g.g.g.g.g.g.g.g.g.g.g.g.g.g.g.g.g.g.g.h.g.g.g.h.F     P g.g.$     +X+X+X+X+X'.|.+X.X'.'.[.'..X.X+X+X+X+X",
"+X+X+X+X+X+X+X+X+X+X'.'.'..X'.'.'.+X+X    ; g.h.L     F g.g.g.g.g.g.g.g.g.g.g.g.g.g.g.g.g.g.g.g.g.g.g.g.g.g.g.g.g.g.g.g.g.g.g.g.g.g.g.g.g.g.g.g.g.g.g.g.g.g.g.g.g.g.g.g.g.g.g.g.g.g.g.g.g.g.g.g.g.g.g.g.F     L h.g.$     +X+X+X.X+X+X'.'.+X[.'.'.'.[..X+X+X.X+X",
"[.[.+X+X.X'.+X'.'.+X'.'.'.'.'.[.+X'..X    X 4 4 D L P 9.g.g.g.g.g.g.g.g.g.g.g.g.g.g.g.g.g.g.g.g.g.g.g.g.g.g.g.g.g.g.g.g.g.g.g.g.g.g.g.g.g.g.g.g.g.g.g.g.g.g.g.g.g.g.g.g.g.g.g.g.g.g.g.g.g.g.g.g.g.g.g.g.9.P L D 4 4 X     +X+X+X.X+X+X.X'..X+X'..X.X+X.X'.'.'.+X",
"+X+X+X.X.X'.+X'.'.'.+X.X'.'.'.[.{.+X.X          4 h.g.g.g.g.g.g.g.g.g.g.g.g.g.g.g.g.g.g.g.g.g.g.g.g.g.g.g.g.g.g.g.g.g.g.g.g.g.g.g.g.g.g.g.g.g.g.g.g.g.g.g.g.g.g.g.g.g.g.g.g.g.g.g.g.g.g.g.g.g.g.g.g.g.g.g.g.h.4           +X+X+X+X+X+X+X[..X+X[.'.'.+X+X+X'.[.+X",
"+X{.'.+X+X.X.X+X{.'.'..X'.'.'.+X[.'.'.          4 g.g.g.g.g.g.g.g.g.g.g.g.g.g.g.g.g.g.g.g.g.g.g.g.g.g.g.g.g.g.g.g.g.g.g.g.g.g.g.g.g.g.g.g.g.g.g.g.g.g.g.g.g.g.g.g.g.g.g.g.g.g.g.g.g.g.g.g.g.g.g.g.g.g.g.g.g.g.4           +X+X+X7X+X+X+X+X'..X+X+X.X+X+X.X'.'.+X",
"+X+X+X+X+X[.+X+X+X'.+X'..X+X'.'.+X+X+X          X ; $ $ $ $ $ $ $ $ $ $ $ $ $ $ $ $ $ $ $ $ $ $ $ $ $ $ $ $ $ $ $ $ $ $ $ $ $ $ $ $ $ $ $ $ $ $ $ $ $ $ $ $ $ $ $ $ $ $ $ $ $ $ $ $ $ $ $ $ $ $ $ $ $ $ $ $ $ X           +X+X+X+X7X+X+X+X.X'..X+X.X.X+X'.'..X+X",
"+X+X+X+X.X.X+X+X+X+X+X.X+X+X+X+X'..X.X                                                                                                                                                                                    +X+X+X+X7X+X.X.X.X.X.X.X.X+X+X[..X[..X",
".X'.+X+X.X+X+X+X+X7X+X(.+X+X+X+X.X+X+X                                                                                                                                                                                    7X+X+X+X'..X.X'.'.+X+X[.[..X.X.X.X.X+X",
"+X'..X+X+X+X+X+X.X+X+X.X+X+X+X+X+X+X+X+X+X+X+X7X+X+X+X9X9X+X.X+X+X+X+X+X+X+X+X+X+X X'.].+X'.'.'.{.'.'.'.+X.X[.'..X+X+X+X+X+X7X+X+X+X+X+X+X+X+X+X+X+X+X{.+X+X+X X].+X+X'.'.'.[.{.+X+X+X+X[.[.+X.X+X+X].+X+X+X7X7X+X+X+X+X.X+X+X+X+X.X+X+X.X'..X+X'.'..X+X7X.X'.+X",
".X[.+X+X+X+X+X+X7X+X[.'.'.'.+X+X+X+X+X+X+X+X+X+X+X+X+X+X+X+X.X+X+X+X+X+X+X+X+X+X X'.'.]. X'.'.'.+X+X'..X.X'.'..X+X+X+X+X+X+X+X7X+X+X+X+X.X+X+X.X+X+X+X[.'.'. X+X+X+X+X{.'.'.[.'.+X+X+X+X+X{.+X+X+X+X+X+X+X+X+X+X+X+X.X+X'.+X+X+X+X.X7X+X.X'..X+X.X.X+X+X7X+X+X+X",
"+X+X+X.X+X+X+X+X+X+X+X'.'.'.'.|.+X[.+X+X+X+X+X+X+X+X+X+X+X+X7X7X7X+X+X+X9X+X+X+X'.'.'.'.'.+X'.'..X'.'.+X'..X[.'.'.'.+X+X+X+X+X+X+X+X+X+X+X+X+X'..X+X+X'.'.{.+X+X'. X+X'.].].+X].'.'.+X+X+X|.+X+X+X+X+X+X+X+X+X+X+X'..X+X+X+X.X+X.X[.+X+X.X'.+X+X'..X+X.X'.+X+X+X",
"+X+X+X+X+X+X+X+X+X+X.X'._.'.'.+X+X.X'.7X7X+X7X+X.X+X+X+X7X7X+X+X3X7X7X+X.X+X+X+X+X.X[.'..X+X{.[..X'.'.+X+X+X+X'.'.].+X+X+X+X+X+X+X+X+X+X.X+X+X+X.X+X+X.X[.+X X'.'.'.].]. X].'.].'.+X+X+X'.|.+X'.+X.X+X+X+X+X+X+X[.+X[.+X.X+X+X+X.X[.+X+X+X+X+X.X'.'.+X+X'.'.'.[.",
".X'.+X+X+X+X7X+X+X9X+X'.'.'.+X+X.X+X+X+X7X+X+X.X+X+X+X+X+X+X+X+X+X+X7X7X'.+X7X+X+X+X.X.X.X+X[..X'.'.'.+X'.+X.X'.'. X[.[..X+X+X+X+X+X+X+X+X+X+X+X+X+X.X+X+X+X+X+X X+X+X'.+X'.'.]. X].{.+X|.+X+X.X+X.X+X.X+X+X+X+X+X+X+X'..X7X+X+X.X+X+X+X.X'.'.+X'.'..X.X'.'.'.+X",
"'.'..X+X+X+X+X+X+X+X+X'.+X'..X+X.X+X+X+X+X+X+X+X+X+X.X7X+X+X7X+X+X+X+X7X7X+X+X[..X+X+X+X+X+X+X'.'.'.'.+X'.'..X+X'.'.'.'.'..X+X+X+X+X+X+X7X+X+X[.+X+X+X|.+X+X+X+X+X X+X'.'.'.+X+X+X+X'.+X|.|. X+X+X+X+X'.[.+X+X+X+X+X+X+X+X+X+X+X+X+X+X7X.X'.'.|.'.|.+X[.'.[.+X+X",
"+X+X+X+X+X+X+X+X+X+X[.'.+X+X+X+X+X7X+X+X+X+X'.+X7X9X+X+X+X+X7X+X+X+X+X7X7X+X+X+X+X+X+X+X+X+X+X{.{.'..X+X(.'.[.'.'.'.+X'.'.'.+X+X+X+X+X+X+X+X+X+X.X+X+X+X+X+X+X'.'. X+X+X'.'.'.+X+X.X.X|.'.+X+X X'.+X.X.X+X+X+X+X+X+X.X+X+X7X+X+X+X+X+X+X.X'.'.'.'.'.'.+X'.'.'.+X",
"+X'.+X+X+X.X+X.X+X+X'..X7X7X+X+X7X7X+X+X+X+X+X7X+X7X7X+X+X.X.X+X+X+X+X+X+X+X+X7X+X+X+X+X+X].].+X.X'.'.'.'..X.X'.[.'.+X+X+X.X.X+X+X[.[..X+X+X[.+X.X+X+X.X|.+X X'.^.'.+X+X'.+X].'.[..X[..X+X|.|.+X+X.X+X.X[.+X+X'.7X+X.X+X+X+X+X+X+X+X+X+X.X|.'.'.'.'.'.[.'..X|..X",
"'.[.[.'.'.+X+X+X+X+X+X+X+X+X+X+X7X7X+X7X.X+X9X0X7X+X+X+X7X+X+X+X+X+X+X+X+X+X+X+X+X+X+X+X+X.X'.+X.X'.'.+X+X+X+X+X'.+X.X'.+X+X+X+X.X'..X.X.X.X+X+X.X+X+X+X+X+X X]. X X|.+X+X+X+X{.'..X.X+X+X+X'.+X+X+X+X+X.X|.|.+X7X+X+X7X+X+X+X+X7X.X[..X+X+X.X'.'.'.'.^.'..X.X+X",
"'.+X+X'.'.'..X.X+X+X+X+X7X+X+X+X+X7X7X9X+X.X7X0X7X+X+X+X+X7X7X7X7X+X+X+X+X+X+X7X+X+X+X+X+X'.+X+X.X+X'..X'.'.'.'.|..X'..X+X+X+X+X+X+X(..X.X+X+X+X+X+X+X+X+X{.+X X'.'.|.+X+X+X+X{.+X+X+X.X|.+X+X+X+X+X{.'.|.|.+X+X+X+X+X9X+X+X+X+X+X.X.X+X+X+X+X|.'.'.'.^.'.'.+X+X",
"'.+X.X'.[..X+X+X+X7X7X+X+X+X+X+X+X9X+X+X9X+X+X+X+X+X+X+X+X9X+X+X+X+X+X+X9X+X+X+X+X+X.X.X.X|.|.+X.X.X'.'.'.+X^.'.+X'.|..X+X+X.X.X+X+X.X[.'.+X+X.X+X+X+X+X+X+X'.+X'.+X+X+X+X{.+X+X+X+X+X|.+X+X.X+X+X+X+X'.'. X|..X+X+X.X7X7X+X+X[.+X+X.X+X+X+X+X+X'.'.'.'.+X'.'.].",
"+X+X+X+X'.+X+X+X+X+X+X+X+X+X+X+X.X+X7X+X'.+X+X+X+X+X+X+X+X+X7X.X.X+X+X.X+X+X+X'..X+X+X7X+X+X X'.+X'.'.'.'.[.'.'.'.'..X+X.X+X+X.X+X+X7X+X+X+X.X.X+X.X+X+X X+X+X+X+X+X+X+X+X+X+X+X+X+X+X|.+X|..X+X+X+X+X.X+X+X'.+X+X|.'.+X+X7X+X+X+X.X+X+X+X'.'..X+X+X.X.X+X'.`.+X",
"'..X+X{.+X7X7X+X+X+X+X7X.X'.9X7X+X+X+X+X[.'.+X+X7X7X+X7X+X+X+X.X+X+X+X+X'.+X+X+X+X+X+X+X X X X].'.'.}.'.'.'.[.'.'.+X+X+X+X+X+X+X+X+X+X7X9X+X7X7X+X+X+X+X'.'.|..X+X+X+X'.+X+X+X+X.X|.+X|.+X'..X.X+X+X+X+X'.'.+X+X+X.X.X+X+X+X+X+X+X+X+X.X+X+X.X+X.X[.+X+X+X+X|.|.",
"{..X+X+X+X+X+X'.+X.X'.[.+X7X7X+X7X+X+X+X+X+X+X+X+X+X7X9X+X+X+X+X+X+X+X.X.X+X+X+X.X+X'.+X'.'.'.'.'.'.'.'.'.'.+X.X.X+X+X+X+X+X.X+X+X+X+X+X+X+X+X+X+X+X+X|.|.'.'.'..X+X+X'..X+X+X+X.X.X+X+X+X+X'.+X+X+X+X+X+X+X+X+X+X+X+X+X+X'.+X[..X+X+X+X+X7X7X+X.X'.'.'.'.+X.X'.",
"[.'.+X+X+X+X.X+X+X+X7X+X+X7X9X+X7X+X7X9X+X+X+X+X+X+X+X+X+X+X+X+X.X+X+X+X+X+X+X'.'.'.+X.X'.'.'.'.'.'.`.'. X'..X+X+X'.+X+X+X+X+X+X+X+X+X+X+X+X+X+X+X+X+X.X|.|..X'..X X X+X+X+X+X+X+X+X.X+X.X+X+X+X.X.X|.+X{.+X+X+X+X+X+X+X+X+X.X'.'.+X+X+X+X+X+X+X+X+X+X+X.X+X+X.X",
"'.'.+X+X+X[.'.'..X+X+X+X.X7X9X7X7X7X7X7X7X+X'.+X+X+X+X+X+X+X+X+X+X+X+X+X+X+X'.+X'.'.'.+X'.'.'.'.'.'.'.'.'.+X+X'.+X.X+X+X+X+X.X+X+X+X.X+X+X7X+X.X'.+X+X+X|.|..X.X'.|.|.+X+X.X+X+X+X.X+X+X+X7X+X'.+X+X+X+X.X{.+X+X+X+X+X+X+X7X+X.X.X+X'.'.+X+X+X+X+X+X.X+X[.'.'.'.",
"'.'.'.'.'.'.+X+X7X9X9X.X[.+X0X7X7X+X7X+X+X+X+X'.'.'.+X+X+X.X+X+X+X+X.X3X.X.X+X+X+X+X.X|..X+X'.^.`.'.'._.'.'.+X+X.X.X+X.X+X+X'..X+X7X7X7X+X+X+X+X.X+X9X7X X'.{.'.'.[.'.'.+X'.'..X.X|.+X+X+X+X+X'.+X+X+X.X+X+X+X+X+X+X+X+X+X+X+X'.|.+X.X+X+X+X+X+X+X.X+X+X'.+X+X(.",
"'.'.'._.'.'.+X+X.X[.9X7X+X+X7X0X9X+X+X+X+X'..X+X+X+X+X.X'..X.X+X7X+X'.+X'.'.'.+X{.+X+X+X+X{.'./.~._.'.^.'.'.+X+X+X.X+X+X+X+X+X[..X+X7X7X+X.X7X7X+X+X7X3X+X+X[.'.[.+X'.'.+X{.[..X'.|.+X+X|.|.+X+X.X.X+X+X+X+X+X+X+X+X7X+X+X+X+X|.|.+X+X+X.X+X+X+X+X+X+X+X'..X+X'.",
"'.'.'.'.].'.'.'.+X+X3X7X7X+X+X7X7X+X+X+X+X+X'..X+X.X7X+X.X+X+X.X+X+X'.'.'..X.X+X+X+X'.'.+X+X'.`.).`.]._.'.'.+X'..X+X.X.X+X+X+X[.'..X+X+X+X+X9X7X7X7X+X+X+X+X+X+X[.+X+X'.'.'.[.'.'.|.'.+X+X X.X.X3X.X'.{.{.+X{..X.X+X9X+X+X7X+X+X|.+X+X'..X+X+X+X+X+X.X+X+X.X.X.X"
};
