/* XPM */
static char *brush_0[] = {
/* columns rows colors chars-per-pixel */
"300 300 8 1 ",
"  c black",
". c #C26E17",
"X c #B98B47",
"o c #7A1795",
"O c #D745FF",
"+ c #30E9CD",
"@ c #9997A8",
"# c white",
/* pixels */
"######################################################################################################################################################                   ###################################################################################################################################",
"######################################################################################################################################################                   ###################################################################################################################################",
"######################################################################################################################################################                   ###################################################################################################################################",
"######################################################################################################################################################                   ###################################################################################################################################",
"######################################################################################################################################################                   ###################################################################################################################################",
"######################################################################################################################################################                   ###################################################################################################################################",
"######################################################################################################################################################                   ###################################################################################################################################",
"######################################################################################################################################################                   ###################################################################################################################################",
"######################################################################################################################################################                   ###################################################################################################################################",
"#############################################################################################################################################                  OOOOOOOOOO                  #################################################################################################################",
"#############################################################################################################################################                  OOOOOOOOOO                  #################################################################################################################",
"#############################################################################################################################################                  OOOOOOOOOO                  #################################################################################################################",
"#############################################################################################################################################                  OOOOOOOOOO                  #################################################################################################################",
"#############################################################################################################################################                  OOOOOOOOOO                  #################################################################################################################",
"#############################################################################################################################################                  OOOOOOOOOO                  #################################################################################################################",
"#############################################################################################################################################                  OOOOOOOOOO                  #################################################################################################################",
"#############################################################################################################################################                  OOOOOOOOOO                  #################################################################################################################",
"#############################################################################################################################################                  OOOOOOOOOO                  #################################################################################################################",
"#############################################################################################################################################                  OOOOOOOOOO                  #################################################################################################################",
"                   ################################################################################################################                   OOOOOOOOOOOOOOOOOOOOOOOOOOOO                            ##############################################################################################",
"                   ################################################################################################################                   OOOOOOOOOOOOOOOOOOOOOOOOOOOO                            ##############################################################################################",
"                   ################################################################################################################                   OOOOOOOOOOOOOOOOOOOOOOOOOOOO                            ##############################################################################################",
"                   ################################################################################################################                   OOOOOOOOOOOOOOOOOOOOOOOOOOOO                            ##############################################################################################",
"                   ################################################################################################################                   OOOOOOOOOOOOOOOOOOOOOOOOOOOO                            ##############################################################################################",
"                   ################################################################################################################                   OOOOOOOOOOOOOOOOOOOOOOOOOOOO                            ##############################################################################################",
"                   ################################################################################################################                   OOOOOOOOOOOOOOOOOOOOOOOOOOOO                            ##############################################################################################",
"                   ################################################################################################################                   OOOOOOOOOOOOOOOOOOOOOOOOOOOO                            ##############################################################################################",
"                   ################################################################################################################                   OOOOOOOOOOOOOOOOOOOOOOOOOOOO                            ##############################################################################################",
"                   #######################################################################################################                   OOOOOOOOOOOOOOOOOOOOOOOOOOOOOOOOOOOOOOOOOOOOOOOOOOOOOOOO                   ####################################################################################",
"                   #######################################################################################################                   OOOOOOOOOOOOOOOOOOOOOOOOOOOOOOOOOOOOOOOOOOOOOOOOOOOOOOOO                   ####################################################################################",
"                   #######################################################################################################                   OOOOOOOOOOOOOOOOOOOOOOOOOOOOOOOOOOOOOOOOOOOOOOOOOOOOOOOO                   ####################################################################################",
"                   #######################################################################################################                   OOOOOOOOOOOOOOOOOOOOOOOOOOOOOOOOOOOOOOOOOOOOOOOOOOOOOOOO                   ####################################################################################",
"                   #######################################################################################################                   OOOOOOOOOOOOOOOOOOOOOOOOOOOOOOOOOOOOOOOOOOOOOOOOOOOOOOOO                   ####################################################################################",
"                   #######################################################################################################                   OOOOOOOOOOOOOOOOOOOOOOOOOOOOOOOOOOOOOOOOOOOOOOOOOOOOOOOO                   ####################################################################################",
"                   #######################################################################################################                   OOOOOOOOOOOOOOOOOOOOOOOOOOOOOOOOOOOOOOOOOOOOOOOOOOOOOOOO                   ####################################################################################",
"                   #######################################################################################################                   OOOOOOOOOOOOOOOOOOOOOOOOOOOOOOOOOOOOOOOOOOOOOOOOOOOOOOOO                   ####################################################################################",
"                   #######################################################################################################                   OOOOOOOOOOOOOOOOOOOOOOOOOOOOOOOOOOOOOOOOOOOOOOOOOOOOOOOO                   ####################################################################################",
"         ++++++++++                  ###########################################################################          OOOOOOOOOOOOOOOOOOOOOOOOOOOOOOOOOOOOOOOOOOOOOOOOOOOOOOOOOOOOOOOOOOOOOOOOOOOOOOOOOOOO                   ###########################################################################",
"         ++++++++++                  ###########################################################################          OOOOOOOOOOOOOOOOOOOOOOOOOOOOOOOOOOOOOOOOOOOOOOOOOOOOOOOOOOOOOOOOOOOOOOOOOOOOOOOOOOOO                   ###########################################################################",
"         ++++++++++                  ###########################################################################          OOOOOOOOOOOOOOOOOOOOOOOOOOOOOOOOOOOOOOOOOOOOOOOOOOOOOOOOOOOOOOOOOOOOOOOOOOOOOOOOOOOO                   ###########################################################################",
"         ++++++++++                  ###########################################################################          OOOOOOOOOOOOOOOOOOOOOOOOOOOOOOOOOOOOOOOOOOOOOOOOOOOOOOOOOOOOOOOOOOOOOOOOOOOOOOOOOOOO                   ###########################################################################",
"         ++++++++++                  ###########################################################################          OOOOOOOOOOOOOOOOOOOOOOOOOOOOOOOOOOOOOOOOOOOOOOOOOOOOOOOOOOOOOOOOOOOOOOOOOOOOOOOOOOOO                   ###########################################################################",
"         ++++++++++                  ###########################################################################          OOOOOOOOOOOOOOOOOOOOOOOOOOOOOOOOOOOOOOOOOOOOOOOOOOOOOOOOOOOOOOOOOOOOOOOOOOOOOOOOOOOO                   ###########################################################################",
"         ++++++++++                  ###########################################################################          OOOOOOOOOOOOOOOOOOOOOOOOOOOOOOOOOOOOOOOOOOOOOOOOOOOOOOOOOOOOOOOOOOOOOOOOOOOOOOOOOOOO                   ###########################################################################",
"         ++++++++++                  ###########################################################################          OOOOOOOOOOOOOOOOOOOOOOOOOOOOOOOOOOOOOOOOOOOOOOOOOOOOOOOOOOOOOOOOOOOOOOOOOOOOOOOOOOOO                   ###########################################################################",
"         ++++++++++                  ###########################################################################          OOOOOOOOOOOOOOOOOOOOOOOOOOOOOOOOOOOOOOOOOOOOOOOOOOOOOOOOOOOOOOOOOOOOOOOOOOOOOOOOOOOO                   ###########################################################################",
"         ++++++++++                  ###########################################################################          OOOOOOOOOOOOOOOOOOOOOOOOOOOOOOOOOOOOOOOOOOOOOOOOOOOOOOOOOOOOOOOOOOOOOOOOOOOOOOOOOOOO                   ###########################################################################",
"         +++++++++++++++++++                            ######################################                  OOOOOOOOOOOOOOOOOOOOOOOOOOOOOOOOOOOOOOOOOOOOOOOOOOOOOOOOOoooooooooOOOOOOOOOOOOOOOOOOOOOOOOOOOOOOOOOOOOOOOOOOOOOOO                   ########################################################",
"         +++++++++++++++++++                            ######################################                  OOOOOOOOOOOOOOOOOOOOOOOOOOOOOOOOOOOOOOOOOOOOOOOOOOOOOOOOOoooooooooOOOOOOOOOOOOOOOOOOOOOOOOOOOOOOOOOOOOOOOOOOOOOOO                   ########################################################",
"         +++++++++++++++++++                            ######################################                  OOOOOOOOOOOOOOOOOOOOOOOOOOOOOOOOOOOOOOOOOOOOOOOOOOOOOOOOOoooooooooOOOOOOOOOOOOOOOOOOOOOOOOOOOOOOOOOOOOOOOOOOOOOOO                   ########################################################",
"         +++++++++++++++++++                            ######################################                  OOOOOOOOOOOOOOOOOOOOOOOOOOOOOOOOOOOOOOOOOOOOOOOOOOOOOOOOOoooooooooOOOOOOOOOOOOOOOOOOOOOOOOOOOOOOOOOOOOOOOOOOOOOOO                   ########################################################",
"         +++++++++++++++++++                            ######################################                  OOOOOOOOOOOOOOOOOOOOOOOOOOOOOOOOOOOOOOOOOOOOOOOOOOOOOOOOOoooooooooOOOOOOOOOOOOOOOOOOOOOOOOOOOOOOOOOOOOOOOOOOOOOOO                   ########################################################",
"         +++++++++++++++++++                            ######################################                  OOOOOOOOOOOOOOOOOOOOOOOOOOOOOOOOOOOOOOOOOOOOOOOOOOOOOOOOOoooooooooOOOOOOOOOOOOOOOOOOOOOOOOOOOOOOOOOOOOOOOOOOOOOOO                   ########################################################",
"         +++++++++++++++++++                            ######################################                  OOOOOOOOOOOOOOOOOOOOOOOOOOOOOOOOOOOOOOOOOOOOOOOOOOOOOOOOOoooooooooOOOOOOOOOOOOOOOOOOOOOOOOOOOOOOOOOOOOOOOOOOOOOOO                   ########################################################",
"         +++++++++++++++++++                            ######################################                  OOOOOOOOOOOOOOOOOOOOOOOOOOOOOOOOOOOOOOOOOOOOOOOOOOOOOOOOOoooooooooOOOOOOOOOOOOOOOOOOOOOOOOOOOOOOOOOOOOOOOOOOOOOOO                   ########################################################",
"         +++++++++++++++++++                            ######################################                  OOOOOOOOOOOOOOOOOOOOOOOOOOOOOOOOOOOOOOOOOOOOOOOOOOOOOOOOOoooooooooOOOOOOOOOOOOOOOOOOOOOOOOOOOOOOOOOOOOOOOOOOOOOOO                   ########################################################",
"         +++++++++++++++++++.........                   ############################                   OOOOOOOOOOOOOOOOOOOOOOOOOOOOOOOOOOOOOOOOOOOOOOOOOOOOOOOO          oooooooooOOOOOOOOOOOOOOOOOOOOOOOOOOOOOOOOOOOOOOOOOOOOOOOOOOOOOOOO                   ###############################################",
"         +++++++++++++++++++.........                   ############################                   OOOOOOOOOOOOOOOOOOOOOOOOOOOOOOOOOOOOOOOOOOOOOOOOOOOOOOOO          oooooooooOOOOOOOOOOOOOOOOOOOOOOOOOOOOOOOOOOOOOOOOOOOOOOOOOOOOOOOO                   ###############################################",
"         +++++++++++++++++++.........                   ############################                   OOOOOOOOOOOOOOOOOOOOOOOOOOOOOOOOOOOOOOOOOOOOOOOOOOOOOOOO          oooooooooOOOOOOOOOOOOOOOOOOOOOOOOOOOOOOOOOOOOOOOOOOOOOOOOOOOOOOOO                   ###############################################",
"         +++++++++++++++++++.........                   ############################                   OOOOOOOOOOOOOOOOOOOOOOOOOOOOOOOOOOOOOOOOOOOOOOOOOOOOOOOO          oooooooooOOOOOOOOOOOOOOOOOOOOOOOOOOOOOOOOOOOOOOOOOOOOOOOOOOOOOOOO                   ###############################################",
"         +++++++++++++++++++.........                   ############################                   OOOOOOOOOOOOOOOOOOOOOOOOOOOOOOOOOOOOOOOOOOOOOOOOOOOOOOOO          oooooooooOOOOOOOOOOOOOOOOOOOOOOOOOOOOOOOOOOOOOOOOOOOOOOOOOOOOOOOO                   ###############################################",
"         +++++++++++++++++++.........                   ############################                   OOOOOOOOOOOOOOOOOOOOOOOOOOOOOOOOOOOOOOOOOOOOOOOOOOOOOOOO          oooooooooOOOOOOOOOOOOOOOOOOOOOOOOOOOOOOOOOOOOOOOOOOOOOOOOOOOOOOOO                   ###############################################",
"         +++++++++++++++++++.........                   ############################                   OOOOOOOOOOOOOOOOOOOOOOOOOOOOOOOOOOOOOOOOOOOOOOOOOOOOOOOO          oooooooooOOOOOOOOOOOOOOOOOOOOOOOOOOOOOOOOOOOOOOOOOOOOOOOOOOOOOOOO                   ###############################################",
"         +++++++++++++++++++.........                   ############################                   OOOOOOOOOOOOOOOOOOOOOOOOOOOOOOOOOOOOOOOOOOOOOOOOOOOOOOOO          oooooooooOOOOOOOOOOOOOOOOOOOOOOOOOOOOOOOOOOOOOOOOOOOOOOOOOOOOOOOO                   ###############################################",
"         +++++++++++++++++++.........                   ############################                   OOOOOOOOOOOOOOOOOOOOOOOOOOOOOOOOOOOOOOOOOOOOOOOOOOOOOOOO          oooooooooOOOOOOOOOOOOOOOOOOOOOOOOOOOOOOOOOOOOOOOOOOOOOOOOOOOOOOOO                   ###############################################",
"         +++++++++++++++++++.........                   ############################                   OOOOOOOOOOOOOOOOOOOOOOOOOOOOOOOOOOOOOOOOOOOOOOOOOOOOOOOO          oooooooooOOOOOOOOOOOOOOOOOOOOOOOOOOOOOOOOOOOOOOOOOOOOOOOOOOOOOOOO                   ###############################################",
"         ++++++++++............................         ###################                   OOOOOOOOOOOOOOOOOOOOOOOOOOOOOOOOOOOOOOOOOOOOOOOOOOOOOOOOOOOOOOOOO          ooooooooooooooooooOOOOOOOOOOOOOOOOOOOOOOOOOOOOOOOOOOOOOOOOOOOOOOOOOOOOOOOOO                            ############################",
"         ++++++++++............................         ###################                   OOOOOOOOOOOOOOOOOOOOOOOOOOOOOOOOOOOOOOOOOOOOOOOOOOOOOOOOOOOOOOOOO          ooooooooooooooooooOOOOOOOOOOOOOOOOOOOOOOOOOOOOOOOOOOOOOOOOOOOOOOOOOOOOOOOOO                            ############################",
"         ++++++++++............................         ###################                   OOOOOOOOOOOOOOOOOOOOOOOOOOOOOOOOOOOOOOOOOOOOOOOOOOOOOOOOOOOOOOOOO          ooooooooooooooooooOOOOOOOOOOOOOOOOOOOOOOOOOOOOOOOOOOOOOOOOOOOOOOOOOOOOOOOOO                            ############################",
"         ++++++++++............................         ###################                   OOOOOOOOOOOOOOOOOOOOOOOOOOOOOOOOOOOOOOOOOOOOOOOOOOOOOOOOOOOOOOOOO          ooooooooooooooooooOOOOOOOOOOOOOOOOOOOOOOOOOOOOOOOOOOOOOOOOOOOOOOOOOOOOOOOOO                            ############################",
"         ++++++++++............................         ###################                   OOOOOOOOOOOOOOOOOOOOOOOOOOOOOOOOOOOOOOOOOOOOOOOOOOOOOOOOOOOOOOOOO          ooooooooooooooooooOOOOOOOOOOOOOOOOOOOOOOOOOOOOOOOOOOOOOOOOOOOOOOOOOOOOOOOOO                            ############################",
"         ++++++++++............................         ###################                   OOOOOOOOOOOOOOOOOOOOOOOOOOOOOOOOOOOOOOOOOOOOOOOOOOOOOOOOOOOOOOOOO          ooooooooooooooooooOOOOOOOOOOOOOOOOOOOOOOOOOOOOOOOOOOOOOOOOOOOOOOOOOOOOOOOOO                            ############################",
"         ++++++++++............................         ###################                   OOOOOOOOOOOOOOOOOOOOOOOOOOOOOOOOOOOOOOOOOOOOOOOOOOOOOOOOOOOOOOOOO          ooooooooooooooooooOOOOOOOOOOOOOOOOOOOOOOOOOOOOOOOOOOOOOOOOOOOOOOOOOOOOOOOOO                            ############################",
"         ++++++++++............................         ###################                   OOOOOOOOOOOOOOOOOOOOOOOOOOOOOOOOOOOOOOOOOOOOOOOOOOOOOOOOOOOOOOOOO          ooooooooooooooooooOOOOOOOOOOOOOOOOOOOOOOOOOOOOOOOOOOOOOOOOOOOOOOOOOOOOOOOOO                            ############################",
"         ++++++++++............................         ###################                   OOOOOOOOOOOOOOOOOOOOOOOOOOOOOOOOOOOOOOOOOOOOOOOOOOOOOOOOOOOOOOOOO          ooooooooooooooooooOOOOOOOOOOOOOOOOOOOOOOOOOOOOOOOOOOOOOOOOOOOOOOOOOOOOOOOOO                            ############################",
"         ............................                                               OOOOOOOOOOOOOOOOOOOoooooooooOOOOOOOOOOOOOOOOOOOOOOOOOOOOOOOOOOOOOO                            oooooooooooooooooooOOOOOOOOOOOOOOOOOOOOOOOOOOOOOOOOOOOOOOOOOOOOOOOOOOOOOOOOOOOOOOOOO                   ###################",
"         ............................                                               OOOOOOOOOOOOOOOOOOOoooooooooOOOOOOOOOOOOOOOOOOOOOOOOOOOOOOOOOOOOOO                            oooooooooooooooooooOOOOOOOOOOOOOOOOOOOOOOOOOOOOOOOOOOOOOOOOOOOOOOOOOOOOOOOOOOOOOOOOO                   ###################",
"         ............................                                               OOOOOOOOOOOOOOOOOOOoooooooooOOOOOOOOOOOOOOOOOOOOOOOOOOOOOOOOOOOOOO                            oooooooooooooooooooOOOOOOOOOOOOOOOOOOOOOOOOOOOOOOOOOOOOOOOOOOOOOOOOOOOOOOOOOOOOOOOOO                   ###################",
"         ............................                                               OOOOOOOOOOOOOOOOOOOoooooooooOOOOOOOOOOOOOOOOOOOOOOOOOOOOOOOOOOOOOO                            oooooooooooooooooooOOOOOOOOOOOOOOOOOOOOOOOOOOOOOOOOOOOOOOOOOOOOOOOOOOOOOOOOOOOOOOOOO                   ###################",
"         ............................                                               OOOOOOOOOOOOOOOOOOOoooooooooOOOOOOOOOOOOOOOOOOOOOOOOOOOOOOOOOOOOOO                            oooooooooooooooooooOOOOOOOOOOOOOOOOOOOOOOOOOOOOOOOOOOOOOOOOOOOOOOOOOOOOOOOOOOOOOOOOO                   ###################",
"         ............................                                               OOOOOOOOOOOOOOOOOOOoooooooooOOOOOOOOOOOOOOOOOOOOOOOOOOOOOOOOOOOOOO                            oooooooooooooooooooOOOOOOOOOOOOOOOOOOOOOOOOOOOOOOOOOOOOOOOOOOOOOOOOOOOOOOOOOOOOOOOOO                   ###################",
"         ............................                                               OOOOOOOOOOOOOOOOOOOoooooooooOOOOOOOOOOOOOOOOOOOOOOOOOOOOOOOOOOOOOO                            oooooooooooooooooooOOOOOOOOOOOOOOOOOOOOOOOOOOOOOOOOOOOOOOOOOOOOOOOOOOOOOOOOOOOOOOOOO                   ###################",
"         ............................                                               OOOOOOOOOOOOOOOOOOOoooooooooOOOOOOOOOOOOOOOOOOOOOOOOOOOOOOOOOOOOOO                            oooooooooooooooooooOOOOOOOOOOOOOOOOOOOOOOOOOOOOOOOOOOOOOOOOOOOOOOOOOOOOOOOOOOOOOOOOO                   ###################",
"         ............................                                               OOOOOOOOOOOOOOOOOOOoooooooooOOOOOOOOOOOOOOOOOOOOOOOOOOOOOOOOOOOOOO                            oooooooooooooooooooOOOOOOOOOOOOOOOOOOOOOOOOOOOOOOOOOOOOOOOOOOOOOOOOOOOOOOOOOOOOOOOOO                   ###################",
"                   .........                   @@@@@@@@@                   OOOOOOOOOOOOOOOOOOOooooooooooooooooooOOOOOOOOOOOOOOOOOOO                            oooooooooo                  oooooooooooooooooooOOOOOOOOOOOOOOOOOOOOOOOOOOOOOOOOOOOOOOOOOOOOOOOOOOOOOOOOOOOOOOOOOOooooooooo          #########",
"                   .........                   @@@@@@@@@                   OOOOOOOOOOOOOOOOOOOooooooooooooooooooOOOOOOOOOOOOOOOOOOO                            oooooooooo                  oooooooooooooooooooOOOOOOOOOOOOOOOOOOOOOOOOOOOOOOOOOOOOOOOOOOOOOOOOOOOOOOOOOOOOOOOOOOooooooooo          #########",
"                   .........                   @@@@@@@@@                   OOOOOOOOOOOOOOOOOOOooooooooooooooooooOOOOOOOOOOOOOOOOOOO                            oooooooooo                  oooooooooooooooooooOOOOOOOOOOOOOOOOOOOOOOOOOOOOOOOOOOOOOOOOOOOOOOOOOOOOOOOOOOOOOOOOOOooooooooo          #########",
"                   .........                   @@@@@@@@@                   OOOOOOOOOOOOOOOOOOOooooooooooooooooooOOOOOOOOOOOOOOOOOOO                            oooooooooo                  oooooooooooooooooooOOOOOOOOOOOOOOOOOOOOOOOOOOOOOOOOOOOOOOOOOOOOOOOOOOOOOOOOOOOOOOOOOOooooooooo          #########",
"                   .........                   @@@@@@@@@                   OOOOOOOOOOOOOOOOOOOooooooooooooooooooOOOOOOOOOOOOOOOOOOO                            oooooooooo                  oooooooooooooooooooOOOOOOOOOOOOOOOOOOOOOOOOOOOOOOOOOOOOOOOOOOOOOOOOOOOOOOOOOOOOOOOOOOooooooooo          #########",
"                   .........                   @@@@@@@@@                   OOOOOOOOOOOOOOOOOOOooooooooooooooooooOOOOOOOOOOOOOOOOOOO                            oooooooooo                  oooooooooooooooooooOOOOOOOOOOOOOOOOOOOOOOOOOOOOOOOOOOOOOOOOOOOOOOOOOOOOOOOOOOOOOOOOOOooooooooo          #########",
"                   .........                   @@@@@@@@@                   OOOOOOOOOOOOOOOOOOOooooooooooooooooooOOOOOOOOOOOOOOOOOOO                            oooooooooo                  oooooooooooooooooooOOOOOOOOOOOOOOOOOOOOOOOOOOOOOOOOOOOOOOOOOOOOOOOOOOOOOOOOOOOOOOOOOOooooooooo          #########",
"                   .........                   @@@@@@@@@                   OOOOOOOOOOOOOOOOOOOooooooooooooooooooOOOOOOOOOOOOOOOOOOO                            oooooooooo                  oooooooooooooooooooOOOOOOOOOOOOOOOOOOOOOOOOOOOOOOOOOOOOOOOOOOOOOOOOOOOOOOOOOOOOOOOOOOooooooooo          #########",
"                   .........                   @@@@@@@@@                   OOOOOOOOOOOOOOOOOOOooooooooooooooooooOOOOOOOOOOOOOOOOOOO                            oooooooooo                  oooooooooooooooooooOOOOOOOOOOOOOOOOOOOOOOOOOOOOOOOOOOOOOOOOOOOOOOOOOOOOOOOOOOOOOOOOOOooooooooo          #########",
"                   .........                   @@@@@@@@@                   OOOOOOOOOOOOOOOOOOOooooooooooooooooooOOOOOOOOOOOOOOOOOOO                            oooooooooo                  oooooooooooooooooooOOOOOOOOOOOOOOOOOOOOOOOOOOOOOOOOOOOOOOOOOOOOOOOOOOOOOOOOOOOOOOOOOOooooooooo          #########",
"#########                                      @@@@@@@@@          oooooooooooooooooooooooooooooooooooooOOOOOOOOOOOOOOOOOOO                   oooooooooooooooooooooooooooooooooooooooooooooo                             OOOOOOOOOOOOOOOOOOOOOOOOOOOOOOOOOOOOOOOOOOOOOOOOOOOOOOOOooooooooo          #########",
"#########                                      @@@@@@@@@          oooooooooooooooooooooooooooooooooooooOOOOOOOOOOOOOOOOOOO                   oooooooooooooooooooooooooooooooooooooooooooooo                             OOOOOOOOOOOOOOOOOOOOOOOOOOOOOOOOOOOOOOOOOOOOOOOOOOOOOOOOooooooooo          #########",
"#########                                      @@@@@@@@@          oooooooooooooooooooooooooooooooooooooOOOOOOOOOOOOOOOOOOO                   oooooooooooooooooooooooooooooooooooooooooooooo                             OOOOOOOOOOOOOOOOOOOOOOOOOOOOOOOOOOOOOOOOOOOOOOOOOOOOOOOOooooooooo          #########",
"#########                                      @@@@@@@@@          oooooooooooooooooooooooooooooooooooooOOOOOOOOOOOOOOOOOOO                   oooooooooooooooooooooooooooooooooooooooooooooo                             OOOOOOOOOOOOOOOOOOOOOOOOOOOOOOOOOOOOOOOOOOOOOOOOOOOOOOOOooooooooo          #########",
"#########                                      @@@@@@@@@          oooooooooooooooooooooooooooooooooooooOOOOOOOOOOOOOOOOOOO                   oooooooooooooooooooooooooooooooooooooooooooooo                             OOOOOOOOOOOOOOOOOOOOOOOOOOOOOOOOOOOOOOOOOOOOOOOOOOOOOOOOooooooooo          #########",
"#########                                      @@@@@@@@@          oooooooooooooooooooooooooooooooooooooOOOOOOOOOOOOOOOOOOO                   oooooooooooooooooooooooooooooooooooooooooooooo                             OOOOOOOOOOOOOOOOOOOOOOOOOOOOOOOOOOOOOOOOOOOOOOOOOOOOOOOOooooooooo          #########",
"#########                                      @@@@@@@@@          oooooooooooooooooooooooooooooooooooooOOOOOOOOOOOOOOOOOOO                   oooooooooooooooooooooooooooooooooooooooooooooo                             OOOOOOOOOOOOOOOOOOOOOOOOOOOOOOOOOOOOOOOOOOOOOOOOOOOOOOOOooooooooo          #########",
"#########                                      @@@@@@@@@          oooooooooooooooooooooooooooooooooooooOOOOOOOOOOOOOOOOOOO                   oooooooooooooooooooooooooooooooooooooooooooooo                             OOOOOOOOOOOOOOOOOOOOOOOOOOOOOOOOOOOOOOOOOOOOOOOOOOOOOOOOooooooooo          #########",
"#########                                      @@@@@@@@@          oooooooooooooooooooooooooooooooooooooOOOOOOOOOOOOOOOOOOO                   oooooooooooooooooooooooooooooooooooooooooooooo                             OOOOOOOOOOOOOOOOOOOOOOOOOOOOOOOOOOOOOOOOOOOOOOOOOOOOOOOOooooooooo          #########",
"#####################################                                      OOOOOOOOOOOOOOOOOOOOOOOOOOOOOOOOOOOOO                   oooooooooooooooooooooooooooo                                      OOOOOOOOO          OOOOOOOOOOOOOOOOOOOOOOOOOOOOOOOOOOOOOOOOOOOOOOOOOOOOOOOOooooooooooooooooooo         ",
"#####################################                                      OOOOOOOOOOOOOOOOOOOOOOOOOOOOOOOOOOOOO                   oooooooooooooooooooooooooooo                                      OOOOOOOOO          OOOOOOOOOOOOOOOOOOOOOOOOOOOOOOOOOOOOOOOOOOOOOOOOOOOOOOOOooooooooooooooooooo         ",
"#####################################                                      OOOOOOOOOOOOOOOOOOOOOOOOOOOOOOOOOOOOO                   oooooooooooooooooooooooooooo                                      OOOOOOOOO          OOOOOOOOOOOOOOOOOOOOOOOOOOOOOOOOOOOOOOOOOOOOOOOOOOOOOOOOooooooooooooooooooo         ",
"#####################################                                      OOOOOOOOOOOOOOOOOOOOOOOOOOOOOOOOOOOOO                   oooooooooooooooooooooooooooo                                      OOOOOOOOO          OOOOOOOOOOOOOOOOOOOOOOOOOOOOOOOOOOOOOOOOOOOOOOOOOOOOOOOOooooooooooooooooooo         ",
"#####################################                                      OOOOOOOOOOOOOOOOOOOOOOOOOOOOOOOOOOOOO                   oooooooooooooooooooooooooooo                                      OOOOOOOOO          OOOOOOOOOOOOOOOOOOOOOOOOOOOOOOOOOOOOOOOOOOOOOOOOOOOOOOOOooooooooooooooooooo         ",
"#####################################                                      OOOOOOOOOOOOOOOOOOOOOOOOOOOOOOOOOOOOO                   oooooooooooooooooooooooooooo                                      OOOOOOOOO          OOOOOOOOOOOOOOOOOOOOOOOOOOOOOOOOOOOOOOOOOOOOOOOOOOOOOOOOooooooooooooooooooo         ",
"#####################################                                      OOOOOOOOOOOOOOOOOOOOOOOOOOOOOOOOOOOOO                   oooooooooooooooooooooooooooo                                      OOOOOOOOO          OOOOOOOOOOOOOOOOOOOOOOOOOOOOOOOOOOOOOOOOOOOOOOOOOOOOOOOOooooooooooooooooooo         ",
"#####################################                                      OOOOOOOOOOOOOOOOOOOOOOOOOOOOOOOOOOOOO                   oooooooooooooooooooooooooooo                                      OOOOOOOOO          OOOOOOOOOOOOOOOOOOOOOOOOOOOOOOOOOOOOOOOOOOOOOOOOOOOOOOOOooooooooooooooooooo         ",
"#####################################                                      OOOOOOOOOOOOOOOOOOOOOOOOOOOOOOOOOOOOO                   oooooooooooooooooooooooooooo                                      OOOOOOOOO          OOOOOOOOOOOOOOOOOOOOOOOOOOOOOOOOOOOOOOOOOOOOOOOOOOOOOOOOooooooooooooooooooo         ",
"#####################################          ooooooooo                                                                                     oooooooooooooooooo          ooooooooooooooooooOOOOOOOOOOOOOOOOOOOOOOOOOOOOOOOOOOOOOOOOOOOOOOOOOOOOOOOOOOOOOOOOOOOOOOOOOOOOOOOOOOOOOOOOOOOOOOoooooooooo         ",
"#####################################          ooooooooo                                                                                     oooooooooooooooooo          ooooooooooooooooooOOOOOOOOOOOOOOOOOOOOOOOOOOOOOOOOOOOOOOOOOOOOOOOOOOOOOOOOOOOOOOOOOOOOOOOOOOOOOOOOOOOOOOOOOOOOOOoooooooooo         ",
"#####################################          ooooooooo                                                                                     oooooooooooooooooo          ooooooooooooooooooOOOOOOOOOOOOOOOOOOOOOOOOOOOOOOOOOOOOOOOOOOOOOOOOOOOOOOOOOOOOOOOOOOOOOOOOOOOOOOOOOOOOOOOOOOOOOOoooooooooo         ",
"#####################################          ooooooooo                                                                                     oooooooooooooooooo          ooooooooooooooooooOOOOOOOOOOOOOOOOOOOOOOOOOOOOOOOOOOOOOOOOOOOOOOOOOOOOOOOOOOOOOOOOOOOOOOOOOOOOOOOOOOOOOOOOOOOOOOoooooooooo         ",
"#####################################          ooooooooo                                                                                     oooooooooooooooooo          ooooooooooooooooooOOOOOOOOOOOOOOOOOOOOOOOOOOOOOOOOOOOOOOOOOOOOOOOOOOOOOOOOOOOOOOOOOOOOOOOOOOOOOOOOOOOOOOOOOOOOOOoooooooooo         ",
"#####################################          ooooooooo                                                                                     oooooooooooooooooo          ooooooooooooooooooOOOOOOOOOOOOOOOOOOOOOOOOOOOOOOOOOOOOOOOOOOOOOOOOOOOOOOOOOOOOOOOOOOOOOOOOOOOOOOOOOOOOOOOOOOOOOOoooooooooo         ",
"#####################################          ooooooooo                                                                                     oooooooooooooooooo          ooooooooooooooooooOOOOOOOOOOOOOOOOOOOOOOOOOOOOOOOOOOOOOOOOOOOOOOOOOOOOOOOOOOOOOOOOOOOOOOOOOOOOOOOOOOOOOOOOOOOOOOoooooooooo         ",
"#####################################          ooooooooo                                                                                     oooooooooooooooooo          ooooooooooooooooooOOOOOOOOOOOOOOOOOOOOOOOOOOOOOOOOOOOOOOOOOOOOOOOOOOOOOOOOOOOOOOOOOOOOOOOOOOOOOOOOOOOOOOOOOOOOOOoooooooooo         ",
"#####################################          ooooooooo                                                                                     oooooooooooooooooo          ooooooooooooooooooOOOOOOOOOOOOOOOOOOOOOOOOOOOOOOOOOOOOOOOOOOOOOOOOOOOOOOOOOOOOOOOOOOOOOOOOOOOOOOOOOOOOOOOOOOOOOOoooooooooo         ",
"#####################################          ooooooooo                                                                                     oooooooooooooooooo          ooooooooooooooooooOOOOOOOOOOOOOOOOOOOOOOOOOOOOOOOOOOOOOOOOOOOOOOOOOOOOOOOOOOOOOOOOOOOOOOOOOOOOOOOOOOOOOOOOOOOOOOoooooooooo         ",
"#####################################          ooooooooooooooooooo         ooooooooo                            OOOOOOOOOO                                               ooooooooooooooooooOOOOOOOOOOOOOOOOOOOOOOOOOOOOOOOOOOOOOOOOOOOOOOOOOOOOOOOOOOOOOOOOOOOOOOOOOOOOOOOOOOOOOOOOOOOOOOoooooooooo         ",
"#####################################          ooooooooooooooooooo         ooooooooo                            OOOOOOOOOO                                               ooooooooooooooooooOOOOOOOOOOOOOOOOOOOOOOOOOOOOOOOOOOOOOOOOOOOOOOOOOOOOOOOOOOOOOOOOOOOOOOOOOOOOOOOOOOOOOOOOOOOOOOoooooooooo         ",
"#####################################          ooooooooooooooooooo         ooooooooo                            OOOOOOOOOO                                               ooooooooooooooooooOOOOOOOOOOOOOOOOOOOOOOOOOOOOOOOOOOOOOOOOOOOOOOOOOOOOOOOOOOOOOOOOOOOOOOOOOOOOOOOOOOOOOOOOOOOOOOoooooooooo         ",
"#####################################          ooooooooooooooooooo         ooooooooo                            OOOOOOOOOO                                               ooooooooooooooooooOOOOOOOOOOOOOOOOOOOOOOOOOOOOOOOOOOOOOOOOOOOOOOOOOOOOOOOOOOOOOOOOOOOOOOOOOOOOOOOOOOOOOOOOOOOOOOoooooooooo         ",
"#####################################          ooooooooooooooooooo         ooooooooo                            OOOOOOOOOO                                               ooooooooooooooooooOOOOOOOOOOOOOOOOOOOOOOOOOOOOOOOOOOOOOOOOOOOOOOOOOOOOOOOOOOOOOOOOOOOOOOOOOOOOOOOOOOOOOOOOOOOOOOoooooooooo         ",
"#####################################          ooooooooooooooooooo         ooooooooo                            OOOOOOOOOO                                               ooooooooooooooooooOOOOOOOOOOOOOOOOOOOOOOOOOOOOOOOOOOOOOOOOOOOOOOOOOOOOOOOOOOOOOOOOOOOOOOOOOOOOOOOOOOOOOOOOOOOOOOoooooooooo         ",
"#####################################          ooooooooooooooooooo         ooooooooo                            OOOOOOOOOO                                               ooooooooooooooooooOOOOOOOOOOOOOOOOOOOOOOOOOOOOOOOOOOOOOOOOOOOOOOOOOOOOOOOOOOOOOOOOOOOOOOOOOOOOOOOOOOOOOOOOOOOOOOoooooooooo         ",
"#####################################          ooooooooooooooooooo         ooooooooo                            OOOOOOOOOO                                               ooooooooooooooooooOOOOOOOOOOOOOOOOOOOOOOOOOOOOOOOOOOOOOOOOOOOOOOOOOOOOOOOOOOOOOOOOOOOOOOOOOOOOOOOOOOOOOOOOOOOOOOoooooooooo         ",
"#####################################          ooooooooooooooooooo         ooooooooo                            OOOOOOOOOO                                               ooooooooooooooooooOOOOOOOOOOOOOOOOOOOOOOOOOOOOOOOOOOOOOOOOOOOOOOOOOOOOOOOOOOOOOOOOOOOOOOOOOOOOOOOOOOOOOOOOOOOOOOoooooooooo         ",
"#####################################          OOOOOOOOOoooooooooo         ooooooooo                   oooooooooOOOOOOOOOOOOOOOOOOOoooooooooo                                     ooooooooooooooooooooooooooooOOOOOOOOOOOOOOOOOOOOOOOOOOOOOOOOOOOOOOOOOOOOOOOOOOOOOOOOOOOOOOOOOOOOOOOOOOOoooooooooo         ",
"#####################################          OOOOOOOOOoooooooooo         ooooooooo                   oooooooooOOOOOOOOOOOOOOOOOOOoooooooooo                                     ooooooooooooooooooooooooooooOOOOOOOOOOOOOOOOOOOOOOOOOOOOOOOOOOOOOOOOOOOOOOOOOOOOOOOOOOOOOOOOOOOOOOOOOOOoooooooooo         ",
"#####################################          OOOOOOOOOoooooooooo         ooooooooo                   oooooooooOOOOOOOOOOOOOOOOOOOoooooooooo                                     ooooooooooooooooooooooooooooOOOOOOOOOOOOOOOOOOOOOOOOOOOOOOOOOOOOOOOOOOOOOOOOOOOOOOOOOOOOOOOOOOOOOOOOOOOoooooooooo         ",
"#####################################          OOOOOOOOOoooooooooo         ooooooooo                   oooooooooOOOOOOOOOOOOOOOOOOOoooooooooo                                     ooooooooooooooooooooooooooooOOOOOOOOOOOOOOOOOOOOOOOOOOOOOOOOOOOOOOOOOOOOOOOOOOOOOOOOOOOOOOOOOOOOOOOOOOOoooooooooo         ",
"#####################################          OOOOOOOOOoooooooooo         ooooooooo                   oooooooooOOOOOOOOOOOOOOOOOOOoooooooooo                                     ooooooooooooooooooooooooooooOOOOOOOOOOOOOOOOOOOOOOOOOOOOOOOOOOOOOOOOOOOOOOOOOOOOOOOOOOOOOOOOOOOOOOOOOOOoooooooooo         ",
"#####################################          OOOOOOOOOoooooooooo         ooooooooo                   oooooooooOOOOOOOOOOOOOOOOOOOoooooooooo                                     ooooooooooooooooooooooooooooOOOOOOOOOOOOOOOOOOOOOOOOOOOOOOOOOOOOOOOOOOOOOOOOOOOOOOOOOOOOOOOOOOOOOOOOOOOoooooooooo         ",
"#####################################          OOOOOOOOOoooooooooo         ooooooooo                   oooooooooOOOOOOOOOOOOOOOOOOOoooooooooo                                     ooooooooooooooooooooooooooooOOOOOOOOOOOOOOOOOOOOOOOOOOOOOOOOOOOOOOOOOOOOOOOOOOOOOOOOOOOOOOOOOOOOOOOOOOOoooooooooo         ",
"#####################################          OOOOOOOOOoooooooooo         ooooooooo                   oooooooooOOOOOOOOOOOOOOOOOOOoooooooooo                                     ooooooooooooooooooooooooooooOOOOOOOOOOOOOOOOOOOOOOOOOOOOOOOOOOOOOOOOOOOOOOOOOOOOOOOOOOOOOOOOOOOOOOOOOOOoooooooooo         ",
"#####################################          OOOOOOOOOoooooooooo         ooooooooo                   oooooooooOOOOOOOOOOOOOOOOOOOoooooooooo                                     ooooooooooooooooooooooooooooOOOOOOOOOOOOOOOOOOOOOOOOOOOOOOOOOOOOOOOOOOOOOOOOOOOOOOOOOOOOOOOOOOOOOOOOOOOoooooooooo         ",
"#####################################          OOOOOOOOOoooooooooo         ooooooooo                   oooooooooOOOOOOOOOOOOOOOOOOOoooooooooo                                     ooooooooooooooooooooooooooooOOOOOOOOOOOOOOOOOOOOOOOOOOOOOOOOOOOOOOOOOOOOOOOOOOOOOOOOOOOOOOOOOOOOOOOOOOOoooooooooo         ",
"############################                   OOOOOOOOOOOOOOOOOOO         ooooooooo                   ooooooooooooooooooooooooooooooooooooooOOOOOOOOOOOOOOOOOO                                      oooooooooooooooooooOOOOOOOOOOOOOOOOOOOOOOOOOOOOOOOOOOOOOOOOOOOOOOOOOOOOOOOOOOOOOOOOOoooooooooo         ",
"############################                   OOOOOOOOOOOOOOOOOOO         ooooooooo                   ooooooooooooooooooooooooooooooooooooooOOOOOOOOOOOOOOOOOO                                      oooooooooooooooooooOOOOOOOOOOOOOOOOOOOOOOOOOOOOOOOOOOOOOOOOOOOOOOOOOOOOOOOOOOOOOOOOOoooooooooo         ",
"############################                   OOOOOOOOOOOOOOOOOOO         ooooooooo                   ooooooooooooooooooooooooooooooooooooooOOOOOOOOOOOOOOOOOO                                      oooooooooooooooooooOOOOOOOOOOOOOOOOOOOOOOOOOOOOOOOOOOOOOOOOOOOOOOOOOOOOOOOOOOOOOOOOOoooooooooo         ",
"############################                   OOOOOOOOOOOOOOOOOOO         ooooooooo                   ooooooooooooooooooooooooooooooooooooooOOOOOOOOOOOOOOOOOO                                      oooooooooooooooooooOOOOOOOOOOOOOOOOOOOOOOOOOOOOOOOOOOOOOOOOOOOOOOOOOOOOOOOOOOOOOOOOOoooooooooo         ",
"############################                   OOOOOOOOOOOOOOOOOOO         ooooooooo                   ooooooooooooooooooooooooooooooooooooooOOOOOOOOOOOOOOOOOO                                      oooooooooooooooooooOOOOOOOOOOOOOOOOOOOOOOOOOOOOOOOOOOOOOOOOOOOOOOOOOOOOOOOOOOOOOOOOOoooooooooo         ",
"############################                   OOOOOOOOOOOOOOOOOOO         ooooooooo                   ooooooooooooooooooooooooooooooooooooooOOOOOOOOOOOOOOOOOO                                      oooooooooooooooooooOOOOOOOOOOOOOOOOOOOOOOOOOOOOOOOOOOOOOOOOOOOOOOOOOOOOOOOOOOOOOOOOOoooooooooo         ",
"############################                   OOOOOOOOOOOOOOOOOOO         ooooooooo                   ooooooooooooooooooooooooooooooooooooooOOOOOOOOOOOOOOOOOO                                      oooooooooooooooooooOOOOOOOOOOOOOOOOOOOOOOOOOOOOOOOOOOOOOOOOOOOOOOOOOOOOOOOOOOOOOOOOOoooooooooo         ",
"############################                   OOOOOOOOOOOOOOOOOOO         ooooooooo                   ooooooooooooooooooooooooooooooooooooooOOOOOOOOOOOOOOOOOO                                      oooooooooooooooooooOOOOOOOOOOOOOOOOOOOOOOOOOOOOOOOOOOOOOOOOOOOOOOOOOOOOOOOOOOOOOOOOOoooooooooo         ",
"############################                   OOOOOOOOOOOOOOOOOOO         ooooooooo                   ooooooooooooooooooooooooooooooooooooooOOOOOOOOOOOOOOOOOO                                      oooooooooooooooooooOOOOOOOOOOOOOOOOOOOOOOOOOOOOOOOOOOOOOOOOOOOOOOOOOOOOOOOOOOOOOOOOOoooooooooo         ",
"############################                   OOOOOOOOOOOOOOOOOOO         ooooooooo                            OOOOOOOOOOOOOOOOOOOOOOOOOOOOOOOOOOOOOOOOOOOOOOOoooooooooo                                                        OOOOOOOOOOOOOOOOOOOOOOOOOOOOOOOOOOOOOOOOOOOOOOOOOOOOOOOOoooooooooo         ",
"############################                   OOOOOOOOOOOOOOOOOOO         ooooooooo                            OOOOOOOOOOOOOOOOOOOOOOOOOOOOOOOOOOOOOOOOOOOOOOOoooooooooo                                                        OOOOOOOOOOOOOOOOOOOOOOOOOOOOOOOOOOOOOOOOOOOOOOOOOOOOOOOOoooooooooo         ",
"############################                   OOOOOOOOOOOOOOOOOOO         ooooooooo                            OOOOOOOOOOOOOOOOOOOOOOOOOOOOOOOOOOOOOOOOOOOOOOOoooooooooo                                                        OOOOOOOOOOOOOOOOOOOOOOOOOOOOOOOOOOOOOOOOOOOOOOOOOOOOOOOOoooooooooo         ",
"############################                   OOOOOOOOOOOOOOOOOOO         ooooooooo                            OOOOOOOOOOOOOOOOOOOOOOOOOOOOOOOOOOOOOOOOOOOOOOOoooooooooo                                                        OOOOOOOOOOOOOOOOOOOOOOOOOOOOOOOOOOOOOOOOOOOOOOOOOOOOOOOOoooooooooo         ",
"############################                   OOOOOOOOOOOOOOOOOOO         ooooooooo                            OOOOOOOOOOOOOOOOOOOOOOOOOOOOOOOOOOOOOOOOOOOOOOOoooooooooo                                                        OOOOOOOOOOOOOOOOOOOOOOOOOOOOOOOOOOOOOOOOOOOOOOOOOOOOOOOOoooooooooo         ",
"############################                   OOOOOOOOOOOOOOOOOOO         ooooooooo                            OOOOOOOOOOOOOOOOOOOOOOOOOOOOOOOOOOOOOOOOOOOOOOOoooooooooo                                                        OOOOOOOOOOOOOOOOOOOOOOOOOOOOOOOOOOOOOOOOOOOOOOOOOOOOOOOOoooooooooo         ",
"############################                   OOOOOOOOOOOOOOOOOOO         ooooooooo                            OOOOOOOOOOOOOOOOOOOOOOOOOOOOOOOOOOOOOOOOOOOOOOOoooooooooo                                                        OOOOOOOOOOOOOOOOOOOOOOOOOOOOOOOOOOOOOOOOOOOOOOOOOOOOOOOOoooooooooo         ",
"############################                   OOOOOOOOOOOOOOOOOOO         ooooooooo                            OOOOOOOOOOOOOOOOOOOOOOOOOOOOOOOOOOOOOOOOOOOOOOOoooooooooo                                                        OOOOOOOOOOOOOOOOOOOOOOOOOOOOOOOOOOOOOOOOOOOOOOOOOOOOOOOOoooooooooo         ",
"############################                   OOOOOOOOOOOOOOOOOOO         ooooooooo                            OOOOOOOOOOOOOOOOOOOOOOOOOOOOOOOOOOOOOOOOOOOOOOOoooooooooo                                                        OOOOOOOOOOOOOOOOOOOOOOOOOOOOOOOOOOOOOOOOOOOOOOOOOOOOOOOOoooooooooo         ",
"#####################################                                      ooooooooo          ooooooooo                   oooooooooOOOOOOOOOOOOOOOOOOOOOOOOOOOOoooooooooo                  XXXXXXXXXXXXXXXXXXXXXXXXXXXXX                                     OOOOOOOOOOOOOOOOOOOOOOOOOOOO                   ",
"#####################################                                      ooooooooo          ooooooooo                   oooooooooOOOOOOOOOOOOOOOOOOOOOOOOOOOOoooooooooo                  XXXXXXXXXXXXXXXXXXXXXXXXXXXXX                                     OOOOOOOOOOOOOOOOOOOOOOOOOOOO                   ",
"#####################################                                      ooooooooo          ooooooooo                   oooooooooOOOOOOOOOOOOOOOOOOOOOOOOOOOOoooooooooo                  XXXXXXXXXXXXXXXXXXXXXXXXXXXXX                                     OOOOOOOOOOOOOOOOOOOOOOOOOOOO                   ",
"#####################################                                      ooooooooo          ooooooooo                   oooooooooOOOOOOOOOOOOOOOOOOOOOOOOOOOOoooooooooo                  XXXXXXXXXXXXXXXXXXXXXXXXXXXXX                                     OOOOOOOOOOOOOOOOOOOOOOOOOOOO                   ",
"#####################################                                      ooooooooo          ooooooooo                   oooooooooOOOOOOOOOOOOOOOOOOOOOOOOOOOOoooooooooo                  XXXXXXXXXXXXXXXXXXXXXXXXXXXXX                                     OOOOOOOOOOOOOOOOOOOOOOOOOOOO                   ",
"#####################################                                      ooooooooo          ooooooooo                   oooooooooOOOOOOOOOOOOOOOOOOOOOOOOOOOOoooooooooo                  XXXXXXXXXXXXXXXXXXXXXXXXXXXXX                                     OOOOOOOOOOOOOOOOOOOOOOOOOOOO                   ",
"#####################################                                      ooooooooo          ooooooooo                   oooooooooOOOOOOOOOOOOOOOOOOOOOOOOOOOOoooooooooo                  XXXXXXXXXXXXXXXXXXXXXXXXXXXXX                                     OOOOOOOOOOOOOOOOOOOOOOOOOOOO                   ",
"#####################################                                      ooooooooo          ooooooooo                   oooooooooOOOOOOOOOOOOOOOOOOOOOOOOOOOOoooooooooo                  XXXXXXXXXXXXXXXXXXXXXXXXXXXXX                                     OOOOOOOOOOOOOOOOOOOOOOOOOOOO                   ",
"#####################################                                      ooooooooo          ooooooooo                   oooooooooOOOOOOOOOOOOOOOOOOOOOOOOOOOOoooooooooo                  XXXXXXXXXXXXXXXXXXXXXXXXXXXXX                                     OOOOOOOOOOOOOOOOOOOOOOOOOOOO                   ",
"#####################################                                      ooooooooo          ooooooooo                   oooooooooOOOOOOOOOOOOOOOOOOOOOOOOOOOOoooooooooo                  XXXXXXXXXXXXXXXXXXXXXXXXXXXXX                                     OOOOOOOOOOOOOOOOOOOOOOOOOOOO                   ",
"########################################################          OOOOOOOOO                   ooooooooo                   oooooooooooooooooooOOOOOOOOOOOOOOOOOOooooooooooooooooooo                                      XXXXXXXXXXXXXXXXXXXXXXXXXXXX                            OOOOOOOOOOOOOOOOOOO         ",
"########################################################          OOOOOOOOO                   ooooooooo                   oooooooooooooooooooOOOOOOOOOOOOOOOOOOooooooooooooooooooo                                      XXXXXXXXXXXXXXXXXXXXXXXXXXXX                            OOOOOOOOOOOOOOOOOOO         ",
"########################################################          OOOOOOOOO                   ooooooooo                   oooooooooooooooooooOOOOOOOOOOOOOOOOOOooooooooooooooooooo                                      XXXXXXXXXXXXXXXXXXXXXXXXXXXX                            OOOOOOOOOOOOOOOOOOO         ",
"########################################################          OOOOOOOOO                   ooooooooo                   oooooooooooooooooooOOOOOOOOOOOOOOOOOOooooooooooooooooooo                                      XXXXXXXXXXXXXXXXXXXXXXXXXXXX                            OOOOOOOOOOOOOOOOOOO         ",
"########################################################          OOOOOOOOO                   ooooooooo                   oooooooooooooooooooOOOOOOOOOOOOOOOOOOooooooooooooooooooo                                      XXXXXXXXXXXXXXXXXXXXXXXXXXXX                            OOOOOOOOOOOOOOOOOOO         ",
"########################################################          OOOOOOOOO                   ooooooooo                   oooooooooooooooooooOOOOOOOOOOOOOOOOOOooooooooooooooooooo                                      XXXXXXXXXXXXXXXXXXXXXXXXXXXX                            OOOOOOOOOOOOOOOOOOO         ",
"########################################################          OOOOOOOOO                   ooooooooo                   oooooooooooooooooooOOOOOOOOOOOOOOOOOOooooooooooooooooooo                                      XXXXXXXXXXXXXXXXXXXXXXXXXXXX                            OOOOOOOOOOOOOOOOOOO         ",
"########################################################          OOOOOOOOO                   ooooooooo                   oooooooooooooooooooOOOOOOOOOOOOOOOOOOooooooooooooooooooo                                      XXXXXXXXXXXXXXXXXXXXXXXXXXXX                            OOOOOOOOOOOOOOOOOOO         ",
"########################################################          OOOOOOOOO                   ooooooooo                   oooooooooooooooooooOOOOOOOOOOOOOOOOOOooooooooooooooooooo                                      XXXXXXXXXXXXXXXXXXXXXXXXXXXX                            OOOOOOOOOOOOOOOOOOO         ",
"##################################################################                  OOOOOOOOOOOOOOOOOOO                            oooooooooooooooooooOOOOOOOOOOOOOOOOOOOoooooooooooooooooo          ooooooooooooooooooo                  XXXXXXXXXXXXXXXXXXXXXXXXXXXX          OOOOOOOOOOOOOOOOOOO         ",
"##################################################################                  OOOOOOOOOOOOOOOOOOO                            oooooooooooooooooooOOOOOOOOOOOOOOOOOOOoooooooooooooooooo          ooooooooooooooooooo                  XXXXXXXXXXXXXXXXXXXXXXXXXXXX          OOOOOOOOOOOOOOOOOOO         ",
"##################################################################                  OOOOOOOOOOOOOOOOOOO                            oooooooooooooooooooOOOOOOOOOOOOOOOOOOOoooooooooooooooooo          ooooooooooooooooooo                  XXXXXXXXXXXXXXXXXXXXXXXXXXXX          OOOOOOOOOOOOOOOOOOO         ",
"##################################################################                  OOOOOOOOOOOOOOOOOOO                            oooooooooooooooooooOOOOOOOOOOOOOOOOOOOoooooooooooooooooo          ooooooooooooooooooo                  XXXXXXXXXXXXXXXXXXXXXXXXXXXX          OOOOOOOOOOOOOOOOOOO         ",
"##################################################################                  OOOOOOOOOOOOOOOOOOO                            oooooooooooooooooooOOOOOOOOOOOOOOOOOOOoooooooooooooooooo          ooooooooooooooooooo                  XXXXXXXXXXXXXXXXXXXXXXXXXXXX          OOOOOOOOOOOOOOOOOOO         ",
"##################################################################                  OOOOOOOOOOOOOOOOOOO                            oooooooooooooooooooOOOOOOOOOOOOOOOOOOOoooooooooooooooooo          ooooooooooooooooooo                  XXXXXXXXXXXXXXXXXXXXXXXXXXXX          OOOOOOOOOOOOOOOOOOO         ",
"##################################################################                  OOOOOOOOOOOOOOOOOOO                            oooooooooooooooooooOOOOOOOOOOOOOOOOOOOoooooooooooooooooo          ooooooooooooooooooo                  XXXXXXXXXXXXXXXXXXXXXXXXXXXX          OOOOOOOOOOOOOOOOOOO         ",
"##################################################################                  OOOOOOOOOOOOOOOOOOO                            oooooooooooooooooooOOOOOOOOOOOOOOOOOOOoooooooooooooooooo          ooooooooooooooooooo                  XXXXXXXXXXXXXXXXXXXXXXXXXXXX          OOOOOOOOOOOOOOOOOOO         ",
"##################################################################                  OOOOOOOOOOOOOOOOOOO                            oooooooooooooooooooOOOOOOOOOOOOOOOOOOOoooooooooooooooooo          ooooooooooooooooooo                  XXXXXXXXXXXXXXXXXXXXXXXXXXXX          OOOOOOOOOOOOOOOOOOO         ",
"####################################################################################                   ###################                   oooooooooOOOOOOOOOOOOOOOOOOOOOOOOOOOOOOOOOOOOO          OOOOOOOOOoooooooooooooooooooooooooooo          XXXXXXXXXXXXXXXXXX                             #########",
"####################################################################################                   ###################                   oooooooooOOOOOOOOOOOOOOOOOOOOOOOOOOOOOOOOOOOOO          OOOOOOOOOoooooooooooooooooooooooooooo          XXXXXXXXXXXXXXXXXX                             #########",
"####################################################################################                   ###################                   oooooooooOOOOOOOOOOOOOOOOOOOOOOOOOOOOOOOOOOOOO          OOOOOOOOOoooooooooooooooooooooooooooo          XXXXXXXXXXXXXXXXXX                             #########",
"####################################################################################                   ###################                   oooooooooOOOOOOOOOOOOOOOOOOOOOOOOOOOOOOOOOOOOO          OOOOOOOOOoooooooooooooooooooooooooooo          XXXXXXXXXXXXXXXXXX                             #########",
"####################################################################################                   ###################                   oooooooooOOOOOOOOOOOOOOOOOOOOOOOOOOOOOOOOOOOOO          OOOOOOOOOoooooooooooooooooooooooooooo          XXXXXXXXXXXXXXXXXX                             #########",
"####################################################################################                   ###################                   oooooooooOOOOOOOOOOOOOOOOOOOOOOOOOOOOOOOOOOOOO          OOOOOOOOOoooooooooooooooooooooooooooo          XXXXXXXXXXXXXXXXXX                             #########",
"####################################################################################                   ###################                   oooooooooOOOOOOOOOOOOOOOOOOOOOOOOOOOOOOOOOOOOO          OOOOOOOOOoooooooooooooooooooooooooooo          XXXXXXXXXXXXXXXXXX                             #########",
"####################################################################################                   ###################                   oooooooooOOOOOOOOOOOOOOOOOOOOOOOOOOOOOOOOOOOOO          OOOOOOOOOoooooooooooooooooooooooooooo          XXXXXXXXXXXXXXXXXX                             #########",
"####################################################################################                   ###################                   oooooooooOOOOOOOOOOOOOOOOOOOOOOOOOOOOOOOOOOOOO          OOOOOOOOOoooooooooooooooooooooooooooo          XXXXXXXXXXXXXXXXXX                             #########",
"####################################################################################                   ###################                   oooooooooOOOOOOOOOOOOOOOOOOOOOOOOOOOOOOOOOOOOO          OOOOOOOOOoooooooooooooooooooooooooooo          XXXXXXXXXXXXXXXXXX                             #########",
"##########################################################################################################################                            oooooooooOOOOOOOOOOOOOOOOOOOOOOOOOOOO          OOOOOOOOOOOOOOOOOOOoooooooooooooooooooooooooooo                  XXXXXXXXXXXXXXXXXXX                   ",
"##########################################################################################################################                            oooooooooOOOOOOOOOOOOOOOOOOOOOOOOOOOO          OOOOOOOOOOOOOOOOOOOoooooooooooooooooooooooooooo                  XXXXXXXXXXXXXXXXXXX                   ",
"##########################################################################################################################                            oooooooooOOOOOOOOOOOOOOOOOOOOOOOOOOOO          OOOOOOOOOOOOOOOOOOOoooooooooooooooooooooooooooo                  XXXXXXXXXXXXXXXXXXX                   ",
"##########################################################################################################################                            oooooooooOOOOOOOOOOOOOOOOOOOOOOOOOOOO          OOOOOOOOOOOOOOOOOOOoooooooooooooooooooooooooooo                  XXXXXXXXXXXXXXXXXXX                   ",
"##########################################################################################################################                            oooooooooOOOOOOOOOOOOOOOOOOOOOOOOOOOO          OOOOOOOOOOOOOOOOOOOoooooooooooooooooooooooooooo                  XXXXXXXXXXXXXXXXXXX                   ",
"##########################################################################################################################                            oooooooooOOOOOOOOOOOOOOOOOOOOOOOOOOOO          OOOOOOOOOOOOOOOOOOOoooooooooooooooooooooooooooo                  XXXXXXXXXXXXXXXXXXX                   ",
"##########################################################################################################################                            oooooooooOOOOOOOOOOOOOOOOOOOOOOOOOOOO          OOOOOOOOOOOOOOOOOOOoooooooooooooooooooooooooooo                  XXXXXXXXXXXXXXXXXXX                   ",
"##########################################################################################################################                            oooooooooOOOOOOOOOOOOOOOOOOOOOOOOOOOO          OOOOOOOOOOOOOOOOOOOoooooooooooooooooooooooooooo                  XXXXXXXXXXXXXXXXXXX                   ",
"##########################################################################################################################                            oooooooooOOOOOOOOOOOOOOOOOOOOOOOOOOOO          OOOOOOOOOOOOOOOOOOOoooooooooooooooooooooooooooo                  XXXXXXXXXXXXXXXXXXX                   ",
"###################################################################################################################################                            OOOOOOOOOOOOOOOOOOOOOOOOOOOOOOOOOOOOOOOOOOOOOOOOOOOOOOOOOOOOOOOOOOoooooooooooooooooooooooooooo                            XXXXXXXXXX         ",
"###################################################################################################################################                            OOOOOOOOOOOOOOOOOOOOOOOOOOOOOOOOOOOOOOOOOOOOOOOOOOOOOOOOOOOOOOOOOOoooooooooooooooooooooooooooo                            XXXXXXXXXX         ",
"###################################################################################################################################                            OOOOOOOOOOOOOOOOOOOOOOOOOOOOOOOOOOOOOOOOOOOOOOOOOOOOOOOOOOOOOOOOOOoooooooooooooooooooooooooooo                            XXXXXXXXXX         ",
"###################################################################################################################################                            OOOOOOOOOOOOOOOOOOOOOOOOOOOOOOOOOOOOOOOOOOOOOOOOOOOOOOOOOOOOOOOOOOoooooooooooooooooooooooooooo                            XXXXXXXXXX         ",
"###################################################################################################################################                            OOOOOOOOOOOOOOOOOOOOOOOOOOOOOOOOOOOOOOOOOOOOOOOOOOOOOOOOOOOOOOOOOOoooooooooooooooooooooooooooo                            XXXXXXXXXX         ",
"###################################################################################################################################                            OOOOOOOOOOOOOOOOOOOOOOOOOOOOOOOOOOOOOOOOOOOOOOOOOOOOOOOOOOOOOOOOOOoooooooooooooooooooooooooooo                            XXXXXXXXXX         ",
"###################################################################################################################################                            OOOOOOOOOOOOOOOOOOOOOOOOOOOOOOOOOOOOOOOOOOOOOOOOOOOOOOOOOOOOOOOOOOoooooooooooooooooooooooooooo                            XXXXXXXXXX         ",
"###################################################################################################################################                            OOOOOOOOOOOOOOOOOOOOOOOOOOOOOOOOOOOOOOOOOOOOOOOOOOOOOOOOOOOOOOOOOOoooooooooooooooooooooooooooo                            XXXXXXXXXX         ",
"###################################################################################################################################                            OOOOOOOOOOOOOOOOOOOOOOOOOOOOOOOOOOOOOOOOOOOOOOOOOOOOOOOOOOOOOOOOOOoooooooooooooooooooooooooooo                            XXXXXXXXXX         ",
"###################################################################################################################################                            OOOOOOOOOOOOOOOOOOOOOOOOOOOOOOOOOOOOOOOOOOOOOOOOOOOOOOOOOOOOOOOOOOoooooooooooooooooooooooooooo                            XXXXXXXXXX         ",
"#############################################################################################################################################                  OOOOOOOOOOOOOOOOOOOOOOOOOOOOOOOOOOOOOOOOOOOOOOOOOOOOOOOOOOOOOOOOOOOOOOOOOOOOOOOOOOOOOoooooooooooooooooo                                      ",
"#############################################################################################################################################                  OOOOOOOOOOOOOOOOOOOOOOOOOOOOOOOOOOOOOOOOOOOOOOOOOOOOOOOOOOOOOOOOOOOOOOOOOOOOOOOOOOOOOoooooooooooooooooo                                      ",
"#############################################################################################################################################                  OOOOOOOOOOOOOOOOOOOOOOOOOOOOOOOOOOOOOOOOOOOOOOOOOOOOOOOOOOOOOOOOOOOOOOOOOOOOOOOOOOOOOoooooooooooooooooo                                      ",
"#############################################################################################################################################                  OOOOOOOOOOOOOOOOOOOOOOOOOOOOOOOOOOOOOOOOOOOOOOOOOOOOOOOOOOOOOOOOOOOOOOOOOOOOOOOOOOOOOoooooooooooooooooo                                      ",
"#############################################################################################################################################                  OOOOOOOOOOOOOOOOOOOOOOOOOOOOOOOOOOOOOOOOOOOOOOOOOOOOOOOOOOOOOOOOOOOOOOOOOOOOOOOOOOOOOoooooooooooooooooo                                      ",
"#############################################################################################################################################                  OOOOOOOOOOOOOOOOOOOOOOOOOOOOOOOOOOOOOOOOOOOOOOOOOOOOOOOOOOOOOOOOOOOOOOOOOOOOOOOOOOOOOoooooooooooooooooo                                      ",
"#############################################################################################################################################                  OOOOOOOOOOOOOOOOOOOOOOOOOOOOOOOOOOOOOOOOOOOOOOOOOOOOOOOOOOOOOOOOOOOOOOOOOOOOOOOOOOOOOoooooooooooooooooo                                      ",
"#############################################################################################################################################                  OOOOOOOOOOOOOOOOOOOOOOOOOOOOOOOOOOOOOOOOOOOOOOOOOOOOOOOOOOOOOOOOOOOOOOOOOOOOOOOOOOOOOoooooooooooooooooo                                      ",
"#############################################################################################################################################                  OOOOOOOOOOOOOOOOOOOOOOOOOOOOOOOOOOOOOOOOOOOOOOOOOOOOOOOOOOOOOOOOOOOOOOOOOOOOOOOOOOOOOoooooooooooooooooo                                      ",
"#############################################################################################################################################         OOOOOOOOOOOOOOOOOOOOOOOOOOOOOOOOOOOOOOOOOOOOOOOOOOOOOOOOOOOOOOOOOOOOOOOOOOOOOOOOOOOOOOOOOOOOOOOOOOOOOOOoooooooooOOOOOOOOOOOOOOOOOOO          #########",
"#############################################################################################################################################         OOOOOOOOOOOOOOOOOOOOOOOOOOOOOOOOOOOOOOOOOOOOOOOOOOOOOOOOOOOOOOOOOOOOOOOOOOOOOOOOOOOOOOOOOOOOOOOOOOOOOOOoooooooooOOOOOOOOOOOOOOOOOOO          #########",
"#############################################################################################################################################         OOOOOOOOOOOOOOOOOOOOOOOOOOOOOOOOOOOOOOOOOOOOOOOOOOOOOOOOOOOOOOOOOOOOOOOOOOOOOOOOOOOOOOOOOOOOOOOOOOOOOOOoooooooooOOOOOOOOOOOOOOOOOOO          #########",
"#############################################################################################################################################         OOOOOOOOOOOOOOOOOOOOOOOOOOOOOOOOOOOOOOOOOOOOOOOOOOOOOOOOOOOOOOOOOOOOOOOOOOOOOOOOOOOOOOOOOOOOOOOOOOOOOOOoooooooooOOOOOOOOOOOOOOOOOOO          #########",
"#############################################################################################################################################         OOOOOOOOOOOOOOOOOOOOOOOOOOOOOOOOOOOOOOOOOOOOOOOOOOOOOOOOOOOOOOOOOOOOOOOOOOOOOOOOOOOOOOOOOOOOOOOOOOOOOOOoooooooooOOOOOOOOOOOOOOOOOOO          #########",
"#############################################################################################################################################         OOOOOOOOOOOOOOOOOOOOOOOOOOOOOOOOOOOOOOOOOOOOOOOOOOOOOOOOOOOOOOOOOOOOOOOOOOOOOOOOOOOOOOOOOOOOOOOOOOOOOOOoooooooooOOOOOOOOOOOOOOOOOOO          #########",
"#############################################################################################################################################         OOOOOOOOOOOOOOOOOOOOOOOOOOOOOOOOOOOOOOOOOOOOOOOOOOOOOOOOOOOOOOOOOOOOOOOOOOOOOOOOOOOOOOOOOOOOOOOOOOOOOOOoooooooooOOOOOOOOOOOOOOOOOOO          #########",
"#############################################################################################################################################         OOOOOOOOOOOOOOOOOOOOOOOOOOOOOOOOOOOOOOOOOOOOOOOOOOOOOOOOOOOOOOOOOOOOOOOOOOOOOOOOOOOOOOOOOOOOOOOOOOOOOOOoooooooooOOOOOOOOOOOOOOOOOOO          #########",
"#############################################################################################################################################         OOOOOOOOOOOOOOOOOOOOOOOOOOOOOOOOOOOOOOOOOOOOOOOOOOOOOOOOOOOOOOOOOOOOOOOOOOOOOOOOOOOOOOOOOOOOOOOOOOOOOOOoooooooooOOOOOOOOOOOOOOOOOOO          #########",
"#############################################################################################################################################         OOOOOOOOOOOOOOOOOOOOOOOOOOOOOOOOOOOOOOOOOOOOOOOOOOOOOOOOOOOOOOOOOOOOOOOOOOOOOOOOOOOOOOOOOOOOOOOOOOOOOOOOOOOOOOOOOOOOOOOOOOOOOOOOOOO                   ",
"#############################################################################################################################################         OOOOOOOOOOOOOOOOOOOOOOOOOOOOOOOOOOOOOOOOOOOOOOOOOOOOOOOOOOOOOOOOOOOOOOOOOOOOOOOOOOOOOOOOOOOOOOOOOOOOOOOOOOOOOOOOOOOOOOOOOOOOOOOOOOO                   ",
"#############################################################################################################################################         OOOOOOOOOOOOOOOOOOOOOOOOOOOOOOOOOOOOOOOOOOOOOOOOOOOOOOOOOOOOOOOOOOOOOOOOOOOOOOOOOOOOOOOOOOOOOOOOOOOOOOOOOOOOOOOOOOOOOOOOOOOOOOOOOOO                   ",
"#############################################################################################################################################         OOOOOOOOOOOOOOOOOOOOOOOOOOOOOOOOOOOOOOOOOOOOOOOOOOOOOOOOOOOOOOOOOOOOOOOOOOOOOOOOOOOOOOOOOOOOOOOOOOOOOOOOOOOOOOOOOOOOOOOOOOOOOOOOOOO                   ",
"#############################################################################################################################################         OOOOOOOOOOOOOOOOOOOOOOOOOOOOOOOOOOOOOOOOOOOOOOOOOOOOOOOOOOOOOOOOOOOOOOOOOOOOOOOOOOOOOOOOOOOOOOOOOOOOOOOOOOOOOOOOOOOOOOOOOOOOOOOOOOO                   ",
"#############################################################################################################################################         OOOOOOOOOOOOOOOOOOOOOOOOOOOOOOOOOOOOOOOOOOOOOOOOOOOOOOOOOOOOOOOOOOOOOOOOOOOOOOOOOOOOOOOOOOOOOOOOOOOOOOOOOOOOOOOOOOOOOOOOOOOOOOOOOOO                   ",
"#############################################################################################################################################         OOOOOOOOOOOOOOOOOOOOOOOOOOOOOOOOOOOOOOOOOOOOOOOOOOOOOOOOOOOOOOOOOOOOOOOOOOOOOOOOOOOOOOOOOOOOOOOOOOOOOOOOOOOOOOOOOOOOOOOOOOOOOOOOOOO                   ",
"#############################################################################################################################################         OOOOOOOOOOOOOOOOOOOOOOOOOOOOOOOOOOOOOOOOOOOOOOOOOOOOOOOOOOOOOOOOOOOOOOOOOOOOOOOOOOOOOOOOOOOOOOOOOOOOOOOOOOOOOOOOOOOOOOOOOOOOOOOOOOO                   ",
"#############################################################################################################################################         OOOOOOOOOOOOOOOOOOOOOOOOOOOOOOOOOOOOOOOOOOOOOOOOOOOOOOOOOOOOOOOOOOOOOOOOOOOOOOOOOOOOOOOOOOOOOOOOOOOOOOOOOOOOOOOOOOOOOOOOOOOOOOOOOOO                   ",
"#############################################################################################################################################         OOOOOOOOOOOOOOOOOOOOOOOOOOOOOOOOOOOOOOOOOOOOOOOOOOOOOOOOOOOOOOOOOOOOOOOOOOOOOOOOOOOOOOOOOOOOOOOOOOOOOOOOOOOOOOOOOOOOOOOOOOOOOOOOOOO                   ",
"#############################################################################################################################################         OOOOOOOOOOOOOOOOOOOOOOOOOOOOOOOOOOOOOOOOOOOOOOOOOOOOOOOOOOOOOOOOOOOOOOOOOOOOOOOOOOOOOOOOOOOOOOOOOOOOOOOOOOOOOOOOOOOOOOOOOOOOOOOOOOOOOOOOOOOOO         ",
"#############################################################################################################################################         OOOOOOOOOOOOOOOOOOOOOOOOOOOOOOOOOOOOOOOOOOOOOOOOOOOOOOOOOOOOOOOOOOOOOOOOOOOOOOOOOOOOOOOOOOOOOOOOOOOOOOOOOOOOOOOOOOOOOOOOOOOOOOOOOOOOOOOOOOOOO         ",
"#############################################################################################################################################         OOOOOOOOOOOOOOOOOOOOOOOOOOOOOOOOOOOOOOOOOOOOOOOOOOOOOOOOOOOOOOOOOOOOOOOOOOOOOOOOOOOOOOOOOOOOOOOOOOOOOOOOOOOOOOOOOOOOOOOOOOOOOOOOOOOOOOOOOOOOO         ",
"#############################################################################################################################################         OOOOOOOOOOOOOOOOOOOOOOOOOOOOOOOOOOOOOOOOOOOOOOOOOOOOOOOOOOOOOOOOOOOOOOOOOOOOOOOOOOOOOOOOOOOOOOOOOOOOOOOOOOOOOOOOOOOOOOOOOOOOOOOOOOOOOOOOOOOOO         ",
"#############################################################################################################################################         OOOOOOOOOOOOOOOOOOOOOOOOOOOOOOOOOOOOOOOOOOOOOOOOOOOOOOOOOOOOOOOOOOOOOOOOOOOOOOOOOOOOOOOOOOOOOOOOOOOOOOOOOOOOOOOOOOOOOOOOOOOOOOOOOOOOOOOOOOOOO         ",
"#############################################################################################################################################         OOOOOOOOOOOOOOOOOOOOOOOOOOOOOOOOOOOOOOOOOOOOOOOOOOOOOOOOOOOOOOOOOOOOOOOOOOOOOOOOOOOOOOOOOOOOOOOOOOOOOOOOOOOOOOOOOOOOOOOOOOOOOOOOOOOOOOOOOOOOO         ",
"#############################################################################################################################################         OOOOOOOOOOOOOOOOOOOOOOOOOOOOOOOOOOOOOOOOOOOOOOOOOOOOOOOOOOOOOOOOOOOOOOOOOOOOOOOOOOOOOOOOOOOOOOOOOOOOOOOOOOOOOOOOOOOOOOOOOOOOOOOOOOOOOOOOOOOOO         ",
"#############################################################################################################################################         OOOOOOOOOOOOOOOOOOOOOOOOOOOOOOOOOOOOOOOOOOOOOOOOOOOOOOOOOOOOOOOOOOOOOOOOOOOOOOOOOOOOOOOOOOOOOOOOOOOOOOOOOOOOOOOOOOOOOOOOOOOOOOOOOOOOOOOOOOOOO         ",
"#############################################################################################################################################         OOOOOOOOOOOOOOOOOOOOOOOOOOOOOOOOOOOOOOOOOOOOOOOOOOOOOOOOOOOOOOOOOOOOOOOOOOOOOOOOOOOOOOOOOOOOOOOOOOOOOOOOOOOOOOOOOOOOOOOOOOOOOOOOOOOOOOOOOOOOO         ",
"#############################################################################################################################################         OOOOOOOOOOOOOOOOOOOOOOOOOOOOOOOOOOOOOOOOOOOOOOOOOOOOOOOOOOOOOOOOOOOOOOOOOOOOOOOOOOOOOOOOOOOOOOOOOOOOOOOOOOOOOOOOoooooooooooooooooooOOOOOOOOOO         ",
"#############################################################################################################################################         OOOOOOOOOOOOOOOOOOOOOOOOOOOOOOOOOOOOOOOOOOOOOOOOOOOOOOOOOOOOOOOOOOOOOOOOOOOOOOOOOOOOOOOOOOOOOOOOOOOOOOOOOOOOOOOOoooooooooooooooooooOOOOOOOOOO         ",
"#############################################################################################################################################         OOOOOOOOOOOOOOOOOOOOOOOOOOOOOOOOOOOOOOOOOOOOOOOOOOOOOOOOOOOOOOOOOOOOOOOOOOOOOOOOOOOOOOOOOOOOOOOOOOOOOOOOOOOOOOOOoooooooooooooooooooOOOOOOOOOO         ",
"#############################################################################################################################################         OOOOOOOOOOOOOOOOOOOOOOOOOOOOOOOOOOOOOOOOOOOOOOOOOOOOOOOOOOOOOOOOOOOOOOOOOOOOOOOOOOOOOOOOOOOOOOOOOOOOOOOOOOOOOOOOoooooooooooooooooooOOOOOOOOOO         ",
"#############################################################################################################################################         OOOOOOOOOOOOOOOOOOOOOOOOOOOOOOOOOOOOOOOOOOOOOOOOOOOOOOOOOOOOOOOOOOOOOOOOOOOOOOOOOOOOOOOOOOOOOOOOOOOOOOOOOOOOOOOOoooooooooooooooooooOOOOOOOOOO         ",
"#############################################################################################################################################         OOOOOOOOOOOOOOOOOOOOOOOOOOOOOOOOOOOOOOOOOOOOOOOOOOOOOOOOOOOOOOOOOOOOOOOOOOOOOOOOOOOOOOOOOOOOOOOOOOOOOOOOOOOOOOOOoooooooooooooooooooOOOOOOOOOO         ",
"#############################################################################################################################################         OOOOOOOOOOOOOOOOOOOOOOOOOOOOOOOOOOOOOOOOOOOOOOOOOOOOOOOOOOOOOOOOOOOOOOOOOOOOOOOOOOOOOOOOOOOOOOOOOOOOOOOOOOOOOOOOoooooooooooooooooooOOOOOOOOOO         ",
"#############################################################################################################################################         OOOOOOOOOOOOOOOOOOOOOOOOOOOOOOOOOOOOOOOOOOOOOOOOOOOOOOOOOOOOOOOOOOOOOOOOOOOOOOOOOOOOOOOOOOOOOOOOOOOOOOOOOOOOOOOOoooooooooooooooooooOOOOOOOOOO         ",
"#############################################################################################################################################         OOOOOOOOOOOOOOOOOOOOOOOOOOOOOOOOOOOOOOOOOOOOOOOOOOOOOOOOOOOOOOOOOOOOOOOOOOOOOOOOOOOOOOOOOOOOOOOOOOOOOOOOOOOOOOOOoooooooooooooooooooOOOOOOOOOO         ",
"#############################################################################################################################################         OOOOOOOOOOOOOOOOOOOOOOOOOOOOooooooooooooooooooooooooooooOOOOOOOOOOOOOOOOOOOOOOOOOOOOOOOOOOOOOOooooooooooooooooooooooooooooooooooooooooooooooo         ",
"#############################################################################################################################################         OOOOOOOOOOOOOOOOOOOOOOOOOOOOooooooooooooooooooooooooooooOOOOOOOOOOOOOOOOOOOOOOOOOOOOOOOOOOOOOOooooooooooooooooooooooooooooooooooooooooooooooo         ",
"#############################################################################################################################################         OOOOOOOOOOOOOOOOOOOOOOOOOOOOooooooooooooooooooooooooooooOOOOOOOOOOOOOOOOOOOOOOOOOOOOOOOOOOOOOOooooooooooooooooooooooooooooooooooooooooooooooo         ",
"#############################################################################################################################################         OOOOOOOOOOOOOOOOOOOOOOOOOOOOooooooooooooooooooooooooooooOOOOOOOOOOOOOOOOOOOOOOOOOOOOOOOOOOOOOOooooooooooooooooooooooooooooooooooooooooooooooo         ",
"#############################################################################################################################################         OOOOOOOOOOOOOOOOOOOOOOOOOOOOooooooooooooooooooooooooooooOOOOOOOOOOOOOOOOOOOOOOOOOOOOOOOOOOOOOOooooooooooooooooooooooooooooooooooooooooooooooo         ",
"#############################################################################################################################################         OOOOOOOOOOOOOOOOOOOOOOOOOOOOooooooooooooooooooooooooooooOOOOOOOOOOOOOOOOOOOOOOOOOOOOOOOOOOOOOOooooooooooooooooooooooooooooooooooooooooooooooo         ",
"#############################################################################################################################################         OOOOOOOOOOOOOOOOOOOOOOOOOOOOooooooooooooooooooooooooooooOOOOOOOOOOOOOOOOOOOOOOOOOOOOOOOOOOOOOOooooooooooooooooooooooooooooooooooooooooooooooo         ",
"#############################################################################################################################################         OOOOOOOOOOOOOOOOOOOOOOOOOOOOooooooooooooooooooooooooooooOOOOOOOOOOOOOOOOOOOOOOOOOOOOOOOOOOOOOOooooooooooooooooooooooooooooooooooooooooooooooo         ",
"#############################################################################################################################################         OOOOOOOOOOOOOOOOOOOOOOOOOOOOooooooooooooooooooooooooooooOOOOOOOOOOOOOOOOOOOOOOOOOOOOOOOOOOOOOOooooooooooooooooooooooooooooooooooooooooooooooo         ",
"#############################################################################################################################################         OOOOOOOOOOOOOOOOOOOOOOOOOOOOooooooooooooooooooooooooooooOOOOOOOOOOOOOOOOOOOOOOOOOOOOOOOOOOOOOOooooooooooooooooooooooooooooooooooooooooooooooo         ",
"#############################################################################################################################################                  OOOOOOOOOOoooooooooooooooooooooooooooooooooooooooooooooooooooooooooooooooooooooooooooooooooooooooooooooooooooooooooooooooooooooooooo         ",
"#############################################################################################################################################                  OOOOOOOOOOoooooooooooooooooooooooooooooooooooooooooooooooooooooooooooooooooooooooooooooooooooooooooooooooooooooooooooooooooooooooooo         ",
"#############################################################################################################################################                  OOOOOOOOOOoooooooooooooooooooooooooooooooooooooooooooooooooooooooooooooooooooooooooooooooooooooooooooooooooooooooooooooooooooooooooo         ",
"#############################################################################################################################################                  OOOOOOOOOOoooooooooooooooooooooooooooooooooooooooooooooooooooooooooooooooooooooooooooooooooooooooooooooooooooooooooooooooooooooooooo         ",
"#############################################################################################################################################                  OOOOOOOOOOoooooooooooooooooooooooooooooooooooooooooooooooooooooooooooooooooooooooooooooooooooooooooooooooooooooooooooooooooooooooooo         ",
"#############################################################################################################################################                  OOOOOOOOOOoooooooooooooooooooooooooooooooooooooooooooooooooooooooooooooooooooooooooooooooooooooooooooooooooooooooooooooooooooooooooo         ",
"#############################################################################################################################################                  OOOOOOOOOOoooooooooooooooooooooooooooooooooooooooooooooooooooooooooooooooooooooooooooooooooooooooooooooooooooooooooooooooooooooooooo         ",
"#############################################################################################################################################                  OOOOOOOOOOoooooooooooooooooooooooooooooooooooooooooooooooooooooooooooooooooooooooooooooooooooooooooooooooooooooooooooooooooooooooooo         ",
"#############################################################################################################################################                  OOOOOOOOOOoooooooooooooooooooooooooooooooooooooooooooooooooooooooooooooooooooooooooooooooooooooooooooooooooooooooooooooooooooooooooo         ",
"######################################################################################################################################################                   oooooooooooooooooooooooooooooooooooooooooooooooooooooooooooooooooooooooooooooooooooooooooooooooooooooooooooooooooooooooooo         ",
"######################################################################################################################################################                   oooooooooooooooooooooooooooooooooooooooooooooooooooooooooooooooooooooooooooooooooooooooooooooooooooooooooooooooooooooooooo         ",
"######################################################################################################################################################                   oooooooooooooooooooooooooooooooooooooooooooooooooooooooooooooooooooooooooooooooooooooooooooooooooooooooooooooooooooooooooo         ",
"######################################################################################################################################################                   oooooooooooooooooooooooooooooooooooooooooooooooooooooooooooooooooooooooooooooooooooooooooooooooooooooooooooooooooooooooooo         ",
"######################################################################################################################################################                   oooooooooooooooooooooooooooooooooooooooooooooooooooooooooooooooooooooooooooooooooooooooooooooooooooooooooooooooooooooooooo         ",
"######################################################################################################################################################                   oooooooooooooooooooooooooooooooooooooooooooooooooooooooooooooooooooooooooooooooooooooooooooooooooooooooooooooooooooooooooo         ",
"######################################################################################################################################################                   oooooooooooooooooooooooooooooooooooooooooooooooooooooooooooooooooooooooooooooooooooooooooooooooooooooooooooooooooooooooooo         ",
"######################################################################################################################################################                   oooooooooooooooooooooooooooooooooooooooooooooooooooooooooooooooooooooooooooooooooooooooooooooooooooooooooooooooooooooooooo         ",
"######################################################################################################################################################                   oooooooooooooooooooooooooooooooooooooooooooooooooooooooooooooooooooooooooooooooooooooooooooooooooooooooooooooooooooooooooo         ",
"######################################################################################################################################################                   oooooooooooooooooooooooooooooooooooooooooooooooooooooooooooooooooooooooooooooooooooooooooooooooooooooooooooooooooooooooooo         ",
"###############################################################################################################################################################          oooooooooooooooooooooooooooooooooooooooooooooooooooooooooooooooooooooooooooooooooooooooooooooooooooooooooooooooooooooooooo         ",
"###############################################################################################################################################################          oooooooooooooooooooooooooooooooooooooooooooooooooooooooooooooooooooooooooooooooooooooooooooooooooooooooooooooooooooooooooo         ",
"###############################################################################################################################################################          oooooooooooooooooooooooooooooooooooooooooooooooooooooooooooooooooooooooooooooooooooooooooooooooooooooooooooooooooooooooooo         ",
"###############################################################################################################################################################          oooooooooooooooooooooooooooooooooooooooooooooooooooooooooooooooooooooooooooooooooooooooooooooooooooooooooooooooooooooooooo         ",
"###############################################################################################################################################################          oooooooooooooooooooooooooooooooooooooooooooooooooooooooooooooooooooooooooooooooooooooooooooooooooooooooooooooooooooooooooo         ",
"###############################################################################################################################################################          oooooooooooooooooooooooooooooooooooooooooooooooooooooooooooooooooooooooooooooooooooooooooooooooooooooooooooooooooooooooooo         ",
"###############################################################################################################################################################          oooooooooooooooooooooooooooooooooooooooooooooooooooooooooooooooooooooooooooooooooooooooooooooooooooooooooooooooooooooooooo         ",
"###############################################################################################################################################################          oooooooooooooooooooooooooooooooooooooooooooooooooooooooooooooooooooooooooooooooooooooooooooooooooooooooooooooooooooooooooo         ",
"###############################################################################################################################################################          oooooooooooooooooooooooooooooooooooooooooooooooooooooooooooooooooooooooooooooooooooooooooooooooooooooooooooooooooooooooooo         "
};
