/* XPM */
static char *palette_2[] = {
/* columns rows colors chars-per-pixel */
"300 300 242 2 ",
"   c #010000",
".  c #080604",
"X  c #0D0A05",
"o  c #0A030C",
"O  c #0B0B0B",
"+  c #120D07",
"@  c #161109",
"#  c #1B1408",
"$  c #1C150B",
"%  c #0E0411",
"&  c #150519",
"*  c #151514",
"=  c #1B1B1B",
"-  c #251B0E",
";  c #251B13",
":  c #281E10",
">  c #311F1B",
",  c #2E2311",
"<  c #27231E",
"1  c #352815",
"2  c #3B2C16",
"3  c #1D0623",
"4  c #24092B",
"5  c #2B0A33",
"6  c #310E39",
"7  c #252525",
"8  c #2D2D2D",
"9  c #37322A",
"0  c #373737",
"q  c #402F17",
"w  c #433219",
"e  c #49361C",
"r  c #4D3A1D",
"t  c #523D1E",
"y  c #4E0926",
"u  c #550B2A",
"i  c #570A2B",
"p  c #581729",
"a  c #6E0F36",
"s  c #583127",
"d  c #65362A",
"f  c #094E16",
"g  c #0A5217",
"h  c #095518",
"j  c #19581C",
"k  c #275B1F",
"l  c #0C681D",
"z  c #0E7821",
"x  c #137522",
"c  c #366625",
"v  c #564120",
"b  c #5C4423",
"n  c #5F422F",
"m  c #515330",
"M  c #664827",
"N  c #694E27",
"B  c #675227",
"V  c #6C5129",
"C  c #72552B",
"Z  c #785A2E",
"A  c #795531",
"S  c #626F2F",
"D  c #091557",
"F  c #05125B",
"G  c #08145B",
"H  c #0C165B",
"J  c #390B45",
"K  c #3C1448",
"L  c #1D2259",
"P  c #2C2C57",
"I  c #10176F",
"U  c #2B2872",
"Y  c #480D57",
"T  c #451553",
"R  c #463A54",
"E  c #561668",
"W  c #58126B",
"Q  c #631379",
"!  c #67227A",
"~  c #474747",
"^  c #554851",
"/  c #5C5C5B",
"(  c #675450",
")  c #796250",
"_  c #715678",
"`  c #676767",
"'  c #74716B",
"]  c #747474",
"[  c #7B7B7B",
"{  c #8A3A3D",
"}  c #895039",
"|  c #836232",
" . c #8A6835",
".. c #926D38",
"X. c #8C7C3B",
"o. c #96743A",
"O. c #9D763C",
"+. c #A37A3E",
"@. c #911448",
"#. c #B4195A",
"$. c #A52C4E",
"%. c #C4365D",
"&. c #C71964",
"*. c #C91B65",
"=. c #D01C68",
"-. c #C72861",
";. c #C93060",
":. c #957252",
">. c #A87E42",
",. c #BB764C",
"<. c #B66E52",
"1. c #9C6261",
"2. c #C24958",
"3. c #C15456",
"4. c #C16D51",
"5. c #0F8926",
"6. c #12982A",
"7. c #358E2E",
"8. c #13A82E",
"9. c #0EB731",
"0. c #13B532",
"q. c #16B733",
"w. c #30AD35",
"e. c #5E9B3A",
"r. c #759A3E",
"t. c #4FA63A",
"y. c #348C7D",
"u. c #7C9758",
"i. c #508C72",
"p. c #6F8C65",
"a. c #8E8D16",
"s. c #938F1A",
"d. c #8F9013",
"f. c #919016",
"g. c #969319",
"h. c #A9A718",
"j. c #9A8C28",
"k. c #AA8E33",
"l. c #AA8D35",
"z. c #B1A523",
"x. c #CAA93C",
"c. c #D2B736",
"v. c #CBCA1B",
"b. c #E2DF1F",
"n. c #E9E71E",
"m. c #F8F61F",
"M. c #FAF91E",
"N. c #DDC930",
"B. c #E1CE2E",
"V. c #E6D72A",
"C. c #F1EB23",
"Z. c #F4F021",
"A. c #8E9249",
"S. c #978B55",
"D. c #AD8242",
"F. c #A78E49",
"G. c #AB8948",
"H. c #B38645",
"J. c #B68A45",
"K. c #B98B47",
"L. c #B88648",
"P. c #B68A49",
"I. c #BC8C48",
"U. c #BC9245",
"Y. c #BF9049",
"T. c #AA9556",
"R. c #9E9D61",
"E. c #8CAA73",
"W. c #C28B45",
"Q. c #C29743",
"!. c #C1914A",
"~. c #1C1B8E",
"^. c #221D99",
"/. c #362C8D",
"(. c #281FAB",
"). c #291EB6",
"_. c #3628AB",
"`. c #2C20B4",
"'. c #2E21B8",
"]. c #6D1485",
"[. c #72158C",
"{. c #771591",
"}. c #7A1795",
"|. c #7C1797",
" X c #7E189A",
".X c #4E3A97",
"XX c #75258B",
"oX c #4231A2",
"OX c #574095",
"+X c #6B5083",
"@X c #81199D",
"#X c #871DA4",
"$X c #8B28A6",
"%X c #932FAF",
"&X c #9725B6",
"*X c #9530B1",
"=X c #9F29C0",
"-X c #A82FCA",
";X c #AA33CA",
":X c #B538D8",
">X c #BE3BE1",
",X c #C53EEA",
"<X c #CB3EF1",
"1X c #C940EE",
"2X c #CE41F5",
"3X c #D745FF",
"4X c #DD47FE",
"5X c #E249FF",
"6X c #158987",
"7X c #1A8B86",
"8X c #158C89",
"9X c #16948F",
"0X c #268C82",
"qX c #1DA69C",
"wX c #21AB9E",
"eX c #21AFA2",
"rX c #22B8A9",
"tX c #6EB88B",
"yX c #28CDB8",
"uX c #5DC79E",
"iX c #67C397",
"pX c #4FD3AE",
"aX c #2CDCC3",
"sX c #2EE7CC",
"dX c #37E5C6",
"fX c #30E9CD",
"gX c #27EFD6",
"hX c #31EED1",
"jX c #878787",
"kX c #91908F",
"lX c #979797",
"zX c #A1A1A1",
"xX c #ABAAAA",
"cX c #B8B8B8",
"vX c #C5C5C5",
"bX c #CACACA",
"nX c #CFCFD0",
"mX c #D6D6D6",
"MX c #E2E2E2",
"NX c #E9E9E9",
"BX c #F3F3F3",
"VX c white",
/* pixels */
"VXVXVXVXVXVXVXVXVXVXVXVXVXVXVXVXVXVXVXVXVXVXVXVXVXVXVXVXVXVXVXVXVXVXVXVXVXVXVXVXVXVXVXVXVXVXVXVXVXVXVXVXVXVXVXVXVXVXVXVXVXVXVXVXVXVXVXVXVXVXVXVXVXVXVXVXVXVXVXVXVXVXVXVXVXVXVXVXVXVXVXVXVXVXVXVXVXVXVXVXVXVXVXVXVXVXVXVXVXVXVXmXjX8                                                                                                                                                 8 1.nXVXVXVXVXVXVXVXVXVXVXVXVXVXVXVXVXVXVXVXVXVXVXVXVXVXVXVXVXVXVXVXVXVXVXVXVXVXVXVXVXVXVXVXVXVXVXVXVXVXVXVXVXVXVXVXVXVXVXVXVXVXVXVXVXVXVXVXVXVXVXVXVXVXVXVXVXVXVXVXVXVXVXVXVXVXVXVXVXVXVXVXVXVXVXVXVXVXVXVXVXVXVXVXVXVXVXVXVXVXVXVX",
"VXVXVXVXVXVXVXVXVXVXVXVXVXVXVXVXVXVXVXVXVXVXVXVXVXVXVXVXVXVXVXVXVXVXVXVXVXVXVXVXVXVXVXVXVXVXVXVXVXVXVXVXVXVXVXVXVXVXVXVXVXVXVXVXVXVXVXVXVXVXVXVXVXVXVXVXVXVXVXVXVXVXVXVXVXVXVXVXVXVXVXVXVXVXVXVXVXVXVXVXVXVXVXVXVXVXVXVXVXVXVXmX[ 8                                                                                                                                                 8 1.mXVXVXVXVXVXVXVXVXVXVXVXVXVXVXVXVXVXVXVXVXVXVXVXVXVXVXVXVXVXVXVXVXVXVXVXVXVXVXVXVXVXVXVXVXVXVXVXVXVXVXVXVXVXVXVXVXVXVXVXVXVXVXVXVXVXVXVXVXVXVXVXVXVXVXVXVXVXVXVXVXVXVXVXVXVXVXVXVXVXVXVXVXVXVXVXVXVXVXVXVXVXVXVXVXVXVXVXVXVXVXVX",
"VXVXVXVXVXVXVXVXVXVXVXVXVXVXVXVXVXVXVXVXVXVXVXVXVXVXVXVXVXVXVXVXVXVXVXVXVXVXVXVXVXVXVXVXVXVXVXVXVXVXVXVXVXVXVXVXVXVXVXVXVXVXVXVXVXVXVXVXVXVXVXVXVXVXVXVXVXVXVXVXVXVXVXVXVXVXVXVXVXVXVXVXVXVXVXVXVXVXVXVXVXVXVXVXVXVXVXVXVXVXVXmX+X8                                                                                                                                                 8 [ mXVXVXVXVXVXVXVXVXVXVXVXVXVXVXVXVXVXVXVXVXVXVXVXVXVXVXVXVXVXVXVXVXVXVXVXVXVXVXVXVXVXVXVXVXVXVXVXVXVXVXVXVXVXVXVXVXVXVXVXVXVXVXVXVXVXVXVXVXVXVXVXVXVXVXVXVXVXVXVXVXVXVXVXVXVXVXVXVXVXVXVXVXVXVXVXVXVXVXVXVXVXVXVXVXVXVXVXVXVXVXVX",
"VXVXVXVXVXVXVXVXVXVXVXVXVXVXVXVXVXVXVXVXVXVXVXVXVXVXVXVXVXVXVXVXVXVXVXVXVXVXVXVXVXVXVXVXVXVXVXVXVXVXVXVXVXVXVXVXVXVXVXVXVXVXVXVXVXVXVXVXVXVXVXVXVXVXVXVXVXVXVXVXVXVXVXVXVXVXVXVXVXVXVXVXVXVXVXVXVXVXVXVXVXVXVXVXVXVXVXVXVXVXVXmXtX8                                                                                                                                                 8 tXmXVXVXVXVXVXVXVXVXVXVXVXVXVXVXVXVXVXVXVXVXVXVXVXVXVXVXVXVXVXVXVXVXVXVXVXVXVXVXVXVXVXVXVXVXVXVXVXVXVXVXVXVXVXVXVXVXVXVXVXVXVXVXVXVXVXVXVXVXVXVXVXVXVXVXVXVXVXVXVXVXVXVXVXVXVXVXVXVXVXVXVXVXVXVXVXVXVXVXVXVXVXVXVXVXVXVXVXVXVXVXVX",
"VXVXVXVXVXVXVXVXVXVXVXVXVXVXVXVXVXVXVXVXVXVXVXVXVXVXVXVXVXVXVXVXVXVXVXVXVXVXVXVXVXVXVXVXVXVXVXVXVXVXVXVXVXVXVXVXVXVXVXVXVXVXVXVXVXVXVXVXVXVXVXVXVXVXVXVXVXVXVXVXVXVXVXVXVXVXVXVXVXVXVXVXVXVXVXVXVXVXVXVXVXVXVXVXVXVXVXVXVXVXVXmXjX8                                                                                                                                                 8 tXmXVXVXVXVXVXVXVXVXVXVXVXVXVXVXVXVXVXVXVXVXVXVXVXVXVXVXVXVXVXVXVXVXVXVXVXVXVXVXVXVXVXVXVXVXVXVXVXVXVXVXVXVXVXVXVXVXVXVXVXVXVXVXVXVXVXVXVXVXVXVXVXVXVXVXVXVXVXVXVXVXVXVXVXVXVXVXVXVXVXVXVXVXVXVXVXVXVXVXVXVXVXVXVXVXVXVXVXVXVXVXVX",
"VXVXVXVXVXVXVXVXVXVXVXVXVXVXVXVXVXVXVXVXVXVXVXVXVXVXVXVXVXVXVXVXVXVXVXVXVXVXVXVXVXVXVXVXVXVXVXVXVXVXVXVXVXVXVXVXVXVXVXVXVXVXVXVXVXVXVXVXVXVXVXVXVXVXVXVXVXVXVXVXVXVXVXVXVXVXVXVXVXVXVXVXVXVXVXVXVXVXVXVXVXVXVXVXVXVXVXVXVXVXVXmXjX8                                                                                                                                                 8 jXmXVXVXVXVXVXVXVXVXVXVXVXVXVXVXVXVXVXVXVXVXVXVXVXVXVXVXVXVXVXVXVXVXVXVXVXVXVXVXVXVXVXVXVXVXVXVXVXVXVXVXVXVXVXVXVXVXVXVXVXVXVXVXVXVXVXVXVXVXVXVXVXVXVXVXVXVXVXVXVXVXVXVXVXVXVXVXVXVXVXVXVXVXVXVXVXVXVXVXVXVXVXVXVXVXVXVXVXVXVXVXVX",
"VXVXVXVXVXVXVXVXVXVXVXVXVXVXVXVXVXVXVXVXVXVXVXVXVXVXVXVXVXVXVXVXVXVXVXVXVXVXVXVXVXVXVXVXVXVXVXVXVXVXVXVXVXVXVXVXVXVXVXVXVXVXVXVXVXVXVXVXVXVXVXVXVXVXVXVXVXVXVXVXVXVXVXVXVXVXVXVXVXVXVXVXVXVXVXVXVXVXVXVXVXVXVXVXVXVXVXVXVXVXVXmXjX8                                                                                                                                                 8 jXmXVXVXVXVXVXVXVXVXVXVXVXVXVXVXVXVXVXVXVXVXVXVXVXVXVXVXVXVXVXVXVXVXVXVXVXVXVXVXVXVXVXVXVXVXVXVXVXVXVXVXVXVXVXVXVXVXVXVXVXVXVXVXVXVXVXVXVXVXVXVXVXVXVXVXVXVXVXVXVXVXVXVXVXVXVXVXVXVXVXVXVXVXVXVXVXVXVXVXVXVXVXVXVXVXVXVXVXVXVXVXVX",
"VXVXVXVXVXVXVXVXVXVXVXVXVXVXVXVXVXVXVXVXVXVXVXVXVXVXVXVXVXVXVXVXVXVXVXVXVXVXVXVXVXVXVXVXVXVXVXVXVXVXVXVXVXVXVXVXVXVXVXVXVXVXVXVXVXVXVXVXVXVXVXVXVXVXVXVXVXVXVXVXVXVXVXVXVXVXVXVXVXVXVXVXVXVXVXVXVXVXVXVXVXVXVXVXVXVXVXVXVXVXVXbX1.8                                                                                                                                                 8 1.bXVXVXVXVXVXVXVXVXVXVXVXVXVXVXVXVXVXVXVXVXVXVXVXVXVXVXVXVXVXVXVXVXVXVXVXVXVXVXVXVXVXVXVXVXVXVXVXVXVXVXVXVXVXVXVXVXVXVXVXVXVXVXVXVXVXVXVXVXVXVXVXVXVXVXVXVXVXVXVXVXVXVXVXVXVXVXVXVXVXVXVXVXVXVXVXVXVXVXVXVXVXVXVXVXVXVXVXVXVXVXVX",
"VXVXVXVXVXVXVXVXVXVXVXVXVXVXVXVXVXVXVXVXVXVXVXVXVXVXVXVXVXVXVXVXVXVXVXVXVXVXVXVXVXVXVXVXVXVXVXVXVXVXVXVXVXVXVXVXVXVXVXVXVXVXVXVXVXVXVXVXVXVXVXVXVXVXVXVXVXVXVXVXVXVXVXBXMXmXbXvXbXbXbXbXbXbXbXbXbXbXbXbXbXbXbXbXbXbXbXbXbXbXbXxX' r : - - : : : : : : : : : : : : : : : : : : : : : : : : : : : : : : : : : : : : : : : : : : : : : : : : : : : : : : : : : : : : : : : : : : - - : r ' xXbXbXbXbXbXbXbXbXbXbXbXbXbXbXbXbXbXbXbXbXbXbXbXbXbXbXbXbXbXbXbXbXvXvXbXmXNXVXVXVXVXVXVXVXVXVXVXVXVXVXVXVXVXVXVXVXVXVXVXVXVXVXVXVXVXVXVXVXVXVXVXVXVXVXVXVXVXVXVXVXVXVXVXVXVXVXVXVXVXVXVXVXVXVXVXVXVXVXVXVXVXVXVXVXVXVXVXVXVXVXVX",
"VXVXVXVXVXVXVXVXVXVXVXVXVXVXVXVXVXVXVXVXVXVXVXVXVXVXVXVXVXVXVXVXVXVXVXVXVXVXVXVXVXVXVXVXVXVXVXVXVXVXVXVXVXVXVXVXVXVXVXVXVXVXVXVXVXVXVXVXVXVXVXVXVXVXVXVXVXVXVXVXVXVXVXMXcXkX] ] ] ] ] ] ] ] ] ] ] ] ] ] ] ] ] ] ] ] ] ] ] ] ] ' ) V M M M N M M M M M M M M M M M M M M M M M M M M M M M M M M M M M M M M M M M M M M M M M M M M M M M M M M M M M M M M M M M M M M M M M M M M V ) ' ] ] ] ] ] ] ] ] ] ] ] ] ] ] ] ] ] ] ] ] ] ] ] ] ] ] ] ] ] ] ] ] ] ] [ zXmXBXVXVXVXVXVXVXVXVXVXVXVXVXVXVXVXVXVXVXVXVXVXVXVXVXVXVXVXVXVXVXVXVXVXVXVXVXVXVXVXVXVXVXVXVXVXVXVXVXVXVXVXVXVXVXVXVXVXVXVXVXVXVXVXVXVXVXVXVXVXVXVXVXVX",
"VXVXVXVXVXVXVXVXVXVXVXVXVXVXVXVXVXVXVXVXVXVXVXVXVXVXVXVXVXVXVXVXVXVXVXVXVXVXVXVXVXVXVXVXVXVXVXVXVXVXVXVXVXVXVXVXVXVXVXVXVXVXVXVXVXVXVXVXVXVXVXVXVXVXVXVXVXVXVXVXVXVXVXmXkX~ 7 = 7 7 7 7 7 7 7 7 7 7 7 7 7 7 7 7 7 7 7 7 7 7 7 9 B  .O.+.O.O.O.O.O.O.O.O.O.O.O.O.O.O.O.O.O.O.O.O.O.O.O.O.O.O.O.O.O.O.O.O.O.O.O.O.O.O.O.O.O.O.O.O.O.O.O.O.O.O.O.O.O.O.O.O.O.O.O.O.O.O.O.O.O.O.O.+.+.O. .B 9 7 7 7 7 7 7 7 7 7 7 7 7 7 7 7 7 7 7 7 7 7 7 7 7 7 7 7 7 7 7 7 7 7 7 0 ` cXBXVXVXVXVXVXVXVXVXVXVXVXVXVXVXVXVXVXVXVXVXVXVXVXVXVXVXVXVXVXVXVXVXVXVXVXVXVXVXVXVXVXVXVXVXVXVXVXVXVXVXVXVXVXVXVXVXVXVXVXVXVXVXVXVXVXVXVXVXVXVXVXVXVX",
"VXVXVXVXVXVXVXVXVXVXVXVXVXVXVXVXVXVXVXVXVXVXVXVXVXVXVXVXVXVXVXVXVXVXVXVXVXVXVXVXVXVXVXVXVXVXVXVXVXVXVXVXVXVXVXVXVXVXVXVXVXVXVXVXVXVXVXVXVXVXVXVXVXVXVXVXVXVXVXVXVXVXVXbX] 7                                                   - v O.I.!.I.I.I.I.I.I.I.I.I.I.I.I.I.I.I.I.I.I.I.I.I.I.I.I.I.I.I.I.I.I.I.I.I.I.I.I.I.I.I.I.I.I.I.I.I.I.I.I.I.I.I.I.I.I.I.I.I.I.I.I.I.I.I.I.I.I.I.I.!.I.O.v -                                                                     O / xXNXVXVXVXVXVXVXVXVXVXVXVXVXVXVXVXVXVXVXVXVXVXVXVXVXVXVXVXVXVXVXVXVXVXVXVXVXVXVXVXVXVXVXVXVXVXVXVXVXVXVXVXVXVXVXVXVXVXVXVXVXVXVXVXVXVXVXVXVXVXVXVXVXVX",
"VXVXVXVXVXVXVXVXVXVXVXVXVXVXVXVXVXVXVXVXVXVXVXVXVXVXVXVXVXVXVXVXVXVXVXVXVXVXVXVXVXVXVXVXVXVXVXVXVXVXVXVXVXVXVXVXVXVXVXVXVXVXVXVXVXVXVXVXVXVXVXVXVXVXVXVXVXVXVXVXVXVXVXvX] =                                                   $ v O.Y.!.!.Y.Y.Y.Y.Y.Y.Y.Y.Y.Y.Y.Y.Y.Y.Y.Y.Y.Y.Y.Y.Y.Y.Y.Y.Y.Y.Y.Y.Y.Y.Y.Y.Y.Y.Y.Y.Y.Y.Y.Y.Y.Y.Y.Y.Y.Y.Y.Y.Y.Y.Y.Y.Y.Y.Y.Y.Y.Y.Y.Y.Y.Y.Y.Y.Y.Y.!.!.Y.O.v $                                                                     O ~ xXNXVXVXVXVXVXVXVXVXVXVXVXVXVXVXVXVXVXVXVXVXVXVXVXVXVXVXVXVXVXVXVXVXVXVXVXVXVXVXVXVXVXVXVXVXVXVXVXVXVXVXVXVXVXVXVXVXVXVXVXVXVXVXVXVXVXVXVXVXVXVXVXVXVX",
"VXVXVXVXVXVXVXVXVXVXVXVXVXVXVXVXVXVXVXVXVXVXVXVXVXVXVXVXVXVXVXVXVXVXVXVXVXVXVXVXVXVXVXVXVXVXVXVXVXVXVXVXVXVXVXVXVXVXVXVXVXVXVXVXVXVXVXVXVXVXVXVXVXVXVXVXVXVXVXVXVXVXVXbX] 7                                                   - v O.I.!.I.I.I.I.I.I.I.I.I.I.I.I.I.I.I.I.I.I.I.I.I.I.I.I.I.I.I.I.I.I.I.I.I.I.I.I.I.I.I.I.I.I.I.I.I.I.I.I.I.I.I.I.I.I.I.I.I.I.I.I.I.I.I.I.I.I.I.I.!.I.O.v -                                                                     * / xXNXVXVXVXVXVXVXVXVXVXVXVXVXVXVXVXVXVXVXVXVXVXVXVXVXVXVXVXVXVXVXVXVXVXVXVXVXVXVXVXVXVXVXVXVXVXVXVXVXVXVXVXVXVXVXVXVXVXVXVXVXVXVXVXVXVXVXVXVXVXVXVXVXVX",
"VXVXVXVXVXVXVXVXVXVXVXVXVXVXVXVXVXVXVXVXVXVXVXVXVXVXVXVXVXVXVXVXVXVXVXVXVXVXVXVXVXVXVXVXVXVXVXVXVXVXVXVXVXVXVXVXVXVXVXVXVXVXVXVXVXVXVXVXVXVXVXVXVXVXVXVXVXVXVXVXVXVXVXbX] 7                                                   - v O.K.!.I.K.K.K.K.K.K.K.K.K.K.K.K.K.K.K.K.K.K.K.K.K.K.K.K.K.K.K.K.K.K.K.K.K.K.K.K.K.K.K.K.K.K.K.K.K.K.K.K.K.K.K.K.K.K.K.K.K.K.K.K.K.K.K.K.K.K.I.Y.I.O.v -                                                                     * / xXBXVXVXVXVXVXVXVXVXVXVXVXVXVXVXVXVXVXVXVXVXVXVXVXVXVXVXVXVXVXVXVXVXVXVXVXVXVXVXVXVXVXVXVXVXVXVXVXVXVXVXVXVXVXVXVXVXVXVXVXVXVXVXVXVXVXVXVXVXVXVXVXVXVX",
"VXVXVXVXVXVXVXVXVXVXVXVXVXVXVXVXVXVXVXVXVXVXVXVXVXVXVXVXVXVXVXVXVXVXVXVXVXVXVXVXVXVXVXVXVXVXVXVXVXVXVXVXVXVXVXVXVXVXVXVXVXVXVXVXVXVXVXVXVXVXVXVXVXVXVXVXVXVXVXVXVXVXVXbX[ 7                                                   $ v o.K.!.I.K.K.K.K.K.K.K.K.K.K.K.K.K.K.K.K.K.K.K.K.K.K.K.K.K.K.K.K.K.K.K.K.K.K.K.K.K.K.K.K.K.K.K.K.K.K.K.K.K.K.K.K.K.K.K.K.K.K.K.K.K.K.K.K.K.K.I.Y.I.o.v $                                                                     * / cXBXVXVXVXVXVXVXVXVXVXVXVXVXVXVXVXVXVXVXVXVXVXVXVXVXVXVXVXVXVXVXVXVXVXVXVXVXVXVXVXVXVXVXVXVXVXVXVXVXVXVXVXVXVXVXVXVXVXVXVXVXVXVXVXVXVXVXVXVXVXVXVXVXVX",
"VXVXVXVXVXVXVXVXVXVXVXVXVXVXVXVXVXVXVXVXVXVXVXVXVXVXVXVXVXVXVXVXVXVXVXVXVXVXVXVXVXVXVXVXVXVXVXVXVXVXVXVXVXVXVXVXVXVXVXVXVXVXVXVXVXVXVXVXVXVXVXVXVXVXVXVXVXVXVXVXVXVXVXbX] 7                                                   $ v o.K.!.I.K.K.K.K.K.K.K.K.K.K.K.K.K.K.K.K.K.K.K.K.K.K.K.K.K.K.K.K.K.K.K.K.K.K.K.K.K.K.K.K.K.K.K.K.K.K.K.K.K.K.K.K.K.K.K.K.K.K.K.K.K.K.K.K.K.K.I.!.K.o.v $                                                                     * / xXBXVXVXVXVXVXVXVXVXVXVXVXVXVXVXVXVXVXVXVXVXVXVXVXVXVXVXVXVXVXVXVXVXVXVXVXVXVXVXVXVXVXVXVXVXVXVXVXVXVXVXVXVXVXVXVXVXVXVXVXVXVXVXVXVXVXVXVXVXVXVXVXVXVX",
"VXVXVXVXVXVXVXVXVXVXVXVXVXVXVXVXVXVXVXVXVXVXVXVXVXVXVXVXVXVXVXVXVXVXVXVXVXVXVXVXVXVXVXVXVXVXVXVXVXVXVXVXVXVXVXVXVXVXVXVXVXVXVXVXVXBXMXMXMXMXMXMXMXMXMXMXMXMXMXMXMXNXmXcX` 7               X + @ @ @ @ @ @ @ @ @ @ @ @ @ + + @ , N O.K.I.I.K.K.K.K.K.K.K.K.K.K.K.K.K.K.K.K.K.K.K.K.K.K.K.K.K.K.K.K.K.K.K.K.K.K.K.K.K.K.K.K.K.K.K.K.K.K.K.K.K.K.K.K.K.K.K.K.K.K.K.K.K.K.K.K.K.K.I.I.K.O.N , @ + @ @ @ @ @ @ @ @ @ @ @ @ @ @ @ @ @ @ @ @ @ @ @ + X               * ~ lXmXNXMXMXMXMXMXNXBXVXVXVXVXVXVXVXVXVXVXVXVXVXVXVXVXVXVXVXVXVXVXVXVXVXVXVXVXVXVXVXVXVXVXVXVXVXVXVXVXVXVXVXVXVXVXVXVXVXVXVXVXVXVXVXVXVXVXVXVXVXVXVXVXVX",
"VXVXVXVXVXVXVXVXVXVXVXVXVXVXVXVXVXVXVXVXVXVXVXVXVXVXVXVXVXVXVXVXVXVXVXVXVXVXVXVXVXVXVXVXVXVXVXVXVXVXVXVXVXVXVXVXVXVXVXVXVXVXVXVXBXbXxXlXlXlXlXlXlXlXlXlXlXlXlXlXlXlXlX] ~ *             X - 2 r t r r r r r r r r r r r r e r M | >.K.I.K.K.K.K.K.K.K.K.K.K.K.K.K.K.K.K.K.K.K.K.K.K.K.K.K.K.K.K.K.K.K.K.K.K.K.K.K.K.K.K.K.K.K.K.K.K.K.K.K.K.K.K.K.K.K.K.K.K.K.K.K.K.K.K.K.K.K.K.I.K.>.| M r e r r r r r r r r r r r r r r r r r r r r r t r w , +             O 0 ` kXlXlXlXlXlXlXxXbXBXVXVXVXVXVXVXVXVXVXVXVXVXVXVXVXVXVXVXVXVXVXVXVXVXVXVXVXVXVXVXVXVXVXVXVXVXVXVXVXVXVXVXVXVXVXVXVXVXVXVXVXVXVXVXVXVXVXVXVXVXVXVXVXVX",
"VXVXVXVXVXVXVXVXVXVXVXVXVXVXVXVXVXVXVXVXVXVXVXVXVXVXVXVXVXVXVXVXVXVXVXVXVXVXVXVXVXVXVXVXVXVXVXVXVXVXVXVXVXVXVXVXVXVXVXVXVXVXVXVXMXxX` ~ 0 0 ~ ~ ~ ~ ~ ~ ~ ~ ~ ~ ~ ~ ~ 0 = O             + 2 N | .......................... .....+.H.K.I.K.K.K.K.K.K.K.K.K.K.K.K.K.K.K.K.K.K.K.K.K.K.K.K.K.K.K.K.K.K.K.K.K.K.K.K.K.K.K.K.K.K.K.K.K.K.K.K.K.K.K.K.K.K.K.K.K.K.K.K.K.K.K.K.K.K.K.K.I.K.H.+..... ................................... . . .......Z r $               * 8 0 ~ ~ ~ 0 0 ~ ` xXMXVXVXVXVXVXVXVXVXVXVXVXVXVXVXVXVXVXVXVXVXVXVXVXVXVXVXVXVXVXVXVXVXVXVXVXVXVXVXVXVXVXVXVXVXVXVXVXVXVXVXVXVXVXVXVXVXVXVXVXVXVXVXVXVX",
"VXVXVXVXVXVXVXVXVXVXVXVXVXVXVXVXVXVXVXVXVXVXVXVXVXVXVXVXVXVXVXVXVXVXVXVXVXVXVXVXVXVXVXVXVXVXVXVXVXVXVXVXVXVXVXVXVXVXVXVXVXVXVXVXmXkX0 O     O O O   O O O O   O   O O O                 @ r | D.K.J.H.H.H.H.H.H.H.H.H.H.H.H.H.J.J.K.K.K.K.K.K.K.K.K.K.K.K.K.K.K.K.K.K.K.K.K.K.K.K.K.K.K.K.K.K.K.K.K.K.K.K.K.K.K.K.K.K.K.K.K.K.K.K.K.K.K.K.K.K.K.K.K.K.K.K.K.K.K.K.K.K.K.K.K.K.K.K.K.K.J.J.H.H.H.H.H.H.H.H.H.H.H.H.H.H.H.H.H.H.H.H.H.H.J.K.J.O.M :                   O O O .     O 0 kXmXVXVXVXVXVXVXVXVXVXVXVXVXVXVXVXVXVXVXVXVXVXVXVXVXVXVXVXVXVXVXVXVXVXVXVXVXVXVXVXVXVXVXVXVXVXVXVXVXVXVXVXVXVXVXVXVXVXVXVXVXVXVXVXVX",
"VXVXVXVXVXVXVXVXVXVXVXVXVXVXVXVXVXVXVXVXVXVXVXVXVXVXVXVXVXVXVXVXVXVXVXVXVXVXVXVXVXVXVXVXVXVXVXVXVXVXVXVXVXVXVXVXVXVXVXVXVXVXVXVXmXjX0                                                   @ r ..K.!.!.!.!.!.!.I.I.!.!.!.!.!.!.!.I.I.K.K.K.K.K.K.K.K.K.K.K.K.K.K.K.K.K.K.K.K.K.K.K.K.K.K.K.K.K.K.K.K.K.K.K.K.K.K.K.K.K.K.K.K.K.K.K.K.K.K.K.K.K.K.K.K.K.K.K.K.K.K.K.K.K.K.K.K.K.K.K.K.K.K.I.I.!.!.!.!.!.!.!.!.Y.I.I.!.!.!.!.!.!.!.!.!.!.!.!.!.!.+.N ,                                 0 jXmXVXVXVXVXVXVXVXVXVXVXVXVXVXVXVXVXVXVXVXVXVXVXVXVXVXVXVXVXVXVXVXVXVXVXVXVXVXVXVXVXVXVXVXVXVXVXVXVXVXVXVXVXVXVXVXVXVXVXVXVXVXVXVXVX",
"VXVXVXVXVXVXVXVXVXVXVXVXVXVXVXVXVXVXVXVXVXVXVXVXVXVXVXVXVXVXVXVXVXVXVXVXVXVXVXVXVXVXVXVXVXVXVXVXVXVXVXVXVXVXVXVXVXVXVXVXVXVXVXVXmXkX0                                                   @ r ..J.!.!.I.I.I.I.I.I.I.I.I.I.I.I.I.I.I.K.K.K.K.K.K.K.K.K.K.K.K.K.K.K.K.K.K.K.K.K.K.K.K.K.K.K.K.K.K.K.K.K.K.K.K.K.K.K.K.K.K.K.K.K.K.K.K.K.K.K.K.K.K.K.K.K.K.K.K.K.K.K.K.K.K.K.K.K.K.K.K.K.K.I.I.I.I.I.I.I.I.I.I.I.I.I.I.I.I.I.I.I.I.I.I.I.I.I.!.I.+.N :                                 0 kXmXVXVXVXVXVXVXVXVXVXVXVXVXVXVXVXVXVXVXVXVXVXVXVXVXVXVXVXVXVXVXVXVXVXVXVXVXVXVXVXVXVXVXVXVXVXVXVXVXVXVXVXVXVXVXVXVXVXVXVXVXVXVXVXVX",
"VXVXVXVXVXVXVXVXVXVXVXVXVXVXVXVXVXVXVXVXVXVXVXVXVXVXVXVXVXVXVXVXVXVXVXVXVXVXVXVXVXVXVXVXVXVXVXVXVXVXVXVXVXVXVXVXVXVXVXVXVXVXVXVXmXkX0                                                   @ r ..H.!.I.K.K.K.K.K.K.K.K.K.K.K.K.K.K.K.K.K.K.K.K.K.K.K.K.K.K.K.K.K.K.K.K.K.K.K.K.K.K.K.K.K.K.K.K.K.K.K.K.K.K.K.K.K.K.K.K.K.K.K.K.K.K.K.K.K.K.K.K.K.K.K.K.K.K.K.K.K.K.K.K.K.K.K.K.K.K.K.K.K.K.K.K.K.K.K.K.K.K.K.K.K.K.K.K.K.K.K.K.K.K.K.K.K.I.Y.I.O.M :                                 0 kXmXVXVXVXVXVXVXVXVXVXVXVXVXVXVXVXVXVXVXVXVXVXVXVXVXVXVXVXVXVXVXVXVXVXVXVXVXVXVXVXVXVXVXVXVXVXVXVXVXVXVXVXVXVXVXVXVXVXVXVXVXVXVXVXVX",
"VXVXVXVXVXVXVXVXVXVXVXVXVXVXVXVXVXVXVXVXVXVXVXVXVXVXVXVXVXVXVXVXVXVXVXVXVXVXVXVXVXVXVXVXVXVXVXVXVXVXVXVXVXVXVXVXVXVXVXVXVXVXVXVXmXkX0                                                   + r ..H.!.I.K.K.K.K.K.K.K.K.K.K.K.K.K.K.K.K.K.K.K.K.K.K.K.K.K.K.K.K.K.K.K.K.K.K.K.K.K.K.K.K.K.K.K.K.K.K.K.K.K.K.K.K.K.K.K.K.K.K.K.K.K.K.K.K.K.K.K.K.K.K.K.K.K.K.K.K.K.K.K.K.K.K.K.K.K.K.K.K.K.K.K.K.K.K.K.K.K.K.K.K.K.K.K.K.K.K.K.K.K.K.K.K.K.I.Y.I.O.M -                                 0 kXmXVXVXVXVXVXVXVXVXVXVXVXVXVXVXVXVXVXVXVXVXVXVXVXVXVXVXVXVXVXVXVXVXVXVXVXVXVXVXVXVXVXVXVXVXVXVXVXVXVXVXVXVXVXVXVXVXVXVXVXVXVXVXVXVX",
"VXVXVXVXVXVXVXVXVXVXVXVXVXVXVXVXVXVXVXVXVXVXVXVXVXVXVXVXVXVXVXVXVXVXVXVXVXVXVXVXVXVXVXVXVXVXVXVXVXVXVXVXVXVXVXVXVXVXVXVXVXVXVXVXMXlX0                                                   + r  .H.!.I.K.K.K.K.K.K.K.K.K.K.K.K.K.K.K.K.K.K.K.K.K.K.K.K.K.K.K.K.K.K.K.K.K.K.K.K.K.K.K.K.K.K.K.K.K.K.K.K.K.K.K.K.K.K.K.K.K.K.K.K.K.K.K.K.K.K.K.K.K.K.K.K.K.K.K.K.K.K.K.K.K.K.K.K.K.K.K.K.K.K.K.K.K.K.K.K.K.K.K.K.K.K.K.K.K.K.K.K.K.K.K.K.K.I.!.I.O.M -                                 0 kXMXVXVXVXVXVXVXVXVXVXVXVXVXVXVXVXVXVXVXVXVXVXVXVXVXVXVXVXVXVXVXVXVXVXVXVXVXVXVXVXVXVXVXVXVXVXVXVXVXVXVXVXVXVXVXVXVXVXVXVXVXVXVXVXVX",
"VXVXVXVXVXVXVXVXVXVXVXVXVXVXVXVXVXVXVXVXVXVXVXVXVXVXVXVXVXVXVXVXVXVXVXVXVXVXVXVXVXVXVXVXVXVXVXVXVXVXVXVXVXVXVXVXVXBXBXBXBXBXVXBXmXjX0                   . X X . . . . . . . . . . .     $ t ..H.Y.I.K.K.K.K.K.K.K.K.K.K.K.K.K.K.K.K.K.K.K.K.K.K.K.K.K.K.K.K.K.K.K.K.K.K.K.K.K.K.K.K.K.K.K.K.K.K.K.K.K.K.K.K.K.K.K.K.K.K.K.K.I.P.P.P.P.P.P.P.P.P.P.P.K.K.K.K.K.K.K.K.K.K.K.K.K.K.K.K.K.K.K.K.K.K.K.K.K.K.K.K.K.K.K.K.K.K.K.K.K.K.K.K.K.I.Y.I.O.N , .                             X 0 jXmXBXVXBXBXBXBXBXBXBXBXBXBXBXBXBXBXBXVXVXVXVXVXVXVXVXVXVXVXVXVXVXVXVXVXVXVXVXVXVXVXVXVXVXVXVXVXVXVXVXVXVXVXVXVXVXVXVXVXVXVXVXVXVXVX",
"VXVXVXVXVXVXVXVXVXVXVXVXVXVXVXVXVXVXVXVXVXVXVXVXVXVXVXVXVXVXVXVXVXVXVXVXVXVXVXVXVXVXVXVXVXVXVXVXVXVXVXVXVXVXVXNXmXcXcXcXcXcXcXcXlX` 8               + - , 2 2 1 1 1 1 1 1 1 1 1 1 1 , 1 w V O.J.I.I.K.K.K.K.K.K.K.K.K.K.K.K.K.K.K.K.K.K.K.K.K.K.K.K.K.K.K.K.K.K.K.K.K.K.K.K.K.K.K.K.K.K.K.K.K.K.K.K.K.K.K.K.K.K.K.K.K.K.K.I.P.T.E.E.E.E.E.E.E.E.T.T.I.K.K.K.K.K.K.K.K.K.K.K.K.K.K.K.K.K.K.K.K.K.K.K.K.K.K.K.K.K.K.K.K.K.K.K.K.K.K.K.K.I.I.I.+.C 2 - $ $ $ $ $ $ $ $ $ $ $ $ $ $ - 0 ' lXcXcXcXcXcXcXcXcXcXcXcXcXcXcXcXcXbXMXVXVXVXVXVXVXVXVXVXVXVXVXVXVXVXVXVXVXVXVXVXVXVXVXVXVXVXVXVXVXVXVXVXVXVXVXVXVXVXVXVXVXVXVXVXVX",
"VXVXVXVXVXVXVXVXVXVXVXVXVXVXVXVXVXVXVXVXVXVXVXVXVXVXVXVXVXVXVXVXVXVXVXVXVXVXVXVXVXVXVXVXVXVXVXVXVXVXVXVXVXVXVXmXzX] / / / ` ` ` / 0 *             . : r V Z Z Z Z Z Z Z Z Z Z Z Z C C Z Z ..>.J.I.I.K.K.K.K.K.K.K.K.K.K.K.K.K.K.K.K.K.K.K.K.K.K.K.K.K.K.K.K.K.K.K.K.K.K.K.K.K.K.K.K.K.K.K.K.K.K.K.K.K.K.K.K.K.K.K.K.K.K.K.I.T.E.tXiXuXiXiXuXiXtXE.T.P.K.K.K.K.K.K.K.K.K.K.K.K.K.K.K.K.K.K.K.K.K.K.K.K.K.K.K.K.K.K.K.K.K.K.K.K.K.K.K.K.K.I.K.>.| v w 2 w w w w w w w w w w w q 2 w r m / ` ` / / / / / / / / / / / / / ` kXvXBXVXVXVXVXVXVXVXVXVXVXVXVXVXVXVXVXVXVXVXVXVXVXVXVXVXVXVXVXVXVXVXVXVXVXVXVXVXVXVXVXVXVXVXVXVX",
"VXVXVXVXVXVXVXVXVXVXVXVXVXVXVXVXVXVXVXVXVXVXVXVXVXVXVXVXVXVXVXVXVXVXVXVXVXVXVXVXVXVXVXVXVXVXVXVXVXVXVXVXVXVXVXvX] 0 * O * = = = * O               X 2 C O.D.D.D.D.D.D.>.>.>.>.>.>.>.>.>.D.D.J.K.K.K.K.K.K.K.K.K.K.K.K.K.K.K.K.K.K.K.K.K.K.K.K.K.K.K.K.K.K.K.K.K.K.K.K.K.K.K.K.K.K.K.K.K.K.K.K.K.K.K.K.K.K.K.K.K.K.K.K.K.K.P.R.tXpXdXdXdXdXdXdXpXtXR.P.K.K.K.K.K.K.K.K.K.K.K.K.K.K.K.K.K.K.K.K.K.K.K.K.K.K.K.K.K.K.K.K.K.K.K.K.K.K.K.K.K.I.K.D...C v v v v v v v v v v v v v v v v r 2 ; * * * = = = = = = = = = = * * 7 / xXNXVXVXVXVXVXVXVXVXVXVXVXVXVXVXVXVXVXVXVXVXVXVXVXVXVXVXVXVXVXVXVXVXVXVXVXVXVXVXVXVXVXVXVXVXVX",
"VXVXVXVXVXVXVXVXVXVXVXVXVXVXVXVXVXVXVXVXVXVXVXVXVXVXVXVXVXVXVXVXVXVXVXVXVXVXVXVXVXVXVXVXVXVXVXVXVXVXVXVXVXVXVXcX` =                               X 2 Z H.!.!.I.I.I.I.I.I.I.I.I.I.I.I.I.I.I.K.K.K.K.K.K.K.K.K.K.K.K.K.K.K.K.K.K.K.K.K.K.K.K.K.K.K.K.K.K.K.K.K.K.K.K.K.K.K.K.K.K.K.K.K.K.K.K.K.K.K.K.K.K.K.K.K.K.K.K.K.K.K.P.R.iXpXgXgXgXgXgXgXdXiXE.P.K.K.K.K.K.K.K.K.K.K.K.K.K.K.K.K.K.K.K.K.K.K.K.K.K.K.K.K.K.K.K.K.K.K.K.K.K.K.K.K.K.I.K.D...Z N M M N N N N N N N N N N N V M t , .                                 ~ lXNXVXVXVXVXVXVXVXVXVXVXVXVXVXVXVXVXVXVXVXVXVXVXVXVXVXVXVXVXVXVXVXVXVXVXVXVXVXVXVXVXVXVXVXVXVX",
"VXVXVXVXVXVXVXVXVXVXVXVXVXVXVXVXVXVXVXVXVXVXVXVXVXVXVXVXVXVXVXVXVXVXVXVXVXVXVXVXVXVXVXVXVXVXVXVXVXVXVXVXVXVXVXcX` =                               X w | H.!.!.I.I.I.I.I.I.I.I.I.I.I.I.I.I.I.I.K.K.K.K.K.K.K.K.K.K.K.K.K.K.K.K.K.K.K.K.K.K.K.K.K.K.K.K.K.K.K.K.K.K.K.K.K.K.K.K.K.K.K.K.K.K.K.K.K.K.K.K.K.K.K.K.K.K.K.K.K.K.P.R.iXpXgXgXgXgXgXgXdXiXE.P.K.K.K.K.K.K.K.K.K.K.K.K.K.K.K.K.K.K.K.K.K.K.K.K.K.K.K.K.K.K.K.K.K.K.K.K.K.K.K.K.K.I.K.D...Z N M N N N N N N N N N N N V V N t , .                                 ~ lXNXVXVXVXVXVXVXVXVXVXVXVXVXVXVXVXVXVXVXVXVXVXVXVXVXVXVXVXVXVXVXVXVXVXVXVXVXVXVXVXVXVXVXVXVXVX",
"VXVXVXVXVXVXVXVXVXVXVXVXVXVXVXVXVXVXVXVXVXVXVXVXVXVXVXVXVXVXVXVXVXVXVXVXVXVXVXVXVXVXVXVXVXVXVXVXVXVXVXVXVXVXVXcX` =                               X 2 Z D.Y.I.K.K.K.K.K.K.K.K.K.K.K.K.K.K.K.K.K.K.K.K.K.K.K.K.K.K.K.K.K.K.K.K.K.K.K.K.K.K.K.K.K.K.K.K.K.K.K.K.K.K.K.K.K.K.K.K.K.K.K.K.K.K.K.K.K.K.K.K.K.K.K.K.K.K.K.K.K.K.P.R.tXpXfXgXfXgXgXgXdXiXE.P.K.K.K.K.K.K.K.K.K.K.K.K.K.K.K.K.K.K.K.K.K.K.K.K.K.K.K.K.K.K.K.K.K.K.K.K.K.K.K.K.K.I.K.D...Z M M M M M M M M M M M M M N N M t , X                               O ~ zXNXVXVXVXVXVXVXVXVXVXVXVXVXVXVXVXVXVXVXVXVXVXVXVXVXVXVXVXVXVXVXVXVXVXVXVXVXVXVXVXVXVXVXVXVXVX",
"VXVXVXVXVXVXVXVXVXVXVXVXVXVXVXVXVXVXVXVXVXVXVXVXVXVXVXVXVXVXVXVXVXVXVXVXVXVXVXVXVXVXVXVXVXVXVXVXVXVXVXVXVXVXVXvX` =                               X 2 Z D.I.I.K.K.K.K.K.K.K.K.K.K.K.K.K.K.K.K.K.K.K.K.K.K.K.K.K.K.K.K.K.K.K.K.K.K.K.K.K.K.K.K.K.K.K.K.K.K.K.K.K.K.K.K.K.K.K.K.K.K.K.K.K.K.K.K.K.K.K.K.K.K.K.K.K.K.K.K.K.W.I.R.tXpXfXgXfXgXgXgXyXiXR.P.W.K.K.K.I.K.K.K.K.K.K.K.K.K.K.K.K.K.K.K.K.K.K.K.K.K.K.K.K.K.K.K.K.K.K.K.K.K.K.K.K.I.K.D...Z M M M M M M M M M M M M M N N M t , X                               O ~ zXNXVXVXVXVXVXVXVXVXVXVXVXVXVXVXVXVXVXVXVXVXVXVXVXVXVXVXVXVXVXVXVXVXVXVXVXVXVXVXVXVXVXVXVXVXVX",
"VXVXVXVXVXVXVXVXVXVXVXVXVXVXVXVXVXVXVXVXVXVXVXVXVXVXVXVXVXVXVXVXVXVXVXVXVXVXVXVXVXVXVXVXVXVXVXVXVXVXVXVXVXVXVXvX` 7                                 2 Z D.I.I.K.K.K.K.K.K.K.K.K.K.K.K.K.K.K.K.K.K.K.K.K.K.K.K.K.K.K.K.K.K.K.K.K.K.K.K.K.K.K.K.K.K.K.K.K.K.K.K.K.K.K.K.K.K.K.K.K.K.K.K.K.K.K.K.K.K.K.K.K.K.K.K.K.K.K.K.W.W.K.R.tXpXfXgXfXfXgXfXpXiXR.P.W.K.K.K.K.K.K.K.K.K.K.K.K.K.K.K.K.K.K.K.K.K.K.K.K.K.K.K.K.K.K.K.K.K.K.K.K.K.K.K.K.I.K.D...Z M b M M M M M M M M M M M N N M t , X                               O ~ zXBXVXVXVXVXVXVXVXVXVXVXVXVXVXVXVXVXVXVXVXVXVXVXVXVXVXVXVXVXVXVXVXVXVXVXVXVXVXVXVXVXVXVXVXVXVX",
"VXVXVXVXVXVXVXVXVXVXVXVXVXVXVXVXVXVXVXVXVXVXVXVXVXVXVXVXVXVXVXVXVXVXVXVXVXVXVXVXVXVXVXVXVXVXVXVXVXVXVXVXVXVXVXcX` =                               X 2 Z D.I.I.K.K.K.K.K.K.K.K.K.K.K.K.K.K.K.K.K.K.K.K.K.K.K.K.K.K.K.K.K.K.K.K.K.K.K.K.K.K.K.K.K.K.K.K.K.K.K.K.K.K.K.K.K.K.K.K.K.K.K.K.K.K.K.K.K.K.K.K.K.K.K.K.K.K.K.K.K.K.P.R.tXpXfXgXfXfXgXgXpXiXR.P.W.K.K.K.K.K.K.K.K.K.K.K.K.K.K.K.K.K.K.K.K.K.K.K.K.K.K.K.K.K.K.K.K.K.K.K.K.K.K.K.K.I.K.D...Z M M M M M M M M M M M M M N N M t , +                               O ~ zXNXVXVXVXVXVXVXVXVXVXVXVXVXVXVXVXVXVXVXVXVXVXVXVXVXVXVXVXVXVXVXVXVXVXVXVXVXVXVXVXVXVXVXVXVXVX",
"VXVXVXVXVXVXVXVXVXVXVXVXVXVXVXVXVXVXVXVXVXVXVXVXVXVXVXVXVXVXVXVXVXVXVXVXVXVXVXVXVXVXVXVXVXVXNXmXmXmXmXmXmXmXbXlX/ =               + $ - - - - $ $ , t | D.I.I.K.K.K.K.K.K.K.K.K.K.K.K.K.K.K.K.K.K.K.K.K.K.K.K.K.K.K.K.K.K.K.K.K.K.K.K.K.K.K.K.K.K.K.K.K.K.K.K.K.K.K.K.K.K.K.K.K.K.K.K.K.K.K.K.K.K.K.K.K.P.P.T.T.T.T.R.T.T.R.E.iXyXfXgXfXfXgXfXpXiXE.P.K.K.K.K.K.K.K.K.K.K.K.K.K.K.K.K.K.K.K.K.K.K.K.K.K.K.K.K.K.K.K.K.K.K.K.K.K.K.K.K.K.I.K.D.O.| Z C C C Z Z C C N M M M M M N M v 2 $ + + + @ + + + X               O 0 jXcXmXmXmXmXmXmXmXMXBXVXVXVXVXVXVXVXVXVXVXVXVXVXVXVXVXVXVXVXVXVXVXVXVXVXVXVXVXVXVXVXVXVXVXVXVX",
"VXVXVXVXVXVXVXVXVXVXVXVXVXVXVXVXVXVXVXVXVXVXVXVXVXVXVXVXVXVXVXVXVXVXVXVXVXVXVXVXVXVXVXVXVXBXmXzXjX[ [ jXjXjX[ / 0 *             X , e v M v v v v M Z O.H.I.I.K.K.K.K.K.K.K.K.K.K.K.K.K.K.K.K.K.K.K.K.K.K.K.K.K.K.K.K.K.K.K.K.K.K.K.K.K.K.K.K.K.K.K.K.K.K.K.K.K.K.K.K.K.K.K.K.K.K.K.K.K.K.K.K.K.K.I.K.K.P.T.E.tXtXtXtXtXtXtXiXpXdXfXgXfXfXgXfXpXiXE.P.K.K.K.K.K.K.K.K.K.K.K.K.K.K.K.K.K.K.K.K.K.K.K.K.K.K.K.K.K.K.K.K.K.K.K.K.K.K.K.K.K.I.K.H.+.o...............| Z N M M M M N M v r 2 , , 1 1 1 , , $ X               7 / ] jXjXjX[ [ [ lXcXMXVXVXVXVXVXVXVXVXVXVXVXVXVXVXVXVXVXVXVXVXVXVXVXVXVXVXVXVXVXVXVXVXVXVXVXVX",
"VXVXVXVXVXVXVXVXVXVXVXVXVXVXVXVXVXVXVXVXVXVXVXVXVXVXVXVXVXVXVXVXVXVXVXVXVXVXVXVXVXVXVXVXVXNXcX` 0 7 8 8 8 0 8 7 *               @ w Z o.O.O.O.o.O.O.+.D.J.K.K.K.K.K.K.K.K.K.K.K.K.K.K.K.K.K.K.K.K.K.K.K.K.K.K.K.K.K.K.K.K.K.K.K.K.K.K.K.K.K.K.K.K.K.K.K.K.K.K.K.K.K.K.K.K.K.K.K.K.K.K.K.K.K.K.K.I.I.K.K.P.E.iXpXpXpXpXpXpXpXpXdXdXfXfXfXfXgXfXpXiXR.P.K.K.K.K.K.K.K.K.K.K.K.K.K.K.K.K.K.K.K.K.K.K.K.K.K.K.K.K.K.K.K.K.K.K.K.K.K.K.K.K.K.K.K.J.H.D.D.D.D.D.D.D.+...Z V M M M M M M M v v t t v v v v e , @               O = 8 0 0 8 8 7 8 / lXmXVXVXVXVXVXVXVXVXVXVXVXVXVXVXVXVXVXVXVXVXVXVXVXVXVXVXVXVXVXVXVXVXVXVXVXVX",
"VXVXVXVXVXVXVXVXVXVXVXVXVXVXVXVXVXVXVXVXVXVXVXVXVXVXVXVXVXVXVXVXVXVXVXVXVXVXVXVXVXVXVXVXVXNXzX~ O                               $ v ..J.!.I.K.K.I.K.K.K.K.K.K.K.K.K.K.K.K.K.K.K.K.K.K.K.K.K.K.K.K.K.K.K.K.K.K.K.K.K.K.K.K.K.K.K.K.K.K.K.K.K.K.K.K.K.K.K.K.K.K.K.K.K.K.K.K.K.K.K.K.K.K.K.K.K.K.K.I.I.K.K.T.E.uXdXgXfXfXfXfXfXfXfXfXfXfXfXfXgXfXpXiXR.P.K.K.K.K.K.K.K.K.K.K.K.K.K.K.K.K.K.K.K.K.K.K.K.K.K.K.K.K.K.K.K.K.K.K.K.K.K.K.K.K.K.K.K.K.K.K.K.K.K.K.I.I.H.O.| V M M M M M M M M M M M M M N N v 2 $                                 8 jXmXVXVXVXVXVXVXVXVXVXVXVXVXVXVXVXVXVXVXVXVXVXVXVXVXVXVXVXVXVXVXVXVXVXVXVXVX",
"VXVXVXVXVXVXVXVXVXVXVXVXVXVXVXVXVXVXVXVXVXVXVXVXVXVXVXVXVXVXVXVXVXVXVXVXVXVXVXVXVXVXVXVXVXNXlX~                                 $ v o.I.!.!.!.!.!.Y.I.I.K.K.K.K.K.K.K.K.K.K.K.K.K.K.K.K.K.K.K.K.K.K.K.K.K.K.K.K.K.K.K.K.K.K.K.K.K.K.K.K.K.K.K.K.K.K.K.K.K.K.K.K.K.K.K.K.K.K.K.K.K.K.K.K.K.K.K.K.K.K.K.K.P.E.uXdXgXgXgXgXgXgXgXfXfXfXfXfXfXgXfXpXiXR.P.K.K.K.K.K.K.K.K.K.K.K.K.K.K.K.K.K.K.K.K.K.K.K.K.K.K.K.K.K.K.K.K.K.K.K.K.K.K.K.K.K.K.K.K.I.I.I.I.I.I.I.I.J.+.| V M M M M M M M M N N N N N V V v 2 $                                 7 [ mXVXVXVXVXVXVXVXVXVXVXVXVXVXVXVXVXVXVXVXVXVXVXVXVXVXVXVXVXVXVXVXVXVXVXVXVX",
"VXVXVXVXVXVXVXVXVXVXVXVXVXVXVXVXVXVXVXVXVXVXVXVXVXVXVXVXVXVXVXVXVXVXVXVXVXVXVXVXVXVXVXVXVXNXzX~ O                               $ v ..K.!.I.I.I.I.I.I.K.K.K.K.K.K.K.K.K.K.K.K.K.K.K.K.K.K.K.K.K.K.K.K.K.K.K.K.K.K.K.K.K.K.K.K.K.K.K.K.K.K.K.K.K.K.K.I.K.K.K.K.K.K.K.K.K.K.K.K.I.K.K.K.K.K.K.K.K.K.K.K.K.P.E.uXdXgXgXfXfXfXfXfXfXfXfXfXfXfXgXfXpXiXR.P.K.K.K.K.I.K.K.K.K.K.K.K.K.K.K.K.K.K.K.K.K.K.K.K.K.K.K.K.K.K.K.K.K.K.K.K.K.K.K.K.K.K.K.K.K.K.K.K.K.K.I.I.J.O.| V M M M M M M M M M M M M N N N v 2 $                                 8 [ mXVXVXVXVXVXVXVXVXVXVXVXVXVXVXVXVXVXVXVXVXVXVXVXVXVXVXVXVXVXVXVXVXVXVXVXVX",
"VXVXVXVXVXVXVXVXVXVXVXVXVXVXVXVXVXVXVXVXVXVXVXVXVXVXVXVXVXVXVXVXVXVXVXVXVXVXVXVXVXVXVXVXVXNXzX~ O                               $ v ..J.!.I.K.K.K.K.K.K.K.K.K.K.K.K.K.K.K.K.K.K.K.K.K.K.K.K.K.K.K.K.K.K.K.K.K.K.K.K.K.K.K.K.K.K.K.K.K.K.K.K.K.K.I.I.I.I.K.K.K.K.K.K.K.K.K.K.I.K.K.K.K.K.K.K.K.K.K.K.K.K.P.E.uXdXgXgXfXfXfXfXfXfXfXfXfXfXfXgXfXpXiXR.P.K.K.K.K.K.K.K.K.K.K.K.K.K.K.K.K.K.K.K.K.K.K.K.K.K.K.K.K.K.K.K.K.K.K.K.K.K.K.K.K.K.K.K.K.K.K.K.K.K.K.I.I.H.O.| V M M M M M M M M M M M M M N N v 2 $                                 8 jXmXVXVXVXVXVXVXVXVXVXVXVXVXVXVXVXVXVXVXVXVXVXVXVXVXVXVXVXVXVXVXVXVXVXVXVXVX",
"VXVXVXVXVXVXVXVXVXVXVXVXVXVXVXVXVXVXVXVXVXVXVXVXVXVXVXVXVXVXVXVXVXVXVXVXVXVXVXVXVXVXVXVXVXNXzX~ O                               @ t ..J.!.I.K.K.K.K.K.K.K.K.K.K.K.K.K.K.K.K.K.K.K.K.K.K.K.K.K.K.K.K.K.K.K.K.K.K.K.K.K.K.K.K.K.K.K.K.K.K.K.K.K.K.I.K.K.K.K.K.K.K.K.K.K.K.K.K.K.K.K.K.K.K.K.K.K.K.K.K.W.W.P.E.uXdXgXgXfXfXfXfXfXfXfXfXfXfXfXhXgXyXiXR.P.K.K.K.K.K.K.K.K.K.K.K.K.K.K.K.K.K.K.K.K.K.K.K.K.K.K.K.K.K.K.K.K.K.K.K.K.K.K.K.K.K.K.K.K.K.K.K.K.K.K.I.I.H.O.| N M M M M M M M M M M M M M N N v 2 $                                 0 jXmXVXVXVXVXVXVXVXVXVXVXVXVXVXVXVXVXVXVXVXVXVXVXVXVXVXVXVXVXVXVXVXVXVXVXVXVX",
"VXVXVXVXVXVXVXVXVXVXVXVXVXVXVXVXVXVXVXVXVXVXVXVXVXVXVXVXVXVXVXVXVXVXVXVXVXVXVXVXVXVXVXVXVXNXzX~ O                               $ t ..J.!.I.K.K.K.K.K.K.K.K.K.K.K.K.K.K.K.K.K.K.K.K.K.K.K.K.K.K.K.K.K.K.K.K.K.K.K.K.K.K.K.K.K.K.K.K.K.K.K.K.K.K.K.K.K.K.K.K.K.K.K.K.K.K.K.K.K.K.K.K.K.K.K.K.K.K.K.K.K.W.P.E.uXdXgXgXfXfXfXfXfXfXfXfXfXfXfXgXgXyXiXE.P.K.K.K.K.K.K.K.K.K.K.K.K.K.K.K.K.K.K.K.K.K.K.K.K.K.K.K.K.K.K.K.K.K.K.K.K.K.K.K.K.K.K.K.K.K.K.K.K.K.K.I.I.H.O.| N M M M M M M M M M M M M M N N v 2 $                                 0 jXmXVXVXVXVXVXVXVXVXVXVXVXVXVXVXVXVXVXVXVXVXVXVXVXVXVXVXVXVXVXVXVXVXVXVXVXVX",
"VXVXVXVXVXVXVXVXVXVXVXVXVXVXVXVXVXVXVXVXVXVXVXVXVXVXVXVXVXVXVXVXVXVXVXVXVXVXVXVXVXVXVXVXVXNXzX~ O               X + + + + + X + , v o.J.Y.I.K.K.K.K.K.K.K.K.K.K.K.K.K.K.K.K.K.K.K.K.K.K.K.K.K.K.K.K.K.K.K.K.K.K.K.K.K.K.K.K.K.K.K.K.K.K.K.K.K.K.I.P.G.G.G.G.G.G.G.G.G.T.T.T.T.T.T.T.T.T.T.T.T.T.T.T.T.T.T.E.uXdXgXfXfXfXfXfXfXfXfXfXfXfXfXgXgXyXiXE.P.K.K.K.K.K.K.K.K.K.K.K.K.K.K.K.K.K.K.K.K.K.K.K.K.K.K.K.K.K.K.K.K.K.K.K.K.K.K.K.K.K.K.K.K.K.K.K.K.K.K.I.I.H.O.| C V V V V V V N N M M M M M N N v w - X   . X X X .                   8 ] cXNXBXNXNXNXNXNXBXVXVXVXVXVXVXVXVXVXVXVXVXVXVXVXVXVXVXVXVXVXVXVXVXVXVXVXVX",
"VXVXVXVXVXVXVXVXVXVXVXVXVXVXVXVXVXVXVXVXVXVXVXVXVXVXVXVXVXVXVXVXVXVXVXVXVXVXVXVXVXVXVXVXVXNXzX~ O             + : 2 w e w w w w v Z +.J.I.I.K.K.K.K.K.K.K.K.K.K.K.K.K.K.K.K.K.K.K.K.K.K.K.K.K.K.K.K.K.K.K.K.K.K.K.K.K.K.K.K.K.K.K.K.K.K.K.K.K.K.P.F.S.u.p.p.p.p.u.p.p.E.E.E.E.E.E.E.E.E.E.E.E.E.E.E.E.E.E.iXpXdXfXfXfXfXfXfXfXfXfXfXfXfXfXgXfXpXiXR.P.K.K.K.K.K.K.K.K.K.K.K.K.K.K.K.K.K.K.K.K.K.K.K.K.K.K.K.K.K.K.K.K.K.K.K.K.K.K.K.K.K.K.K.K.K.K.K.K.K.K.I.I.J.+.o.| | | | | | | Z Z N M M M M N M v r 1 : - - - : : - $ X               = / jXzXzXzXzXlXlXxXvXMXVXVXVXVXVXVXVXVXVXVXVXVXVXVXVXVXVXVXVXVXVXVXVXVXVXVXVX",
"VXVXVXVXVXVXVXVXVXVXVXVXVXVXVXVXVXVXVXVXVXVXVXVXVXVXVXVXVXVXVXVXVXVXVXVXVXVXVXVXVXVXVXVXVXNXzX~ O             - r Z |  .| | | | ..O.D.K.I.K.K.K.K.K.K.K.K.K.K.K.K.K.K.K.K.K.K.K.K.K.K.K.K.K.K.K.K.K.K.K.K.K.K.K.K.K.K.K.K.K.K.K.K.K.K.K.K.K.K.K.G.S.p.i.i.i.i.i.i.i.0XuXuXuXpXpXpXpXuXuXuXuXuXuXpXuXuXuXpXpXdXdXfXfXfXfXfXfXfXfXfXfXfXfXfXgXfXpXiXR.P.K.K.K.K.K.K.K.K.K.K.K.K.K.K.K.K.K.K.K.K.K.K.K.K.K.K.K.K.K.K.K.K.K.K.K.K.K.K.K.K.K.K.K.K.K.K.K.K.K.K.K.K.J.H.>.+.O.+.+.+.+.+...| V M M M M M M M v t e e e e r r w , $               O 7 0 ~ ~ ~ ~ ~ ~ / kXbXBXVXVXVXVXVXVXVXVXVXVXVXVXVXVXVXVXVXVXVXVXVXVXVXVXVXVX",
"VXVXVXVXVXVXVXVXVXVXVXVXVXVXVXVXVXVXVXVXVXVXVXVXVXVXVXVXVXVXVXVXVXVXVXVXVXVXVXVXVXVXVXVXVXNXzX~ O             , N O.H.J.H.H.H.H.H.J.J.K.K.K.K.K.K.K.K.K.K.K.K.K.K.K.K.K.K.K.K.K.K.K.K.K.K.K.K.K.K.K.K.K.K.K.K.K.K.K.K.K.K.K.K.K.K.K.K.K.K.K.K.K.G.S.i.7X7X7X7X7X7X7XqXyXyXdXdXdXdXdXdXdXdXdXdXdXdXdXdXdXdXdXdXfXfXfXfXfXfXfXfXfXfXfXfXfXfXgXfXpXiXE.P.K.K.K.K.K.K.K.K.K.K.K.K.K.K.K.K.K.K.K.K.K.K.K.K.K.K.K.K.K.K.K.K.K.K.K.K.K.K.K.K.K.K.K.K.K.K.K.K.K.K.K.K.K.K.J.J.J.J.J.J.K.J.+...C M M M M M M M M M M M M M M M v w - X                 O O O O O     7 ` cXBXVXVXVXVXVXVXVXVXVXVXVXVXVXVXVXVXVXVXVXVXVXVXVXVXVXVX",
"VXVXVXVXVXVXVXVXVXVXVXVXVXVXVXVXVXVXVXVXVXVXVXVXVXVXVXVXVXVXVXVXVXVXVXVXVXVXVXVXVXVXVXVXVXNXzX~ O             , C D.!.!.!.Y.Y.Y.I.I.K.K.K.K.K.K.K.K.K.K.K.K.K.K.K.K.K.K.K.K.K.K.K.K.K.K.K.K.K.K.K.K.K.K.K.K.K.K.K.K.K.K.K.K.K.K.K.K.K.K.K.K.K.K.G.p.i.7X8X8X8X8X8X8XqXyXsXgXgXgXgXgXgXgXgXgXgXgXgXgXgXgXgXfXfXfXfXfXfXfXfXfXfXfXfXfXfXfXfXgXfXpXiXE.P.K.K.K.K.K.K.K.K.K.K.K.K.K.K.K.K.K.K.K.K.K.K.K.K.K.K.K.K.K.K.K.K.K.K.K.K.K.K.K.K.K.K.K.K.K.K.K.K.K.K.K.K.K.K.I.I.I.I.I.I.I.K.D...C M M M M M M M N N N N N N V V M r : X                               * / cXBXVXVXVXVXVXVXVXVXVXVXVXVXVXVXVXVXVXVXVXVXVXVXVXVXVXVX",
"VXVXVXVXVXVXVXVXVXVXVXVXVXVXVXVXVXVXVXVXVXVXVXVXVXVXVXVXVXVXVXVXVXVXVXVXVXVXVXVXVXVXVXVXVXNXzX~ O             , V >.!.!.I.I.I.I.I.I.K.K.K.K.K.K.K.K.K.K.K.K.K.K.K.K.K.K.K.K.K.K.K.K.K.K.K.K.K.K.K.K.K.K.K.K.K.K.K.K.K.K.K.K.K.K.K.K.K.K.K.K.K.K.G.p.i.7X8X8X8X8X6X8XqXyXaXgXgXfXgXgXgXgXfXfXfXfXgXgXgXfXgXfXfXfXfXfXfXfXfXfXfXfXfXfXfXfXfXgXfXpXiXE.P.K.K.K.K.K.K.K.K.K.K.K.K.K.K.K.K.K.K.K.K.K.K.K.K.K.K.K.K.K.K.K.K.K.K.K.K.K.K.K.K.K.K.K.K.K.K.K.K.K.K.K.K.K.K.I.I.I.I.I.I.I.K.>...C M M M M M M M M N N N N N N N M r - X                               * / cXBXVXVXVXVXVXVXVXVXVXVXVXVXVXVXVXVXVXVXVXVXVXVXVXVXVXVX",
"VXVXVXVXVXVXVXVXVXVXVXVXVXVXVXVXVXVXVXVXVXVXVXVXVXVXVXVXVXVXVXVXVXVXVXVXVXVXVXVXVXVXVXVXVXNXzX~ O             , V +.I.!.K.K.K.K.K.K.K.K.K.K.K.K.K.K.K.K.K.K.K.K.K.K.K.K.K.K.K.K.K.K.K.K.K.K.K.K.K.K.K.K.K.K.K.K.K.K.K.K.K.K.K.K.K.K.K.K.K.K.K.K.G.p.i.7X8X8X8X8X6X7XqXyXaXfXfXfXfXfXfXfXfXfXfXfXfXfXfXfXfXfXfXfXfXfXfXfXfXfXfXfXfXfXfXfXfXgXfXpXiXR.P.K.K.K.K.K.K.K.K.K.K.K.K.K.K.K.K.K.K.K.K.K.K.K.K.K.K.K.K.K.K.K.K.K.K.K.K.K.K.K.K.K.K.K.K.K.K.K.K.K.K.K.K.K.K.K.K.K.K.K.I.I.J.+...C M M M M M M M M M M M M M M N M e - X                               = / cXBXVXVXVXVXVXVXVXVXVXVXVXVXVXVXVXVXVXVXVXVXVXVXVXVXVXVX",
"VXVXVXVXVXVXVXVXVXVXVXVXVXVXVXVXVXVXVXVXVXVXVXVXVXVXVXVXVXVXVXVXVXVXVXVXVXVXVXVXVXVXVXVXVXNXzX~ O             , V +.I.Y.K.K.K.K.K.K.K.K.K.K.K.K.K.K.K.K.K.K.K.K.K.K.K.K.K.K.K.K.K.K.K.K.K.K.K.K.K.K.K.K.K.K.K.K.K.K.K.K.K.K.K.K.K.K.K.K.K.K.W.K.G.p.i.7X8X8X8X8X8X9XqXyXsXhXhXfXfXfXfXfXfXfXfXfXfXfXfXfXfXfXfXfXfXfXfXfXfXfXfXfXfXfXfXfXfXgXgXdXiXR.P.W.W.K.K.K.K.K.K.K.K.K.K.K.K.K.K.K.K.K.K.K.K.K.K.K.K.K.K.K.K.K.K.K.K.K.K.K.K.K.K.K.K.K.K.K.K.K.K.K.K.K.K.K.K.K.K.K.K.K.I.I.J.>...C M M M M M M M M M M M M M N N M e -                                 = / cXBXVXVXVXVXVXVXVXVXVXVXVXVXVXVXVXVXVXVXVXVXVXVXVXVXVXVX",
"VXVXVXVXVXVXVXVXVXVXVXVXVXVXVXVXVXVXVXVXVXVXVXVXVXVXVXVXVXVXVXVXVXVXVXVXVXVXVXVXVXVXVXVXVXBXzX~ O             , V +.I.Y.K.K.K.K.K.K.K.K.K.K.K.K.K.K.K.K.K.K.K.K.K.K.K.K.K.K.K.K.K.K.K.K.K.K.K.K.K.K.K.K.K.K.K.K.K.K.K.K.K.K.K.K.K.K.K.K.W.K.W.W.G.u.i.7X8X8X8X8X6X8XqXyXsXhXhXfXhXhXhXhXhXhXfXfXfXfXfXfXfXfXfXfXfXfXfXfXfXfXfXfXfXfXfXfXfXgXgXyXiXR.I.W.W.W.W.K.K.K.K.K.K.K.K.K.K.K.K.K.K.K.K.K.K.K.K.K.K.K.K.K.K.K.K.K.K.K.K.K.K.K.K.K.K.K.K.K.K.K.K.K.K.K.K.K.K.K.K.K.K.K.I.I.J.+...V M M M M M M M M M M M M M N N M e -                                 = / cXBXVXVXVXVXVXVXVXVXVXVXVXVXVXVXVXVXVXVXVXVXVXVXVXVXVXVX",
"VXVXVXVXVXVXVXVXVXVXVXVXVXVXVXVXVXVXVXVXVXVXVXVXVXVXVXVXVXVXVXVXVXVXVXVXVXVXVXVXVXVXVXVXVXMXlX~ O             , V +.I.Y.K.K.K.K.K.K.K.K.K.K.K.K.K.K.K.K.K.K.K.K.K.K.K.K.K.K.K.K.K.K.K.K.K.K.K.K.K.K.K.K.K.K.K.K.K.K.K.K.K.K.K.K.P.P.P.P.P.P.K.K.F.p.i.7X8X8X8X8X6X8XqXyXaXfXfXsXsXsXsXsXdXdXsXsXsXsXsXsXsXdXfXfXfXfXfXfXfXfXfXfXfXfXfXfXfXgXgXyXiXE.P.K.K.P.P.P.P.P.P.K.K.K.K.K.K.K.K.K.K.K.K.K.K.K.K.K.K.K.K.K.K.K.K.K.K.K.K.K.K.K.K.K.K.K.K.K.K.K.K.K.K.K.K.K.K.K.K.K.K.K.I.I.K.>...C N M N N N N N M M M M M M N N M e : X                               = / cXBXVXVXVXVXVXVXVXVXVXVXVXVXVXVXVXVXVXVXVXVXVXVXVXVXVXVX",
"VXVXVXVXVXVXVXVXVXVXVXVXVXVXVXVXVXVXVXVXVXVXVXVXVXVXVXVXVXVXVXVXVXVXVXVXBXmXbXcXcXcXvXvXvXxX[ 0 O             , V +.I.Y.K.K.K.K.K.K.K.K.K.K.K.K.K.K.K.K.K.K.K.K.K.K.K.K.K.K.K.K.K.K.K.K.K.K.K.K.K.K.K.K.K.K.K.K.K.K.K.K.K.K.K.P.F.S.S.S.S.S.S.S.S.p.y.7X8X8X8X8X6X8X9XeXyXyXyXyXyXyXyXyXyXyXyXyXyXyXyXyXyXaXsXdXfXfXfXfXfXfXfXfXfXfXfXfXfXgXfXdXuXp.S.S.S.S.S.S.S.S.G.P.K.K.K.K.K.K.K.K.K.K.K.K.K.K.K.K.K.K.K.K.K.K.K.K.K.K.K.K.K.K.K.K.K.K.K.K.K.K.K.K.K.K.K.K.K.K.K.K.K.K.K.I.K.D.o.| Z Z Z Z Z Z Z C V M M M M N N M t 1 - $ $ $ $ $ $ @ X               = / cXBXVXVXVXVXVXVXVXVXVXVXVXVXVXVXVXVXVXVXVXVXVXVXVXVXVXVX",
"VXVXVXVXVXVXVXVXVXVXVXVXVXVXVXVXVXVXVXVXVXVXVXVXVXVXVXVXVXVXVXVXVXVXVXVXMXcXjX` ` ` ` ` ` ` ~ =               , V +.I.Y.K.K.K.K.K.K.K.K.K.K.K.K.K.K.K.K.K.K.K.K.K.K.K.K.K.K.K.K.K.K.K.K.K.K.K.K.K.K.K.K.K.K.K.K.K.K.K.K.K.K.K.G.S.p.i.i.i.i.i.i.i.i.0X7X8X8X8X8X8X8X9XqXeXeXeXeXeXeXeXeXeXeXeXeXeXeXeXeXeXyXyXsXfXfXfXfXfXfXfXfXfXfXfXfXfXgXgXdXpXtXi.i.i.i.i.i.i.p.S.P.K.K.K.K.K.K.K.K.K.K.K.K.K.K.K.K.K.K.K.K.K.K.K.K.K.K.K.K.K.K.K.K.K.K.K.K.K.K.K.K.K.K.K.K.K.K.K.K.K.K.K.K.K.H.>.O.o.o.o.o.O.O...| C M M M M M M M v r w 2 2 2 2 2 2 , - X             = / cXBXVXVXVXVXVXVXVXVXVXVXVXVXVXVXVXVXVXVXVXVXVXVXVXVXVXVX",
"VXVXVXVXVXVXVXVXVXVXVXVXVXVXVXVXVXVXVXVXVXVXVXVXVXVXVXVXVXVXVXVXVXVXVXVXmXkX~ = * = = = = = * O               , V +.I.Y.K.K.K.K.K.K.K.K.K.K.K.K.K.K.K.K.K.K.K.K.K.K.K.K.K.K.K.K.K.K.K.K.K.K.K.K.K.K.K.K.K.K.K.K.K.K.K.K.K.K.K.S.p.i.7X7X7X0X0X0X7X7X7X8X8X8X8X8X8X8X8X9X9X9X9X9X9X9X9X9X9X9X9X9X9X9X9X9X9XeXyXsXfXfXfXfXfXfXfXfXfXfXfXfXfXfXfXaXyXqX0Xy.7X7X7X7Xy.i.S.G.K.K.K.K.K.K.K.K.K.K.K.K.K.K.K.K.K.K.K.K.K.K.K.K.K.K.K.K.K.K.K.K.K.K.K.K.K.K.K.K.K.K.K.K.K.K.K.K.K.K.K.K.K.J.H.H.D.D.D.H.H.H.>...Z N M M M M M M M b v v v v v v v e , +             = / cXBXVXVXVXVXVXVXVXVXVXVXVXVXVXVXVXVXVXVXVXVXVXVXVXVXVXVX",
"VXVXVXVXVXVXVXVXVXVXVXVXVXVXVXVXVXVXVXVXVXVXVXVXVXVXVXVXVXVXVXVXVXVXVXVXmX[ 8                                 , V +.I.Y.K.K.K.K.K.K.K.K.K.K.K.K.K.K.K.K.K.K.K.K.K.K.K.K.K.K.K.K.K.K.K.K.K.K.K.K.K.K.K.K.K.K.K.K.K.K.K.K.K.K.K.S.p.y.8X8X8X8X8X8X8X8X8X8X8X8X8X8X8X8X8X8X8X8X8X8X8X8X8X8X8X8X8X8X8X8X6X6X9XqXyXsXfXfXfXfXfXfXfXfXfXfXfXfXfXfXfXaXyXqX8X6X8X8X8X8X7Xi.p.G.K.K.K.K.K.K.K.K.K.K.K.K.K.K.K.K.K.K.K.K.K.K.K.K.K.K.K.K.K.K.K.K.K.K.K.K.K.K.K.K.K.K.K.K.K.K.K.K.K.K.K.K.K.K.K.I.I.I.I.I.I.I.H.O.Z M M M M M M M M M N N N N N V N v 1 @             = / cXBXVXVXVXVXVXVXVXVXVXVXVXVXVXVXVXVXVXVXVXVXVXVXVXVXVXVX",
"VXVXVXVXVXVXVXVXVXVXVXVXVXVXVXVXVXVXVXVXVXVXVXVXVXVXVXVXVXVXVXVXVXVXVXVXmX[ 8                                 , V +.I.Y.K.K.K.K.K.K.K.K.K.K.K.K.K.K.K.K.K.K.K.K.K.K.K.K.K.K.K.K.K.K.K.K.K.K.K.K.K.K.K.K.K.K.K.K.K.K.K.K.K.K.K.S.p.0X8X8X8X8X8X8X8X8X8X8X8X8X8X8X8X8X8X8X6X6X6X6X8X8X8X8X6X6X6X6X8X8X6X6X8XqXyXsXfXfXfXfXfXfXfXfXfXfXfXfXfXfXfXaXyXqX8X8X8X8X8X8X7Xi.p.G.K.K.K.K.K.K.K.K.K.K.K.K.K.K.K.K.K.K.K.K.K.K.K.K.K.K.K.K.K.K.K.K.K.K.K.K.K.K.K.K.K.K.K.K.K.K.K.K.K.K.K.K.K.K.I.I.I.I.I.I.I.I.H.o.Z N M M M M M M M N N N N N V V N v 1 @             * / cXBXVXVXVXVXVXVXVXVXVXVXVXVXVXVXVXVXVXVXVXVXVXVXVXVXVXVX",
"VXVXVXVXVXVXVXVXVXVXVXVXVXVXVXVXVXVXVXVXVXVXVXVXVXVXVXVXVXVXVXVXVXVXVXVXmX[ 8                                 , V +.I.Y.K.K.K.K.K.K.K.K.K.K.K.K.K.K.K.K.K.K.K.K.K.K.K.K.K.K.K.K.K.K.K.K.K.K.K.K.K.K.K.K.K.K.K.K.K.K.K.K.K.W.K.S.p.y.8X8X8X8X8X8X8X8X8X8X8X8X8X8X8X8X8X8X8X8X8X8X8X8X8X8X8X8X8X8X8X8X6X6X9XqXyXsXfXfXfXfXfXfXfXfXfXfXfXfXfXfXfXaXyXqX8X6X6X8X8X8X7Xi.p.G.K.K.K.K.K.K.K.K.K.K.K.K.K.K.K.K.K.K.K.K.K.K.K.K.K.K.K.K.K.K.K.K.K.K.K.K.K.K.K.K.K.K.K.K.K.K.K.K.K.K.K.K.K.K.K.K.K.K.K.K.I.K.H.o.Z N M M M M M M M M M M M M N V M t , +             = / cXBXVXVXVXVXVXVXVXVXVXVXVXVXVXVXVXVXVXVXVXVXVXVXVXVXVXVX",
"VXVXVXVXVXVXVXVXVXVXVXVXVXVXVXVXVXVXVXVXVXVXVXVXVXVXVXVXVXVXVXVXVXVXVXVXmXjX8                                 , V +.I.Y.K.K.K.K.K.K.K.K.K.K.K.K.K.K.K.K.K.K.K.K.K.K.K.K.K.K.K.K.K.K.K.K.K.K.K.K.K.K.K.K.K.K.K.K.K.K.K.K.K.W.K.S.p.y.8X8X8X8X8X8X8X8X8X8X8X8X8X8X8X8X8X8X8X8X8X8X8X8X8X8X8X8X8X8X8X8X6X6X9XqXyXsXhXfXfXfXfXfXfXfXfXfXfXfXfXhXfXaXyXqX8X6X6X8X8X8X7Xi.p.G.K.K.K.K.K.K.K.K.K.K.K.K.K.K.K.K.K.K.K.K.K.K.K.K.K.K.K.K.K.K.K.K.K.K.K.K.K.K.K.K.K.K.K.K.K.K.K.K.K.K.K.K.K.K.K.K.K.K.K.K.K.K.D.o.Z N M M M M M M M M M M M M M N M t , +             * / cXBXVXVXVXVXVXVXVXVXVXVXVXVXVXVXVXVXVXVXVXVXVXVXVXVXVXVX",
"VXVXVXVXVXVXVXVXVXVXVXVXVXVXVXVXVXVXVXVXVXVXVXVXVXVXVXVXVXVXVXVXVXVXVXVXmXjX8                                 , V +.I.Y.K.K.K.K.K.K.K.K.K.K.K.K.K.K.K.K.K.K.K.K.K.K.K.K.K.K.K.K.K.K.K.K.K.K.K.K.K.K.K.K.K.K.K.K.K.K.K.K.K.W.K.S.p.y.8X8X8X8X8X8X8X8X6X6X6X6X6X6X6X6X6X6X6X6X6X6X6X6X6X6X6X6X6X6X6X6X6X6X8XqXyXsXhXhXfXfXfXfXfXfXfXfXfXfXhXhXhXsXyXqX8X6X6X8X8X8X7Xi.p.G.K.K.K.K.K.K.K.K.K.K.K.K.K.K.K.K.K.K.K.K.K.K.K.K.K.K.K.K.K.K.K.K.K.K.K.K.K.K.K.K.K.K.K.K.K.K.K.K.K.K.K.K.K.K.K.K.K.K.K.K.I.I.D.o.Z N M M M M M M M M M M M M N V M t , +             = ` cXVXVXVXVXVXVXVXVXVXVXVXVXVXVXVXVXVXVXVXVXVXVXVXVXVXVXVX",
"VXVXVXVXVXVXVXVXVXVXVXVXVXVXVXVXVXVXVXVXVXVXVXVXVXVXVXVXVXVXVXVXVXVXVXVXmXjX8                                 , V +.I.Y.K.K.K.K.K.K.K.K.K.K.K.K.K.K.K.K.K.K.K.K.K.K.K.K.K.K.K.K.K.K.K.K.K.K.K.K.K.K.K.K.K.K.K.K.K.K.K.K.K.W.K.S.p.y.8X8X8X8X8X8X8X8X8X8X8X8X8X8X8X8X8X8X8X8X8X8X8X8X8X8X8X8X8X8X8X8X6X6X9XqXyXsXhXhXfXfXfXfXfXfXfXfXfXfXfXhXfXaXyXqX8X6X6X8X8X8X7Xi.p.G.K.K.K.I.K.K.K.K.K.K.K.K.K.K.K.K.K.K.K.K.K.K.K.K.K.K.K.K.K.K.K.K.K.K.K.K.K.K.K.K.K.K.K.K.K.K.K.K.K.K.K.K.K.K.K.K.K.K.K.K.I.I.D.o.Z N M M M M M M M M M M M M N V M v , +             = ` cXBXVXVXVXVXVXVXVXVXVXVXVXVXVXVXVXVXVXVXVXVXVXVXVXVXVXVX",
"VXVXVXVXVXVXVXVXVXVXVXVXVXVXVXVXVXVXVXVXVXVXVXVXVXVXVXBXNXmXmXmXmXmXMXmXcX` 8               X + $ $ $ $ $ @ - w Z >.I.I.K.K.K.K.K.K.K.K.K.K.K.K.K.K.K.K.K.K.K.K.K.K.K.K.K.K.K.K.K.K.K.K.K.K.K.K.K.K.K.K.K.K.K.K.K.K.K.K.K.W.K.S.p.y.8X8X8X8X8X8X8X9X9X9X9X9X9X9X9X9X9X9X9X9X9X9X9X9X9X9X9X9X9X9X9X9X9X9X9XeXyXyXaXaXaXaXaXaXaXaXaXaXaXaXaXaXaXyXrXqX8X6X8X8X8X8X7Xi.p.G.K.K.K.K.K.K.K.K.K.K.K.K.K.K.K.K.K.K.K.K.K.K.K.K.K.K.K.K.K.K.K.K.K.K.K.K.K.K.K.K.K.K.K.K.K.K.K.K.K.K.K.K.K.K.K.K.K.K.K.K.I.I.D.o.Z M M M M M M M M M M M M M M N M v 1 +             * / lXmXMXmXmXmXmXmXMXBXVXVXVXVXVXVXVXVXVXVXVXVXVXVXVXVXVXVX",
"VXVXVXVXVXVXVXVXVXVXVXVXVXVXVXVXVXVXVXVXVXVXVXVXVXVXVXmXcXlXkXkXkXkXlXkX] ~ =             . - 2 t v v v t t v V ..D.I.I.K.K.K.K.K.K.K.K.K.K.K.K.K.K.K.K.K.K.K.K.K.K.K.K.K.K.K.K.K.K.K.K.K.K.K.K.K.K.K.K.K.K.K.K.K.K.K.K.K.W.K.S.p.y.8X8X8X8X8X8X9X9XqXeXrXrXrXrXrXrXrXrXrXrXrXrXrXrXrXrXrXrXrXrXrXrXrXrXrXrXrXrXrXrXyXyXrXrXrXrXrXrXrXrXrXyXrXrXqX9X8X8X8X8X8X8X7Xi.u.G.K.K.K.K.K.K.K.K.K.K.K.K.K.K.K.K.K.K.K.K.K.K.K.K.K.K.K.K.K.K.K.K.K.K.K.K.K.K.K.K.K.K.K.K.K.K.K.K.K.K.K.K.K.K.K.K.K.K.K.K.I.I.D.o.Z M M M M M M M M M M M M M M N M v 1 +             O 0 ` jXkXkXkXkXjXkXxXbXBXVXVXVXVXVXVXVXVXVXVXVXVXVXVXVXVXVX",
"VXVXVXVXVXVXVXVXVXVXVXVXVXVXVXVXVXVXVXVXVXVXVXVXVXVXBXvXjX~ 0 0 0 0 0 0 8 = O             X 1 N ..o.o.........O.>.J.K.K.K.K.K.K.K.K.K.K.K.K.K.K.K.K.K.K.K.K.K.K.K.K.K.K.K.K.K.K.K.K.K.K.K.K.K.K.K.K.K.K.K.K.K.K.K.K.K.K.K.W.K.S.p.y.8X8X8X8X6X8X9XqXyXyXaXaXyXyXyXyXyXyXyXyXyXyXyXyXyXyXyXyXyXyXyXyXaXaXyXyXeXqX9X9XqXqXqXqXqXqXqXqXqXqXqXqXqX9X9X9X8X8X8X8X8X8X7Xi.p.G.K.K.K.K.K.K.K.K.K.K.K.K.K.K.K.K.K.K.K.K.K.K.K.K.K.K.K.K.K.K.K.K.K.K.K.K.K.K.K.K.K.K.K.K.K.K.K.K.K.K.K.K.K.K.K.K.K.K.K.K.I.I.D.o.Z M M M M M M M M M M M M M M N M v 1 @               * 8 0 0 0 0 0 0 0 ` xXMXVXVXVXVXVXVXVXVXVXVXVXVXVXVXVXVXVX",
"VXVXVXVXVXVXVXVXVXVXVXVXVXVXVXVXVXVXVXVXVXVXVXVXVXVXBXcX` =                               + w | D.I.I.J.J.J.J.J.K.K.K.K.K.K.K.K.K.K.K.K.K.K.K.K.K.K.K.K.K.K.K.K.K.K.K.K.K.K.K.K.K.K.K.K.K.K.K.K.K.K.K.K.K.K.K.K.K.K.K.K.K.W.K.S.p.y.8X8X8X8X6X6X9XeXyXsXfXfXfXfXfXfXfXfXfXfXfXfXfXfXfXfXfXfXfXfXfXfXfXfXsXyXeX9X8X8X8X8X8X8X8X8X8X8X8X8X8X8X8X8X8X8X8X8X8X8X8X8X7Xi.p.G.K.K.K.K.K.K.K.K.K.K.K.K.K.K.K.K.K.K.K.K.K.K.K.K.K.K.K.K.K.K.K.K.K.K.K.K.K.K.K.K.K.K.K.K.K.K.K.K.K.K.K.K.K.K.K.K.K.K.K.K.I.I.D.o.Z N M M M M M M M M M M M M M N M v 1 @                               O ~ lXMXVXVXVXVXVXVXVXVXVXVXVXVXVXVXVXVXVX",
"VXVXVXVXVXVXVXVXVXVXVXVXVXVXVXVXVXVXVXVXVXVXVXVXVXVXBXcX/ O                               + e  .J.!.!.!.!.!.Y.I.I.K.K.K.K.K.K.K.K.K.K.K.K.K.K.K.K.K.K.K.K.K.K.K.K.K.K.K.K.K.K.K.K.K.K.K.K.K.K.K.K.K.K.K.K.K.K.K.K.K.K.K.K.K.K.S.p.y.8X8X8X8X6X6X9XeXyXfXhXhXfXfXhXhXhXhXfXfXfXfXhXhXhXhXfXfXfXfXfXhXhXhXsXyXqX8X6X6X6X6X6X6X6X6X6X6X8X6X6X6X6X6X8X8X8X8X8X8X8X8X7Xi.p.G.K.K.K.K.K.K.K.K.K.K.K.K.K.K.K.K.K.K.K.K.K.K.K.K.K.K.K.K.K.K.K.K.K.K.K.K.K.K.K.K.K.K.K.K.K.K.K.K.K.K.K.K.K.K.K.K.K.K.K.K.I.I.D.o.Z N M M M M M M M M M M M M M N M t 1 +                                 0 lXMXVXVXVXVXVXVXVXVXVXVXVXVXVXVXVXVXVX",
"VXVXVXVXVXVXVXVXVXVXVXVXVXVXVXVXVXVXVXVXVXVXVXVXVXVXBXcX/ *                               + w | H.!.!.I.I.I.I.I.K.K.K.K.K.K.K.K.K.K.K.K.K.K.K.K.K.K.K.K.K.K.K.K.K.K.K.K.K.K.K.K.K.K.K.K.K.K.K.K.K.K.K.K.K.K.K.K.K.K.K.K.K.K.K.S.p.y.8X8X8X8X6X6X9XeXyXsXhXhXfXfXfXfXfXfXfXfXfXfXfXfXfXfXfXfXfXfXfXfXhXhXsXyXqX9X6X6X8X8X8X8X8X8X8X8X8X8X8X8X8X8X8X8X8X8X8X8X8X8X7Xi.p.G.K.K.K.K.K.K.K.K.K.K.K.K.K.K.K.K.K.K.K.K.K.K.K.K.K.K.K.K.K.K.K.K.K.K.K.K.K.K.K.K.K.K.K.K.K.K.K.K.K.K.K.K.K.K.K.K.K.K.K.K.I.I.D.o.Z N M M M M M M M M M M M M M N M v 1 +                                 0 lXMXVXVXVXVXVXVXVXVXVXVXVXVXVXVXVXVXVX",
"VXVXVXVXVXVXVXVXVXVXVXVXVXVXVXVXVXVXVXVXVXVXVXVXVXVXBXcX/ *                               + w | H.Y.I.K.K.K.K.K.K.K.K.K.K.K.K.K.K.K.K.K.K.K.K.K.K.K.K.K.K.K.K.K.K.K.K.K.K.K.K.K.K.K.K.K.K.K.K.K.K.K.K.K.K.K.K.K.K.K.K.K.K.K.K.S.p.y.8X8X8X8X6X6X9XeXyXsXfXfXfXfXfXfXfXfXfXfXfXfXfXfXfXfXfXfXfXfXfXfXhXhXsXyXqX9X6X6X8X8X8X8X8X8X8X8X8X8X8X8X8X8X8X8X8X8X8X8X8X8X7Xi.p.G.K.K.K.K.K.K.K.K.K.K.K.K.K.K.K.K.K.K.K.K.K.K.K.K.K.K.K.K.K.K.K.K.K.K.K.K.K.K.K.K.K.K.K.K.K.K.K.K.K.K.K.K.K.K.K.K.K.K.K.K.I.I.D.o.Z N M M M M M M M M M M M M M N M v , +                               O ~ lXMXVXVXVXVXVXVXVXVXVXVXVXVXVXVXVXVXVX",
"VXVXVXVXVXVXVXVXVXVXVXVXVXVXVXVXVXVXVXVXVXVXVXVXVXVXBXcX/ =                               + w | H.Y.I.K.K.K.K.K.K.K.K.K.K.K.K.K.K.K.I.P.P.P.P.P.P.P.P.P.P.P.K.K.P.P.P.P.P.P.P.P.L.P.P.P.I.I.K.K.K.K.K.K.K.K.K.K.K.K.K.K.K.K.K.S.p.0X8X8X8X8X8X8X9XeXyXsXfXfXfXfXfXfXfXfXfXfXfXfXfXfXfXfXfXfXfXfXfXhXhXhXsXyXeX9X6X6X8X8X8X8X8X8X8X8X8X8X8X8X8X8X8X8X8X8X8X8X8X8X7Xi.p.G.K.K.K.K.K.K.K.K.K.K.K.K.K.K.K.K.K.K.K.K.K.K.K.K.K.K.K.K.K.K.K.K.K.K.K.K.K.I.I.I.I.I.I.I.K.K.K.K.K.K.K.K.K.K.K.K.K.K.K.K.I.I.D.o.Z N M M M M M M M M M M M M M N M t , +                               O ~ lXMXVXVXVXVXVXVXVXVXVXVXVXVXVXVXVXVXVX",
"VXVXVXVXVXVXVXVXVXVXVXVXVXVXVXVXVXVXVXVXVXVXVXVXVXVXBXcX/ =                               + w | H.Y.I.K.K.K.K.K.K.K.K.K.K.K.K.K.K.I.I.P.P.I.I.I.I.P.P.P.I.I.K.K.J.J.P.P.I.I.I.P.P.P.P.P.I.K.K.K.K.K.K.K.K.K.K.K.K.K.K.K.K.K.K.S.p.y.8X8X8X8X8X8X9XeXyXsXfXfXfXfXfXfXfXfXfXfXfXfXfXfXfXfXfXfXfXfXfXfXhXhXsXyXeX9X6X6X8X8X8X8X8X8X8X8X8X8X8X8X8X8X8X8X8X8X8X8X8X8X7Xi.p.G.K.K.I.I.K.K.K.K.K.K.K.K.K.K.K.K.K.K.K.K.K.K.K.K.K.K.K.K.K.K.K.K.K.K.K.K.I.I.I.I.I.I.I.I.K.K.K.K.K.K.K.K.K.K.K.K.K.K.K.K.I.I.D.o.Z N M M M M M M M M M M M M M N M v , +                               X ~ lXMXVXVXVXVXVXVXVXVXVXVXVXVXVXVXVXVXVX",
"VXVXVXVXVXVXVXVXVXVXVXVXVXVXVXVXVXVXVXVXVXVXVXVXVXVXBXcX/ =                               + w | H.Y.I.K.K.K.K.K.K.K.K.K.K.K.K.K.K.K.U.U.U.U.U.U.U.U.U.U.U.U.U.U.U.U.U.U.U.U.U.U.U.U.U.U.U.U.K.K.K.K.K.K.K.K.K.K.K.K.K.K.K.K.K.S.p.y.7X7X7X7X7X7X9XeXyXsXfXfXfXfXfXfXfXfXfXfXfXfXfXfXfXfXsXsXsXsXsXsXsXsXaXyXqX9X6X6X8X8X8X8X8X8X8X8X8X8X8X8X8X7X7X7X7X7X7X7X7X7X0Xi.u.G.K.K.I.I.K.K.K.K.K.K.K.K.K.K.K.K.K.K.K.K.K.K.K.K.K.K.K.K.K.K.K.K.K.K.J.J.G.G.G.G.G.G.G.G.J.J.K.K.K.K.K.K.K.K.K.K.K.K.K.K.I.I.D.o.Z N M M M M M M M M M M M M M N M v 1 $ .     . . .                   O ~ lXMXVXVXVXVXVXVXVXVXVXVXVXVXVXVXVXVXVX",
"VXVXVXVXVXVXVXVXVXVXVXVXVXVXVXVXVXVXVXVXVXVXVXVXVXVXBXcX/ =                               + w | H.Y.I.K.K.K.K.K.K.K.K.K.K.K.K.K.U.Q.x.x.c.c.x.x.x.x.x.x.x.x.x.x.x.x.x.x.x.x.x.x.x.x.x.x.x.Q.U.K.J.K.K.K.K.K.K.K.K.K.K.K.K.K.K.F.S.i.i.i.i.i.i.i.i.wXyXdXfXfXfXfXfXfXfXfXfXfXfXfXfXfXfXsXaXyXyXyXyXyXyXyXyXrXqX8X8X8X8X8X8X8X8X8X8X8X8X8X8X8X8X7X0Xy.i.i.i.i.i.i.i.p.S.G.K.K.I.I.K.K.K.K.K.K.K.K.K.K.K.K.K.K.K.K.K.K.K.K.K.K.K.K.K.K.K.K.K.K.J.F.A.r.j.j.A.j.A.A.A.F.J.K.K.K.K.K.K.K.K.K.K.K.K.K.I.I.D.o.Z M M M M M M M M M M M M M M N M v w , - - - - - - $ @ X             O ~ lXMXVXVXVXVXVXVXVXVXVXVXVXVXVXVXVXVXVX",
"VXVXVXVXVXVXVXVXVXVXVXVXVXVXVXVXVXVXVXVXVXVXVXVXVXVXBXcX/ =                               + w | H.Y.I.K.K.K.K.K.K.K.K.K.K.K.I.K.U.x.N.B.B.B.B.B.B.B.B.B.B.B.B.B.B.B.B.B.B.B.B.B.B.B.B.B.N.c.Q.K.P.P.K.K.K.K.K.K.K.K.K.K.K.K.K.G.S.S.S.u.S.S.S.S.p.tXpXdXgXfXfXfXfXfXfXfXfXfXfXfXfXfXfXsXyXrXeXqXqXqXeXeXqXqX9X8X8X8X8X8X8X8X8X8X8X8X8X8X8X8X8X7Xi.p.S.S.S.S.S.S.S.S.F.P.K.K.I.I.K.K.K.K.K.K.K.K.K.K.K.K.K.K.K.K.K.K.K.K.K.K.K.K.K.K.K.K.K.K.G.A.e.t.t.t.t.t.t.t.r.A.J.K.K.K.K.K.K.K.K.K.K.K.K.K.I.I.D.o.Z M M M M M M M M M M M M M M M M M v r w w w w w w 2 , @             O ~ lXMXVXVXVXVXVXVXVXVXVXVXVXVXVXVXVXVXVX",
"VXVXVXVXVXVXVXVXVXVXVXVXVXVXVXVXVXVXVXVXVXVXVXVXVXVXBXcX/ =                               + w | H.Y.I.K.K.K.K.K.K.K.K.K.K.K.P.K.Q.c.V.C.Z.Z.C.C.C.C.C.C.C.C.C.C.C.C.C.C.C.C.C.C.C.Z.Z.Z.n.N.x.K.L.I.K.K.K.K.K.K.K.K.K.K.K.K.K.P.P.G.G.G.G.G.J.P.T.u.pXdXgXgXfXfXfXfXfXfXfXfXfXfXfXhXfXaXyXqX9X8X9X9X9X9X9X9X8X8X8X8X8X8X8X8X8X8X8X8X8X8X8X8X8X0Xi.S.G.P.P.G.G.G.G.P.P.K.K.K.K.K.K.K.K.K.K.K.K.K.K.K.K.K.K.K.K.K.K.K.K.K.K.K.K.K.K.K.K.K.I.K.F.r.w.w.0.0.w.0.0.w.t.A.G.K.K.J.K.K.K.K.K.K.K.K.K.K.I.I.D.o.Z N M M M M M M M M M M M M M M M M M M v v v M M M v 2 $             O ~ lXmXVXVXVXVXVXVXVXVXVXVXVXVXVXVXVXVXVX",
"VXVXVXVXVXVXVXVXVXVXVXVXVXVXVXVXVXVXVXVXVXVXVXVXVXVXBXcX/ =                               + w | H.Y.I.K.K.K.K.K.K.K.K.K.K.K.L.K.Q.c.n.m.m.m.m.m.m.m.m.m.m.m.m.m.m.m.m.m.m.m.m.m.m.m.m.m.C.N.x.K.L.I.K.K.K.K.K.K.K.K.K.K.K.K.K.K.K.K.K.K.K.K.W.W.T.E.uXdXgXgXfXfXfXfXfXfXfXfXfXfXfXfXfXaXrX9X8X6X6X6X6X6X6X6X8X8X8X8X8X8X8X8X8X8X8X8X8X8X8X8X8X0Xi.S.K.W.W.K.K.K.K.K.K.K.K.K.K.K.K.K.K.K.K.K.K.K.K.K.K.K.K.K.K.K.K.K.K.K.K.K.K.K.K.K.K.K.I.K.A.r.w.9.9.9.0.9.9.0.t.A.G.K.K.J.K.K.K.K.K.K.K.K.K.K.I.I.D.o.Z N M M M M M M M M M M M M M M M M N N N N N N V V M w $             O ~ lXMXVXVXVXVXVXVXVXVXVXVXVXVXVXVXVXVXVX",
"VXVXVXVXVXVXVXVXVXVXVXVXVXVXVXVXVXVXVXVXVXVXVXVXVXVXBXcX/ =                               + w | H.Y.I.K.K.K.K.K.K.K.K.K.K.K.L.K.Q.c.n.m.m.m.m.m.m.m.m.m.m.m.m.m.m.m.m.m.m.m.m.m.m.m.m.m.C.N.x.K.L.I.K.K.K.K.K.K.K.K.K.K.K.K.K.K.K.K.K.K.K.K.W.W.T.E.uXdXgXgXfXfXfXfXfXfXfXfXfXfXfXfXfXaXrX9X8X6X6X6X6X6X6X6X8X8X8X8X8X8X8X8X8X8X8X8X8X8X8X8X8X0Xi.S.K.W.W.K.K.K.K.K.K.K.K.K.K.K.K.K.K.K.K.K.K.K.K.K.K.K.K.K.K.K.K.K.K.K.K.K.K.K.K.K.K.K.I.K.A.r.w.0.9.9.9.9.9.0.t.A.G.K.K.K.K.K.K.K.K.K.K.K.K.K.I.I.D.o.Z N M M M M M M M M M M M M M M M M N N N N N N V V M w $             O ~ lXMXVXVXVXVXVXVXVXVXVXVXVXVXVXVXVXVXVX",
"VXVXVXVXVXVXVXVXVXVXVXVXVXVXVXVXVXVXVXVXVXVXVXVXVXVXBXcX/ =                               + w | H.Y.I.K.K.K.K.K.K.K.K.K.K.K.L.K.Q.c.V.m.m.m.m.m.m.m.m.m.m.m.m.m.m.m.m.m.m.m.m.m.m.m.m.m.C.N.x.K.L.I.K.K.K.K.K.K.K.K.K.K.K.K.K.K.I.I.P.I.K.K.K.K.T.E.uXdXgXgXfXfXfXfXfXfXfXfXfXfXfXfXfXaXrXqX8X6X8X8X8X8X8X8X8X8X8X8X8X8X8X8X8X8X8X8X8X8X8X8X8X0Xi.S.P.W.K.K.K.K.K.K.K.K.K.K.K.K.K.K.K.K.K.K.K.K.K.K.K.K.K.K.K.K.K.K.K.K.K.K.K.K.K.K.K.K.I.K.F.r.w.0.9.0.0.9.9.0.t.A.G.K.K.K.K.K.K.K.K.K.K.K.K.K.I.I.D.o.Z N M M M M M M M M M M M M M M M M M M M M M M N N v w $             O ~ lXMXVXVXVXVXVXVXVXVXVXVXVXVXVXVXVXVXVX",
"VXVXVXVXVXVXVXVXVXVXVXVXVXVXVXVXVXVXVXVXVXVXVXVXVXVXBXcX` =                               X w | H.Y.I.K.K.K.K.K.K.K.K.K.K.K.L.K.Q.c.V.Z.m.m.m.m.m.m.m.m.m.m.m.m.m.m.m.m.m.m.m.m.m.m.m.m.C.N.x.K.L.I.K.K.K.K.K.K.K.K.K.K.K.K.K.K.K.K.K.K.K.K.K.K.T.E.uXdXgXfXfXfXfXfXfXfXfXfXfXfXfXfXfXaXrX9X8X6X6X8X6X6X8X8X8X8X8X8X8X8X8X8X8X8X8X8X8X8X8X8X8X0Xi.S.P.W.K.K.K.K.K.K.K.K.K.K.K.K.K.K.K.K.K.K.K.K.K.K.K.K.K.K.K.K.K.K.K.K.K.K.K.K.K.K.K.I.W.K.F.r.w.0.9.0.0.0.9.0.t.A.G.I.I.K.K.K.K.K.K.K.K.K.K.K.I.I.D.o.Z M M M M M M M M M M M M M M M M M M M M M M M N N v w $             O ~ lXMXVXVXVXVXVXVXVXVXVXVXVXVXVXVXVXVXVX",
"VXVXVXVXVXVXVXVXVXVXVXVXVXVXVXVXVXVXVXVXVXVXVXVXVXVXVXcX` =                               X w | H.Y.I.K.K.K.K.K.K.K.K.K.K.K.L.K.Q.c.V.Z.m.m.m.m.m.m.m.m.m.m.m.m.m.m.m.m.m.m.m.m.m.m.m.m.C.N.x.K.L.P.K.K.K.K.K.K.K.K.K.K.K.K.K.K.K.K.K.K.K.K.K.K.T.E.uXdXgXfXfXfXfXfXfXfXfXfXfXfXfXfXfXaXrX9X6X6X6X6X6X6X6X6X8X8X8X8X8X8X8X8X8X8X8X8X8X8X8X8X8X0Xi.S.P.K.K.K.K.K.K.K.K.K.K.K.K.K.K.K.K.K.K.K.K.K.K.K.K.K.K.K.K.K.K.K.K.K.K.K.K.I.I.I.W.W.W.W.F.r.w.0.9.0.0.0.9.0.t.A.G.I.I.K.K.K.K.K.K.K.K.K.K.K.I.I.D.o.Z M M M M M M M M M M M M M M M M M M M M M M M N N v w $             O ~ lXNXVXVXVXVXVXVXVXVXVXVXVXVXVXVXVXVXVX",
"VXVXVXVXVXVXVXVXVXVXVXVXVXVXVXVXVXVXVXVXVXVXVXVXVXVXBXcX/ *                               + w | H.Y.I.K.K.K.K.K.K.K.K.K.K.K.L.K.Q.c.V.Z.m.m.m.m.m.m.m.m.m.m.m.m.m.m.m.m.m.m.m.m.m.m.m.m.C.N.x.K.L.P.K.K.K.K.K.K.K.K.K.K.K.K.K.K.K.K.K.K.K.K.K.K.T.E.uXdXgXgXfXfXfXfXfXfXfXfXfXfXfXfXfXaXyXqX8X6X8X8X8X8X8X8X8X8X8X8X8X8X8X8X8X8X8X8X8X8X8X8X8X0Xi.S.P.K.K.K.K.K.K.K.K.K.K.K.K.K.K.K.K.K.K.K.K.K.K.K.K.K.K.K.K.K.K.K.K.K.K.K.K.J.J.K.K.K.K.K.F.r.w.0.9.0.0.0.0.0.t.A.G.I.I.K.K.K.K.K.K.K.K.K.K.K.I.I.D.o.Z N M M M M M M M M M M M M M M M M M M M M M M N N v w $             O ~ lXmXVXVXVXVXVXVXVXVXVXVXVXVXVXVXVXVXVX",
"VXVXVXVXVXVXVXVXVXVXVXVXVXVXVXVXVXVXNXmXbXvXbXbXbXbXvXkX~ *             . @ - : , : : - - 1 v ..H.I.I.K.K.K.K.K.K.K.K.K.K.K.L.K.Q.c.V.Z.m.m.m.m.m.m.m.m.m.m.m.m.m.m.m.m.m.m.m.m.m.m.m.m.C.N.x.K.L.P.K.K.K.K.K.K.K.K.K.K.K.K.K.K.K.K.K.K.K.K.K.K.T.E.uXdXgXgXfXfXfXfXfXfXfXfXfXfXfXfXfXaXyXeXqX9X9XqXqXqXqX9X9X8X8X8X8X8X8X8X8X8X8X8X8X8X8X8X8X0Xi.S.P.K.K.K.K.K.K.K.K.K.K.K.K.K.K.K.K.K.K.K.K.K.K.K.K.K.K.K.K.K.K.K.K.K.K.J.F.A.A.A.A.A.A.A.A.e.w.0.9.0.0.0.0.0.t.A.G.I.I.K.K.K.K.K.K.K.K.K.K.K.I.K.H.O. .Z Z Z Z Z Z Z Z Z Z Z Z Z Z Z Z Z V N M M M M N N v w $               0 ] cXbXbXbXbXvXbXmXMXBXVXVXVXVXVXVXVXVX",
"VXVXVXVXVXVXVXVXVXVXVXVXVXVXVXVXVXNXvXlX[ ] ] ] [ [ ] / 8 O             + , t M N M M M M V | +.J.I.I.K.K.K.K.K.K.K.K.K.K.K.L.K.Q.c.n.m.m.m.m.m.m.m.m.m.m.m.m.m.m.m.m.m.m.m.m.m.m.m.m.m.C.N.x.K.L.I.K.K.K.K.K.K.K.K.K.K.K.K.K.K.K.K.K.K.I.I.K.K.T.E.pXdXgXgXfXfXfXfXfXfXfXfXfXfXfXfXfXsXaXyXrXrXrXrXyXyXrXeX9X8X8X8X8X8X8X8X8X8X8X8X8X8X8X8X8X0Xi.S.P.K.K.K.K.K.K.K.K.K.K.K.K.K.K.K.K.K.K.K.K.K.K.K.K.K.K.K.K.K.K.K.K.K.J.F.j.e.e.e.e.e.e.e.t.w.w.0.0.0.0.9.9.0.t.j.G.K.I.K.K.K.K.K.K.K.K.K.K.K.K.K.J.>.O...................................Z V M M M M N N v w $               = ~ ` ] [ ] ] ] ] kXcXMXVXVXVXVXVXVXVXVX",
"VXVXVXVXVXVXVXVXVXVXVXVXVXVXVXVXVXMXzX/ 8 = 7 7 7 7 7 = O               $ t | O.+.+.O.O.O.+.>.H.K.K.K.K.K.K.K.K.K.K.K.K.K.K.L.K.Q.c.n.m.m.m.m.m.m.m.m.m.m.m.m.m.m.m.m.m.m.m.m.m.m.m.m.m.C.N.x.K.L.I.K.K.K.K.K.K.K.K.K.K.K.K.K.K.K.K.K.K.I.I.K.K.T.E.pXdXgXgXfXfXfXfXfXfXfXfXfXfXfXfXfXfXsXaXaXaXaXaXaXaXyXyXqX9X6X6X8X8X8X8X8X8X8X8X8X8X8X8X8X0Xi.S.P.K.K.K.K.K.K.K.K.K.K.K.K.K.K.K.K.K.K.K.K.K.K.K.K.K.K.K.K.K.K.K.K.I.J.A.e.w.w.w.w.w.w.w.w.w.0.0.0.0.0.9.9.0.t.j.G.K.I.K.K.K.K.K.K.K.K.K.K.K.K.K.K.H.H.D.D.D.D.D.D.D.D.D.D.D.D.D.D.D.D.+. .C M M M M N N v w $               O * 7 7 7 7 7 = 7 ~ kXmXVXVXVXVXVXVXVXVX",
"VXVXVXVXVXVXVXVXVXVXVXVXVXVXVXVXVXMXlX0                                 - v O.I.!.I.I.I.I.I.K.K.K.K.K.K.K.K.K.K.K.K.K.K.K.K.L.K.Q.c.V.Z.m.m.m.m.m.m.m.m.m.m.m.m.m.m.m.m.m.m.m.m.m.m.m.m.C.N.x.K.L.I.K.K.K.K.K.K.K.K.K.K.K.K.K.K.K.K.K.K.K.K.K.K.T.E.uXdXgXfXfXfXfXfXfXfXfXfXfXfXfXfXfXfXfXfXfXfXfXfXhXhXsXyXqX9X6X6X8X8X8X8X8X8X8X8X8X8X8X8X8X0Xi.S.P.K.K.K.K.K.K.K.K.K.K.K.K.K.K.K.K.K.K.K.K.K.K.K.K.K.K.K.K.K.I.K.K.W.J.A.t.w.9.9.0.0.0.0.0.0.0.0.0.0.0.9.9.0.t.A.G.K.I.K.K.K.K.K.K.K.K.K.K.K.K.K.K.K.K.K.K.K.K.K.K.K.K.K.K.K.K.K.I.I.K.D...C M M M M N N v w $                                 7 ] bXVXVXVXVXVXVXVXVX",
"VXVXVXVXVXVXVXVXVXVXVXVXVXVXVXVXVXMXlX0                                 - M O.!.!.!.Y.!.!.I.I.I.K.K.K.K.K.K.K.K.K.K.K.K.K.K.L.K.Q.c.V.Z.m.m.m.m.m.m.m.m.m.m.m.m.m.m.m.m.m.m.m.m.m.m.m.m.C.N.x.K.L.I.K.K.K.K.K.K.K.K.K.K.K.K.K.K.K.K.K.K.K.K.K.K.T.E.uXdXgXfXfXfXfXfXfXfXfXfXfXfXfXfXfXfXfXfXfXfXfXfXhXhXsXyXeX9X6X6X8X8X8X8X8X8X8X8X8X8X8X8X8X0Xi.S.P.K.K.K.K.K.K.K.K.K.K.K.K.K.K.K.K.K.K.K.K.K.K.K.K.K.K.K.K.K.I.I.I.I.J.A.t.w.9.9.9.9.9.9.9.0.0.0.0.0.0.9.9.w.t.A.G.I.I.K.K.K.K.K.K.K.K.K.K.K.K.K.K.K.I.I.I.I.I.I.I.I.I.I.I.I.I.I.I.Y.I.D...Z M M M M N N v w $                                 = ] vXVXVXVXVXVXVXVXVX",
"VXVXVXVXVXVXVXVXVXVXVXVXVXVXVXVXVXMXlX0                                 - v O.I.!.I.I.I.I.I.K.K.K.K.K.K.K.K.K.K.K.K.K.K.K.K.L.K.Q.c.V.Z.m.m.m.m.m.m.m.m.m.m.m.m.m.m.m.m.m.m.m.m.m.m.m.m.C.N.x.K.L.I.K.K.K.K.K.K.K.K.K.K.K.K.K.K.K.K.K.K.K.K.K.K.T.E.pXdXgXgXfXfXfXfXfXfXfXfXfXfXfXfXfXfXfXfXfXfXfXfXfXhXsXyXeX9X6X6X8X8X8X8X8X8X8X8X8X8X8X8X8X0Xi.S.P.W.K.K.K.K.K.K.K.K.K.K.K.K.K.K.K.K.K.K.K.K.K.K.K.K.K.K.K.K.K.K.K.I.J.A.t.w.9.9.0.0.0.0.0.0.0.0.0.0.0.0.0.w.t.A.F.I.I.J.K.P.K.K.K.K.K.K.K.K.K.K.K.K.K.K.K.K.K.K.K.K.K.K.K.K.K.K.I.I.K.D...C M M M M N N v w $                                 7 ] vXVXVXVXVXVXVXVXVX",
"VXVXVXVXVXVXVXVXVXVXVXVXVXVXVXVXVXMXlX~ O                               - v O.K.!.I.K.K.K.K.K.K.K.K.K.K.K.K.K.K.K.K.K.K.K.K.L.K.Q.c.V.m.m.m.m.m.m.m.m.m.m.m.m.m.m.m.m.m.m.m.m.m.m.m.m.m.C.N.x.K.L.P.K.K.K.K.K.K.K.K.K.K.K.K.K.K.K.K.K.K.K.K.K.K.T.E.uXdXgXgXfXfXfXfXfXfXfXfXfXfXfXfXfXfXfXfXfXfXfXfXfXfXsXyXqX9X6X6X8X8X8X8X8X8X8X8X8X8X8X8X8X0Xi.S.P.W.K.K.K.K.K.K.K.K.K.K.K.K.K.K.K.K.K.K.K.K.K.K.K.K.K.K.K.K.K.K.K.I.J.A.t.w.0.9.0.0.0.0.0.0.0.0.0.0.0.0.0.w.t.A.F.K.K.K.K.I.K.K.K.K.K.K.K.K.K.K.K.K.K.K.K.K.K.K.K.K.K.K.K.K.K.K.K.I.K.D...C M M M M N N v w $                                 7 ] bXVXVXVXVXVXVXVXVX",
"VXVXVXVXVXVXVXVXVXVXVXVXVXVXVXVXVXMXlX~ O                               $ v o.K.!.I.K.K.K.K.K.K.K.K.K.K.K.K.K.K.K.K.K.K.K.K.L.K.Q.c.n.M.m.m.M.M.m.m.m.m.m.m.m.m.m.m.m.m.m.m.m.m.m.m.m.m.C.N.x.K.L.L.P.P.L.P.I.K.K.K.K.K.K.K.K.K.K.K.K.K.K.K.K.K.T.E.pXdXgXgXfXfXfXfXfXfXfXfXfXfXfXfXfXfXfXfXfXfXfXfXfXfXsXyXqX9X6X6X8X8X8X8X8X8X8X8X8X8X8X8X8X7Xi.S.P.W.K.K.K.K.K.K.K.K.K.K.K.K.K.K.K.K.K.K.K.K.K.K.K.K.K.K.K.K.K.K.K.I.J.A.e.w.0.9.0.0.0.0.0.0.0.0.0.0.0.9.9.0.t.A.J.W.W.W.I.I.W.I.W.W.I.I.I.I.I.I.I.I.I.I.W.I.I.I.I.I.K.K.K.K.K.K.K.I.K.D...C M M M M N N v 2 $                                 7 ] bXVXVXVXVXVXVXVXVX",
"VXVXVXVXVXVXVXVXVXVXVXVXVXVXVXVXVXMXlX~ O                               $ v o.K.!.I.K.K.K.K.K.K.K.K.K.K.K.K.K.K.K.K.K.K.K.K.L.K.Q.c.n.m.m.m.m.m.m.m.m.m.m.m.m.m.m.m.m.m.m.m.m.m.m.m.m.m.C.N.x.K.L.P.I.I.I.I.I.K.K.K.K.K.K.K.K.K.K.K.K.K.K.K.K.K.T.E.pXdXgXgXfXfXfXfXfXfXfXfXfXfXfXfXfXfXfXfXfXfXfXfXfXfXsXyXqX9X6X6X8X8X8X8X8X8X8X8X8X8X8X8X8X7Xi.S.P.W.K.K.K.K.K.K.K.K.K.K.K.K.K.K.K.K.K.K.K.K.K.K.K.K.K.K.K.K.K.K.K.I.J.A.t.w.0.9.0.0.0.0.0.0.0.0.0.0.0.9.9.0.t.j.G.K.W.K.K.K.K.K.K.K.K.K.K.K.K.K.K.K.K.K.K.K.K.K.K.K.K.K.K.K.K.K.K.I.K.D...C M M M M N N v w $                                 7 ] bXVXVXVXVXVXVXVXVX",
"VXVXVXVXVXVXVXVXVXVXVXVXVXVXVXVXVXMXlX~ O               X @ @ @ @ @ + @ , N O.K.I.I.K.K.K.K.K.K.K.K.K.K.K.K.K.K.K.K.K.K.K.K.P.K.Q.c.V.n.n.n.n.n.n.n.n.m.m.m.m.m.m.m.m.m.m.m.m.m.m.m.m.m.C.B.x.Q.U.Q.Q.Q.Q.Q.U.U.K.K.K.K.K.K.K.K.K.K.K.K.K.K.K.K.T.E.uXdXgXfXfXfXfXfXfXfXfXfXfXfXfXfXfXfXfXfXfXfXfXfXfXfXsXyXqX9X6X6X8X8X8X8X7X7X7X0X0X0X7X7X7Xy.p.S.P.K.K.K.K.K.K.K.K.K.K.K.K.K.K.K.K.K.K.K.K.K.K.K.K.K.K.K.K.K.K.K.K.I.J.A.e.w.0.9.0.0.0.0.0.0.0.0.0.0.0.0.0.0.t.r.A.G.G.F.F.F.F.G.G.G.G.G.G.F.F.F.F.F.F.F.G.G.F.F.F.F.G.J.J.K.K.K.K.I.K.D...Z M M M M N N v w - + X X X X X X X                 7 ] bXVXVXVXVXVXVXVXVX",
"VXVXVXVXVXVXVXVXVXVXVXVXVXVXVXVXVXMXlX~ O             @ , w r r r r e r M | >.K.I.K.K.K.K.K.K.K.K.K.K.K.K.K.K.K.K.K.K.K.K.K.I.K.U.x.c.v.v.v.v.v.v.v.b.n.m.m.m.m.m.m.m.m.m.m.m.m.m.m.m.m.C.V.N.c.c.c.c.c.c.c.x.Q.K.K.K.K.K.K.K.K.K.K.K.K.K.K.K.K.T.E.uXdXgXfXfXfXfXfXfXfXfXfXfXfXfXfXfXfXfXfXfXfXfXfXfXfXsXyXqX9X6X6X8X8X8X8X7Xy.i.i.i.i.i.i.i.p.S.F.P.K.K.K.K.K.K.K.K.K.K.K.K.K.K.K.K.K.K.K.K.K.K.K.K.K.K.K.K.K.K.K.K.I.J.A.e.w.0.9.0.0.0.0.0.0.0.0.0.0.0.0.0.0.w.e.r.r.r.r.r.r.r.r.r.r.r.r.r.r.r.r.r.r.r.r.r.r.r.r.r.r.A.F.J.K.K.K.K.I.K.D...Z M M M M N M M t 2 , : : , , , : - +               7 ] bXVXVXVXVXVXVXVXVX",
"VXVXVXVXVXVXVXVXVXVXVXVXVXVXVXVXVXMXlX~ O             : v Z ........ .....+.H.K.I.K.K.K.K.K.K.K.K.K.K.K.K.K.K.K.K.K.K.K.K.K.I.K.l.l.z.h.h.h.h.h.h.h.v.b.Z.m.m.m.m.m.m.m.m.m.m.m.m.m.m.m.Z.C.n.V.V.V.V.V.V.B.N.x.U.I.I.K.K.K.K.K.K.K.K.K.K.K.K.K.T.E.uXdXgXfXfXfXfXfXfXfXfXfXfXfXfXfXfXfXfXfXfXfXfXfXfXfXsXyXqX9X6X6X8X8X8X7Xy.i.u.S.S.S.S.S.S.S.F.G.K.K.K.K.K.K.K.K.K.K.K.K.K.K.K.K.K.K.K.K.K.K.K.K.K.K.K.K.K.K.K.K.K.I.J.A.e.w.0.9.0.0.0.0.0.0.0.0.0.0.0.0.0.0.w.w.w.t.w.w.w.w.w.w.w.w.w.t.w.w.w.w.w.w.w.w.w.w.w.w.w.t.e.A.G.K.K.K.K.K.K.D...Z M M M M M M M v t r r r r r r r 2 - X             7 ] bXVXVXVXVXVXVXVXVX",
"VXVXVXVXVXVXVXVXVXVXVXVXVXVXVXVXVXMXlX~ O           . 1 C +.K.K.H.H.H.H.J.J.K.K.K.K.K.K.K.K.K.K.K.K.K.K.K.K.K.K.K.K.K.K.K.K.I.K.l.l.j.f.f.f.f.f.f.g.h.v.Z.m.m.m.m.m.m.m.m.m.m.m.m.m.m.m.m.m.Z.Z.Z.Z.Z.m.m.C.B.c.U.P.P.K.K.K.K.K.K.K.K.K.K.K.K.K.T.E.uXdXgXfXfXfXfXfXfXfXfXfXfXfXfXfXfXfXfXfXfXfXfXfXfXfXsXyXqX9X6X6X8X8X8X7Xy.p.S.P.K.P.P.P.P.P.P.K.K.K.K.K.K.K.K.K.K.K.K.K.K.K.K.K.K.K.K.K.K.K.K.K.K.K.K.K.K.K.K.K.K.I.J.A.e.w.0.9.0.0.0.0.0.0.0.0.0.0.0.0.0.0.0.0.0.0.0.0.0.0.0.0.0.0.0.0.0.0.0.0.0.0.0.0.0.0.0.0.0.w.t.r.G.I.I.K.K.K.K.D...Z M M M M M M M M M M M M M M M M r : X             7 ] bXVXVXVXVXVXVXVXVX",
"VXVXVXVXVXVXVXVXVXVXVXVXVXVXVXVXVXMXlX~             X 2 Z D.!.!.!.!.!.!.I.I.K.K.K.K.K.K.K.K.K.K.K.K.K.K.K.K.K.K.K.K.K.K.K.K.I.K.l.l.s.a.a.a.a.a.a.f.h.v.Z.m.m.m.m.m.m.m.m.m.m.m.m.m.m.m.m.m.m.m.m.m.m.m.m.m.V.c.U.P.P.K.K.K.K.K.K.K.K.K.K.K.K.K.T.E.uXdXgXgXfXfXfXfXfXfXfXfXfXfXfXfXfXfXfXfXfXfXfXfXfXfXsXyXqX9X6X6X8X8X8X7Xy.p.F.W.W.W.W.K.W.K.K.K.K.K.K.K.K.K.K.K.K.K.K.K.K.K.K.K.K.K.K.K.K.K.K.K.K.K.K.K.K.K.K.K.K.K.J.A.t.w.0.9.0.0.0.0.0.0.0.0.0.0.0.0.0.0.0.0.9.9.9.9.9.9.9.9.9.9.9.9.9.9.9.9.9.9.9.9.9.9.9.9.9.0.t.r.G.I.I.K.K.I.K.D...C M M M M M M M M N N N N N V V M r , X             7 ] bXVXVXVXVXVXVXVXVX",
"VXVXVXVXVXVXVXVXVXVXVXVXVXVXVXVXVXMXlX~ O           . 1 Z D.!.!.I.I.I.I.I.I.K.K.K.K.K.K.K.K.K.K.K.K.K.K.K.K.K.K.K.K.K.K.K.K.I.K.l.l.s.f.a.a.a.a.a.f.h.v.Z.m.m.m.m.m.m.m.m.m.m.m.m.m.m.m.m.m.m.m.m.m.m.m.m.Z.V.c.Q.K.P.K.K.K.K.K.K.K.K.K.K.K.K.K.T.E.uXdXgXgXfXfXfXfXfXfXfXfXfXfXfXfXfXfXfXfXfXfXfXfXfXfXsXyXqX9X6X6X8X8X8X7Xy.p.F.K.W.K.K.K.K.K.K.K.K.K.K.K.K.K.K.K.K.K.K.K.K.K.K.K.K.K.K.K.K.K.K.K.K.K.K.K.K.K.K.K.K.K.J.A.t.w.0.9.0.0.0.0.0.0.0.0.0.0.0.0.0.0.0.0.0.0.0.0.0.0.0.0.0.0.0.0.0.0.0.0.0.0.0.0.0.0.0.9.9.0.t.r.G.I.I.K.K.I.K.D...C M M M M M M M M M N N N N N V M r , X             7 ] bXVXVXVXVXVXVXVXVX",
"VXVXVXVXVXVXVXVXVXVXVXVXVXVXVXVXVXMXlX~ O           . 1 Z D.I.I.K.K.K.K.K.K.K.K.K.K.K.K.K.K.K.K.K.K.K.K.K.K.K.K.K.K.K.K.K.K.I.K.J.l.j.f.f.f.f.a.a.g.h.v.Z.m.m.m.m.m.m.m.m.m.m.m.m.m.m.m.m.m.m.m.m.m.m.m.m.Z.B.c.U.P.P.K.K.K.K.K.K.K.K.K.K.K.K.K.T.E.uXdXgXgXfXfXfXfXfXfXfXfXfXfXfXfXfXfXfXfXfXfXfXfXfXfXsXyXqX9X6X6X8X8X8X7Xy.p.F.K.K.K.I.K.K.K.K.K.K.K.K.K.K.K.K.K.K.K.K.K.K.K.K.K.K.K.K.K.K.K.K.K.K.K.K.K.K.K.K.K.K.K.J.A.e.w.0.9.0.0.0.0.0.0.0.0.0.0.0.0.0.0.0.0.0.0.0.0.0.0.0.0.0.0.0.0.0.0.0.0.0.0.0.0.0.0.0.9.9.0.t.r.G.I.K.K.K.K.K.D...C M M M M M M M M M M M M M N N M r , X             7 ] bXVXVXVXVXVXVXVXVX",
"VXVXVXVXVXVXVXVXVXVXVXVXVXVXVXVXVXMXlX~ O           . 1 Z >.I.I.K.K.K.K.K.K.K.K.K.K.K.K.K.K.K.K.K.K.K.K.K.K.K.K.I.I.I.I.I.I.I.I.J.l.j.s.f.f.f.a.a.g.h.v.Z.m.m.m.m.m.m.m.m.m.m.m.m.m.m.m.m.m.m.m.m.m.m.m.m.Z.B.c.U.P.P.K.K.K.K.K.K.K.K.K.K.K.K.K.T.E.pXdXgXgXgXgXgXgXgXgXgXgXgXfXgXgXgXgXfXfXfXfXfXfXfXfXsXyXqX9X6X6X8X8X8X7Xy.p.F.K.W.K.K.K.K.K.K.K.K.K.K.K.K.K.K.K.K.K.K.K.K.K.K.K.K.K.K.K.K.K.K.K.K.K.K.K.K.K.K.K.K.K.J.A.e.w.0.9.0.0.0.0.0.0.0.0.0.0.0.0.0.0.0.0.0.0.0.0.0.0.0.0.0.0.0.0.0.0.0.0.0.0.0.0.0.0.0.0.9.0.t.r.G.W.W.I.I.W.K.>...C M M M M M M M M M M M M M N N M r : X             7 ] bXVXVXVXVXVXVXVXVX",
"VXVXVXVXVXVXVXVXVXVXVXVXVXVXVXVXVXNXlX~ O           . 1 Z >.I.I.K.K.K.K.K.K.K.K.K.K.K.K.K.K.K.K.K.K.K.K.K.K.K.K.I.P.L.L.L.L.L.L.J.l.j.f.f.f.f.a.a.g.h.v.Z.m.m.m.m.m.m.m.m.m.m.m.m.m.m.m.m.m.m.m.m.m.m.m.m.Z.B.c.U.P.P.K.K.K.K.K.K.K.K.K.K.K.K.K.T.E.pXfXgXgXgXgXgXgXgXgXgXgXgXgXgXgXgXgXfXfXfXfXfXfXfXfXsXyXqX9X6X6X8X8X8X7Xy.p.F.K.W.K.W.W.K.K.K.K.K.K.K.K.K.K.K.K.K.K.K.K.K.K.K.K.K.K.K.K.K.K.K.K.K.K.K.K.K.K.K.K.K.W.J.A.t.w.0.9.0.0.0.0.0.0.0.0.0.0.0.0.0.0.0.0.0.0.0.0.0.0.0.0.0.0.0.0.0.0.0.0.0.0.0.0.0.0.0.0.9.0.t.r.G.W.W.I.I.W.W.H...Z M M M M M M M M M M M M M N N M r , X             7 ] bXVXVXVXVXVXVXVXVX",
"VXVXVXVXVXVXVXVXVXVXBXBXBXBXBXVXVXmXkX0 O           . 1 Z >.I.I.K.K.K.K.K.K.K.K.K.K.K.K.K.K.K.K.K.K.K.K.K.K.K.K.K.K.U.U.U.U.U.U.l.l.g.f.d.f.f.a.a.g.h.v.Z.m.m.m.m.m.m.m.m.m.m.m.m.m.m.m.m.m.m.m.m.m.m.m.m.Z.B.c.U.P.P.K.K.K.K.K.K.K.K.K.K.K.K.K.T.E.uXdXfXdXdXdXdXdXdXdXdXdXdXdXdXdXdXdXdXfXfXfXfXfXfXfXsXyXqX9X6X6X8X8X8X7Xy.p.S.P.P.P.P.P.P.P.P.P.K.K.K.K.K.K.K.K.K.K.K.K.K.K.K.K.K.K.K.K.K.K.K.K.K.K.K.K.K.K.K.K.K.I.J.A.t.w.0.9.0.0.0.0.0.0.0.0.0.0.0.0.0.0.0.0.0.0.0.0.0.0.0.0.0.0.0.0.0.0.0.0.0.0.0.0.0.0.0.0.9.0.t.r.F.J.J.J.J.J.J.l...Z M M M M M M M M M M M M M N N M r , X             7 ] bXVXVXVXVXVXVXVXVX",
"VXVXVXVXVXVXVXVXNXmXvXcXcXcXcXcXcXzX` 8             . 1 Z >.I.I.K.K.K.K.K.K.K.K.K.K.K.K.K.K.K.K.K.K.K.K.K.K.K.U.Q.x.x.x.x.x.x.x.x.z.g.f.a.f.f.a.a.g.h.v.Z.m.m.m.m.m.m.m.m.m.m.m.m.m.m.m.m.m.m.m.m.m.m.m.m.Z.B.c.U.P.P.K.K.K.K.K.K.K.K.K.K.K.K.K.T.E.tXuXpXpXuXuXpXpXuXuXuXuXuXuXuXuXuXpXpXdXfXfXfXfXfXfXsXyXqX9X6X6X8X8X8X8Xy.i.p.S.S.S.S.S.S.S.S.G.I.K.K.K.K.K.K.K.K.K.K.K.K.K.K.K.K.K.K.K.K.K.K.K.K.K.K.K.K.K.K.K.K.I.J.A.t.w.0.9.0.0.0.0.0.8.6.6.6.6.6.6.6.6.8.8.0.0.0.0.0.0.0.0.8.6.6.6.6.6.6.6.6.6.6.6.6.6.6.6.6.6.7.e.r.A.A.A.A.A.A.j.S C M M M M M M M M M M M M M N N M r , X             7 ] bXVXVXVXVXVXVXVXVX",
"VXVXVXVXVXVXVXVXmXxX] / / / ` ` ` / 0 =             . 1 Z >.I.I.K.K.K.K.K.K.K.K.K.K.K.K.K.K.K.K.K.K.K.K.K.I.K.Q.c.N.B.B.B.B.B.B.N.z.h.f.a.f.f.a.f.g.h.v.Z.m.m.m.m.m.m.m.m.m.m.m.m.m.m.m.m.m.m.m.m.m.m.m.m.Z.B.c.U.P.P.K.K.K.K.K.K.K.K.K.K.K.K.K.P.T.E.E.E.E.E.E.E.E.E.E.E.E.E.E.E.E.E.tXuXpXfXfXfXfXfXfXsXyXqX9X6X6X8X8X8X8X7Xy.i.i.i.i.i.i.i.i.u.S.P.K.K.K.K.K.K.K.K.K.K.K.K.K.K.K.K.K.K.K.K.K.K.K.K.K.K.K.K.K.K.K.K.I.J.A.t.w.0.9.0.0.0.0.0.6.5.z x x x x x z 5.8.0.0.0.0.0.0.0.8.6.5.x x x x x x x x x x x x x x x z 5.7.t.t.t.t.t.t.t.t.S B M M M M M M M M M M M M M N N M r , X             7 ] bXVXVXVXVXVXVXVXVX",
"VXVXVXVXVXVXVXVXbXjX0 * * * = = = * O               . 1 Z D.I.I.K.K.K.K.K.K.K.K.K.K.K.K.K.K.K.K.K.K.K.K.I.P.K.x.N.n.C.Z.C.C.C.C.V.v.h.f.a.a.f.a.f.g.h.v.m.m.m.m.m.m.m.m.m.m.m.m.m.m.m.m.m.m.m.m.m.m.m.m.m.Z.B.c.U.P.P.K.K.K.K.K.K.K.K.K.K.K.K.K.K.P.P.T.T.T.T.T.T.T.T.T.T.T.T.T.T.P.T.R.tXpXfXgXfXfXfXfXsXyXqX9X6X6X8X8X8X8X7X7X7X7X7X7X7X7X7Xy.p.S.P.K.K.K.K.K.K.K.K.K.K.K.K.K.K.K.K.K.K.K.K.K.K.K.K.K.K.K.K.K.K.K.K.I.J.A.e.w.0.9.0.0.0.0.8.5.l h h h h h h l z 6.0.0.0.0.0.0.0.8.5.l h h h h h h h h h h h h h h h h x 6.8.w.w.w.w.w.w.w.c m M N M M M M M M M M M M M M N M r , X             7 ] bXVXVXVXVXVXVXVXVX",
"VXVXVXVXVXVXVXVXvX] 7                               . 1 Z D.I.I.K.K.K.K.K.K.K.K.K.K.K.K.K.K.K.K.K.K.K.K.I.L.K.x.N.C.m.m.m.m.m.m.n.v.h.f.a.a.f.a.f.g.h.v.m.m.m.m.m.m.m.m.m.m.m.m.m.m.m.m.m.m.m.m.m.m.m.m.m.Z.B.c.U.P.P.K.K.K.K.K.K.K.K.K.K.K.K.K.K.K.K.K.K.K.K.K.K.K.K.K.K.K.K.K.K.W.K.T.tXpXdXgXfXfXfXfXsXyXqX9X6X6X8X8X8X8X8X8X8X8X8X8X8X8X8X7Xi.S.P.K.K.K.K.K.K.K.K.K.K.K.K.K.K.K.K.K.K.K.K.K.K.K.K.K.K.K.K.K.K.K.K.W.J.A.e.w.0.9.0.0.0.0.8.5.l g f f f f f h x 6.0.0.0.0.q.0.0.6.z h f f f g g g g g g g g g g f f h l 5.8.0.9.9.9.9.9.8.7.m M N M M M M M M M M M M M N N M r , X             7 ] bXVXVXVXVXVXVXVXVX",
"VXVXVXVXVXVXVXVXvX] 7                               . 1 Z D.I.I.K.K.K.K.K.K.K.K.K.K.K.K.K.K.K.K.K.K.K.K.I.L.K.x.N.C.m.m.m.m.m.m.n.v.h.f.a.a.f.a.f.g.h.v.Z.m.m.m.m.m.m.m.m.m.m.m.m.m.m.m.m.m.m.m.m.m.m.m.m.Z.B.c.U.I.I.K.K.K.K.K.K.K.K.K.K.K.K.K.K.K.K.K.K.K.K.K.K.K.K.K.K.K.K.K.K.W.K.T.tXpXfXgXfXfXfXfXsXyXqX9X6X6X8X8X8X8X8X8X8X8X8X8X8X8X8X7Xi.S.P.K.K.K.K.K.K.K.K.K.K.K.K.K.K.K.K.K.K.K.K.K.K.K.K.K.K.K.K.K.K.K.K.W.J.A.e.w.0.9.0.0.0.0.8.5.l g f f f f f h x 6.0.0.0.0.0.0.0.6.z h f f f f f f f f f f f f f f f g l 5.8.9.9.9.9.9.9.8.7.m M N M M M M M M M M M M M N N M r , X             7 ] bXVXVXVXVXVXVXVXVX",
"VXVXVXVXVXVXVXVXbX] 7                               . 1 Z D.I.I.K.K.K.K.K.K.K.K.K.K.K.K.K.K.K.K.K.K.K.K.I.L.K.x.N.C.m.m.m.m.m.m.n.v.h.f.a.a.f.a.f.g.h.v.Z.m.m.m.m.m.m.m.m.m.m.m.m.m.m.m.m.m.m.m.m.m.m.m.m.Z.B.c.Q.I.K.K.K.K.K.K.K.K.K.K.K.K.K.K.K.K.K.K.K.K.K.K.K.K.K.K.K.K.K.K.K.K.K.T.tXpXfXgXfXfXfXfXsXyXqX9X6X6X8X8X8X8X8X8X8X8X8X8X8X8X8X0Xi.S.P.K.K.K.K.K.K.K.K.K.K.K.K.K.K.K.K.K.K.K.K.K.K.K.K.K.K.K.K.K.K.K.K.W.J.A.e.w.0.9.0.0.0.0.8.5.l g f g g f g h x 6.0.0.0.0.0.0.0.8.z l g f g g g g g g g g g g g f f h l 6.0.0.0.0.0.0.0.8.7.m M N M M M M M M M M M M M N N M r , X             7 ] bXVXVXVXVXVXVXVXVX",
"VXVXVXVXVXVXVXVXbX] 7                                 1 C >.I.I.K.K.K.K.K.K.K.K.K.K.K.K.K.K.K.K.K.K.K.K.I.L.K.x.N.C.m.m.m.m.m.m.n.v.h.f.a.a.f.a.a.g.h.v.Z.m.m.m.m.m.m.m.m.m.m.m.m.m.m.m.m.m.m.m.m.m.m.m.m.Z.B.c.Q.I.I.I.I.I.I.K.K.K.K.K.K.K.K.K.K.K.K.K.K.K.K.K.K.K.K.K.K.K.K.K.K.K.K.T.tXpXfXgXgXfXgXgXsXyXeX9X8X8X8X8X8X8X8X8X8X8X8X8X8X8X8X0Xi.S.P.K.K.K.K.K.K.K.K.K.K.K.K.K.K.K.K.K.K.K.K.K.K.K.K.K.K.K.K.K.K.K.K.W.J.A.e.w.0.9.0.0.0.0.8.5.l g f g g f f h x 6.0.0.0.0.0.0.0.8.z l g f g g g g g g g g g g h h f h l 5.8.0.0.0.0.9.0.8.7.m M N M M M M M M M M M M M N N M r , X             7 ] bXVXVXVXVXVXVXVXVX",
"VXVXVXVXVXVXVXVXbX] 7                                 , C >.I.I.K.K.K.K.K.K.K.K.K.K.K.K.K.K.K.K.K.K.K.K.I.L.K.x.N.C.m.m.m.m.m.m.n.v.h.f.a.a.f.a.a.g.h.b.m.M.M.m.m.m.m.m.m.m.m.m.m.m.m.m.m.m.m.m.m.m.m.m.m.m.V.c.Q.I.I.I.I.I.I.I.I.K.K.K.K.K.K.K.K.K.K.K.K.K.K.K.K.K.K.K.K.K.K.K.K.K.K.T.tXpXgXgXgXgXgXgXsXyXeX9X8X8X8X8X8X8X8X8X8X8X8X8X8X8X8X7Xi.S.P.K.K.K.K.K.K.K.K.K.K.K.K.K.K.K.K.K.K.K.K.K.K.K.K.K.K.I.I.I.W.W.W.W.K.A.e.w.0.9.0.0.0.0.8.5.l g f g g f f h x 6.0.0.0.0.0.0.0.8.5.l g f g g g g g h f f h h h f f h l 5.8.9.0.0.9.9.9.8.7.m M M M M M M M M M M M M M N N M r : .             7 ] nXVXVXVXVXVXVXVXVX",
"VXVXVXVXVXVXVXVXbX] 7                               . 1 Z >.I.I.K.K.K.K.K.K.K.K.K.K.K.K.K.K.K.K.K.K.K.K.I.L.K.x.N.C.m.m.m.m.m.m.n.v.h.f.a.f.f.f.a.g.h.v.Z.m.m.m.m.m.m.m.m.m.m.m.m.m.m.m.m.m.m.m.m.m.m.m.m.C.B.c.Q.L.P.K.K.K.K.K.K.K.K.K.K.K.K.K.K.K.K.K.K.K.K.K.K.K.K.K.K.K.K.K.K.K.K.T.tXpXfXgXfXfXfXfXsXyXqX9X6X6X8X8X8X8X8X8X8X8X8X8X8X8X8X0Xi.S.P.K.K.K.K.K.K.K.K.K.K.K.K.K.K.K.K.K.K.K.K.K.K.K.K.K.K.K.K.K.K.K.K.I.J.A.e.w.0.9.0.0.0.0.8.5.l g f g g f f h x 6.0.0.0.0.0.0.0.8.5.l g f g g g g g g g g g g g g g h x 5.0.0.0.0.0.0.0.8.7.m M N M M M M M M M M M M M N N M r , X             7 ] bXVXVXVXVXVXVXVXVX",
"VXVXVXVXVXVXVXVXbX] 7               X $ - - - - $ $ : r | D.I.I.K.K.K.K.K.K.K.K.K.K.K.K.K.K.K.K.K.K.K.K.I.L.K.x.N.C.m.m.m.m.m.m.n.v.h.f.a.f.f.f.a.g.h.v.b.n.n.n.n.n.n.n.n.n.n.n.n.n.n.n.n.n.n.n.n.n.n.n.n.b.N.x.l.J.l.l.l.l.l.J.J.K.K.K.K.K.K.K.K.K.K.K.K.K.K.K.K.K.K.K.K.K.K.K.K.K.K.T.E.uXpXpXpXpXpXpXpXpXwX0Xy.y.y.y.y.y.y.y.y.y.y.y.y.y.y.i.p.S.P.K.K.K.K.K.K.K.K.K.K.K.K.K.K.K.K.K.K.K.K.K.K.K.K.J.G.F.A.A.A.A.A.F.A.r.t.8.8.6.8.8.8.8.6.z l g g g g g g h l 5.6.8.8.8.8.8.8.6.x h g f g g g g h j k k k k k k k k c 7.w.w.w.w.w.w.w.7.e.S Z C C Z Z Z C V N M M M M N N M t 1 $ + + + + X + 7 ` xXbXmXmXmXmXmXmXmX",
"VXVXVXVXVXVXVXVXbX] 7             X - w v M v v v v M Z o.H.I.I.K.K.K.K.K.K.K.K.K.K.K.K.K.K.K.K.K.K.K.K.I.L.K.x.N.C.m.m.m.m.m.m.n.v.h.f.a.a.f.a.a.f.h.h.v.v.v.v.v.v.v.v.v.v.v.v.v.v.v.v.v.v.v.v.v.v.v.v.v.v.z.z.l.l.l.l.l.l.l.l.l.J.K.I.K.K.K.I.K.K.K.K.K.K.K.K.K.K.K.K.K.K.K.K.K.K.K.T.R.E.tXtXtXtXtXtXtXp.p.p.p.p.p.p.p.p.p.p.p.p.p.p.p.p.p.p.S.F.I.K.K.K.K.K.K.K.K.K.K.K.K.K.K.K.K.K.K.K.K.K.K.K.K.J.A.r.r.e.e.e.e.e.e.t.7.5.5.5.5.5.5.5.z l h g g g g g g h l x z 5.5.5.5.5.5.z l h g g g g h g j k m S S S S S S S S e.e.e.e.e.e.e.e.r.r.X...............| C N M M M M N M v e 2 , , 1 1 , , 9 ^ ' [ jXjXjXjXjX[ [ ",
"VXVXVXVXVXVXVXVXbX] 7             + w C ..O.O.O.o.o.O.+.D.J.K.K.K.K.K.K.K.K.K.K.K.K.K.K.K.K.K.K.K.K.K.K.I.L.K.x.N.C.m.m.m.m.m.m.n.v.h.f.a.a.f.f.f.f.f.g.h.h.h.h.h.h.h.h.h.h.h.h.h.h.h.h.h.h.h.h.h.h.h.h.h.h.g.g.g.s.s.s.s.s.s.j.l.J.K.I.K.K.I.I.K.K.K.K.K.K.K.K.K.K.K.K.K.K.K.K.K.K.I.P.T.T.T.R.T.T.R.R.T.R.S.S.S.S.S.S.S.S.S.S.S.S.S.S.S.S.S.S.G.P.K.K.K.K.K.K.K.K.K.K.K.K.K.K.K.K.K.K.K.K.K.K.K.I.K.G.A.e.w.w.w.w.w.w.w.7.5.l l l l l l l l h h g g g g g g g h h l l l l l l l l h h g g g g h h j c S X.D.D.l.l.l.l.D.A.A.A.A.A.A.A.A.F.F.D.D.>.D.D.D.D.+...Z N M M M M M M M v v t t v v v t r e 9 8 8 8 8 8 8 8 8 ",
"VXVXVXVXVXVXVXVXbX] 7             @ r ..J.Y.I.K.K.K.K.K.K.K.K.K.K.K.K.K.K.K.K.K.K.K.K.K.K.K.K.K.K.K.K.K.I.L.K.x.N.C.m.m.m.m.m.m.n.v.h.f.a.a.f.f.f.f.f.f.f.f.f.f.f.f.f.f.a.a.f.a.f.f.f.f.f.a.a.a.f.f.f.f.f.a.f.f.f.f.f.f.f.f.f.s.l.l.K.I.I.K.K.K.K.K.K.K.K.K.K.K.K.K.K.K.K.K.K.K.K.K.K.K.K.K.K.K.I.I.I.I.K.K.K.K.K.I.I.I.K.K.K.K.K.K.K.K.K.K.K.K.I.I.K.K.K.K.K.K.K.K.K.K.K.K.K.K.K.K.K.K.K.K.K.K.K.I.I.G.r.t.0.9.9.0.0.0.0.6.z h g f g g g g g g g g g g g g g g g g g g g g g g g g g g g g g g f h j S X.J.I.I.K.K.K.J.K.I.I.I.K.K.K.K.K.K.K.K.K.K.K.K.I.I.H.O.Z N M M M M M M M M M M M M M N N v 2 @                 ",
"VXVXVXVXVXVXVXVXbX] 7             @ t ..K.!.!.!.!.!.Y.Y.I.K.K.K.K.K.K.K.K.K.K.K.K.K.K.K.K.K.K.K.K.K.K.K.I.L.K.x.N.C.m.m.m.m.m.m.n.v.h.f.a.a.f.f.f.f.f.a.a.a.a.a.a.a.a.a.a.a.a.a.a.a.a.a.a.a.a.a.a.a.a.a.a.a.a.a.d.f.f.f.d.d.f.s.l.l.K.I.I.K.K.K.K.K.K.K.K.K.K.K.K.K.K.K.K.K.K.K.K.K.K.K.K.K.K.K.K.K.K.K.K.K.K.K.K.K.K.W.K.K.K.K.K.K.K.K.K.K.K.K.K.K.K.K.K.K.K.K.K.K.K.K.K.K.K.K.K.K.K.K.K.K.K.K.K.I.I.G.r.t.0.9.9.9.9.9.9.6.z h f f f f f f f f g g g g g g g g g g f f f f f f f f g g g g g g f h j S X.K.W.W.W.I.I.I.I.I.I.I.I.I.I.I.W.W.W.W.K.K.K.K.I.I.H.O.Z N M M M M M M M N N N N N V V V v , +                 ",
"VXVXVXVXVXVXVXVXbX] 7             @ r ..J.!.!.I.I.I.I.I.K.K.K.K.K.K.K.K.K.K.K.K.K.K.K.K.K.K.K.K.K.K.K.K.P.L.K.x.N.C.m.m.m.m.m.m.n.v.h.f.a.a.f.f.f.f.f.f.f.f.f.f.f.f.f.f.a.a.a.a.f.f.f.f.f.f.f.f.f.f.f.f.a.f.f.f.f.f.f.f.f.d.f.s.l.l.K.I.I.K.K.K.K.K.K.K.K.K.K.K.K.K.K.K.K.K.K.K.K.K.K.K.K.K.K.K.K.K.K.K.K.K.K.K.K.K.K.K.K.K.K.K.K.K.K.K.K.K.K.K.I.I.K.K.K.K.K.K.K.K.K.K.K.K.K.K.K.K.K.K.K.K.K.K.K.I.I.G.r.t.0.9.9.0.0.0.0.6.z h f f g g g g g g g g g g g g g g g g g g g g g g g g g g g g g g f h j S X.J.W.I.I.I.I.I.K.K.K.K.K.K.K.K.K.K.K.K.K.K.K.K.I.I.H.O.Z N M M M M M M M M M M M M N V N v 1 +                 ",
"VXVXVXVXVXVXVXVXbX] 7             @ r ..H.!.I.K.K.K.K.K.K.K.K.K.K.K.K.K.K.K.K.K.K.K.K.K.K.K.K.K.K.K.K.K.I.L.K.x.N.C.m.m.m.m.m.m.n.v.h.f.a.a.f.f.f.f.f.f.f.f.f.f.f.f.f.f.a.a.f.f.f.f.f.f.f.f.f.f.f.f.f.f.f.f.f.f.f.f.f.f.f.f.f.s.l.l.K.I.I.K.K.K.K.K.K.K.K.K.K.K.K.K.K.K.K.K.K.K.K.K.K.K.K.K.K.K.K.K.K.K.K.K.K.K.K.K.K.K.K.K.K.K.K.K.K.K.K.K.K.K.K.K.K.K.K.K.K.K.K.K.K.K.K.K.K.K.K.K.K.K.K.K.K.K.K.I.I.G.r.t.0.9.0.0.0.0.0.6.z h g f g g g g g g g g g g g g g g g g g g g g g g g g g g g g g g h h j S X.J.I.I.K.K.K.K.K.K.K.K.K.K.K.K.K.K.K.K.K.K.K.K.I.I.H.O.Z N M M M M M M M M M M M M M N M v 2 @                 ",
"VXVXVXVXVXVXVXVXbX[ 7             @ r ..K.!.!.I.I.I.I.I.I.K.K.K.K.K.K.K.K.K.K.K.K.K.K.K.K.K.K.K.K.K.K.K.P.L.K.x.N.C.m.m.m.m.m.m.n.v.h.f.a.a.f.f.f.f.f.f.f.f.f.f.f.f.f.f.f.f.f.f.f.f.f.f.f.f.f.f.f.f.f.f.f.f.f.f.f.f.f.f.f.f.f.s.l.l.K.I.I.K.K.K.K.K.K.K.K.K.K.K.K.K.K.K.K.K.K.K.K.K.K.K.K.K.K.K.K.K.K.K.K.K.K.K.K.K.K.K.K.K.K.K.K.K.K.K.K.K.K.K.K.K.K.K.K.K.K.K.K.K.K.K.K.K.K.K.K.K.K.K.K.K.K.K.K.I.I.G.r.t.0.9.0.0.0.0.0.6.z l g f g g g g g g g f f f f f f f g g g g g g g g g g g g g g g g f h j S X.J.I.K.K.K.K.K.K.K.K.K.K.K.K.K.K.K.K.K.K.K.K.K.I.I.H.O.Z M M M M M M M M M M M M M M N M v 2 $                 ",
"VXVXVXVXVXVXVXVXbX[ 7             @ r ..K.!.!.I.I.I.I.I.I.K.K.K.K.K.K.K.K.K.K.K.K.K.K.K.K.K.K.K.K.K.K.K.I.L.K.x.N.C.m.m.m.m.m.m.n.v.h.f.a.a.f.f.f.f.f.f.f.f.f.f.f.f.f.f.f.f.f.f.f.f.f.f.f.f.f.f.f.f.f.f.f.f.f.f.f.f.f.f.f.f.f.s.l.l.K.I.I.K.K.K.K.K.K.K.K.K.K.K.K.K.K.K.K.K.K.K.K.K.K.K.K.K.K.K.K.K.K.K.K.K.K.K.K.K.K.K.K.K.K.K.K.K.K.K.K.K.K.K.K.K.K.K.K.K.K.K.K.K.K.K.K.K.K.K.K.K.K.K.K.K.K.K.K.I.I.G.r.t.0.9.0.0.0.0.0.6.z h g f g g g g g g g g f f g f f g g g g g g g g g g g g g g g g g h h j S X.J.I.K.K.K.K.K.K.K.K.K.K.K.K.K.K.K.K.K.K.K.K.K.I.I.H.O.Z N M M M M M M M M M M M M M N M v 2 $                 ",
"NXNXNXNXNXNXBXMXcX` 7             @ w Z +.D.D.>.>.>.>.D.H.K.K.K.K.K.K.K.K.K.K.K.K.K.K.K.K.K.K.K.K.K.K.K.I.L.K.x.N.C.m.m.m.m.m.m.n.v.h.f.a.a.f.f.f.f.f.f.f.f.f.f.f.f.f.f.f.f.f.f.f.f.f.f.f.s.s.s.s.s.s.s.s.s.s.f.f.f.f.f.f.f.f.j.l.l.I.I.I.K.K.K.K.K.K.K.K.K.K.K.K.K.K.K.K.K.K.K.K.K.K.K.K.K.K.K.K.K.K.K.K.K.K.K.K.K.K.K.K.K.K.K.K.K.K.K.K.K.K.K.K.K.K.K.K.K.K.K.K.K.K.K.K.K.K.K.K.K.K.K.K.K.K.K.I.W.W.G.r.t.8.0.8.0.0.0.8.6.x h g f g g g g g h h h h h h h h h h h g g g g g g g g g g g g g g h h j S X.J.I.I.K.K.K.K.K.K.K.K.K.K.K.K.K.K.K.K.K.K.K.K.I.I.H.O.| C V V V V V V V N M M M M M N M v 2 @                 ",
"zXzXzXzXzXzXzXlX[ ~ =             X , v C Z Z Z C C Z  .+.H.I.I.K.K.K.K.K.K.K.K.K.K.K.K.K.K.K.K.K.K.K.K.I.L.K.x.N.C.m.m.m.m.m.m.n.v.h.f.a.a.f.f.f.f.f.f.f.f.f.f.f.f.f.f.f.f.f.f.f.f.f.f.s.s.j.j.l.l.l.l.l.j.j.s.s.f.f.f.f.f.f.j.l.l.I.I.I.K.K.K.K.K.K.K.K.K.K.K.K.K.K.K.K.K.K.K.K.K.K.K.K.K.K.K.K.K.K.K.K.K.K.K.K.K.K.K.K.K.K.K.K.K.K.K.K.K.K.K.K.K.K.K.K.K.K.K.K.K.K.K.K.K.K.K.K.K.K.K.K.K.K.K.I.W.I.G.r.7.6.5.5.5.5.6.5.5.l h g g g g g g h l l x z z z z z x l h h g g g g g g g g g g g g g h h j S X.J.I.I.K.K.K.K.K.K.K.K.K.K.K.K.K.K.K.K.K.K.K.K.I.I.H.+...| | | | | | | Z C N M M M M N M v 2 @                 ",
"~ ~ ~ ~ ~ ~ ~ ~ 0 7 O               @ : 1 2 1 1 , , 2 v  .D.I.I.K.K.K.K.K.K.K.K.K.K.K.K.K.K.K.K.K.K.K.K.I.L.K.x.N.C.m.m.m.m.m.m.n.v.h.f.a.a.f.f.f.f.f.f.f.f.f.f.f.f.f.f.f.f.f.f.f.f.f.f.s.j.l.l.l.l.l.l.l.l.l.j.s.f.f.f.f.f.f.s.l.l.I.I.I.K.K.K.K.K.K.K.K.K.K.K.K.K.K.K.K.K.K.K.K.K.K.K.K.K.K.K.K.K.K.K.K.K.K.K.K.K.K.K.K.K.K.K.K.K.K.K.K.K.K.K.K.K.K.K.K.K.K.K.K.K.K.K.K.K.K.K.K.K.K.K.K.K.K.K.I.W.I.G.S c x l l x x x l l h h g g g g g g h x 5.6.6.6.6.6.6.6.5.l h g g g g g g g g g g g g g h h j S X.J.I.I.K.K.K.K.K.K.K.K.K.K.K.K.K.K.K.K.K.K.K.K.K.K.J.H.+.+.O.+.+.+.+.O...Z V M M M M N M v 2 @                 ",
"O O O O O O O O O                       . X . .     + 2 Z >.I.I.K.K.K.K.K.K.K.K.K.K.K.K.K.K.K.K.K.K.K.K.I.L.K.x.N.C.m.m.m.m.m.m.n.v.h.f.a.a.f.f.f.f.f.f.f.f.f.f.f.f.f.f.f.f.f.f.f.f.f.f.s.l.l.J.K.J.J.J.K.J.l.j.s.f.f.f.f.f.f.s.l.l.K.I.I.K.K.K.K.K.K.K.K.K.K.K.K.K.K.K.K.K.K.K.K.K.K.K.K.K.K.K.K.K.K.K.K.K.K.K.K.K.K.K.K.K.K.K.K.K.K.K.K.K.K.K.K.K.K.K.K.K.K.K.K.K.K.K.K.K.K.K.K.K.K.K.K.K.K.K.K.W.I.D.S c j h h h h h h h h g g g g g f g l z 6.0.0.0.0.0.0.8.6.x h f f g g g g g g g g g g g f h j S X.J.I.I.K.K.K.K.K.K.K.K.K.K.K.K.K.K.K.K.K.K.K.K.K.K.K.K.J.J.J.J.J.J.K.H.+.| V M M M M N M v 2 @                 ",
"                                                      , C >.Y.I.K.K.K.K.K.K.K.K.K.K.K.K.K.K.K.K.K.K.K.K.I.L.K.x.N.C.m.m.m.m.m.m.n.v.h.f.a.a.f.f.f.f.f.f.f.f.f.f.f.f.f.f.f.f.f.f.f.f.f.f.s.l.l.K.I.I.I.I.I.J.l.l.s.f.f.f.f.f.f.s.l.l.K.I.I.I.K.K.K.K.K.K.K.K.K.K.K.K.K.K.K.K.K.K.K.K.K.K.K.K.K.K.K.K.K.K.K.K.K.K.K.K.K.K.K.K.K.K.K.K.K.K.K.K.K.K.K.K.K.K.K.K.K.K.K.K.K.K.K.K.K.K.K.K.K.K.K.K.K.K.K.I.I.D.S c j f f f f f g g g g g g g g f g l 5.8.0.0.0.0.0.0.0.6.x h f f g g g g g g g g g g h f h j S X.J.I.I.K.K.K.K.K.K.K.K.K.K.K.K.K.K.K.K.K.K.K.K.K.K.K.K.I.I.I.I.I.I.I.K.+...V M M M M N M v 2 @                 ",
"                                                      1 C >.Y.!.K.K.K.K.K.K.K.K.K.K.K.K.K.K.K.K.K.K.K.K.I.L.K.x.N.C.m.m.m.m.m.m.n.v.h.f.a.a.f.f.f.f.f.f.f.f.f.f.f.f.f.f.f.f.f.f.f.f.f.f.s.l.l.K.I.I.I.I.I.J.l.l.s.f.f.f.f.f.f.s.l.l.I.I.I.I.K.K.K.K.K.K.K.K.K.K.K.K.K.K.K.K.K.K.K.K.K.K.K.K.K.K.K.K.K.K.K.K.K.K.K.K.K.K.K.K.K.K.K.K.K.K.K.K.K.K.K.K.K.K.K.K.K.K.K.K.K.K.K.K.K.K.K.K.K.K.K.K.K.K.K.I.I.D.S c j f f g g g g g g g g g g g f g l 5.8.0.0.0.0.0.0.0.6.x h f f g g g g g g g g g g h f h j S X.J.I.I.K.K.K.K.K.K.K.K.K.K.K.K.K.K.K.K.K.K.K.K.K.K.K.K.I.I.I.I.I.I.I.K.+...C M M M M N M v 2 @                 ",
"                                                    X 1 Z >.I.!.K.K.K.K.K.K.K.K.K.K.K.K.K.K.K.K.K.K.K.K.I.L.K.x.N.C.m.m.m.m.m.m.n.v.h.f.a.a.f.f.f.f.f.f.f.f.f.f.f.f.f.f.f.f.f.f.f.f.f.f.s.l.l.K.I.I.I.I.I.J.l.l.s.f.f.f.f.f.f.s.l.l.I.I.I.I.K.K.K.K.K.K.K.K.K.K.K.K.K.K.K.K.K.K.K.K.K.K.K.K.K.K.K.K.K.K.K.K.K.K.K.K.K.K.K.K.K.K.K.K.K.K.K.K.K.K.K.K.K.K.K.K.K.K.K.K.K.K.K.K.K.K.K.K.K.K.K.K.K.K.K.I.I.D.S c j h h g g g g g g g g g g f f g l 5.8.0.0.0.0.0.0.0.6.x h f f g g g g g g g g g g h f h j S X.J.I.I.K.K.K.K.K.K.K.K.K.K.K.K.K.K.K.K.K.K.K.K.K.K.K.K.K.K.K.K.K.I.I.J.+. .C M M M M N M v 2 @                 ",
"                                                      1 C >.Y.I.K.K.K.K.K.K.K.K.K.K.K.K.K.K.K.K.K.K.K.K.I.L.K.x.N.C.m.m.m.m.m.m.n.v.h.f.a.a.f.f.f.f.f.f.f.f.f.f.f.f.f.f.f.f.f.f.f.f.d.d.s.l.l.K.I.K.K.I.I.J.l.j.s.d.d.f.f.d.f.s.l.l.I.I.I.I.K.K.K.K.K.K.K.K.K.K.K.K.K.K.K.K.K.K.K.K.K.K.K.K.K.K.K.K.K.K.K.K.K.K.K.K.K.K.K.K.K.K.K.K.K.K.K.K.K.K.K.K.K.K.K.K.K.K.K.K.K.K.K.K.K.K.K.K.K.K.K.K.K.K.K.I.I.D.S c j f f g g g g g g g g g g f f f l 5.6.0.0.0.0.0.0.0.5.x h f f h h h h h h h h h h h f f j m X.J.I.I.K.K.K.K.K.K.K.K.K.K.K.K.K.K.K.K.K.K.K.K.K.K.K.K.K.K.K.K.K.I.I.J.+. .C M M M M N M v 2 @                 ",
"                                                      , C >.I.I.K.K.K.K.K.K.K.K.K.K.K.K.K.K.K.K.K.K.K.K.I.L.K.x.B.C.m.m.m.m.m.m.n.v.h.f.a.a.d.d.f.f.f.f.d.d.d.d.f.f.f.f.d.d.d.d.f.d.d.d.s.l.l.K.I.I.K.I.I.J.l.j.s.d.d.d.d.d.d.s.l.l.K.I.I.K.K.K.K.K.K.K.K.K.K.K.K.K.K.K.K.K.K.K.K.K.K.K.K.K.K.K.K.K.K.K.K.K.K.K.K.K.K.K.K.K.K.K.K.K.K.K.K.K.K.K.K.K.K.K.K.K.K.K.K.K.K.K.K.K.K.K.K.K.K.K.K.K.K.K.K.I.I.D.S c j f f f f f f g g g g g g g f g l 5.6.9.9.9.9.9.9.9.5.x h f f f f f h h h h h f f f f f j S X.J.I.I.K.K.K.K.K.K.K.K.K.K.K.K.K.K.K.K.K.K.K.K.K.K.K.K.K.K.K.K.K.I.I.J.+. .C M M M M N M v 2 @                 ",
"                                                    X 2 Z >.I.I.K.K.K.K.K.K.K.K.K.K.K.K.K.K.K.K.K.K.K.K.I.L.K.x.N.n.m.m.Z.Z.m.Z.n.v.h.s.a.f.f.f.f.f.f.f.f.f.f.f.f.f.f.f.f.f.f.f.f.f.f.f.s.l.l.K.I.I.K.I.I.J.l.l.s.f.f.f.f.f.f.j.l.l.K.I.I.K.K.K.K.K.K.K.K.K.K.K.K.K.K.K.K.K.K.K.K.K.K.K.K.K.K.K.K.K.K.K.K.K.K.K.K.K.K.K.K.K.K.K.K.K.K.K.K.K.K.K.K.K.K.K.K.K.K.K.K.K.K.K.K.K.K.K.K.K.K.K.K.K.K.K.K.I.I.D.S c j h g h h h h h g g g g g g f g l z 6.0.0.0.0.0.0.8.6.x j j h j j j h h j j j j g g g h k S X.J.I.I.K.K.K.K.K.K.K.K.K.K.K.K.K.K.K.K.K.K.K.K.K.K.K.K.K.K.K.K.K.I.I.J.+. .C M M M M N M v 2 @                 ",
"                X $ : , , , , , , , , , , , , , , , 1 v | D.I.I.K.K.K.K.K.K.K.K.K.K.K.K.K.K.K.K.K.K.K.K.I.P.K.Q.c.B.V.V.V.V.V.V.B.c.z.j.j.j.j.j.j.j.j.j.j.j.j.j.j.j.j.j.j.j.j.j.j.j.j.j.j.l.l.K.I.I.K.K.I.K.l.l.j.j.j.j.j.j.j.l.l.J.K.I.K.K.K.K.K.K.K.K.K.K.K.K.K.K.K.K.K.K.K.K.K.K.K.K.K.K.K.K.K.K.K.K.K.K.K.K.K.K.K.K.K.K.K.K.K.K.K.K.K.K.K.K.K.K.K.K.K.K.K.K.K.K.K.K.K.K.K.K.K.K.K.K.K.K.K.K.K.I.I.G.S c x l l l l l l l h h g g g g f g j x 7.w.w.w.w.w.w.w.7.c c c c c c c c c c c c c c c c c c S l.J.I.I.I.K.K.K.K.K.K.K.K.K.K.K.K.K.K.K.K.K.K.K.K.K.K.K.K.K.K.K.K.I.I.J.+.| V M M M M N M v 2 @                 ",
"                $ 2 v V C V V V V V V V V V V V V V C | O.H.I.I.K.K.K.K.K.K.K.K.K.K.K.K.K.K.K.K.K.K.K.K.K.I.K.U.x.c.c.c.c.c.c.c.c.x.l.l.l.l.l.l.l.l.l.l.l.l.l.l.l.l.l.l.l.l.l.l.l.l.l.l.l.l.J.K.I.K.K.K.I.K.J.l.l.l.l.l.l.l.l.l.l.J.K.I.K.K.K.K.K.K.K.K.K.K.K.K.K.K.K.K.K.K.K.K.K.K.K.K.K.K.K.K.K.K.K.K.K.K.K.K.K.K.K.K.K.K.K.K.K.K.K.K.K.K.K.K.K.K.K.K.K.K.K.K.K.K.K.K.K.K.K.K.K.K.K.K.K.K.K.K.K.I.I.G.r.7.6.5.5.5.5.5.5.z l h g g g g f g j c e.r.r.r.r.r.r.r.r.r.S S S S S S S S S S S S S S S S S X.D.J.I.K.I.I.K.K.K.K.K.K.K.K.K.K.K.K.K.K.K.K.K.K.K.K.K.K.K.K.K.K.K.I.I.J.+.| V M M M M N M v 2 @                 ",
"                - v ..+.>.+.+.+.>.>.>.+.+.+.+.+.+.+.+.D.H.J.K.K.K.K.K.K.K.K.K.K.K.K.K.K.K.K.K.K.K.K.K.K.K.K.K.K.U.Q.Q.Q.Q.Q.Q.Q.U.U.J.J.J.J.J.J.J.J.J.J.J.J.J.J.J.J.J.J.J.J.J.J.J.J.J.J.J.J.K.K.K.K.K.K.K.K.K.J.J.J.J.J.J.J.J.J.J.K.K.K.K.K.K.K.K.K.K.K.K.K.K.K.K.K.K.K.K.K.K.K.K.K.K.K.K.K.K.K.K.K.K.K.K.K.K.K.K.K.K.K.K.K.K.K.K.K.K.K.K.K.K.K.K.K.K.K.K.K.K.K.K.K.K.K.K.K.K.K.K.K.K.K.K.K.K.K.K.I.I.G.r.t.8.8.8.8.0.0.8.6.x h g f g g f h j S j.F.F.F.F.F.F.F.F.F.D.D.D.D.D.D.D.D.D.D.D.D.D.D.D.D.D.D.J.K.K.K.K.K.K.K.K.K.K.K.K.K.K.K.K.K.K.K.K.K.K.K.K.K.K.K.K.K.K.K.K.I.I.J.+.| V M M M M N M v 2 @                 ",
"                : M +.I.!.I.I.I.I.I.I.I.I.I.I.I.I.I.I.I.K.K.K.K.K.K.K.K.K.K.K.K.K.K.K.K.K.K.K.K.K.K.K.K.K.K.K.K.K.I.I.I.I.I.I.I.K.K.K.K.I.I.I.I.K.K.K.K.I.I.I.I.K.K.K.K.I.I.I.I.K.K.I.I.I.I.K.K.K.K.K.K.K.K.K.I.K.K.K.I.I.I.I.I.K.K.I.I.K.K.K.K.K.K.K.K.K.K.K.K.K.K.K.K.K.K.K.K.K.K.K.K.K.K.K.K.K.K.K.K.K.K.K.K.K.K.K.K.K.K.K.K.K.K.K.K.K.K.K.K.K.K.K.K.K.K.K.K.K.K.K.K.K.K.K.K.K.K.K.K.K.K.K.K.K.I.I.G.r.t.0.9.0.0.0.0.0.6.z h f f g h f h k S X.K.W.I.I.I.K.K.I.I.I.I.I.I.I.I.I.I.I.I.I.I.I.I.I.I.I.I.K.K.K.K.K.K.K.K.K.K.K.K.K.K.K.K.K.K.K.K.K.K.K.K.K.K.K.K.K.K.K.K.K.I.I.J.+. .V M M M M N M v 2 @                 ",
"                : N +.!.!.!.Y.Y.Y.Y.!.Y.Y.Y.Y.Y.Y.Y.I.I.I.K.K.K.K.K.K.K.K.K.K.K.K.K.K.K.K.K.K.K.K.K.K.K.K.K.K.J.I.P.L.L.P.P.L.P.J.J.I.I.I.I.I.I.I.I.I.I.I.I.I.I.I.I.I.I.I.I.I.I.I.I.I.I.I.I.K.K.K.K.K.K.K.K.K.K.K.I.I.I.I.I.I.I.I.K.I.K.K.K.K.K.K.K.K.K.K.K.K.K.K.K.K.K.K.K.K.K.K.K.K.K.K.K.K.K.K.K.K.K.K.K.K.K.K.K.K.K.K.K.K.K.K.K.K.K.K.K.K.K.K.K.K.K.K.K.K.K.K.K.K.K.K.K.K.K.K.K.K.K.K.K.K.K.K.I.I.G.r.t.0.9.0.0.0.0.0.8.z h f f g h f h k S O.I.W.W.I.I.I.I.I.I.I.I.I.I.W.W.I.I.I.I.I.I.I.I.I.W.W.I.K.K.K.K.K.K.K.K.K.K.K.K.K.K.K.K.K.K.K.K.K.K.K.K.K.K.K.K.K.K.K.K.K.I.I.J.+...C M M M M N M v 2 @                 ",
"                : M O.I.!.I.K.K.K.K.K.K.K.K.K.K.K.K.K.K.K.K.K.K.K.K.K.K.K.K.K.K.K.K.K.K.K.K.K.K.K.K.K.K.K.K.K.K.K.K.K.K.K.K.K.K.K.J.J.K.K.K.K.K.K.K.K.K.K.K.K.K.K.K.K.K.K.K.K.K.K.K.K.K.K.K.K.K.K.K.K.K.K.K.K.K.K.K.K.K.K.K.K.K.K.K.K.K.K.K.K.K.K.K.K.K.K.K.K.K.K.K.K.K.K.K.K.K.K.K.K.K.K.K.K.K.K.K.K.K.K.K.K.K.K.K.K.K.K.K.K.K.K.K.K.K.K.K.K.K.K.K.K.K.K.K.K.K.K.K.K.K.K.K.K.K.K.K.K.K.K.K.K.K.K.I.K.G.r.t.0.9.0.0.0.0.0.6.z h f f g h f h k S X.K.W.I.I.K.K.K.K.K.K.K.K.K.K.K.K.K.K.K.K.K.K.K.K.K.K.K.K.K.K.K.K.K.K.K.K.K.K.K.K.K.K.K.K.K.K.K.K.K.K.K.K.K.K.K.K.K.K.K.K.I.I.J.+...C M M M M N M v 2 @                 ",
"                : M O.I.Y.I.K.K.K.K.K.K.K.K.K.K.K.K.K.K.K.K.K.K.K.K.K.K.K.K.K.K.K.K.K.K.K.K.K.K.K.K.K.K.K.K.K.K.K.K.K.K.K.K.K.K.K.K.K.K.K.K.K.K.K.K.K.K.K.K.K.K.K.K.K.K.K.K.K.K.K.K.K.K.K.K.K.K.K.K.K.K.K.K.K.K.K.K.K.K.K.K.K.K.K.K.K.K.K.K.K.K.K.K.K.K.K.K.K.K.K.K.K.K.K.K.K.K.K.K.K.K.K.K.K.K.K.K.K.K.K.K.K.K.K.K.K.K.K.K.K.K.K.K.K.K.K.K.K.K.K.K.K.K.K.K.K.K.K.K.K.K.K.K.K.K.K.K.K.K.K.K.K.K.K.I.I.G.r.t.0.9.9.0.0.0.0.6.z h f f h h f h k S X.J.I.I.K.K.K.K.K.K.K.K.K.K.K.K.K.K.K.K.K.K.K.K.K.K.K.K.K.K.K.K.K.K.K.K.K.K.K.K.K.K.K.K.K.K.K.K.K.K.K.K.K.K.K.K.K.K.K.K.K.I.I.J.+. .C M M M M N M v 2 @                 ",
"                : M O.I.Y.I.K.K.K.K.K.K.K.K.K.K.K.K.K.K.K.K.K.K.K.K.K.K.K.K.K.K.K.K.K.K.K.K.K.K.K.K.K.K.K.K.K.K.K.K.K.K.K.K.K.K.K.K.K.K.K.K.K.K.K.K.K.K.K.K.K.K.K.K.K.K.K.K.K.K.K.K.K.K.K.K.K.K.K.K.K.K.K.K.K.K.K.K.K.K.K.K.K.K.K.K.K.K.K.K.K.K.K.K.K.K.K.K.K.K.K.K.K.K.K.K.K.K.K.K.K.K.K.K.K.K.K.K.K.K.K.K.K.K.K.K.K.K.K.K.K.K.K.K.K.K.K.K.K.K.K.K.K.K.K.K.K.K.K.K.K.K.K.K.K.K.K.K.K.K.K.K.K.K.K.K.I.G.r.t.0.9.9.9.9.9.9.6.z h f f f h f f j S X.J.W.I.K.K.K.K.K.K.K.K.K.K.K.K.K.K.K.K.K.K.K.K.K.K.K.K.K.K.K.K.K.K.K.K.K.K.K.K.K.K.K.K.K.K.K.K.K.K.K.K.K.K.K.K.K.K.K.K.K.I.I.J.+. .C M M M M N M v 2 @                 ",
"                : M O.I.Y.I.K.K.K.K.K.K.K.K.K.K.K.K.K.K.K.K.K.K.K.K.K.K.K.K.K.K.K.K.K.K.K.K.K.K.K.K.K.K.K.K.K.K.K.K.K.K.K.K.K.K.K.K.K.K.K.K.K.K.K.K.K.K.K.K.K.K.K.K.K.K.K.K.K.K.K.K.K.K.K.K.K.K.K.K.K.K.K.K.K.K.K.K.K.K.K.K.K.K.K.K.K.K.K.K.K.K.K.K.K.K.K.K.K.K.K.K.K.K.K.K.K.K.K.K.K.K.K.K.K.K.K.K.K.K.K.K.K.K.K.K.K.K.K.K.K.K.K.K.K.K.K.K.K.K.K.K.K.K.K.K.K.K.K.K.K.K.K.K.K.K.K.K.K.K.K.K.K.K.K.K.I.G.r.t.0.9.9.0.0.0.0.6.z h g f g h f h k S X.J.I.I.K.K.K.K.K.K.K.K.K.K.K.K.K.K.K.K.K.K.K.K.K.K.K.K.K.K.K.K.K.K.K.K.K.K.K.K.K.K.K.K.K.K.K.K.K.K.K.K.K.K.K.K.K.K.K.K.K.I.I.J.+. .C M M M M N M v 2 @                 ",
"                : M O.I.Y.I.K.K.K.K.K.K.K.K.K.K.K.K.K.K.K.K.K.K.K.K.K.K.K.K.K.K.K.K.K.K.K.K.K.K.K.K.K.K.K.K.K.K.K.K.K.K.K.K.K.K.K.K.K.K.K.K.K.K.K.K.K.K.K.K.K.K.K.K.K.K.K.K.K.K.K.K.K.K.K.K.K.K.K.K.K.K.K.K.K.K.K.K.K.K.K.K.K.K.K.K.K.K.K.K.K.K.K.K.K.K.K.K.K.K.K.K.K.K.K.K.K.K.K.K.K.K.K.K.K.K.K.K.K.K.K.K.K.K.K.K.K.K.K.K.K.K.K.K.K.K.K.K.K.K.K.K.K.K.K.K.K.K.K.K.K.K.K.K.K.K.K.K.K.K.K.K.K.K.K.K.K.G.A.t.w.w.w.w.w.w.w.7.x k k k k k j k c S l.J.I.I.K.K.K.K.K.K.K.K.K.K.K.K.K.K.K.K.K.K.K.K.K.K.K.K.K.K.K.K.K.K.K.K.K.K.K.K.K.K.K.K.K.K.K.K.K.K.K.K.K.K.K.K.K.K.K.K.K.I.I.J.+. .C M M M M N M v 2 @                 ",
"                : M O.I.Y.I.K.K.K.K.K.K.K.K.K.K.K.K.K.K.K.K.K.K.K.K.K.K.K.K.K.K.K.K.K.K.K.K.K.K.K.K.K.K.K.K.K.K.K.K.K.K.K.K.K.K.K.K.K.K.K.K.K.K.K.K.K.K.K.K.K.K.K.K.K.K.K.K.K.K.K.K.K.K.K.K.K.K.K.K.K.K.K.K.K.K.K.K.K.K.K.K.K.K.K.K.K.K.K.K.K.K.K.K.K.K.K.K.K.K.K.K.K.K.K.K.K.K.K.K.K.K.K.K.K.K.K.K.K.K.K.K.K.K.K.K.K.K.K.K.K.K.K.K.K.K.K.K.K.K.K.K.K.K.K.K.K.K.K.K.K.K.K.K.K.K.K.K.K.K.K.K.K.K.K.K.K.J.A.r.e.e.e.e.e.e.e.e.e.S S S S S S S S X.D.K.I.K.K.K.K.K.K.K.K.K.K.K.K.K.K.K.K.K.K.K.K.K.K.K.K.K.K.K.K.K.K.K.K.K.K.K.K.K.K.K.K.K.K.K.K.K.K.K.K.K.K.K.K.K.K.K.K.K.K.I.I.J.+.| C M M M M N M v 2 @                 ",
"                : M O.I.Y.I.K.K.K.K.K.K.K.K.K.K.K.K.K.K.K.K.K.K.K.K.K.K.K.K.K.K.K.K.K.K.K.K.K.K.K.K.K.K.K.K.K.K.K.K.K.K.K.K.K.K.K.K.K.K.K.K.K.K.K.K.K.K.K.K.K.K.K.K.K.K.K.K.K.K.K.K.K.K.K.K.K.K.K.K.K.K.K.K.K.K.K.K.K.K.K.K.K.K.K.K.K.K.K.K.K.K.K.K.K.K.K.K.K.K.K.K.K.K.K.K.K.K.K.K.K.K.K.K.K.K.K.K.K.K.K.K.K.K.K.K.K.K.K.K.K.K.K.K.K.K.K.K.K.K.K.K.K.K.K.K.K.K.K.K.K.K.K.K.K.K.K.K.K.K.K.K.K.K.K.K.K.J.G.F.A.A.A.A.A.A.A.A.j.j.X.X.X.X.X.X.l.D.J.K.I.I.K.K.K.K.K.K.K.K.K.K.K.K.K.K.K.K.K.K.K.K.K.K.K.K.K.K.K.K.K.K.K.K.K.K.K.K.K.K.K.K.K.K.K.K.K.K.K.K.K.K.K.K.K.K.K.K.K.I.I.J.+.| C M M M M N M v 2 @                 ",
"                : M O.I.Y.I.K.K.K.K.K.K.K.K.K.K.K.K.K.K.K.K.K.K.K.K.K.K.K.K.K.K.K.K.K.K.K.K.K.K.K.K.K.K.K.K.K.K.K.K.K.K.K.K.K.K.K.K.K.K.K.K.K.K.K.K.K.K.K.K.K.K.K.K.K.K.K.K.K.K.K.K.K.K.K.K.K.K.K.K.K.K.K.K.K.K.K.K.K.K.K.K.K.K.K.K.K.K.K.K.K.K.K.K.K.K.K.K.K.K.K.K.K.K.K.K.K.K.K.K.K.K.K.K.K.K.K.K.K.K.K.K.K.K.K.K.K.K.K.K.K.K.K.K.K.K.K.K.K.K.K.K.K.K.K.K.K.K.K.K.K.K.K.K.K.K.K.K.K.K.K.K.K.K.K.K.K.K.K.K.K.K.K.K.J.P.J.J.P.J.J.J.J.J.J.J.J.K.J.K.K.I.K.K.K.K.K.K.K.K.K.K.K.K.K.K.K.K.K.K.K.K.K.K.K.K.K.K.K.K.K.K.K.K.K.K.K.K.K.K.K.K.K.K.K.K.K.K.K.K.K.K.K.K.K.K.K.K.K.I.I.J.+. .C M M M M N M v 1 @                 ",
"                : M O.I.Y.I.K.K.K.K.K.K.K.K.K.K.K.K.K.K.K.K.K.K.K.K.K.K.K.K.K.K.K.K.K.K.K.K.K.K.K.K.K.K.K.K.K.K.K.K.K.K.K.K.K.K.K.K.K.K.K.K.K.K.K.K.K.K.K.K.K.K.K.K.K.K.K.K.K.K.K.K.K.K.K.K.K.K.K.K.K.K.K.K.K.K.K.K.K.K.K.K.K.K.K.K.K.K.K.K.K.K.K.K.K.K.K.K.K.K.K.K.K.K.K.K.K.K.K.K.K.K.K.K.K.K.K.K.K.K.K.K.K.K.K.K.K.K.K.K.K.K.K.K.K.K.K.K.K.K.K.K.K.K.K.K.K.K.K.K.K.K.K.K.K.K.K.K.K.K.K.K.K.K.K.K.K.K.K.I.W.W.W.W.I.I.I.I.I.I.I.I.I.I.I.I.I.I.I.I.I.I.K.K.K.K.K.K.K.K.K.K.K.K.K.K.K.K.K.K.K.K.K.K.K.K.K.K.K.K.K.K.K.K.K.K.K.K.K.K.K.K.K.K.K.K.K.K.K.K.K.K.K.K.K.K.K.K.K.I.I.J.+. .C M M M M N M v 1 @                 ",
"                : M O.I.Y.I.K.K.K.K.K.K.K.K.K.K.K.K.K.K.K.K.K.K.K.K.K.K.K.K.K.K.K.K.K.K.K.K.K.K.K.K.K.K.K.K.K.K.K.K.K.K.K.K.K.K.K.K.K.K.K.K.K.K.K.K.K.K.K.K.K.K.K.K.K.K.K.K.K.K.K.K.K.K.K.K.K.K.K.K.K.K.K.K.K.K.K.K.K.K.K.K.K.K.K.K.K.K.K.K.K.K.K.K.K.K.K.K.K.K.K.K.K.K.K.K.K.K.K.K.K.K.K.K.K.K.K.K.K.K.K.K.K.K.K.K.K.K.K.K.K.K.K.K.K.K.K.K.K.K.K.K.K.K.K.K.K.K.K.K.K.K.K.K.K.K.K.K.K.K.K.K.K.K.K.K.K.K.K.K.K.K.K.K.K.K.K.K.I.I.I.I.I.I.I.I.I.K.K.K.K.K.K.K.K.K.K.K.K.K.K.K.K.K.K.K.K.K.K.K.K.K.K.K.K.K.K.K.K.K.K.K.K.K.K.K.K.K.K.K.K.K.K.K.K.K.K.K.K.K.K.K.K.K.K.K.K.K.K.I.I.J.+.| C M M M M N M v 1 @                 ",
"                : M O.I.Y.I.K.K.K.K.K.K.K.K.K.K.K.K.K.K.K.K.K.K.K.K.K.K.K.K.K.K.K.K.K.K.K.K.K.K.K.K.K.K.K.K.K.K.K.K.K.K.K.K.K.K.K.K.K.K.K.K.K.K.K.K.K.K.K.K.K.K.K.K.K.K.K.K.K.K.K.K.K.K.K.K.K.K.K.K.K.K.K.K.K.K.K.K.K.K.K.K.K.K.K.K.K.K.K.K.K.K.K.K.K.K.K.K.K.K.K.K.K.K.K.K.K.K.K.K.K.K.K.K.K.K.K.K.K.K.K.K.K.K.K.K.K.K.K.K.K.K.K.K.K.K.K.K.K.K.K.K.K.K.K.K.K.K.K.K.K.K.K.K.K.K.K.K.K.K.K.K.K.K.K.K.K.K.K.K.K.K.K.K.K.K.K.K.K.K.K.K.K.K.K.K.K.K.K.K.K.K.K.K.K.K.K.K.K.K.K.K.K.K.K.K.K.K.K.K.K.K.K.K.K.K.K.K.K.K.K.K.K.K.K.K.K.K.K.K.K.K.K.K.K.K.K.K.K.K.K.K.K.K.K.K.K.K.K.I.I.J.+...C M M M M N M v 1 @                 ",
"                : M O.I.Y.I.K.K.K.K.K.K.K.K.K.K.K.K.K.K.K.K.K.K.K.K.K.K.K.K.K.K.K.K.K.K.K.K.K.K.K.K.K.K.K.K.K.K.K.K.K.K.K.K.K.K.K.K.K.K.K.K.K.K.K.K.K.K.K.K.K.K.K.K.K.K.K.K.K.K.K.K.K.K.K.K.K.K.K.K.K.K.K.K.K.K.K.K.K.K.K.K.K.K.K.K.K.K.K.K.K.K.K.K.K.K.K.K.K.K.K.K.K.I.I.I.I.I.I.I.I.I.I.I.I.I.I.I.I.I.I.I.I.I.I.I.I.I.I.I.I.I.I.I.I.I.I.I.I.I.I.I.I.I.I.I.I.I.I.I.I.I.I.I.I.I.I.I.I.I.I.I.I.I.I.I.I.I.I.K.K.K.K.K.K.K.K.K.K.K.K.K.K.K.K.K.K.K.K.K.K.K.K.K.K.K.K.K.K.K.K.K.K.K.K.K.K.K.K.K.K.K.K.K.K.K.K.K.K.K.K.K.K.K.K.K.K.K.K.K.K.K.K.K.K.K.K.K.K.K.K.K.K.K.K.K.K.K.K.I.I.J.+. .C M M M M N M v 1 @                 ",
"                : M O.I.Y.I.K.K.K.K.K.K.K.K.K.K.K.K.K.K.K.K.K.K.K.K.K.K.K.K.K.K.K.K.K.K.K.K.K.K.K.K.K.K.K.K.K.K.K.K.K.K.K.K.K.K.K.K.K.K.K.K.K.K.K.K.K.K.K.K.K.K.K.K.K.K.K.K.K.K.K.K.K.K.K.K.K.K.K.K.K.K.K.K.K.K.K.K.K.K.K.K.K.K.K.K.K.K.K.K.K.K.K.K.K.K.K.K.K.K.K.K.K.I.I.I.I.I.I.I.I.I.I.I.I.I.I.I.I.I.I.I.I.I.I.I.I.I.I.I.I.I.I.I.I.I.I.I.I.I.I.I.I.I.I.I.I.I.I.I.I.I.I.I.I.I.I.I.I.I.I.I.I.I.I.I.I.I.I.K.K.K.K.K.K.K.K.K.K.K.K.K.K.K.K.K.K.K.K.K.K.K.K.K.K.K.K.K.K.K.K.K.K.K.K.K.K.K.K.K.K.K.K.K.K.K.K.K.K.K.K.K.K.K.K.K.K.K.K.K.K.K.K.K.K.K.K.K.K.K.K.K.K.K.K.K.K.K.K.I.I.J.+.| C M M M M N M v 1 @                 ",
"                : M O.I.Y.I.K.K.K.K.K.K.K.K.K.K.K.K.K.K.K.K.K.K.K.K.K.K.K.K.K.K.K.K.K.K.K.K.K.K.K.K.K.K.K.K.K.K.K.K.K.K.K.K.K.K.K.K.K.K.K.K.K.K.K.K.K.K.K.K.K.K.K.K.K.K.K.K.K.K.K.K.K.K.K.K.K.K.K.K.K.K.K.K.K.K.K.K.K.K.K.K.K.K.K.K.K.K.K.K.K.K.K.K.K.K.K.K.K.K.K.K.K.J.H.H.H.H.H.H.H.H.J.J.J.J.H.H.H.H.H.H.H.H.H.H.H.H.H.H.H.H.H.H.H.H.J.J.J.J.H.H.H.H.H.H.H.H.H.H.H.H.H.H.H.H.H.H.H.H.J.J.J.J.H.H.H.H.J.J.K.K.K.K.K.K.K.K.K.K.K.K.K.K.K.K.K.K.K.K.K.K.K.K.K.K.K.K.K.K.K.K.K.K.K.K.K.K.K.K.K.K.K.K.K.K.K.K.K.K.K.K.K.K.K.K.K.K.K.K.K.K.K.K.L.L.L.L.L.L.L.L.L.L.I.K.K.K.K.I.I.J.+.| V M M M M N M v 1 @                 ",
"                : M O.I.Y.I.K.K.K.K.K.K.K.K.K.K.K.K.K.K.K.K.K.K.K.K.K.K.K.K.K.K.K.K.K.K.K.K.K.K.K.K.K.K.K.K.K.K.K.K.K.K.K.K.K.K.K.K.K.K.K.K.K.K.K.K.K.K.K.K.K.K.K.K.K.K.K.K.K.K.K.K.K.K.K.K.K.K.K.K.K.K.K.K.K.K.K.K.K.K.K.K.K.K.K.K.K.K.K.K.K.K.K.K.K.K.K.K.K.K.K.K.H.>.+.O.O.O.O.O.O.O.O.O.O.O.O.O.O.O.O.O.O.O.O.O.O.O.O.O.O.O.O.O.O.O.O.O.O.O.O.O.O.O.O.O.O.O.O.O.O.O.O.O.O.O.O.O.O.O.O.O.O.O.O.O.O.+.>.H.K.K.K.K.K.K.K.K.K.K.K.K.K.K.K.K.K.K.K.K.K.K.K.K.K.K.K.K.K.K.K.K.K.K.K.K.K.K.K.K.K.K.K.K.K.K.K.K.K.K.K.K.K.K.K.K.K.K.K.K.K.K.K.L.,.<.<.<.<.<.<.<.4.,.L.K.K.K.K.I.I.J.+.| C M M M M N M v 1 @                 ",
"                : M O.I.Y.I.K.K.K.K.K.K.K.K.K.K.K.K.K.K.K.K.K.K.K.K.K.K.K.K.K.K.K.K.K.K.K.K.K.K.K.K.K.K.K.K.K.K.K.K.K.K.K.K.K.K.K.K.K.K.K.K.K.K.K.K.K.K.K.K.K.K.K.K.K.K.K.K.K.K.K.K.K.K.K.K.K.K.K.K.K.K.K.K.K.K.K.K.K.K.K.K.K.K.K.K.K.K.K.K.K.K.K.K.K.K.K.K.K.K.I.J.D.O. .| | | | | | | | | | | | | | | | | | | | | | | | | | | | | | | | | | | | | | | | | | | | | | | | | | | | | | | | | | | | | | | o.>.J.I.I.K.K.K.K.K.K.K.K.K.K.K.K.K.K.K.K.K.K.K.K.K.K.K.K.K.K.K.K.K.K.K.K.K.K.K.K.K.K.K.K.K.K.K.K.K.K.K.K.K.K.K.K.K.K.K.K.K.K.K.K.,.<.3.2.%.2.2.%.%.2.3.,.I.K.K.K.I.I.J.+. .C M M M M N M v 1 @                 ",
"                : M O.I.Y.I.K.K.K.K.K.K.K.K.K.K.K.K.K.K.K.K.K.K.K.K.K.K.K.K.K.K.K.K.K.K.K.K.K.K.K.K.K.K.K.K.K.K.K.K.K.K.K.K.K.K.K.K.K.K.K.K.K.K.K.K.K.K.K.K.K.K.K.K.K.K.K.K.K.K.K.K.K.K.K.K.K.K.K.K.K.K.K.K.K.K.K.K.K.K.K.K.K.K.K.K.K.K.K.K.K.K.K.K.K.K.K.K.K.I.I.J.+...C N N V V V V V N N N N V V V V V V V V V V V V V V V V V V V V V V N N V V V V V V V V V V V V V V V V V V V V N N N N V N N C  .+.J.I.I.K.K.K.K.K.K.K.K.K.K.K.K.K.K.K.K.K.K.K.K.K.K.K.K.K.K.K.K.K.K.K.K.K.K.K.K.K.K.K.K.K.K.K.K.K.K.K.K.K.K.K.K.K.K.K.K.K.K.K.K.,.3.%.-.-.-.-.*.-.-.2.<.L.K.K.K.I.I.J.+. .C M M M M N M v 1 @                 ",
"                : M O.I.Y.I.K.K.K.K.K.K.K.K.K.K.K.K.K.K.K.K.K.K.K.K.K.K.K.K.K.K.K.K.K.K.K.K.K.K.K.K.K.K.K.K.K.K.K.K.K.K.K.K.I.I.K.K.K.K.K.K.I.I.K.K.K.K.K.K.K.K.K.K.K.K.K.K.K.K.K.K.K.K.K.K.I.I.K.K.K.K.K.K.K.K.K.K.K.K.K.K.K.K.K.K.K.K.K.K.K.K.K.K.K.K.K.K.K.I.I.J.+.| V M M M M M M M M M M M M M M M M M M M M M M M M M M M M M M M M M M M M M M M M M M M M M M M M M M M M M M M M M M M M M M V | +.J.I.I.K.K.K.K.K.K.K.K.K.K.K.K.K.K.K.K.K.K.K.K.K.K.K.K.K.K.K.K.K.K.K.K.K.K.K.K.K.K.K.K.K.K.K.K.K.K.K.K.K.K.K.K.K.K.K.K.K.K.J.K.,.3.-.*.&.&.&.&.&.-.2.<.L.K.K.K.K.I.K.+. .C M M M M N M v 1 @                 ",
"                : M O.I.Y.I.K.K.K.K.K.K.K.K.K.K.K.K.K.K.K.K.K.K.K.K.K.K.K.K.K.K.K.K.K.K.K.K.K.K.K.K.K.K.K.K.K.K.K.K.K.K.K.K.K.I.K.K.K.K.K.K.I.I.K.K.K.K.K.K.K.K.K.K.K.K.K.K.K.K.K.K.K.K.K.K.K.I.K.K.K.K.K.K.K.K.K.K.K.K.K.K.K.K.K.K.K.K.K.K.K.K.K.K.K.K.K.K.K.I.I.J.+.| V M M M M M M M M M M M M M M M M M M M M M M M M M M M M M M M M M M M M M M M M M M M M M M M M M M M M M M M M M M M M M M V | +.J.I.I.K.K.K.K.K.K.K.K.K.K.K.K.K.K.K.K.K.K.K.K.K.K.K.K.K.K.K.K.K.K.K.K.K.K.K.K.K.K.K.K.K.K.K.K.K.K.K.K.K.K.K.K.K.K.K.K.K.K.K.K.,.3.;.*.&.&.&.&.&.-.2.<.L.K.K.K.I.I.J.+. .C M M M M N M v 1 @                 ",
"                : M O.I.Y.I.K.K.K.K.K.K.K.K.K.K.K.K.K.K.K.K.K.K.K.K.K.K.K.K.K.K.K.K.K.K.K.K.K.K.I.I.I.I.K.K.K.K.K.K.K.K.K.K.I.K.K.K.K.K.K.K.I.I.K.K.K.K.K.K.K.K.I.I.I.I.K.K.K.K.K.K.K.K.K.K.I.I.K.K.K.K.K.K.K.K.K.K.K.K.K.K.K.K.K.K.K.K.K.K.K.K.K.K.K.K.K.K.K.I.I.J.+. .C M M M M M M M M M M M M M M M M M M M M M M M M M M M M M M M M M M M M M M M M M M M M M M M M M M M M M M M M M M M M M M V | +.J.I.I.K.K.K.K.K.K.K.K.K.K.K.K.K.K.K.K.K.K.K.K.K.K.K.K.K.K.K.K.K.K.K.K.K.K.K.K.K.K.K.K.K.K.K.K.K.K.K.K.K.K.K.K.K.K.K.K.K.K.K.K.,.3.%.*.&.*.*.*.*.-.2.<.L.K.K.K.I.I.J.+.| V M M M M N M v 1 @                 ",
"                : M O.I.Y.I.K.K.K.K.K.K.K.K.K.K.K.K.K.K.K.K.K.K.K.K.K.K.K.K.K.K.K.K.K.K.K.K.K.K.K.K.K.K.K.K.K.K.K.K.K.K.K.K.K.K.K.K.K.K.K.K.K.K.K.K.K.K.K.K.K.K.K.K.K.K.K.K.K.K.K.K.K.K.K.K.I.I.K.K.K.K.K.K.K.K.K.K.K.K.K.K.K.K.K.K.K.K.K.K.K.K.K.K.K.K.K.K.K.I.I.J.+. .C M M M M M M M M M M M M M N N N N N N N N N N M M M M N N N N N N M M M M N N N N N N N M M M M M M M M M M M M M M M M M M V | +.J.I.I.K.K.K.K.K.K.K.K.K.K.K.K.K.K.K.K.K.K.K.K.K.K.K.K.K.K.K.K.K.K.K.K.K.K.K.K.K.K.K.K.K.K.K.K.K.K.K.K.K.K.K.K.K.K.K.K.K.K.U.K.,.3.%.*.&.*.*.&.&.-.2.<.L.K.K.K.I.I.J.+.| V M M M M N M v 1 @                 ",
"                : M O.I.Y.I.K.K.K.K.K.K.K.K.K.K.K.K.K.K.K.K.K.K.K.K.K.K.K.K.K.K.I.I.I.I.K.K.K.K.K.K.U.K.U.U.K.U.K.K.K.K.K.K.K.K.K.K.K.K.K.K.Q.K.U.U.K.U.K.K.K.K.U.K.Q.K.K.K.K.U.K.K.K.K.K.K.K.I.K.K.K.K.K.K.K.K.K.K.K.K.K.K.K.K.K.K.K.K.K.K.K.K.K.K.K.K.K.K.K.I.K.J.+.| V M M M M M M M N N N N N N N N N N N N N N N N N N N N N N N N N N N N N N N N N N N N N N M M M M M M M M M M M M M M M M M V | +.J.I.I.K.K.K.K.K.K.K.K.K.K.K.K.K.K.K.K.K.K.K.K.K.K.K.K.K.K.K.K.K.K.K.K.K.K.K.K.K.K.K.K.K.K.K.K.K.K.K.K.K.K.K.K.K.K.K.K.K.K.U.K.,.3.%.*.&.*.*.*.*.-.2.<.L.K.K.K.I.I.J.+.| V M M M M N M v 1 @                 ",
"                : M O.I.Y.I.K.K.K.K.K.K.K.K.K.K.K.K.K.K.K.K.K.K.K.K.K.K.K.K.K.K.I.I.I.I.K.K.I.I.I.I.I.I.I.I.I.I.P.P.P.P.I.P.I.I.P.P.P.P.I.I.I.I.I.I.I.I.P.P.P.P.I.I.I.I.I.I.I.I.P.P.P.P.P.I.K.K.K.K.K.K.K.K.K.K.K.K.K.K.K.K.K.K.K.K.K.K.K.K.K.K.K.K.K.K.K.K.K.I.K.J.+.| V M M M M M M M M M M M M M M M M M M M M M M M M M M M M M M M M M M M M M M M M M M M M M M M M M M M M M M M M M M M M M M V | +.J.K.I.K.K.K.K.K.K.K.K.K.K.K.K.K.K.K.K.K.K.K.K.K.K.K.K.K.K.K.K.K.K.K.K.K.K.K.K.K.K.K.K.K.K.K.K.K.K.K.K.K.K.K.K.K.K.K.K.K.K.K.K.,.3.%.*.&.*.*.*.*.-.2.<.L.K.K.K.I.I.J.+. .V M M M M N M v 1 @                 ",
"                : M O.I.Y.I.K.K.K.K.K.K.K.K.K.K.K.K.K.K.K.K.K.K.K.K.K.K.K.K.K.K.K.K.I.K.K.P.G.:.:.:.:.:.:.:.:.:.:.:.:.:.:.:.:.:.:.:.:.:.:.:.:.:.:.:.:.:.:.:.:.:.:.:.:.:.:.:.:.:.:.:.:.:.:.:.L.I.K.K.K.K.K.K.K.K.K.K.K.K.K.K.K.K.K.K.K.K.K.K.K.K.K.K.K.K.K.K.K.I.I.J.+.| C M M M M M M M v t t r t t t t t t t t t t t t t t t t t t t t t t t t t t t t t t t r t v b M M M M M M M M M M M M M M M M V | +.J.I.I.K.K.K.K.K.K.K.K.K.K.K.K.K.K.K.K.K.K.K.K.K.K.K.K.K.K.K.K.K.K.K.K.L.,.,.,.,.,.,.,.,.,.,.,.,.,.,.,.,.,.,.,.,.,.,.,.,.,.,.,.<.2.-.*.*.*.*.*.*.-.2.<.L.K.K.K.I.I.J.+...C M M M M N M v 1 @                 ",
"                : M O.I.Y.I.K.K.K.K.K.K.K.K.K.K.K.K.K.K.K.K.K.K.K.K.K.K.K.K.K.K.K.K.K.K.K.L.:.1._ +X+X+X+X+X+X+X+X+X+X+X+X+X+X+X+X+X+X+X+X+X+X+X+X+X+X+X+X+X+X+X+X+X+X+X+X+X+X+X+X+X+X+X_ 1.:.P.K.K.K.K.K.K.K.K.K.K.K.K.K.K.K.K.K.K.K.K.K.K.K.K.K.K.K.K.K.K.K.I.I.J.+. .C M M M M N M v r 2 , , , , , , , , , , , , , , , , , , , , , , , , , , , , , , , , , , , 2 t M M N M M M M M M M M M M M M M V | +.J.I.I.K.K.K.K.K.K.K.K.K.K.K.K.K.K.K.K.K.K.K.K.K.K.K.K.K.K.K.K.K.K.K.K.,.<.3.3.3.3.3.3.3.3.3.3.3.3.3.3.3.3.3.3.3.3.3.3.3.3.3.3.2.%.-.*.*.*.*.*.*.-.2.<.L.K.K.K.I.I.J.+...C M M M M N M v 1 @                 ",
"                : M O.I.Y.I.K.K.K.K.K.K.K.K.K.K.K.K.K.K.K.K.K.K.K.K.K.K.K.K.K.K.K.K.K.K.K.G.1.+XoX_._.oXoXoXoXoXoXoXoXoXoXoXoXoXoXoXoXoXoXoXoXoXoXoXoXoXoXoXoXoXoXoXoXoXoXoXoXoXoXoX_._..X_ :.P.K.K.K.K.K.K.K.K.K.K.K.K.K.K.K.K.K.K.K.K.K.K.K.K.K.K.K.K.K.K.K.I.I.K.+. .C M M M M N M v 2 - + X X X X X X X X X X X X X X X X X X X X X X X X X X X X X X X X X + : w M N N M M M M M M M M M M M M M V | +.J.I.I.K.K.K.K.K.K.K.K.K.K.K.K.K.K.K.K.K.K.K.K.K.K.K.K.K.K.K.K.K.K.K.K.,.3.%.-.-.-.-.-.-.-.-.-.-.-.-.-.-.-.-.-.-.-.-.-.-.-.-.-.-.-.*.*.*.*.*.*.*.-.2.<.L.K.K.K.I.I.K.+.| C M M M M N M v 1 @                 ",
"                : M O.I.Y.I.K.K.K.K.K.K.K.K.K.K.K.K.K.K.K.K.K.K.K.K.K.K.K.K.K.K.K.K.K.K.K.G.1.OX`.).).).).).).).).).).).).).).).`.`.).).).).).).).).).).).).).).).).).).).).).).).).).)._.+X1.P.U.K.K.K.K.K.K.K.K.K.K.K.K.K.K.K.K.K.K.K.K.K.K.K.K.K.K.K.K.K.K.I.I.K.+. .C M M M M N M v 1 @                                                                       $ w v N N M M M M M M M M M M M M M V | +.J.I.I.K.K.K.K.K.K.K.K.K.K.K.K.K.K.K.K.K.K.K.K.K.K.K.K.K.K.K.K.K.K.K.K.,.3.-.*.&.*.*.*.*.*.*.*.*.*.*.*.*.*.*.*.*.*.*.*.*.*.*.*.*.*.*.*.*.*.*.&.&.-.2.<.L.K.K.K.I.I.J.+.| C M M M M N M v 1 @                 ",
"                : M O.I.Y.I.K.K.K.K.K.K.K.K.K.K.K.K.K.K.K.K.K.K.K.K.K.K.K.K.K.K.K.K.K.K.K.G.1..X`.).).).).).).).).).).).).).).).).).).).).).).).).).).).).).).).).).).).).).).).).).).)._.+X1.P.U.K.K.K.K.K.K.K.K.K.K.K.K.K.K.K.K.K.K.K.K.K.K.K.K.K.K.K.K.K.K.I.I.J.+. .C M M M M N M v 1 +                                                                       $ 2 v N N M M M M M M M M M M M M M V | +.J.I.I.K.K.K.K.K.K.K.K.K.K.K.K.K.K.K.K.K.K.K.K.K.K.K.K.K.K.K.K.K.K.K.K.,.3.-.&.&.&.*.*.*.*.*.*.*.*.*.*.*.*.*.*.*.*.*.*.*.*.*.*.*.*.*.*.*.*.*.*.&.-.2.<.L.K.K.K.I.I.J.+.| C M M M M N M v 1 @                 ",
"                : M O.I.Y.I.K.K.K.K.K.K.K.K.K.K.K.K.K.K.K.K.K.K.K.K.K.K.K.K.K.K.K.K.K.K.K.G.1.OX`.).).).).).).).).).).).).).).).`.).`.).).).).).).).).).).).).).).).).).).).).).).).).)._.+X1.P.U.K.K.K.K.K.K.K.K.K.K.K.K.K.K.K.K.K.K.K.K.K.K.K.K.K.K.K.K.K.K.I.I.J.+. .C M M M M N M v 1 @                                                                       $ w v N N M M M M M M M M M M M M M V | +.J.I.I.K.K.K.K.K.K.K.K.K.K.K.K.K.K.K.K.K.K.K.K.K.K.K.K.K.K.K.K.K.K.K.K.,.3.-.*.&.*.*.*.*.*.*.*.*.*.*.*.*.*.*.*.*.*.*.*.*.*.*.*.*.*.*.*.*.*.*.*.*.-.2.<.L.K.K.K.I.I.J.+.| C M M M M N M v 1 @                 ",
"                : M O.I.!.I.I.K.K.K.K.K.K.K.K.K.K.K.K.K.K.K.K.K.K.K.K.K.I.I.I.I.K.K.K.K.K.G.1.OX_.).).`.`.`.`.`.`.`.`.`.`.`.`.`.`.`.`.`.`.`.`.`.`.`.`.`.`.`.`.`.`.`.`.`.`.`.`.`.`.).).)._.+X1.P.K.K.K.K.K.K.K.K.K.K.K.K.K.K.K.K.K.K.K.K.K.K.K.K.K.K.K.K.K.K.K.I.I.J.+. .C M M M M N N v 2 @                                                                       $ w v N N M M M M M M M M M M M M M V | +.J.I.I.K.K.K.K.K.K.K.K.K.K.K.K.K.K.K.K.K.K.K.K.K.K.K.K.K.K.K.K.K.K.U.K.,.3.-.*.*.*.*.*.*.*.*.*.*.*.*.*.*.*.*.*.*.*.*.*.*.*.*.*.*.*.*.*.*.*.*.*.*.-.2.<.L.K.K.K.I.I.J.+. .C M M M M N M v 1 @                 ",
"                : N +.!.!.!.!.Y.Y.I.I.I.K.K.K.K.K.K.K.K.K.K.K.K.K.K.K.K.K.K.K.K.K.K.K.Q.Q.L.1.OX`.).).`.`.`.`.`.`.`.`.`.`.`.`.`.`.`.`.`.`.`.`.`.`.`.`.`.`.`.`.`.`.`.`.`.`.`.`.`.`.`.).'._.+X1.P.K.K.K.K.K.K.K.K.K.K.K.K.K.K.K.K.K.K.K.K.K.K.K.K.K.K.K.K.K.K.K.I.I.J.+...C N M N N V N v 2 @                                                                       $ w M V V N N N N N N M M M M M M M V | +.J.I.I.K.K.K.K.K.K.K.K.K.K.K.K.K.K.K.K.K.K.K.K.K.K.K.K.K.K.J.K.U.U.U.K.,.3.-.*.*.*.*.*.*.*.*.*.*.*.*.*.*.*.*.*.*.*.*.*.*.*.*.*.*.*.*.*.*.*.*.&.&.-.2.4.I.U.U.I.I.I.K.+...C M M M M N M v 1 @                 ",
"                : M +.I.!.I.I.I.I.I.I.K.K.K.K.K.K.K.K.K.K.K.K.K.K.K.K.I.I.I.K.K.K.K.K.Q.Q.L.1.OX_.).).`.`.`.`.`.`.`.`.`.`.`.`.`.`.`.`.`.`.`.`.`.`.`.`.`.`.`.`.`.`.`.`.`.`.`.`.`.`.`.).)._.+X1.P.K.K.K.K.K.K.K.K.K.K.K.K.K.K.K.K.K.K.K.K.K.K.K.K.K.K.K.K.K.K.K.I.I.J.+. .C M M M N V N v 2 @                                                                       $ w v N V N N N N N M M M M M M M M V | +.J.I.I.K.K.K.K.K.K.K.K.K.K.K.K.K.K.K.K.K.K.K.K.K.K.K.K.K.K.K.K.K.U.U.K.,.3.-.*.*.*.*.*.*.*.*.*.*.*.*.*.*.*.*.*.*.*.*.*.*.*.*.*.*.*.*.*.*.*.*.&.&.-.2.<.L.U.K.I.I.I.K.+...C M M M M N M v 1 @                 ",
"                - v ..+.>.+.+.+.+.>.D.H.K.K.K.K.K.K.K.K.K.K.K.K.K.K.K.I.P.L.G.G.>.>.G.G.G.:._ .X(.(.(.(.(.(.(.(.(.`.`.`.`.`.`.`.`.`.`.`.`.`.`.`.`.`.`.(.(.(.(.(.(.(.(.(.(.(.(.(.(.(.(.(.oX+X1.P.K.K.K.K.K.K.K.K.K.K.K.K.K.K.K.K.K.K.K.K.K.K.K.K.K.K.K.K.K.K.K.I.I.J.+.| M v v v v v v r , +                                                                       $ 2 t v v v v v v v M M M M M M M M V | +.J.I.I.K.K.K.K.K.K.K.K.K.K.K.K.K.K.K.K.K.K.K.K.K.K.K.I.L.,.,.,.,.L.L.,.<.2.-.*.*.*.*.*.*.*.*.*.*.*.*.*.*.*.&.&.&.#.#.#.#.#.#.#.#.#.-.-.-.-.-.#.#.%.2.<.>.D.D.D.H.H.D.O.| V M M M M N M v 1 @                 ",
"                @ 2 v V C V V V V Z ..>.J.I.I.K.K.K.K.K.K.K.K.K.K.K.K.K.L.:.1._ _ _ _ 1.1._ _ /.~.~.~.~.~.~.~.^.(.(.`.`.`.`.`.`.`.`.`.`.`.`.`.`.`.`.(.^.~.~.~.~.~.~.~.~.~.~.~.~.~.~.~.~./._ :.P.W.K.K.K.K.K.K.K.K.K.K.K.K.K.K.K.K.K.K.K.K.K.K.K.K.K.K.K.K.K.K.I.I.J.O.C r 2 2 2 2 2 2 , - X                                                                       + - 1 2 2 2 2 2 2 w t v M N N M M M V | +.J.K.I.K.K.K.K.K.K.K.K.K.K.K.K.K.K.K.K.K.K.K.K.K.K.I.,.<.<.3.3.3.3.3.3.3.%.-.*.*.*.*.*.*.*.*.*.*.*.*.*.*.*.&.#.#.@.@.@.@.@.@.@.@.$.$.$.$.$.$.$.$.$.} ....o.o.o.O.O.o...Z N M M M M N M v 1 @                 ",
"                X $ : , , , , , , 2 N o.J.I.I.K.K.K.K.K.K.K.K.K.K.K.K.K.:.1.+X.X.X.X.X.X.X.X/.U I I I I I I I ~.^.(.`.`.`.`.`.`.`.`.`.`.`.`.`.`.`.(.^.~.I I I I I I I I I I I I I I I I U ^ :.P.Q.K.K.K.K.K.K.K.K.K.K.K.K.K.K.K.K.K.K.K.K.K.K.K.K.K.K.K.K.K.K.I.I.J...v , @ + $ $ $ $ @ X                                                                           + @ $ $ $ $ @ $ - w v M N M M M M V | +.J.K.I.K.K.K.K.K.K.K.K.K.K.K.K.K.K.K.K.K.K.K.K.K.K.L.,.3.%.%.%.%.%.%.%.%.-.-.*.*.*.*.*.*.*.*.*.*.*.*.*.*.*.&.#.@.a a a a a a a a a d d A d { A A A A A Z Z Z Z Z Z Z Z V N M M M M N M v 1 @                 ",
"                                  $ t ..H.Y.I.K.K.K.K.K.K.K.K.K.K.K.K.K.:._ .X`.).`.`.`.`.`.^.I G G G G G G G I ~.(.`.`.`.`.`.`.`.`.`.`.`.`.`.`.`.(.^.I G G G G G G G G G G G G G G F F L ^ :.L.Q.K.K.K.K.K.K.K.K.K.K.K.K.K.K.K.K.K.K.K.K.K.K.K.K.K.K.K.K.K.K.I.Y.H...r $                                                                                                           @ 1 v M N M M M M V | +.J.I.I.K.K.K.K.K.K.K.K.K.K.K.K.K.K.K.K.K.K.K.K.K.K.L.<.2.-.*.*.*.*.*.-.*.*.*.*.*.*.*.*.*.*.*.*.*.*.*.*.*.*.&.#.@.a u u u u u u p d d N N N N N N N N N N N N N N N N N M M M M M M N M v 1 @                 ",
"                                  + e  .H.!.I.K.K.K.K.K.K.K.K.K.K.K.K.K.:._ oX).).).).).).(.~.I G D D F D D G I ~.(.`.`.`.`.`.`.`.`.`.`.`.`.`.`.`.(.^.I G D D G G G F F F F F G F F F F L ^ :.H.Q.K.K.K.K.K.K.K.K.K.K.K.K.K.K.K.K.K.K.K.K.K.K.K.K.K.K.K.K.K.K.I.!.H. .r +                                                                                                           X , t M N N M M M V | +.J.I.I.K.K.K.K.K.K.K.K.K.K.K.K.K.K.K.K.K.K.K.K.K.K.L.<.%.-.&.&.*.*.&.*.*.*.*.*.*.*.*.*.*.*.*.*.*.*.*.*.*.*.&.#.a u y y u u y u p s M M N M M M M M M M M M M M M M M M M M M M M M N M v 1 @                 ",
"                                  + r ..H.!.I.K.K.K.K.K.K.K.K.K.I.I.Q.K.:._ oX).).).).).).(.~.I G D F F F D G I ~.(.`.`.`.`.`.`.`.`.`.`.`.`.`.`.`.(.^.I G F F G G F F F F F F G F F F F L ^ :.L.K.K.K.K.K.K.K.K.K.K.K.K.K.K.K.K.K.K.K.K.K.K.K.K.K.K.K.K.K.K.K.I.!.H...r +                                                                                                           + , t M N M M M M V | +.J.I.I.K.K.K.K.K.K.K.K.K.K.K.K.K.K.K.K.K.K.K.K.K.K.L.<.%.*.&.&.*.*.*.*.*.*.*.*.*.*.*.*.*.*.*.*.*.*.*.&.*.*.&.#.a u y y u u y u p s M M M M M M M M M M M M M M M M M M M M M M M M N M v 1 @                 ",
"                                  @ r ..H.!.I.K.K.K.K.K.K.K.K.K.I.I.K.I.:._ oX`.).`.`.`.`.(.^.I G F F G G G G I ~.(.`.`.`.`.`.`.`.`.`.`.`.`.`.`.`.(.^.I G F F G G G G G G G G G F F F F L ^ :.L.K.K.K.K.K.K.K.K.K.K.K.K.K.K.K.K.K.K.K.K.K.K.K.K.K.K.K.K.K.K.K.I.!.H...r @                                                                                                           + , t M N M M M M V | +.J.I.I.K.K.K.K.K.K.K.K.K.K.K.K.K.K.K.K.K.K.K.K.K.K.L.<.2.-.*.&.*.*.*.*.*.*.*.*.*.*.*.*.*.*.*.*.*.*.*.*.*.*.&.#.@.u u u u u u u p s M M M N M M M M M M M M M M M M M M M M M M M M N M v 1 @                 ",
"                                  @ r ..H.!.I.K.K.K.K.K.K.K.K.K.I.I.K.K.:._ oX`.).).`.`.`.(.~.I G F F G G F G I ~.(.`.'.`.`.`.`.`.`.`.`.`.`.`.`.'.).^.I G G G G G G G G G G F F F F F F L ^ :.L.K.K.K.K.K.K.K.K.K.K.K.K.K.K.K.K.K.K.K.K.K.K.K.K.K.I.I.I.I.I.I.!.!.K...r @                                                                                                           + , t M N M M M M V | +.J.I.I.K.K.K.K.K.K.K.K.K.K.K.K.K.K.K.K.K.K.K.K.K.K.L.<.2.-.*.&.*.*.*.*.*.*.*.*.*.*.*.*.*.*.*.*.*.*.*.*.*.*.&.#.a u u u u u u u p s M M N M M M M M M M M M M M M M M M M N N N N N V N v 1 +                 ",
"                                  @ r ..H.!.I.K.K.K.K.K.K.K.K.K.I.K.K.K.:._ oX`.).).`.`.`.(.~.I G F F G F D G I ~.(.'.'.`.`.`.`.`.`.`.`.`.`.`.'.'.`.^.I G F G G G G G G F F F F F F F F L ^ :.L.K.K.K.K.K.K.K.K.K.K.K.K.K.K.K.K.K.K.K.K.K.K.K.K.K.I.I.I.Y.Y.Y.!.!.K...r @                                                                                                           + , t M N M M M M V | +.J.I.I.K.K.K.K.K.K.K.K.K.K.K.K.K.K.K.K.K.K.K.K.K.K.L.<.2.-.*.&.*.*.*.*.*.*.*.*.*.*.*.*.*.*.*.*.*.*.*.*.*.=.&.#.@.i u u u u u u p s M M M M M M M M M M M M M M M M M M N N N N N V V N v , +                 ",
"                                  @ r  .H.!.I.K.K.K.K.K.K.K.K.K.K.K.K.K.:._ oX`.).`.`.`.`.(.^.I G F F G F F G I ~.(.`.`.`.`.(.(.).).).).`.`.(.`.`.(.^.I G F F G G G G G G G G G G F F F L ^ :.P.W.K.K.K.K.K.K.K.K.K.K.K.K.K.K.K.K.K.K.K.K.K.K.K.J.J.H.H.H.H.H.H.J.D.| r +                   o       o o o     o       o o o         o o o o o                                       + , t M N N M M M V | +.J.I.I.K.K.K.K.K.K.K.K.K.K.K.K.K.K.K.K.K.K.K.K.K.K.L.<.2.-.*.*.*.*.*.*.*.*.*.*.*.*.*.*.*.&.&.&.&.&.&.&.&.&.#.#.@.a u u u u u u p s M M M M M M M M M M M M M M M M M M M M M M M M M M v 2 = O O O O O O O O ",
"                                  @ r  .H.!.I.K.K.K.K.K.K.K.K.K.K.K.K.K.:._ oX`.).`.`.`.`.(.^.I G F F G G F G I ~.^.^.^.^.^.^.^.^.^.^.^.^.^.^.^.^.^.~.I G F F G G G G G G G G G G F F F L ^ :.P.Q.K.K.K.K.K.K.K.K.K.K.K.K.K.K.K.K.K.K.K.K.K.I.I.H.+...| | | | | | Z M 1 +               & 3 4 4 4 4 4 4 4 4 4 4 4 4 4 4 4 4 4 4 4 4 4 4 4 4 4 4 & o                                 + , t M N N M M M V | +.J.I.I.K.K.K.K.K.K.K.K.K.K.K.K.K.K.K.K.K.K.K.K.K.K.L.<.2.-.*.*.*.*.*.*.*.*.*.*.*.*.*.*.*.&.#.#.#.#.#.#.#.#.#.@.a i u u u u u u p s M M M M M M M M M M M M M M M M M v t r w e e e e e r t ~ ~ ~ ~ ~ ~ ~ ~ ~ ",
"                                  @ r  .H.!.I.K.K.K.K.K.K.K.K.K.K.K.K.K.:._ oX`.).).`.`.`.(.~.I G F F G G G G G I I I I I I I I I I I I I I I I I I I G G G G G G G G G G G G G G F F F L ^ :.L.Q.K.K.K.K.K.K.K.K.K.K.K.K.K.K.K.K.K.K.K.K.K.I.I.D...M r w w w w w w , $ .             o 4 J Y E E Y Y Y Y Y Y Y Y Y Y Y Y Y Y Y Y Y Y Y Y E E Y 5 &                                 + , t M N N M M M V | +.J.I.I.K.K.K.K.K.K.K.K.K.K.K.K.K.K.K.K.K.K.K.K.K.K.L.<.2.-.*.*.*.*.*.*.*.*.*.*.*.*.*.*.*.&.#.@.@.a a a a a a a a i u u u u u u p s M M N M M M M M M M M M M M M N M v w , - - - - - - 9 / jXlXzXzXzXzXzXzXzX",
"                                  @ r ..H.!.I.K.K.K.K.K.K.K.K.K.K.K.K.K.:._ oX`.).).`.`.`.(.^.I G F F G G G G G G G G G G G G G G G G G G G G G G G G G G G G G G G G G G G G G G F F F L ^ :.P.Q.K.K.K.K.K.K.K.K.K.K.K.K.K.K.K.K.K.K.K.K.K.I.I.D.Z w $ X X + + + + X                 % 6 W ].[.[.].].].].].].].].].].].[.[.[.[.].].].].].[.[.Q Y 3                                 + , t M N N M M M V | +.J.I.I.K.K.K.K.K.K.K.K.K.K.K.K.K.K.K.K.K.K.K.K.K.K.L.<.2.-.*.*.*.*.*.*.*.*.*.*.*.*.*.*.*.#.@.a a i u u u u u u u u u u u u u u p s M M M M M M M M M M M M M M M N M t , +     .       7 ` cXMXBXNXNXNXNXNXNX",
"                                  @ r ..H.!.I.K.K.K.K.K.K.K.K.K.I.I.Q.I.:._ oX`.).).`.`.`.(.~.I G F G G G G G G G F F F F F F F G G G G F F F F F F F G F G G G G G G G G G G G F F F F L ^ :.H.K.K.K.K.K.K.K.K.K.K.K.K.K.K.K.K.K.K.K.K.K.K.I.I.>.C ,                                 & J Q |.@X X X X X|. X X X X X X X X X X X X X X X|.@X|.].Y 3                                 + , t M N N M M M V | +.J.I.I.K.K.K.K.K.K.K.K.K.K.K.J.J.J.K.K.K.K.K.K.K.K.L.<.%.-.&.*.*.*.*.*.*.*.*.*.*.*.*.*.*.#.@.a u y u u u u u u u u u u u u u u p s d M M M M M M M M M M M M M N N M r : X             7 ] bXVXVXVXVXVXVXVXVX",
"                                  @ r ..H.Y.I.K.K.K.K.K.K.K.K.K.I.I.K.I.:._ oX`.).).`.`.`.(.~.I G F G G G G G G G G F F F F F F G G G G F F F F F F F G F F G G G G G G G G G G F F F F L ^ :.H.K.K.K.K.K.K.K.K.K.K.K.K.K.K.K.K.K.K.K.K.K.K.I.I.>.C ,                                 & J Q |.@X@X X X X|. X X X X X X X X X X X X X X X|.@X|.].Y 4                                 + , t M N N M M M V | +.J.I.I.K.K.K.K.K.K.K.K.K.K.K.K.J.J.K.K.K.K.K.K.K.K.L.<.%.-.&.*.*.*.*.*.*.*.*.*.*.*.*.*.*.#.@.a u y u u u u u u u u u u u u u u p s d M N M M M M M M M M M M M N N M r : .             7 ] bXVXVXVXVXVXVXVXVX",
"                                  @ r ..H.I.I.K.K.K.K.K.K.K.K.K.I.K.U.K.:._ oX`.).).`.`.`.(.~.I G G G G G G G G G G G G G G G G G G G G G G G G G G G G F F F F G G G G G G G G F F F F L ^ :.L.K.K.K.K.K.K.K.K.K.K.K.K.K.K.K.K.K.K.K.K.K.K.!.I.>.C 1 .                               & J Q |. X|.|.|.|.|.|.|.|.|.|.|.|.|.|.|.|.|.|.|.|.|.|.|.].Y 3                                 + , t M N N M M M V | +.J.I.I.K.K.K.K.K.K.K.K.K.K.K.K.K.K.K.K.K.K.K.K.K.K.L.<.%.-.&.*.*.*.*.*.*.*.*.*.*.*.*.*.*.#.@.a u u u u u u u u u u u u u u u u p s d M M M M M M M M M M M M M N N M r : X             7 ] bXVXVXVXVXVXVXVXVX",
"                                  @ r ..H.I.I.K.K.K.K.K.K.K.K.K.I.K.U.K.:._ oX`.).).`.`.`.(.~.I G G G G G G G G G G G G G G G G G G F F F F F F F F F F F F F F F F F F F F F F F F F F L ^ :.L.K.K.K.K.K.K.K.K.K.K.K.K.K.K.K.K.K.K.K.K.K.K.!.I.>.C 1 .                               & J Q {. X|.|.|.|.|.|.|.|.|.|.|.|.|.|.|.|.|.|.|.|.|. X|.].Y 3                                 + , t M N M M M M V | +.J.I.I.K.K.K.K.K.K.K.K.K.K.K.K.K.K.K.K.K.K.K.K.U.U.L.4.%.-.&.*.*.*.*.*.*.*.*.*.*.*.*.*.*.#.@.a u u u u u u u u u u u u u u u u p s M M M M M M M M M M M M M M N N M r : X             7 ] bXVXVXVXVXVXVXVXVX",
"                                  + e  .H.!.I.K.K.K.K.K.K.K.K.K.K.K.U.K.:._ oX`.).).`.'.'.(.~.I G F G G G G G G G G G G G G G G F F F F F F F F F F F F F F F F F F F F F F F F F F F F G ^ :.L.W.K.K.K.K.K.K.K.K.K.K.K.K.K.K.K.K.K.K.K.K.K.I.I.>.C 1 .                               % J Q |. X|.|.|.|.|.|.|.|.|.|.|.|.|.|.|.|.|.|.|.|.|. X|.].Y 3                                 + , t M N M M M M V | +.J.I.I.K.K.K.K.K.K.K.U.K.K.K.K.K.K.U.I.I.Y.Y.!.Y.Y.I.4.2.-.*.*.*.*.*.*.*.*.*.*.*.*.*.=.*.#.@.a i u u u u u u u u u u u u u u u p s M M N M M M M M M M M M M M N N M r : X             7 ] bXVXVXVXVXVXVXVXVX",
"                                  @ r ..H.!.I.K.K.K.K.K.K.K.K.K.K.K.K.K.:._ oX`.).).`.`.`.(.~.I G D F G G G G G G G G G G G G G G G G G G G G G G G G F F F F F F F F F G G G G F F F F L ^ :.P.K.K.K.K.K.K.K.K.K.K.K.K.K.K.K.K.K.K.K.K.K.K.I.I.>.C 1 .                               & J Q |. X|.|.|.|.|.|.|.|.|.|.|.|.|.|.|.|.|.|.|.|.|. X|.].Y 3                                 + , t M N M M M M V | +.J.I.I.K.K.K.K.K.K.K.K.K.K.K.K.K.K.K.K.K.K.K.I.K.K.L.<.2.-.*.*.*.*.*.&.&.*.*.*.*.*.*.*.*.#.@.a u u u u u u u u u u u u u u u u p s M M N M M M M M M M M M M M N N M r : X             7 ] bXVXVXVXVXVXVXVXVX",
"                . + $ - - - - $ $ , M ..J.I.I.K.K.K.K.K.K.K.K.K.K.K.U.K.:._ /.(.(.(.(.(.(.^.~.I G F F G G G G G G G G G G G F G G G L P P P P P P P P P P P P P P P P P P P P P P P L L P ( :.J.K.K.K.K.K.K.K.K.K.K.K.K.K.K.K.K.K.K.K.K.K.K.I.I.>.C 1 .               % & & & & & & & 4 Y Q |. X|.|.|.|.|.|.|.|.|.|.|.|.|.|.|.|.|.|.|.|.|. X|.].Y 3                                 + , t M N M M M M V | +.J.I.I.K.K.K.K.L.,.,.,.,.,.,.,.,.,.,.>.>.>.>.>.>.>.>.3.$.#.#.#.#.#.#.#.#.#.#.#.#.#.#.#.#.#.@.a u u u u u u u u u u u u u u u u p s M M N M M M M M M M M M M M N N M r : X             7 ] bXVXVXVXVXVXVXVXVX",
"                @ , t v M v v v v N | +.J.I.I.K.K.K.K.K.K.K.K.K.K.K.W.K.:._ U ~.~.~.~.~.~.~.I I G F G G G G G G G G G G G F F F G P ^ ^ ( ( ( ( ( ( ( ( ( ( ( ( ^ ^ ( ( ( ( ( ( ( ^ ^ ^ ( :.>.J.K.K.K.K.K.K.K.K.K.K.K.K.K.K.K.K.K.K.K.K.K.K.I.I.>.C 1 .             % 4 J J J J J J J Y W ].|.|.|.|.|.|.|.|.|.|.|.|.|.|.|.|.|.|.|.|.|.|.|. X|.].Y 3                                 + , t M N N M M M V | +.J.I.I.K.K.K.K.,.<.3.3.3.3.3.3.3.3.3.} } } } } } } } { @.@.@.@.@.@.@.@.@.@.@.@.@.@.@.@.@.@.a a u u u u u u u u u u u u u u u u p s M M N M M M M M M M M M M M N N M r : X             7 ] bXVXVXVXVXVXVXVXVX",
"                - t | O.O.O.O.o.o.O.>.H.K.K.K.K.K.K.K.K.K.K.K.K.K.K.K.K.:.( P I I I I I I I G G G G G G G G G G G G G G G F F G L ^ ) :.:.:.:.:.:.:.:.:.:.:.:.:.:.:.:.:.:.:.:.:.:.:.:.:.:.>.H.J.K.K.K.K.K.K.K.K.K.K.K.K.K.K.K.K.K.K.K.K.K.K.!.I.>.C 1 .             & J W Q Q Q Q Q Q Q ].[.|.|.|.|.|.|.|.|.|.|.|.|.|.|.|.|.|.|.|.|.|.|.|. X|.].Y 3                                 + , t M N N M M M V | +.J.I.I.K.K.K.I.,.3.%.-.-.-.%.;.;.%.$.a a p p p p p p a a a a a a a a a a a a a a a a a a a a u u u u u u u u u u u u u u u u u p s M M N M M M M M M M M M M M N N M r : X             7 ] bXVXVXVXVXVXVXVXVX",
"                : M O.I.Y.I.K.K.K.K.K.K.K.K.K.K.K.K.K.K.K.K.K.K.K.K.K.K.:.( P G F F F G G G G G G G G G G G G G G G G G G F F F L ^ :.J.K.K.K.K.K.K.K.K.K.K.K.K.K.K.K.K.K.K.K.K.K.K.K.K.K.K.K.K.K.K.K.K.K.K.K.K.K.K.K.K.K.K.K.K.K.K.K.K.K.K.!.I.>.C 1 .             3 Y ].|. X|.|.|.|.|.|.|.|.|.|.|.|.|.|.|.|.|.|.|.|.|.|.|.|.|.|.|.|.|.|. X|.].Y 3                                 + , t M N N M M M V | +.J.I.I.K.K.U.I.,.2.-.*.*.*.*.*.*.#.@.a u u u u u u u u u u u u u u u u u u u u u u u u u u u u u u u u u u u u u u u u u u u u p s M M N M M M M M M M M M M M N N M r : X             7 ] bXVXVXVXVXVXVXVXVX",
"                , N +.!.!.!.!.!.!.I.I.I.K.K.K.K.K.K.K.K.K.K.K.K.K.K.K.K.:.( P D F D D D F F F G G G G G G G G G G G G G G F F F L ^ :.K.Q.Q.K.K.Q.Q.K.K.K.K.Q.Q.Q.Q.K.K.Q.W.Q.Q.K.W.W.K.Q.K.K.K.K.K.K.K.K.K.K.K.K.K.K.K.K.K.K.K.K.K.K.K.K.K.W.I.>.C 1 .             4 Y [.@X@X@X X X X X|.|.|.|.|.|.|.|.|.|.|.|.|.|.|.|.|.|.|.|.|.|.|.|.|. X|.].Y 3                                 + , t M N N M M M V | +.J.I.I.K.K.K.L.<.2.-.&.&.&.&.*.&.#.@.a y y y y y y y u y u y u u u u u u y y y y u u u u u u u u u u u u u u u u u u u u u u u p s M M N M M M M M M M M M M M N N M r : X             7 ] bXVXVXVXVXVXVXVXVX",
"                : M +.I.!.I.I.I.I.I.K.K.K.K.K.K.K.K.K.K.K.K.K.K.K.K.K.K.:.^ P F F F F F G G G G G G G G G G G G G G G G G F F F L ^ :.K.Q.K.K.K.K.K.K.K.K.K.K.K.K.K.K.K.K.K.K.K.K.K.K.K.K.K.K.K.K.K.K.K.K.K.K.K.K.K.K.K.K.K.K.K.K.K.K.K.K.K.I.I.>.C 1 .             3 Y ]. X X|.|.|.|.|.|.|.|.|.|.|.|.|.|.|.|.|.|.|.|.|.|.|.|.|.|.|.|.|.|. X|.].Y 3                                 + , t M N N M M M V | +.J.I.I.K.K.K.L.<.2.-.&.&.*.*.*.*.#.@.a u u u u u u u u u u u u u u u u u u u u u u u u u u u u u u u u u u u u u u u u u u u u p s M M N M M M M M M M M M M M N N M r : X             7 ] bXVXVXVXVXVXVXVXVX",
"                : M O.I.Y.I.K.K.K.K.K.K.K.K.K.K.K.K.K.K.K.K.K.K.K.K.K.K.:.( P G F F F F G G G G G G G G G G G G G G G G G F F F L ^ :.J.Q.K.I.I.I.I.I.I.K.K.K.K.K.K.K.K.K.K.K.K.K.K.K.K.K.K.K.K.K.K.K.K.K.K.K.K.K.K.K.K.K.K.K.K.K.K.K.K.K.K.Y.I.>.Z 1 .             3 Y ].|. X|.|.|.|.|.|.|.|.|.|.|.|.|.|.|.|.|.|.|.|.|.|.|.|.|.|.|.|.|.|. X|.].Y 3                                 + , v M N M M M M V | +.J.I.I.K.K.K.I.<.2.-.*.*.*.*.*.*.#.@.a u u u u u u u u u u u u u u u u u u u u u u u u u u u u u u u u u u u u u u u u u u y u p s d M M M M M M M M M M M M M N N M r : X             7 ] bXVXVXVXVXVXVXVXVX",
"                : M O.I.Y.I.K.K.K.K.K.K.K.K.K.K.K.K.K.K.K.K.K.K.K.K.W.K.:.^ L F F F F F F F F F G G G G G G G G G G G G G F F F L ^ :.K.Q.Q.K.K.K.K.I.I.K.K.K.K.K.K.K.K.K.K.K.K.K.K.K.K.K.K.K.K.K.K.K.K.K.K.I.I.I.I.I.I.I.Y.!.Y.I.I.I.I.!.!.!.!.D.Z 1 .             3 Y ].|.|.|.{.{.{.|.{.|.|.|.|.|.|.|.|.|.|.|.|.|.|.|.|.|.|.|.|.|.|.|.|. X|.].Y 3                                 + , v M N M M M M V | +.J.I.I.K.K.K.I.<.2.-.*.*.*.*.*.*.#.@.a u u u u u u u u u u u u u u u u u u u u u u u u u u u u u u u u u u u u u u u y u y y u p s d M M M M M M M M N N N N N V V M r -               = ] vXVXVXVXVXVXVXVXVX",
"                : M O.I.Y.I.K.K.K.K.K.K.K.K.K.K.K.K.K.K.K.K.K.K.K.K.W.K.:.^ P F F F F F F F F F G G G G G G G G G G G G G F F F L ^ :.K.Q.Q.K.K.K.K.K.I.K.K.K.K.K.K.K.K.K.K.K.K.K.K.K.K.K.K.K.K.K.K.K.K.K.K.I.I.I.I.I.I.I.I.I.I.I.I.I.I.I.Y.!.!.D.Z 1 .             3 Y ].|.|.|.{.|.|.|.|.|.|.|.|.|.|.|.|.|.|.|.|.|.|.|.|.|.|.|.|.|.|.|.|. X|.].Y 3                                 + , v M N M M M M V | +.J.I.I.K.K.K.I.<.2.-.*.&.*.*.*.*.#.@.a i u u u u u u u u u u u u u u u u u u u u u u u u u u u u u u u u u u u u u u u u u u u p s d M N M M M M M M N N N N N V V M r :               7 ] vXVXVXVXVXVXVXVXVX",
"                : M O.I.Y.I.K.K.K.K.K.K.K.K.K.K.K.K.K.K.K.K.K.K.K.K.K.K.:.( P L G G G G G G G G G F G G G G G G G G G G G F F F L ^ :.>.L.D.D.D.D.D.D.L.K.I.K.K.K.K.K.K.K.K.K.K.K.K.K.K.K.K.K.K.K.K.K.K.K.K.H.D.D.>.>.>.>.>.>.>.>.>.>.>.D.D.D.D.O.V , .             4 Y [.@X@X@X@X@X@X@X X|.|.|.|.|.|.|.|.|.|.|.|.|.|.|.|.|.|.|.|.|.|.|.|. X|.].Y 3                   . . . . .   X $ 2 v M N M M M M V | +.J.I.I.K.K.K.I.<.2.-.*.&.*.*.*.*.#.@.a u u u u u u u u u u u u u u u u u u u u u u u u u u u u u u u u u u u u u p p p p p p p p s M M N M M M M M M M b v v v v b v r 2 = * * * * O * 0 jXbXVXVXVXVXVXVXVXVX",
"                : M O.I.Y.I.K.K.K.K.K.K.K.K.K.K.K.K.K.K.K.K.K.K.K.K.K.J.>.:.^ ^ R R ^ ^ ^ R P L G F F G G G G G G G G G G F F F L P ( ) ) ) ) ) ) ) :.>.J.K.K.I.K.K.K.K.K.K.K.K.K.K.K.K.K.K.K.K.K.K.K.I.I.J.+...Z C C C C C C C C C C C C Z Z Z V e -               4 W $X=X=X&X&X&X&X&X#X@X|.|.|.|.|.|.|.|.|.|.|.|.|.|.|.|.|.|.|.|.|.|.|. X|.].Y 3               X $ - - - - - - - , w v M N M M M M V | +.J.I.I.K.K.K.I.<.2.-.*.*.*.*.*.*.#.@.a u u u u u u u u u u u u u u u u u u u u u u u u u u u u u u u u u u u p p s s s s s s s s d M M M M M M M M v r w 2 2 w w 2 w e ^ / / ` / / / / ] xXmXVXVXVXVXVXVXVXVX",
"                : M O.I.Y.I.K.K.K.K.K.K.K.K.K.K.K.K.K.K.K.K.K.K.K.K.K.K.L.:.:.:.:.:.:.:.:.) ^ P G F F G G G G G G G G G G G F G G L P P P P P P P R ( :.L.K.K.K.K.K.K.K.K.K.K.K.K.K.K.K.K.K.K.K.K.K.K.I.I.H...M w , , 1 1 1 1 1 1 1 1 1 1 1 1 1 , - +               6 XX-X,X,X>X>X>X>X:X&X#X|.|.|.|.|.|.|.|.|.|.|.|.|.|.|.|.|.|.|.|.|.|.|. X|.].Y 3               @ , w e r e e w e r v M M M M M M M V | +.J.K.I.K.K.K.K.<.2.-.*.*.*.*.*.*.#.@.a u u u u u u u u u u u u u u u u u u u u u u u u u u u u u u u u u u u p s d d d d d d d d M M M M M M N N M r , - $ $ $ $ $ : r ' zXcXcXcXcXcXcXvXmXNXVXVXVXVXVXVXVXVX",
"                : M O.I.Y.I.K.K.K.K.K.K.K.K.K.K.K.K.K.K.K.K.K.K.K.K.K.J.K.J.L.H.L.L.L.J.J.>.) P G F F G G G G G G G G G G G G G G G G G G G G G G L R :.D.K.K.J.K.K.K.K.K.K.K.K.K.K.K.K.K.K.K.K.K.K.K.I.I.H.| r $     . . . . . . . . . . . . . .                 o J XX:X3X3X3X3X3X3X,X-X#X|.|.|.|.|.|.|.|.|.|.|.|.|.|.|.|.|.|.|.|.|.|.|. X|.].Y 3               $ 2 v M M M M M M M M M M M M M M M V | +.J.I.K.K.K.K.L.<.2.-.*.*.*.*.*.*.#.@.a u u u u u u u u u u u u u u u u u u u u u u u u u u u u u u u u u y u p s M M M M M M M M M M M M M M N N b w - .           O m kXmXVXVXBXBXBXBXBXVXVXVXVXVXVXVXVXVXVX",
"                : M O.I.Y.I.K.K.K.K.K.K.K.K.K.K.K.K.K.K.K.K.K.K.K.K.K.K.K.K.K.U.K.K.W.Q.Q.L.) P G F F G G G G G G G G G G G G G G F F F F F F F F G P ) D.K.K.K.K.K.K.K.K.K.K.K.K.K.K.K.K.K.K.K.K.K.K.I.Y.H.| w X                                                 o J @X,X4X5X3X3X4X3X2X;X$X|.|.{.|.|.|.|.|.|.|.|.|.|.|.|.|.|.|.|.|.|.|.|. X|.].Y 3               $ w M V V N N N N N N M M M M M M M V | +.J.I.I.K.K.K.I.<.3.-.*.*.*.*.*.*.#.@.a u u u u u u u u u u u u u u u u u u u u u u u u u u u u u u u u u u u p d M M N M M M M N M M M M M M N N v 2 $               ~ lXNXVXVXVXVXVXVXVXVXVXVXVXVXVXVXVXVXVX",
"                : M O.I.Y.I.K.K.K.K.K.K.K.K.K.K.K.K.K.K.K.K.K.K.K.K.K.K.K.K.K.K.K.K.K.Q.Q.D.) P G F F G G G G G G G G G G G G G F F F F F F F F F G R ) D.U.K.I.K.K.K.K.K.K.K.K.K.K.K.K.K.K.K.K.K.K.K.I.Y.H.| w X                                                   J XX,X4X5X3X3X4X3X<X;X$X|.|.|.|.|.|.|.|.|.|.|.|.|.|.|.|.|.|.|.|.|.|.|. X|.].Y 3               $ w M V V N N N N N M M M M M M M M V | +.J.I.I.K.K.K.I.<.2.-.*.&.*.*.*.*.#.@.a u u u u u u u u u u u u u u u u u u u u u u u u u u u u u u u u u u u p d M N N N N N N M M M M M M M N N v 2 $               ~ lXMXVXVXVXVXVXVXVXVXVXVXVXVXVXVXVXVXVX",
"                : M O.I.Y.I.K.K.K.K.K.K.K.K.K.K.K.K.K.K.K.K.K.K.K.K.K.K.K.K.K.K.K.K.K.K.K.D.) P G F F G G G G G G G G G G G G G G G G G G G G F F G R ) D.U.K.I.K.K.K.K.K.K.K.K.K.K.K.K.K.K.K.K.K.K.K.I.Y.H.| w +                                                 o J XX>X3X4X3X3X3X3X<X-X$X|.|.|.|.|.|.|.|.|.|.|.|.|.|.|.|.|.|.|.|.|.|.|. X|.].Y 3               $ w v N N M M M M M M M M M M M M M V | +.J.I.I.K.K.K.I.<.2.-.*.&.*.*.*.*.#.@.a u u u u u u u u u u u u u u u u u u u u u u u u u u u u u u u u u u u p d M M N M M M M M M M M M M M N N v w $               ~ lXMXVXVXVXVXVXVXVXVXVXVXVXVXVXVXVXVXVX",
"                : N +.I.!.I.I.I.I.I.I.K.K.K.K.K.K.K.K.K.K.K.K.K.K.K.K.K.K.K.K.K.K.K.K.K.K.D.) P G F F F F F F F F G G G G G G G G G G G G G G F F G R ) D.U.K.I.K.K.K.K.K.K.K.K.K.K.K.K.K.I.I.I.I.I.I.!.!.J.| w +                                                   6 XX>X3X4X3X3X3X3X<X-X$X|.|.|.|.|.|.|.|.|.|.|.|.|.|.|.|.|.|.|.|.|.|. X@X X].Y 3               $ w v N N M M M M M M M M M M M M M V | +.K.I.I.I.K.U.I.,.2.;.*.&.*.*.=.*.#.@.a u u u u u u u u u u u u u u u u u u u u u u u u u u u u u u u u u u u p d M M N M M M M M M M N N N N V V v q $               0 lXMXVXVXVXVXVXVXVXVXVXVXVXVXVXVXVXVXVX",
"                , V +.!.!.!.!.!.!.I.I.I.K.K.K.K.K.K.K.K.K.K.K.K.K.K.K.K.K.K.K.K.K.K.K.K.K.D.) P G F F F F F F F F F G G G G G G G G G G G G G F F G R :.D.K.K.K.K.K.K.K.K.K.K.K.K.K.K.K.K.I.I.Y.!.!.!.!.!.K. .w +                                                   6 XX>X3X4X3X3X3X3X<X-X$X|.|.|.|.|.|.|.|.|.|.|.|.|.|.|.|.|.|. X X X X X@X@X].Y 4               $ w v N N M M M M M M M M M M M M M V | +.K.I.I.I.I.U.I.4.2.;.=.=.=.=.=.=.#.@.a u u u u u u u u u u u u u u u u u u u u u u u u u u u u u u u u y y u p s M M N M M M M M M N N N N N V V v 2 $               0 lXMXVXVXVXVXVXVXVXVXVXVXVXVXVXVXVXVXVX",
"                : M O.J.K.J.H.H.H.J.J.K.K.K.K.K.K.K.K.K.K.K.K.K.K.K.K.K.K.K.K.K.K.K.K.K.K.D.) P G F G G G G G G G G G G G G G G G G G G G G G F F G R ) D.K.K.K.K.K.K.K.K.K.K.K.K.K.K.K.K.J.J.H.H.H.H.K.K.D.| w +                     o o o o o             o     o K @X>X3X3X3X3X3X3X<X-X$X|.{.|.|.|.|.|.|.|.|.|.|.|.|.|.|.|.{.{.{.{.{.{.|.|.].Y 3               $ w v N N M M M M M M M M M M M M M V | O.H.K.K.K.J.J.H.<.2.;.&.*.&.*.*.&.#.@.a u u u u u u u u u u u u u u u u u u u u u u u u u u u u u u u u u u p s d M M M M M M M M M M M M M M M M v w : O   o o     O ~ lXMXVXVXVXVXVXVXVXVXVXVXVXVXVXVXVXVXVX",
"                $ r Z ........ .....O.D.K.I.K.K.K.K.K.K.K.K.K.K.K.K.K.K.K.K.K.K.K.K.K.K.K.D.:.^ P P P P P P P P L G F F G G G G G G G G G G G F F G R ) D.K.K.K.K.K.K.K.K.K.K.K.K.K.I.K.H.>.o... .........| M , X             o & 5 J K K K J J J J J J J J J 6 6 K ! *X,X3X3X3X3X3X3X<X-X$X|.{.|.|.|.|.|.|.|.|.|.|.|.|.|.|.[.].Q Q W W Q Q Q E J &               $ w v N N M M M M M M M M M M M M M N Z ..+.>.+.+.+.+.+.<.3.$.$.$.$.$.$.$.$.@.a p p p p p p p p p p p p p p p p p p u u u u u u u u p p p p p p p p p s d M M M M M M M M v t r r r r r r r e r m P P ~ 0 0 ~ ] cXNXVXVXVXVXVXVXVXVXVXVXVXVXVXVXVXVXVX",
"                + , w r t r r e r v Z O.J.I.I.K.K.K.K.K.K.K.K.K.K.K.K.K.K.K.K.K.K.K.K.K.K.L.:.:.) ( ( ) ) ) ( ^ P G F F F G G G G G G G G G G F F G R ) D.K.K.K.K.K.K.K.K.K.K.K.K.K.I.I.D...N t e r r r t e 1 $               & K ! XX@X@XXXXXXXXXXXXXXXXXXXXXXXXX@X*X:X2X3X3X3X3X3X3X<X-X$X|.{.|.|.|.|.|.|.|.|.|.|.|.|.|.|.].E J 6 6 6 6 6 6 5 3 o               $ w v N N M M M M M M M M M M M M M N C Z |  . . .|  . .} } { { { { { { { { d d d s s s s s s s s s s d d d d s s p p u u u u u u u p s s d d s s s s d M M M M M M N M v w , : : , , - : 2 ^ ' kXlXlXlXlXlXlXcXmXBXVXVXVXVXVXVXVXVXVXVXVXVXVXVXVXVXVX",
"                  X + @ @ @ @ + + : v ..J.I.I.K.K.K.K.K.K.K.K.K.K.K.K.K.K.K.K.K.K.K.K.K.K.J.L.D.>.>.>.>.>.D.>.) ^ L F F F G G G G G G G G G G F F G R ) D.K.K.K.K.K.K.K.K.K.K.K.K.K.I.I.>.Z 2 $ + + @ @ @ @ + .               4 ! *X>X1X,X>X>X>X>X>X>X>X>X>X>X>X:X>X,X2X3X3X3X3X3X3X3X<X-X$X|.{.|.|.|.|.|.|.|.|.|.|.|.|. X|.Q J 3 % o o % % % o o                 $ w v N N M M M M M M M M M M M M M M N V V C C C V C C V V V V V V V V V M M M M M M M M M M M M M M M M M M M d s p u u u u u u p s d M M M M M M M M M M M M M M N M v 2 $ X . X X     = / zXmXNXMXMXMXMXMXNXBXVXVXVXVXVXVXVXVXVXVXVXVXVXVXVXVXVXVX",
"                                  + r ..H.!.I.K.K.K.K.K.K.K.K.K.K.K.K.K.K.K.K.K.K.K.K.K.K.K.K.K.K.K.K.K.K.Q.J.:.^ L F F F F F F G G G G G G G F F G R ) D.U.K.K.K.K.K.K.K.K.K.K.K.K.Y.I.+.V ,                                 5 XX:X3X5X3X3X3X3X3X3X3X3X3X3X3X3X3X3X3X3X3X3X3X3X3X3X3X<X-X$X|.|.|.|.|.|.|.|.|.|.|.|.|.|. X|.Q J &                                 $ w v N N M M M M M M M M M M M M M M M M M M M M M M M M M M M M M M M M M M M M M M M M M M M M M M M M N N M d s p u u u u u u p s d M N N M M M M M M M M M M M N M v , +             * ` cXVXVXVXVXVXVXVXVXVXVXVXVXVXVXVXVXVXVXVXVXVXVXVXVXVXVXVX",
"                                  + e  .H.!.I.K.K.K.K.K.K.K.K.K.K.K.K.K.K.K.K.K.K.K.K.K.K.K.K.K.Q.Q.K.W.Q.Q.K.:.^ L F F F G G G G G G G G G G F F G R ) D.U.K.K.K.K.K.K.K.K.K.K.K.K.Y.I.>.V ,                                 5 XX:X3X5X5X3X3X3X3X3X3X3X3X3X5X5X4X4X3X3X3X3X3X3X3X3X3X<X-X$X|.|.|.|.|.|.|.|.|.|.|.|.|.|. X|.Q J %                                 $ w v N N M M M M M M M M M M M M M M M M M M M M M M M M M M N N N N N N N N N N N N N N N N N N N M N N N N M d s p u u u u u u p s d M N N N N N N N M M M M M M N M v , +             * ` cXVXVXVXVXVXVXVXVXVXVXVXVXVXVXVXVXVXVXVXVXVXVXVXVXVXVXVX",
"                                  @ r ..H.!.I.K.K.K.K.K.K.K.K.K.K.K.K.K.K.K.K.K.K.K.K.K.K.K.K.K.I.I.I.I.K.U.J.:.^ L F F F G F F G G G G G G G F F G R ) D.U.K.K.K.K.K.K.K.K.K.K.K.K.Y.I.>.V ,                                 4 XX:X3X5X3X3X3X3X3X3X3X3X3X3X3X3X3X3X3X3X3X3X3X3X3X3X3X<X;X$X|.{.|.|.|.|.|.|.|.|.|.|.|.|. X|.Q J &                                 $ w v N N M M M M M M M M M M M M M M M M M M M M M M M M M M M M M M M M M M M M M M M M M M M M M M M M M N M d s p u u u u u u p s d M N M M M M M M M M M M M M N M v 1 +             * / cXBXVXVXVXVXVXVXVXVXVXVXVXVXVXVXVXVXVXVXVXVXVXVXVXVXVXVX",
"                                  @ r ..H.!.I.K.K.K.K.K.K.K.K.K.K.K.K.K.K.K.K.K.K.K.K.K.K.K.K.K.I.I.I.I.K.K.P.:.^ L F F F F F F F F F F F F F F F G R ) D.K.K.K.K.K.K.K.K.K.K.K.K.K.Y.I.>.V ,                                 4 ! :X3X4X3X3X3X3X3X3X3X3X3X3X3X3X3X3X3X3X3X3X3X3X3X3X3X<X;X$X|.{.|.|.|.|.|.|.|.|.|.|.|. X@X|.Q J &                                 $ w v N N M M M M M M M M M M M M M M M M M M M M M M M M M M M M M M M M M M M M M M M M M M M M M M M M M N M d s p u y u u y u p s d M M M M M M M M M M M M M M N M v 1 +             * / cXBXVXVXVXVXVXVXVXVXVXVXVXVXVXVXVXVXVXVXVXVXVXVXVXVXVXVX",
"                                  @ r ..H.!.I.K.K.K.K.K.K.K.K.K.K.K.K.K.K.K.K.K.K.K.K.K.K.K.K.K.K.K.K.K.K.K.L.:.^ L F F F F F F F F F F F F F F F G P ) D.U.W.K.K.K.K.K.K.K.K.K.K.K.Y.I.>.V ,                                 4 ! ;X3X4X3X3X3X3X3X3X3X3X3X3X3X3X3X3X3X3X3X3X3X3X3X3X3X<X;X$X|.{.|.|.|.|.|.|.|.|. X X X@X@X|.Q J %                                 $ 2 v N N M M M M M M M M M M M M M M M M M M M M M M M M M M M M M M M M M M M M M M M M M M M M M M M M M N M d s p u y u y y y p s d M M M M M M M M M M M M M N N M t , +             * / cXBXVXVXVXVXVXVXVXVXVXVXVXVXVXVXVXVXVXVXVXVXVXVXVXVXVXVX",
"                                  @ r ..H.!.I.K.K.K.K.K.K.K.K.K.K.K.K.K.K.K.K.K.K.K.K.K.K.K.K.K.K.K.K.K.K.K.P.:.^ L F F F F F F F F G F F F F F F G R ) D.K.K.K.K.K.K.K.K.K.K.K.K.K.Y.I.>.V ,                                 4 ! :X3X5X3X3X3X3X3X3X3X3X3X3X3X3X3X3X3X3X3X3X3X3X3X3X3X<X;X$X|.{.|.|.|.|.|.|.|.|.|.|.|. X@X|.Q J &                                 $ w v N N M M M M M M M M M M M M M M M M M M M M M M M M M M M M M M M M M M M M M M M M M M M M M M M M M N M d s p u u u u y y p s d M M M M M M M M M M M M M N N M t , +             * / cXBXVXVXVXVXVXVXVXVXVXVXVXVXVXVXVXVXVXVXVXVXVXVXVXVXVXVX",
"                                  @ r ..H.!.I.K.K.K.K.K.K.K.K.K.K.K.K.K.K.K.K.K.K.K.K.K.K.K.K.K.K.K.K.K.K.K.J.:.( P L L L L L L L L L L L L L L L P ^ :.L.K.K.K.K.K.K.K.K.K.K.K.K.K.Y.I.>.V ,               o & 3 4 4 4 3 & 4 T XX:X3X3X3X3X3X3X3X3X3X3X3X3X3X3X3X3X3X3X3X3X3X3X3X3X3X<X;X$X|.|.|.|.|.|.|.[.].].Q Q Q ].].Q E 6 & X X X X X X X X X X X X X X X + : w b N N M M M M M M M M M M M M M M M M M M M M M M M M M M M M M M M M M M M M M M M M M M M M M M M M M M M M s p p p p p p p p s d M N M M M M M M M M M M M N N M t , +             * / cXBXVXVXVXVXVXVXVXVXVXVXVXVXVXVXVXVXVXVXVXVXVXVXVXVXVXVX",
"                                  @ r ..H.!.I.K.K.K.K.K.K.K.K.K.K.K.K.K.K.K.K.K.K.K.K.K.K.K.K.K.K.K.K.K.K.K.J.>.:.( ^ ^ ^ ^ ^ ^ ^ ^ ^ ^ ^ ^ ^ ^ ^ ^ ) :.L.K.K.K.K.K.K.K.K.K.K.K.K.K.Y.I.>.V ,               3 K E ! ! ! ! E ! XX*X,X3X3X3X3X3X3X3X3X3X3X3X3X3X3X3X3X3X3X3X3X3X3X3X3X3X<X;X#X|.|.|.|.|.|.{.Q E Y T T Y Y Y Y K 6 > , , , , , , , , , , , , , , , , 2 t M M N M M M M M M M M M M M M M M M M M M M M M M M M M M M M M M M M M M M M M M M M M M M M M M M M M M M M d s s s s s s s s d M M M M M M M M M M M M M M N N M t , +             * / cXBXVXVXVXVXVXVXVXVXVXVXVXVXVXVXVXVXVXVXVXVXVXVXVXVXVXVX",
"                                  @ r ..H.!.I.K.K.K.K.K.K.K.K.K.K.K.K.K.K.K.K.K.K.K.K.K.K.K.K.K.K.K.K.K.K.K.K.L.>.:.:.:.:.:.:.:.:.:.:.:.:.:.:.:.:.:.>.D.J.K.K.K.K.K.K.K.K.K.K.K.K.K.Y.I.+.V ,             o 6 ! *X;X;X;X-X;X-X:X,X2X3X3X3X3X3X3X3X3X3X3X3X3X3X3X3X3X3X3X3X3X3X3X3X3X3X<X-X$X|.|.|.|.|. X[.W J 4 & & 3 3 3 3 ; 1 e t t t t t t t t t t t t t t r t v b M M M M M M M M M M M M M M M M M M M M M M M M M M M M M M M M M M M M M M M M M M M M M M M M M M M M M M M M M M M d d M M M M M M M M M M M M M M M M M M M N M v , +             * / cXBXVXVXVXVXVXVXVXVXVXVXVXVXVXVXVXVXVXVXVXVXVXVXVXVXVXVX",
"                                  @ r ..H.!.I.K.K.K.K.K.K.K.K.K.K.K.K.K.K.K.K.K.K.K.K.K.K.K.K.K.K.K.K.K.K.K.K.K.J.J.J.J.K.K.K.K.J.J.K.K.K.K.J.J.J.J.J.K.K.K.K.K.K.K.K.K.K.K.K.K.K.K.Y.I.+.V ,             o K @X,X3X3X3X3X3X3X3X3X3X3X3X3X3X3X3X3X3X3X3X3X3X3X3X3X3X3X3X3X3X3X3X3X3X3X<X-X$X|.|.|.|. X X[.E 5 o             @ 1 v M N M M M M M M M M M M M M M M M M M M M M M M M M M M M M M M M M M M M M M M M M M M M M M M M M M M M M M M M M M M M M M M M M M M M M M M M M M M M M M M M M M M M M M M M M M M M M M M M M N M v , +             * / cXBXVXVXVXVXVXVXVXVXVXVXVXVXVXVXVXVXVXVXVXVXVXVXVXVXVXVX",
"                                  @ r ..H.!.I.K.K.K.K.K.K.K.K.K.K.K.K.K.K.K.K.K.K.K.K.K.K.K.K.K.K.K.K.K.K.K.K.K.K.K.K.K.K.K.K.K.K.K.K.K.W.K.K.W.W.K.K.K.K.K.K.K.K.K.K.K.K.K.K.K.K.K.!.I.+.V ,             o T $X2X5X5X4X3X5X3X3X3X3X3X3X3X3X3X3X3X3X3X3X3X3X3X3X3X3X3X3X3X3X3X3X3X3X3X<X;X$X|.{.|.|. X X[.E 4               + 1 v V V V N N N N N N N N N N N N N N M M M M M M M M M M M M M M M M M M M M M M M M M M M M M M M M M M M M M M M M M M M M M M M M M M M M M M M M M N N N M M N N N M M M M M M M M M M M M M M M M N M v 1 +             * / cXBXVXVXVXVXVXVXVXVXVXVXVXVXVXVXVXVXVXVXVXVXVXVXVXVXVXVX",
"                                  @ r ..H.!.I.K.K.K.K.K.K.K.K.K.K.K.K.K.K.K.K.K.K.K.K.K.K.K.K.K.K.K.K.K.K.K.K.K.K.K.K.K.K.K.K.K.K.K.K.K.K.K.K.K.K.K.K.K.K.K.K.K.K.K.K.K.K.K.K.K.K.K.Y.I.+.V ,             o T $X1X5X5X3X3X3X3X3X3X3X3X3X3X3X3X3X3X3X3X3X3X3X3X3X3X3X3X3X3X3X3X3X3X3X3X<X;X$X|.{.|.|.|. X[.E 4               + 1 v N V N N N N N N N N N N N N N N M M M M M M M M M M M M M M M M M M M M M M M M M M M M M M M M M M M M M M M M M M M M M M M M M M M M M M M M M M M M M M M M M M M M M M M M M M M M M M M M M M N M v 1 +             * / cXBXVXVXVXVXVXVXVXVXVXVXVXVXVXVXVXVXVXVXVXVXVXVXVXVXVXVX",
"                                  @ r ..H.!.I.K.K.K.K.K.K.K.K.K.K.K.K.K.K.K.K.K.K.K.K.K.K.K.K.K.K.K.K.K.K.K.K.K.K.K.K.K.K.K.K.K.K.K.K.K.K.K.K.K.K.K.I.I.K.K.K.K.K.K.K.K.K.K.K.K.K.K.Y.I.+.V ,             o K $X1X4X3X3X3X3X3X3X3X3X3X3X3X3X3X3X3X3X3X3X3X3X3X3X3X3X3X3X3X3X3X3X3X3X3X<X;X$X|.{.|.|.|. X[.E 5 o             @ 1 v M N M M M M M M M M M M M M M M M M M M M M M M M M M M M M M M M M M M M M M M M M M M M M M M M M M M M M M M M M M M M M M M M M M M M M M M M M M M M M M M M M M M M M M M M M M M M M M M M M N M t , +             * / cXBXVXVXVXVXVXVXVXVXVXVXVXVXVXVXVXVXVXVXVXVXVXVXVXVXVXVX",
"                                  @ r ..H.Y.I.K.K.K.K.K.K.K.K.K.K.K.K.K.K.K.K.K.K.K.K.K.K.K.K.K.K.K.K.K.K.K.K.K.K.K.K.K.K.K.K.K.K.K.K.K.K.K.K.K.K.K.I.I.I.I.I.I.I.I.Y.I.I.I.I.I.I.I.!.!.>.C ,             o K $X1X4X3X3X3X3X3X3X3X3X3X3X3X3X3X3X3X3X3X3X3X3X3X3X3X3X3X3X3X3X3X3X3X3X3X<X;X$X|.{.|.|.|.|.[.E 5 o             @ 1 v M N M M M M M M M M M M M M M M M M M M M M M M M M M M M M M M M M M M M M M M M M M M M M M M M M M M M M M M M M M M M M M M M M M M M M M M M M M M M M M M M M M M M M M M M M M M N N N N N V V N t , X             * / cXBXVXVXVXVXVXVXVXVXVXVXVXVXVXVXVXVXVXVXVXVXVXVXVXVXVXVX",
"                                  @ r ..H.I.I.K.K.K.K.K.K.K.K.K.K.K.K.K.K.K.K.K.K.K.K.K.K.K.K.K.K.K.K.K.K.K.K.K.K.K.K.K.K.K.K.K.K.K.K.K.K.K.K.K.K.K.I.K.I.I.!.!.W.!.I.I.I.I.I.I.I.!.!.!.D.C ,             o K $X1X4X3X3X3X3X3X3X3X3X3X3X3X3X3X3X3X3X3X3X3X3X3X3X3X3X3X3X3X3X3X3X3X3X3X<X;X$X|.|.|.|.|.|.[.E 5 o             @ 1 v M N M M M M M M M M M M M M M M M M M M M M M M M M M M M M M M M M M M M M M M M M M M M M M M M M M M M M M M M M M M M M M M M M M M M M M M M M M M M M M M M M M M M M M M M M M M N N N N N N V N t , X             * / cXBXVXVXVXVXVXVXVXVXVXVXVXVXVXVXVXVXVXVXVXVXVXVXVXVXVXVX",
"                                  @ r ..H.I.I.K.K.K.K.K.K.K.K.K.K.K.K.K.K.K.K.K.K.K.K.K.K.K.K.K.K.K.K.K.K.K.K.K.K.K.K.K.K.K.K.K.K.K.K.K.K.K.K.K.K.K.J.H.D.D.D.D.D.D.D.D.D.D.D.D.D.D.H.H.O.N ,             o K $X1X3X3X3X3X3X3X3X3X3X3X3X3X3X3X3X3X3X3X3X3X3X3X3X3X3X3X3X3X3X3X3X3X3X3X<X;X#X|.|.|.|.|.|.[.E 5 o             @ 1 v M N M M M M M M M M M M M M M M M M M M M M M M M M M M M M M M M M M M M M M M M M M M M M M M M M M M M M M M M M M M M M M M M M M M M M M M M M M M M M M M M M M M M M M M M M M M M M b M v M M v t 2 = * O * * O O 7 ` cXBXVXVXVXVXVXVXVXVXVXVXVXVXVXVXVXVXVXVXVXVXVXVXVXVXVXVX",
"                                  @ r ..H.!.I.K.K.K.K.K.K.K.K.K.K.K.K.K.K.K.K.K.K.K.K.K.K.K.K.K.K.K.K.K.K.K.K.K.K.K.K.K.K.K.K.K.K.K.K.K.K.K.K.I.I.J.+...| Z Z Z Z Z Z Z Z Z Z Z Z Z | Z V e -             o K $X,X3X3X3X3X3X3X3X3X3X3X3X3X3X3X3X3X3X3X3X3X3X3X3X3X3X3X3X3X3X3X3X3X3X3X<X-X$X|.|.|.|. X|.[.E 5 o             @ 1 v M N M M M M M M M M M M M M M M M M M M M M M M M M M M M M M M M M M M M M M M M M M M M M M M M M M M M M M M M M M M M M M M M M M M M M M M M M M M M M M M M M M M M M M M M M M v t w w w w w w w r m ^ / / / / ~ / ` lXbXBXVXVXVXVXVXVXVXVXVXVXVXVXVXVXVXVXVXVXVXVXVXVXVXVXVXVX",
"                                  @ r ..H.!.I.K.K.K.K.K.K.K.K.K.K.K.K.K.K.K.K.K.K.K.K.K.K.K.K.K.K.K.K.K.K.K.K.K.K.K.K.K.K.K.K.K.K.K.K.K.K.K.K.I.I.H...N w 2 2 2 2 2 2 2 2 2 2 2 2 2 w 2 1 - +             o K $X,X3X3X3X3X3X3X3X3X3X3X3X3X3X3X3X3X3X3X3X3X3X3X3X3X3X3X3X3X3X3X3X3X3X3X<X-X$X|.|.|.|.|.|.[.E 5 o             @ 1 v M N M M M M M M M M M M M M M M M M M M M M M M M M M M M M M M M M M M M M M M M M M M M M M M M M M M M M M M M M M M M M M M M M M M M M M M M M M M M M M M M M M M M M M M N N M t 2 : - - - - $ - 9 ` kXxXcXxXxXxXxXcXbXMXVXVXVXVXVXVXVXVXVXVXVXVXVXVXVXVXVXVXVXVXVXVXVXVXVXVXVX",
"                                  @ r ..H.!.I.K.K.K.K.K.K.K.K.K.K.K.K.K.K.K.K.K.K.K.K.K.K.K.K.K.K.K.K.K.K.K.K.K.K.K.K.K.K.K.K.K.K.K.K.K.K.K.K.I.I.D.| w $ . . X X X X X X X X X X X X X X .               o K $X,X3X3X3X3X3X3X3X3X3X3X3X3X3X3X3X3X3X3X3X3X3X3X3X3X3X3X3X3X3X3X3X3X3X3X<X-X$X|.|.|.|. X X[.E 5 o             @ 1 v M N M M M M M M M M M M M M M M M M M M M M M M M M M M M M M M M M M M M M M M M M M M M M M M M M M M M M M M M M M M M M M M M M M M M M M M M M M M M M M M M M M M M M M M N N M r , X             8 [ vXNXBXBXNXNXNXBXBXVXVXVXVXVXVXVXVXVXVXVXVXVXVXVXVXVXVXVXVXVXVXVXVXVXVXVXVX",
"                                  @ r ..H.!.I.K.K.K.K.K.K.K.K.K.K.K.K.K.K.K.K.K.K.K.K.K.K.K.K.K.K.K.K.K.K.K.K.K.K.K.K.K.K.K.K.K.K.K.K.K.K.K.K.I.I.D.Z 2 .                                                 o T $X,X3X3X3X3X3X3X3X3X3X3X3X3X3X3X3X3X3X3X3X3X3X3X3X3X3X3X3X3X3X3X3X3X3X3X<X-X$X|.|.|.|.|.|.[.E 5 o             @ 1 v M N M M M M M M M M M M M M M M M M M M M M M M M M M M M M M M M M M M M M M M M M M M M M M M M M M M M M M M M M M M M M M M M M M M M M M M M M M M M M M M M M M M M M M M N N M e -               8 jXmXVXVXVXVXVXVXVXVXVXVXVXVXVXVXVXVXVXVXVXVXVXVXVXVXVXVXVXVXVXVXVXVXVXVXVXVX",
"                                  @ r ..H.!.I.K.K.K.K.K.K.K.K.K.K.K.K.K.K.K.K.K.K.K.K.K.K.K.K.K.K.K.K.K.K.K.K.K.K.K.K.K.K.K.K.K.K.K.K.K.K.K.K.I.I.D.Z 2 .                                                 o K $X,X3X3X3X3X3X3X3X3X3X3X3X3X3X3X3X3X3X3X3X3X3X3X3X3X3X3X3X3X3X3X3X3X3X3X<X-X$X|.|.|.|. X X[.E 5 o             @ 1 v M N M M M M M M M M M M M M M M M M M M M M M M M M M M M M M M M M M M M M M M M M M M M M M M M M M M M M M M M M M M M M M M M M M M M M M M M M M M M M M M M M M M M M M M N N M e -               8 jXmXVXVXVXVXVXVXVXVXVXVXVXVXVXVXVXVXVXVXVXVXVXVXVXVXVXVXVXVXVXVXVXVXVXVXVXVX",
"                                  @ r ..H.!.I.K.K.K.K.K.K.K.K.K.K.K.K.K.K.K.K.K.K.K.K.K.K.K.K.K.K.K.K.K.K.K.K.K.K.K.K.K.K.K.K.K.K.K.K.K.K.K.K.I.I.D.Z 2 X                                                 o K $X,X3X4X3X3X3X3X3X3X3X3X3X3X3X3X3X3X3X3X3X3X3X3X3X3X3X3X3X3X3X3X3X3X3X3X<X-X$X|.|.|.|. X X[.E 5 o             @ 1 v M N M M M M M M M M M M M M M M M M M M M M M M M M M M M M M M M M M M M M M M M M M M M M M M M M M M M M M M M M M M M M M M M M M M M M M M M M M M M M M M M M M M M M M M N N M e - .             8 jXmXVXVXVXVXVXVXVXVXVXVXVXVXVXVXVXVXVXVXVXVXVXVXVXVXVXVXVXVXVXVXVXVXVXVXVXVX",
"                                  @ r ..J.!.!.I.I.I.I.I.I.I.I.I.I.I.I.I.I.I.K.K.K.K.K.K.K.K.K.K.K.K.K.K.K.K.K.K.I.I.I.I.I.I.I.I.I.I.I.I.I.I.I.!.!.H.Z 2 X                                                 o K @X1X4X4X3X3X3X3X3X3X3X3X3X3X3X3X3X3X3X3X3X3X3X3X3X3X3X3X3X3X3X3X3X3X3X3X<X-X$X X|.|.|. X@X[.E 5 o             @ 2 v N V N N N N N N N N N N N N N N N N N N N N N N N M M M M M M M M M M M M M M M M M M M M M M M M M M M M M M M M M M M M M M M M M M M M M M M M M M N N N N N N N N N N N N M N V M e -               8 [ mXVXVXVXVXVXVXVXVXVXVXVXVXVXVXVXVXVXVXVXVXVXVXVXVXVXVXVXVXVXVXVXVXVXVXVXVX",
"                                  @ t ..K.!.!.!.!.!.!.!.!.!.!.!.!.!.!.!.I.I.K.K.K.K.K.K.K.K.K.K.K.K.K.K.K.K.K.I.I.I.!.!.!.!.!.!.!.!.!.!.!.!.!.!.!.H.| w X                                                   K @X1X4X4X3X3X3X3X3X3X3X3X3X3X3X3X3X3X3X3X3X3X3X3X3X3X3X3X3X3X3X3X3X3X3X3X<X;X$X@X|.|. X@X@X{.E 5 o             @ 2 v V V V N N N N N N N N N N N N N N N N N N N N N N N N M M M M M M M M M M M M M M M M M M M M M M M M M M M M M M M M M M M M M M M M M M M M M M N N N N N N N N N N N N N N N V V M e -               7 [ mXVXVXVXVXVXVXVXVXVXVXVXVXVXVXVXVXVXVXVXVXVXVXVXVXVXVXVXVXVXVXVXVXVXVXVXVX",
"                                  @ r  .H.I.K.J.J.J.J.J.J.J.J.J.J.J.J.J.J.K.K.K.K.K.K.K.K.K.K.K.K.K.K.K.K.K.K.K.K.J.J.J.J.J.K.J.J.J.J.J.J.J.J.I.I.D.Z 2 X                                                 % T $X,X3X3X3X3X3X3X3X3X3X3X3X3X3X3X3X3X3X3X3X3X3X3X3X3X3X3X3X3X3X3X3X3X3X3X<X-X$X|.{.{.{.|.|.[.E 5 o             @ 1 v M N M M M M M M M M M M M M M M M M M M M M M M M M M M M M M M M M M M M M M M M M M M M M M M M M M M M M M M M M M M M M M M M M M M M M M M M M M M M M M M M M M M M M M M M N M e : X             8 jXmXVXVXVXVXVXVXVXVXVXVXVXVXVXVXVXVXVXVXVXVXVXVXVXVXVXVXVXVXVXVXVXVXVXVXVXVX",
"0 0 0 0 0 0 0 0 8 = O             + 2 V ..o.o...........................O.>.H.K.I.K.K.K.K.K.K.K.K.K.K.K.K.I.K.D.+.o...........................o.o. .M , X             o & 5 6 6 6 6 6 6 6 6 6 6 6 6 6 5 5 J ! *X1X3X3X3X3X3X3X3X3X3X3X3X3X3X3X3X3X3X3X3X3X3X3X3X3X3X3X3X3X3X3X3X3X3X3X,X=X|.Q Q Q Q Q Q W T 4 o             + , w t t t t t t t t t t t t t t t t t t t t t t t r t t v M M M M M M M M M M M M M M M M M M M M M M M M M M M M M M M M M M M M M M M M M M M M M M v v t r t t t t t t t t t t r t t r r e 0 0 0 0 0 8 0 / lXmXVXVXVXVXVXVXVXVXVXVXVXVXVXVXVXVXVXVXVXVXVXVXVXVXVXVXVXVXVXVXVXVXVXVXVXVX",
"kXkXkXkXkXkXlXkX` ~ *             X - w t v v v v v v v v v v v v t t v N | >.K.I.K.K.K.K.K.K.K.K.K.K.K.I.I.J.+.Z M t t v v v v v v v v v v v v v r 2 $               & T ! XXXXXXXXXXXXXXXXXXXXXXXXXXXXXXXX%X:X2X3X3X3X3X3X3X3X3X3X3X3X3X3X3X3X3X3X3X3X3X3X3X3X3X3X3X3X3X3X3X3X3X3X3X,X$XW J 6 J J J J J 4 &               . $ : , , , , , , , , , , , , , , , , , , , , , , , , , 2 r v M N M M M M M M M M M M M M M M M M M M M M M M M M M M M M M M M M M M M M M M M M N M v r 1 , , , , , , , , , , , , , , , 1 m ` jXkXkXkXkXjXkXlXvXNXVXVXVXVXVXVXVXVXVXVXVXVXVXVXVXVXVXVXVXVXVXVXVXVXVXVXVXVXVXVXVXVXVXVXVXVX",
"mXmXmXmXmXmXMXmXxX` 7               X @ $ $ $ $ $ $ $ $ $ $ $ $ $ $ @ $ 2 V O.K.I.I.K.K.K.K.K.K.K.K.K.K.I.I.J...v , $ @ $ $ $ $ $ $ $ $ $ $ $ $ $ $ + .               4 ! *X:X>X:X:X:X:X:X:X:X:X:X:X:X:X:X:X,X2X3X3X3X3X3X3X3X3X3X3X3X3X3X3X3X3X3X3X3X3X3X3X3X3X3X3X3X3X3X3X3X3X3X3X3X:XXXK & o % & & & & o                   . X X X X X X X X X X X X X X X X X X X X X X X X X X $ 2 v M N M M M M M M M M M M M M M M M M M M M M M M M M M M M M M M M M M M M M M M M M N M v 1 $ X X X X X X X X X X X X X . . $ ~ kXvXMXMXmXmXmXmXMXNXVXVXVXVXVXVXVXVXVXVXVXVXVXVXVXVXVXVXVXVXVXVXVXVXVXVXVXVXVXVXVXVXVXVXVXVXVX",
"VXVXVXVXVXVXVXVXbX] 7                                                   - v O.K.!.I.K.K.K.K.K.K.K.K.K.K.I.!.H...r @                                                   5 XX:X3X5X3X3X3X3X3X3X3X3X3X3X3X3X3X3X3X3X3X3X3X3X3X3X3X3X3X3X3X3X3X3X3X3X3X3X3X3X3X3X3X3X3X3X3X3X3X3X3X3X3X5X3X:XXX5                                                                                         + , t M N N M M M M M M M M M M M M M M M M M M M M M M M M M M M M M M M M M M M M M M N N M t , X                               O ~ zXNXVXVXVXVXVXVXVXVXVXVXVXVXVXVXVXVXVXVXVXVXVXVXVXVXVXVXVXVXVXVXVXVXVXVXVXVXVXVXVXVXVXVXVXVXVX",
"VXVXVXVXVXVXVXVXmX[ 7                                                   $ v o.K.!.I.K.K.K.K.K.K.K.K.K.K.I.!.H. .e +                                                   6 XX>X5X5X5X4X4X4X3X3X3X3X3X3X3X5X4X4X3X3X3X3X3X3X3X3X3X3X3X3X3X3X3X3X3X3X3X3X3X3X3X3X3X3X3X3X3X3X3X3X3X3X3X5X3X:XXX5                                                                                         X , t M N N M M M M M M M M M M M M M M M M M M M M M M M M M M M M M M M M M M M M M M N N M r , X                               O ~ zXNXVXVXVXVXVXVXVXVXVXVXVXVXVXVXVXVXVXVXVXVXVXVXVXVXVXVXVXVXVXVXVXVXVXVXVXVXVXVXVXVXVXVXVXVXVX",
"VXVXVXVXVXVXVXVXbX] 7                                                   - v O.K.!.I.K.K.K.K.K.K.K.K.K.K.I.!.H...r @                                                   5 XX:X3X5X3X3X3X3X3X3X3X3X3X3X3X3X3X3X3X3X3X3X3X3X3X3X3X3X3X3X3X3X3X3X3X3X3X3X3X3X3X3X3X3X3X3X3X3X3X3X3X3X3X5X3X:XXX6                                                                                         + , t M N N M M M M M M M M M M M M M M M M M M M M M M M M M M M M M M M M M M M M M M N N M t , X                               O ~ zXNXVXVXVXVXVXVXVXVXVXVXVXVXVXVXVXVXVXVXVXVXVXVXVXVXVXVXVXVXVXVXVXVXVXVXVXVXVXVXVXVXVXVXVXVXVX",
"VXVXVXVXVXVXVXVXbX] 7                                                   - v O.K.!.I.K.K.K.K.K.K.K.K.K.K.I.!.J...r @                                                   5 XX:X3X4X3X3X3X3X3X3X3X3X3X3X3X3X3X3X3X3X3X3X3X3X3X3X3X3X3X3X3X3X3X3X3X3X3X3X3X3X3X3X3X3X3X3X3X3X3X3X3X3X3X5X3X:XXX5                                                                                         + , t M V N M M M M M M M M M M M M M M M M M M M M M M M M M M M M M M N N M M M M M M N N M t , X                               O ~ zXNXVXVXVXVXVXVXVXVXVXVXVXVXVXVXVXVXVXVXVXVXVXVXVXVXVXVXVXVXVXVXVXVXVXVXVXVXVXVXVXVXVXVXVXVXVX",
"VXVXVXVXVXVXVXVXbX] 7                                                   $ b O.Y.!.!.Y.Y.!.!.!.!.Y.Y.Y.Y.!.!.K...t @                                                   6 XX:X3X3X3X3X3X3X3X3X3X3X3X3X3X3X3X3X3X3X3X3X3X3X3X3X3X3X3X3X3X3X3X3X3X3X3X3X3X3X3X3X3X3X3X3X3X3X4X4X4X4X5X5X5X>XXX6                                                                                         + , v N V N N N N N N N N N N N N N N N N N N N N N N N N N N N N N N N N N N N N N N N V V N t : .                                 ~ lXMXVXVXVXVXVXVXVXVXVXVXVXVXVXVXVXVXVXVXVXVXVXVXVXVXVXVXVXVXVXVXVXVXVXVXVXVXVXVXVXVXVXVXVXVXVX",
"VXVXVXVXVXVXVXVXbX] 7                                                   $ b O.K.!.I.I.I.I.I.I.I.I.I.I.I.!.!.K...r @                                                   6 XX:X3X4X3X3X3X3X3X3X3X3X3X3X3X3X3X3X3X3X3X3X3X3X3X3X3X3X3X3X3X3X3X3X3X3X3X3X3X3X3X3X3X3X3X3X3X3X3X3X3X3X4X5X4X:XXX6                                                                                         + , v N V N N N N N N N N N N N N N N N N N N N N N N N N N N N N N N N N N N N N N N N N V M t , .                                 ~ lXNXVXVXVXVXVXVXVXVXVXVXVXVXVXVXVXVXVXVXVXVXVXVXVXVXVXVXVXVXVXVXVXVXVXVXVXVXVXVXVXVXVXVXVXVXVX",
"VXVXVXVXVXVXVXVXbX] 7                                 o & & & & 3 & & & > M  .+.D.+.+.+.+.+.+.+.+.+.+.+.>.>.+.Z w +               o o % & % % % & % o                 6 XX:X3X3X3X3X3X3X3X3X3X3X3X3X3X3X3X3X3X3X3X3X3X3X3X3X3X3X3X3X3X3X3X3X3X3X3X3X3X3X3X3X3X3X3X3X3X1X,X>X>X>X>X1X,X-X! 5                 o % % % % % % % o o                 O * = = = = = = = * O               + , e v v v v v v v v v v v v v v v v v v v v v v v v v v v v v v v v v v v v v v v v v v v v r 2 < = = = = = = = = = = = = = = * 8 ` xXNXVXVXVXVXVXVXVXVXVXVXVXVXVXVXVXVXVXVXVXVXVXVXVXVXVXVXVXVXVXVXVXVXVXVXVXVXVXVXVXVXVXVXVXVXVX",
"VXVXVXVXVXVXVXVXbX] 7                                 & K E E E E E E E E ^ n V V V V V V V V V V V V V V C V t , X             o & 5 6 J 6 6 J J 6 4 &               5 XX:X3X4X3X3X3X3X3X3X3X3X3X3X3X3X3X3X3X3X3X3X3X3X3X3X3X3X3X3X3X3X3X3X3X3X3X3X3X3X3X3X3X3X3X3X,X-X$XXXXXXXXX@X@XXXT 3               & 4 6 6 6 6 6 J 6 5 & o             O 8 ~ ` ` ` ` ` ` ` ~ 7 O             X $ , 2 2 2 2 2 2 2 2 2 2 2 2 2 2 2 2 2 2 2 2 2 2 2 2 2 2 2 2 2 2 2 2 2 2 2 2 2 2 2 2 2 2 2 2 e ^ ` ` ` ` ` ` ` ` ` ` ` ` ` ` ` ` ] lXbXBXVXVXVXVXVXVXVXVXVXVXVXVXVXVXVXVXVXVXVXVXVXVXVXVXVXVXVXVXVXVXVXVXVXVXVXVXVXVXVXVXVXVXVXVXVX",
"VXVXVXVXVXVXVXVXbX] 7                               o 6 ! %X-X-X-X-X-X=X$X! s , , , , , , , , , , , , , , , , - +               % 5 Y W Q Q W Q Q W J 3               5 XX:X3X4X3X3X3X3X3X3X3X3X3X3X3X3X3X3X3X3X3X3X3X3X3X3X3X3X3X3X3X3X3X3X3X3X3X3X3X3X3X3X3X3X4X3X;XXXT 6 6 J J K J 6 3 o             o 3 J W Q Q W Q Q W Y 5 %             * ~ kXcXvXvXvXvXvXcXkX~ *               X @ $ $ $ $ $ $ $ $ $ $ $ $ $ $ $ $ $ $ $ $ $ $ $ $ $ $ $ $ $ $ $ $ $ $ $ $ $ $ $ $ $ + + $ 0 ' zXvXvXvXcXcXcXcXcXcXcXvXvXcXcXcXvXmXMXVXVXVXVXVXVXVXVXVXVXVXVXVXVXVXVXVXVXVXVXVXVXVXVXVXVXVXVXVXVXVXVXVXVXVXVXVXVXVXVXVXVXVXVXVXVX",
"VXVXVXVXVXVXVXVXbX] 7                               o K @X>X3X3X3X3X3X3X;X! 5                                                   & J Q [.|.{.{.|.|.].E 4 o             5 XX:X3X4X3X3X3X3X3X3X3X3X3X3X3X3X3X3X3X3X3X3X3X3X3X3X3X3X3X3X3X3X3X3X3X3X3X3X3X3X3X3X3X3X3X3X-XE 3           o                   o 5 E ].|.|.{.|.|.[.Q J &             = ` cXBXVXVXVXVXVXNXcX/ *                                                                                                           0 jXmXVXVXVXVXVXVXVXVXVXBXVXVXVXVXBXBXVXVXVXVXVXVXVXVXVXVXVXVXVXVXVXVXVXVXVXVXVXVXVXVXVXVXVXVXVXVXVXVXVXVXVXVXVXVXVXVXVXVXVXVXVXVXVXVX",
"VXVXVXVXVXVXVXVXbX] 7                               o T $X2X5X5X4X5X5X4X:XXX4                                                   & J Q |.@X@X X@X@X{.E 5 o             5 XX:X3X3X3X3X3X3X3X3X3X3X3X3X3X3X3X3X3X3X3X3X3X3X3X3X3X3X3X3X3X3X3X3X3X3X3X3X3X3X3X3X3X3X4X3X*XE &                               o 5 W {.@X@X X@X@X|.Q J &             = ` vXVXVXVXVXVXVXVXcX` =                                                                                                           0 kXMXVXVXVXVXVXVXVXVXVXVXVXVXVXVXVXVXVXVXVXVXVXVXVXVXVXVXVXVXVXVXVXVXVXVXVXVXVXVXVXVXVXVXVXVXVXVXVXVXVXVXVXVXVXVXVXVXVXVXVXVXVXVXVXVX",
"VXVXVXVXVXVXVXVXbX] 7                               o T $X1X5X5X4X4X5X3X:XXX4                                                   & J Q |.@X X|.@X@X[.E 5 o             5 XX:X3X3X3X3X3X3X3X3X3X3X3X3X3X3X3X3X3X3X3X3X3X3X3X3X3X3X3X3X3X3X3X3X3X3X3X3X3X3X3X3X3X3X5X3X=XE &                               o 5 E [.@X@X|. X@X|.Q J &             = ` vXVXVXVXVXVXVXBXcX` *                                                                                                           0 kXmXVXVXVXVXVXVXVXVXVXVXVXVXVXVXVXVXVXVXVXVXVXVXVXVXVXVXVXVXVXVXVXVXVXVXVXVXVXVXVXVXVXVXVXVXVXVXVXVXVXVXVXVXVXVXVXVXVXVXVXVXVXVXVXVX",
"VXVXVXVXVXVXVXVXbX] 7                               o K $X1X4X4X3X3X4X3X:XXX4                                                   & J Q {. X|.|. X|.[.E 5 o             5 XX:X3X4X3X3X3X3X3X3X3X3X3X3X3X3X3X3X3X3X3X3X3X3X3X3X3X3X3X3X3X3X3X3X3X3X3X3X3X3X3X3X3X3X4X3X=XE &                               o 5 E [. X X|.|. X|.Q J &             = ` cXVXVXVXVXVXVXBXcX/ *                                                                                                           0 kXmXVXVXVXVXVXVXVXVXVXVXVXVXVXVXVXVXVXVXVXVXVXVXVXVXVXVXVXVXVXVXVXVXVXVXVXVXVXVXVXVXVXVXVXVXVXVXVXVXVXVXVXVXVXVXVXVXVXVXVXVXVXVXVXVX",
"VXVXVXVXVXVXVXVXvX] 7                               o K $X1X4X4X3X3X4X3X:X! 4                                                   & J Q {. X|.|. X|.[.E 5 o             5 XX:X3X4X3X3X3X3X3X3X3X3X3X3X3X3X3X3X3X3X3X3X3X3X3X3X3X3X3X3X3X3X3X3X3X3X3X3X3X3X3X3X3X3X5X3X=XE &                               o 5 E [. X X|.|. X|.Q J &             = ` cXVXVXVXVXVXVXBXcX/ *                                                                                                           0 kXmXVXVXVXVXVXVXVXVXVXVXVXVXVXVXVXVXVXVXVXVXVXVXVXVXVXVXVXVXVXVXVXVXVXVXVXVXVXVXVXVXVXVXVXVXVXVXVXVXVXVXVXVXVXVXVXVXVXVXVXVXVXVXVXVX",
"VXVXVXVXVXVXVXVXvX] =                               o K $X,X4X4X3X3X5X3X;X! 4                                                   % J Q |. X|.|. X|.[.E 5 o             5 XX:X3X4X3X3X3X3X3X3X3X3X3X3X3X3X3X3X3X3X3X3X3X3X3X3X3X3X3X3X3X3X3X3X3X3X3X3X3X3X3X3X3X4X5X3X-XE &                               o 5 E [. X X|.|. X{.Q J &             = ` cXVXVXVXVXVXVXBXcX/ O                                                                                                           0 jXmXVXVXVXVXVXVXVXVXVXVXVXVXVXVXVXVXVXVXVXVXVXVXVXVXVXVXVXVXVXVXVXVXVXVXVXVXVXVXVXVXVXVXVXVXVXVXVXVXVXVXVXVXVXVXVXVXVXVXVXVXVXVXVXVX",
"VXVXVXVXVXVXVXVXbX[ 0 O   O O O O O O               o K $X,X4X4X3X3X3X3X:XXX6 o   o o o o o o o o o o o o o o o o o o o o       & J Q |. X|.|. X|.[.E 5 o             5 XX:X3X4X3X3X3X3X3X3X3X3X3X3X3X3X3X3X3X3X3X3X3X3X3X3X3X3X3X3X3X3X3X3X3X3X3X3X3X3X3X3X3X3X3X2X=XE 3       o o o                   o 5 E [. X X|.|. X{.Q J &             = ` cXVXVXVXVXVXVXBXcX` 7     O O O O O O O O O O O O O O O O O O O O O O O O O O O O O O O O O O O O O O O O O O O O O O O O O   O ~ lXmXVXVXVXVXVXVXVXVXVXVXVXVXVXVXVXVXVXVXVXVXVXVXVXVXVXVXVXVXVXVXVXVXVXVXVXVXVXVXVXVXVXVXVXVXVXVXVXVXVXVXVXVXVXVXVXVXVXVXVXVXVXVXVXVX",
"VXVXVXVXVXVXVXVXmXlX` ~ ~ ~ ~ ~ ~ ~ 8 *             o K $X,X3X4X3X3X4X3X:X$XE K K K K K K K K K K K K K K T K K 6 4 4 4 4 4 4 4 6 Y Q |.|.|.|.|.|.[.E 5 o             6 XX:X3X3X3X3X3X3X3X3X3X3X3X3X3X3X3X3X3X3X3X3X3X3X3X3X3X3X3X3X3X3X3X3X3X3X3X2X,X>X:X>X>X>X,X:X%XQ J 4 3 4 4 4 4 3 & o             o 5 E [. X X|.|. X{.Q J &             = ` cXVXVXVXVXVXVXBXbXkX/ ~ ~ ~ ~ ~ ~ ~ ~ ~ ~ ~ ~ ~ ~ ~ ~ ~ ~ ~ ~ ~ ~ ~ ~ ~ ~ ~ ~ ~ ~ ~ ~ ~ ~ ~ ~ ~ ~ ~ ~ ~ ~ ~ ~ ~ ~ ~ ~ ~ ~ ~ ~ ~ ] xXMXVXVXVXVXVXVXVXVXVXVXVXVXVXVXVXVXVXVXVXVXVXVXVXVXVXVXVXVXVXVXVXVXVXVXVXVXVXVXVXVXVXVXVXVXVXVXVXVXVXVXVXVXVXVXVXVXVXVXVXVXVXVXVXVX",
"VXVXVXVXVXVXVXVXNXbXxXzXlXzXzXzXzXkX/ 8             o K $X,X4X4X3X3X3X3X1X;X*X$X@X@X$X$X$X$X$X$X$X$X$X$X$X$X@XXXQ E Y Y Y Y Y Y E Q ].|.|.|.|.|.|.[.E 5 o             6 XX:X3X3X3X3X3X3X3X3X3X3X3X3X3X3X3X3X3X3X3X3X3X3X3X3X3X3X3X3X3X3X3X3X3X3X3X,X;X&X&X&X&X&X=X&X$X].W Y Y Y Y E Y T 5 &             o 5 E [. X X|.|. X{.Q J &             = ` cXVXVXVXVXVXVXVXMXvXxXlXlXzXzXzXzXzXzXzXzXzXzXzXzXzXzXzXzXzXzXzXzXzXzXzXzXzXzXzXzXzXzXzXzXzXzXzXzXzXzXzXzXzXzXzXzXzXzXzXzXlXlXzXcXmXBXVXVXVXVXVXVXVXVXVXVXVXVXVXVXVXVXVXVXVXVXVXVXVXVXVXVXVXVXVXVXVXVXVXVXVXVXVXVXVXVXVXVXVXVXVXVXVXVXVXVXVXVXVXVXVXVXVXVXVXVXVXVXVXVX",
"VXVXVXVXVXVXVXVXVXBXNXNXNXNXNXBXNXbXkX0 O           o K $X,X3X3X3X3X3X3X3X2X1X1X1X1X1X1X,X,X1X1X1X1X,X,X1X1X,X;X&X|.].].].].].[.[.[.|.|.|.|.|.|.|.[.E 5 o             6 XX:X3X4X3X3X3X3X3X3X3X3X3X3X3X3X3X3X3X3X3X3X3X3X3X3X3X3X3X3X3X3X3X3X3X3X2X:X&X@X@X@X@X@X@X@X X{.[.].].[.[.[.[.Q J &             o 5 E [. X X|.|. X|.Q J &             = ` vXVXVXVXVXVXVXVXVXBXNXNXMXNXNXNXNXNXNXNXNXNXNXNXNXNXNXNXNXNXNXNXNXNXNXNXNXNXNXNXNXNXNXNXNXNXNXNXNXNXNXNXNXNXNXNXNXNXNXNXNXNXMXNXNXBXVXVXVXVXVXVXVXVXVXVXVXVXVXVXVXVXVXVXVXVXVXVXVXVXVXVXVXVXVXVXVXVXVXVXVXVXVXVXVXVXVXVXVXVXVXVXVXVXVXVXVXVXVXVXVXVXVXVXVXVXVXVXVXVXVX",
"VXVXVXVXVXVXVXVXVXVXVXVXVXVXVXVXVXMXlX~ O           o K $X,X3X3X3X3X3X3X3X3X3X4X4X4X4X4X3X3X4X4X4X3X3X3X4X5X3X,X=X#X|.|.|. X X X|.|.|.|.|.|.|.|.|.[.E 5 o             6 XX:X3X4X3X3X3X3X3X3X3X3X3X3X3X3X3X3X3X3X3X3X3X3X3X3X3X3X3X3X3X3X3X3X3X3X2X:X&X|.[.{.|.|.{.|.|.|. X X X X X@X X].Y 3             o 5 E [. X X|.|. X|.Q J &             = ` vXVXVXVXVXVXVXVXVXVXVXVXVXVXVXVXVXVXVXVXVXVXVXVXVXVXVXVXVXVXVXVXVXVXVXVXVXVXVXVXVXVXVXVXVXVXVXVXVXVXVXVXVXVXVXVXVXVXVXVXVXVXVXVXVXVXVXVXVXVXVXVXVXVXVXVXVXVXVXVXVXVXVXVXVXVXVXVXVXVXVXVXVXVXVXVXVXVXVXVXVXVXVXVXVXVXVXVXVXVXVXVXVXVXVXVXVXVXVXVXVXVXVXVXVXVXVXVXVXVXVX",
"VXVXVXVXVXVXVXVXVXVXVXVXVXVXVXVXVXNXlX~ O           o K $X,X3X3X3X3X3X3X3X3X3X3X3X3X3X3X3X3X3X3X3X3X3X4X5X5X3X,X=X#X|.|.|. X X X X|.|.|.|.|.|. X X[.E 5 o             6 XX:X3X3X3X3X3X3X3X3X3X3X3X3X3X3X3X3X3X3X3X3X3X3X3X3X3X3X3X3X3X3X3X3X3X3X2X:X&X|.[.[.{.{.{.{.|.|.|. X X X X@X X].Y 3             o 5 E [. X X|.|. X|.Q J &             = ` cXVXVXVXVXVXVXVXVXVXVXVXVXVXVXVXVXVXVXVXVXVXVXVXVXVXVXVXVXVXVXVXVXVXVXVXVXVXVXVXVXVXVXVXVXVXVXVXVXVXVXVXVXVXVXVXVXVXVXVXVXVXVXVXVXVXVXVXVXVXVXVXVXVXVXVXVXVXVXVXVXVXVXVXVXVXVXVXVXVXVXVXVXVXVXVXVXVXVXVXVXVXVXVXVXVXVXVXVXVXVXVXVXVXVXVXVXVXVXVXVXVXVXVXVXVXVXVXVXVXVX",
"VXVXVXVXVXVXVXVXVXVXVXVXVXVXVXVXVXMXlX~ O           o K $X,X3X3X3X3X3X3X3X3X3X3X3X3X3X3X3X3X3X3X3X3X3X3X3X3X3X,X=X@X|.{.|.|.|.|.|.|.|.|.|.|.|. X X[.E 5 o             6 XX:X3X3X3X3X3X3X3X3X3X3X3X3X3X3X3X3X3X3X3X3X3X3X3X3X3X3X3X3X3X3X3X3X3X3X2X:X&X X{.|.|.|.|.|.|.|.|.|.|.|.|. X|.Q Y 3             o 5 E [. X X|.|. X|.Q J &             = ` cXVXVXVXVXVXVXVXVXVXVXVXVXVXVXVXVXVXVXVXVXVXVXVXVXVXVXVXVXVXVXVXVXVXVXVXVXVXVXVXVXVXVXVXVXVXVXVXVXVXVXVXVXVXVXVXVXVXVXVXVXVXVXVXVXVXVXVXVXVXVXVXVXVXVXVXVXVXVXVXVXVXVXVXVXVXVXVXVXVXVXVXVXVXVXVXVXVXVXVXVXVXVXVXVXVXVXVXVXVXVXVXVXVXVXVXVXVXVXVXVXVXVXVXVXVXVXVXVXVXVX",
"VXVXVXVXVXVXVXVXVXVXVXVXVXVXVXVXVXMXlX~ O           o K $X1X3X3X3X3X3X3X3X3X3X3X3X3X3X3X3X3X3X3X3X3X3X3X3X3X3X,X=X@X|.{.|.|.|.|.|.|.|.|.|.|.|. X X[.E 5               5 XX:X3X3X3X3X3X3X3X3X3X3X3X3X3X3X3X3X3X3X3X3X3X3X3X3X3X3X3X3X3X3X3X3X3X3X2X:X&X X{.|.|.|.|.|.|.|.|.|.|.|.|.|.|.Q Y 3             o 5 E [. X X|.|. X|.Q J &             = ` vXVXVXVXVXVXVXVXVXVXVXVXVXVXVXVXVXVXVXVXVXVXVXVXVXVXVXVXVXVXVXVXVXVXVXVXVXVXVXVXVXVXVXVXVXVXVXVXVXVXVXVXVXVXVXVXVXVXVXVXVXVXVXVXVXVXVXVXVXVXVXVXVXVXVXVXVXVXVXVXVXVXVXVXVXVXVXVXVXVXVXVXVXVXVXVXVXVXVXVXVXVXVXVXVXVXVXVXVXVXVXVXVXVXVXVXVXVXVXVXVXVXVXVXVXVXVXVXVXVXVX",
"VXVXVXVXVXVXVXVXVXVXVXVXVXVXVXVXVXMXlX~ O           o K $X1X4X4X3X3X3X3X3X3X3X3X3X3X3X3X3X3X3X3X3X3X3X4X4X4X3X,X=X@X|.{.|.|.|.|.|.|. X X X X X@X@X{.E 4               5 XX:X3X3X3X3X3X3X3X3X3X3X3X3X3X3X3X3X3X3X3X3X3X3X3X3X3X3X3X3X3X3X3X3X3X3X2X:X&X X{.|.|.|.|.|.|.|.{.{.{.{.|.|.|.Q T 3             o 5 E [. X X|.|. X|.Q J &             = ` vXVXVXVXVXVXVXVXVXVXVXVXVXVXVXVXVXVXVXVXVXVXVXVXVXVXVXVXVXVXVXVXVXVXVXVXVXVXVXVXVXVXVXVXVXVXVXVXVXVXVXVXVXVXVXVXVXVXVXVXVXVXVXVXVXVXVXVXVXVXVXVXVXVXVXVXVXVXVXVXVXVXVXVXVXVXVXVXVXVXVXVXVXVXVXVXVXVXVXVXVXVXVXVXVXVXVXVXVXVXVXVXVXVXVXVXVXVXVXVXVXVXVXVXVXVXVXVXVXVXVX",
"VXVXVXVXVXVXVXVXVXVXVXVXVXVXVXVXVXMXlX~             o K $X1X4X4X3X3X3X3X3X3X3X3X3X3X3X3X3X3X3X3X3X3X3X3X3X3X3X,X=X@X|.{.|.|.|.|.|.|.|.|.|.|.|. X X[.E 5 o             6 XX:X3X3X3X3X3X3X3X3X3X3X3X3X3X3X3X3X3X3X3X3X3X3X3X3X3X3X3X3X3X3X3X3X3X3X2X:X&X X{.|.|.|.|.|.|.|.|.|.|.|.|. X|.Q Y 3             o 5 E [. X X|.|. X|.Q J &             = ` cXBXVXVXVXVXVXVXVXVXVXVXVXVXVXVXVXVXVXVXVXVXVXVXVXVXVXVXVXVXVXVXVXVXVXVXVXVXVXVXVXVXVXVXVXVXVXVXVXVXVXVXVXVXVXVXVXVXVXVXVXVXVXVXVXVXVXVXVXVXVXVXVXVXVXVXVXVXVXVXVXVXVXVXVXVXVXVXVXVXVXVXVXVXVXVXVXVXVXVXVXVXVXVXVXVXVXVXVXVXVXVXVXVXVXVXVXVXVXVXVXVXVXVXVXVXVXVXVXVXVX",
"VXVXVXVXVXVXVXVXVXVXVXVXVXVXVXVXVXMXlX~             o K $X1X4X4X3X3X3X3X3X3X3X3X3X3X3X3X3X3X3X<X<X,X,X,X<X<X,X:X&X@X|.|.|.|.|.|.{.[.Q Q Q Q Q Q Q Q Y J 5 4 4 4 4 4 5 T @X>X3X3X3X3X3X3X3X3X3X3X3X3X3X3X3X3X3X3X3X3X3X3X3X3X3X3X3X3X3X3X3X3X3X3X2X:X&X X{.|.|.|.|.|. X@X#X#X#X#X#X$X$X{.Y 3             o 5 E [. X X|.|. X|.Q J &             = / lXbXmXmXmXmXmXmXmXNXVXVXVXVXVXVXVXVXVXVXVXVXVXVXVXVXVXVXVXVXVXVXVXVXVXVXVXVXVXVXVXVXVXVXVXVXVXVXVXVXVXVXVXVXVXVXVXVXVXVXVXVXVXVXVXVXVXVXVXVXVXVXVXVXVXVXVXVXVXVXVXVXVXVXVXVXVXVXVXVXVXVXVXVXVXVXVXVXVXVXVXVXVXVXVXVXVXVXVXVXVXVXVXVXVXVXVXVXVXVXVXVXVXVXVXVXVXVXVXVXVX",
"VXVXVXVXVXVXVXVXVXVXVXVXVXVXVXVXVXMXlX~             o K $X1X4X4X3X3X3X3X3X3X3X3X3X3X3X3X3X3X,X:X-X-X-X-X-X-X=X&X$X X|.{.|.|.|.|.[.Q Y J J J J J J T Y E ! XXXXXX! ! XX@X-X1X3X3X3X3X3X3X3X3X3X3X3X3X3X3X3X3X3X3X3X3X3X3X3X3X3X3X3X3X3X3X3X3X3X3X2X:X&X X{.{.|.|.|. X@X&X=X-X-X-X-X;X-X$XE 4             o 5 E [. X X|.|. X{.Q J &             O 0 ` [ jXjX[ [ [ jXzXmXBXVXVXVXVXVXVXVXVXVXVXVXVXVXVXVXVXVXVXVXVXVXVXVXVXVXVXVXVXVXVXVXVXVXVXVXVXVXVXVXVXVXVXVXVXVXVXVXVXVXVXVXVXVXVXVXVXVXVXVXVXVXVXVXVXVXVXVXVXVXVXVXVXVXVXVXVXVXVXVXVXVXVXVXVXVXVXVXVXVXVXVXVXVXVXVXVXVXVXVXVXVXVXVXVXVXVXVXVXVXVXVXVXVXVXVXVXVXVXVXVX",
"VXVXVXVXVXVXVXVXVXVXVXVXVXVXVXVXVXMXlX~             o K $X1X4X3X3X3X3X3X3X3X3X3X3X3X3X3X3X2X:X=X$X#X#X#X#X$X#X@X@X|.|.|.|.|. X|.].Y 5 & & & & & & 4 T XX-X:X:X:X:X:X:X:X,X3X3X3X3X3X3X3X3X3X3X3X3X3X3X3X3X3X3X3X3X3X3X3X3X3X3X3X3X3X3X3X3X3X3X3X2X:X&X X{.{.|.|.{.|.$X-X>X<X<X,X<X<X<X-XXX5             o 5 E [. X X|.|. X{.Q J &               * 7 8 8 8 8 8 7 0 ` cXNXVXVXVXVXVXVXVXVXVXVXVXVXVXVXVXVXVXVXVXVXVXVXVXVXVXVXVXVXVXVXVXVXVXVXVXVXVXVXVXVXVXVXVXVXVXVXVXVXVXVXVXVXVXVXVXVXVXVXVXVXVXVXVXVXVXVXVXVXVXVXVXVXVXVXVXVXVXVXVXVXVXVXVXVXVXVXVXVXVXVXVXVXVXVXVXVXVXVXVXVXVXVXVXVXVXVXVXVXVXVXVXVXVXVXVXVXVXVXVXVX",
"VXVXVXVXVXVXVXVXVXVXVXVXVXVXVXVXVXMXlX~ O           o K $X,X3X3X3X3X3X3X3X3X3X3X3X3X3X3X3X2X:X&X X{.|.|.|.|.|.|.|.|.|.|.|.|. X|.Q Y 3             % T %X1X3X3X3X3X3X3X3X3X3X3X3X3X3X3X3X3X3X3X3X3X3X3X3X3X3X3X3X3X3X3X3X3X3X3X3X3X3X3X3X3X3X3X3X2X:X&X X{.|.|.|.{.|.&X:X<X3X3X3X3X4X3X:XXX6             o 5 E [.|.|.|.|.|.{.Q J &                               O ~ zXNXVXVXVXVXVXVXVXVXVXVXVXVXVXVXVXVXVXVXVXVXVXVXVXVXVXVXVXVXVXVXVXVXVXVXVXVXVXVXVXVXVXVXVXVXVXVXVXVXVXVXVXVXVXVXVXVXVXVXVXVXVXVXVXVXVXVXVXVXVXVXVXVXVXVXVXVXVXVXVXVXVXVXVXVXVXVXVXVXVXVXVXVXVXVXVXVXVXVXVXVXVXVXVXVXVXVXVXVXVXVXVXVXVXVXVXVXVXVXVXVX",
"VXVXVXVXVXVXVXVXVXVXVXVXVXVXVXVXVXMXlX~ O           o K $X,X3X3X3X3X3X3X3X3X3X3X3X3X3X3X3X2X:X&X|.[.[.{.{.{.{.{.|.|.|.|.|.|. X|.Q T &             o T %X2X5X5X4X4X4X3X3X3X3X3X3X3X3X3X3X3X3X3X3X3X3X3X3X3X3X3X3X3X3X3X3X3X3X3X3X3X3X3X3X3X3X3X3X2X:X&X X{.|.|.|.{.|.&X:X2X4X3X3X4X5X4X:XXX6             o 5 E [.|.|.|.|.|.{.Q J &                                 ~ lXMXVXVXVXVXVXVXVXVXVXVXVXVXVXVXVXVXVXVXVXVXVXVXVXVXVXVXVXVXVXVXVXVXVXVXVXVXVXVXVXVXVXVXVXVXVXVXVXVXVXVXVXVXVXVXVXVXVXVXVXVXVXVXVXVXVXVXVXVXVXVXVXVXVXVXVXVXVXVXVXVXVXVXVXVXVXVXVXVXVXVXVXVXVXVXVXVXVXVXVXVXVXVXVXVXVXVXVXVXVXVXVXVXVXVXVXVXVXVXVXVX",
"VXVXVXVXVXVXVXVXVXVXVXVXVXVXVXVXVXMXlX~ O           o K $X1X4X4X3X3X3X3X3X3X3X3X3X3X3X3X3X2X:X&X X{.{.|.|.|.|.|.|.|.|.|.|.|. X|.Q Y &             o T %X2X5X4X3X3X3X3X3X3X3X3X3X3X3X3X3X3X3X3X3X3X3X3X3X3X3X3X3X3X3X3X3X3X3X3X3X3X3X3X3X3X3X3X3X2X:X&X X{.{.|.|.{.|.&X:X2X3X3X3X3X5X3X:XXX6             o 5 E [. X|.|.|. X{.Q J &                               O ~ lXNXVXVXVXVXVXVXVXVXVXVXVXVXVXVXVXVXVXVXVXVXVXVXVXVXVXVXVXVXVXVXVXVXVXVXVXVXVXVXVXVXVXVXVXVXVXVXVXVXVXVXVXVXVXVXVXVXVXVXVXVXVXVXVXVXVXVXVXVXVXVXVXVXVXVXVXVXVXVXVXVXVXVXVXVXVXVXVXVXVXVXVXVXVXVXVXVXVXVXVXVXVXVXVXVXVXVXVXVXVXVXVXVXVXVXVXVXVXVXVXVX",
"VXVXVXVXVXVXVXVXVXVXVXVXVXVXVXVXVXMXlX~ O           o K $X1X4X4X3X3X3X3X3X3X3X3X3X3X3X3X3X2X:X&X X{.|.|.|.|.|.|.|.|.|.|.|.|. X|.Q Y 3             % T %X1X3X3X3X3X3X3X3X3X3X3X3X3X3X3X3X3X3X3X3X3X3X3X3X3X3X3X3X3X3X3X3X3X3X3X3X3X3X3X3X3X3X3X3X2X:X&X X{.{.|.|.{. X&X:X2X3X3X3X3X4X3X:XXX6             o 5 E [. X|.|.|. X{.Q J &                               O ~ zXNXVXVXVXVXVXVXVXVXVXVXVXVXVXVXVXVXVXVXVXVXVXVXVXVXVXVXVXVXVXVXVXVXVXVXVXVXVXVXVXVXVXVXVXVXVXVXVXVXVXVXVXVXVXVXVXVXVXVXVXVXVXVXVXVXVXVXVXVXVXVXVXVXVXVXVXVXVXVXVXVXVXVXVXVXVXVXVXVXVXVXVXVXVXVXVXVXVXVXVXVXVXVXVXVXVXVXVXVXVXVXVXVXVXVXVXVXVXVXVXVX",
"VXVXVXVXVXVXVXVXVXVXVXVXVXVXVXVXVXMXlX~ O           o T $X1X4X4X3X3X3X3X3X3X3X3X3X3X3X3X3X2X:X&X X{.|.|.|.|.|.|.|.|.|.|.|.|. X|.Q Y 3             % T %X1X3X3X3X3X3X3X3X3X3X3X3X3X3X3X3X3X3X3X3X3X3X3X3X3X3X3X3X3X3X3X3X3X3X3X3X3X3X3X3X3X3X3X3X2X:X&X X[.[.{.[.[.|.$X;X2X3X4X3X3X4X3X:XXX6             o 5 E [. X X|.|. X|.Q J %                               O ~ zXNXVXVXVXVXVXVXVXVXVXVXVXVXVXVXVXVXVXVXVXVXVXVXVXVXVXVXVXVXVXVXVXVXVXVXVXVXVXVXVXVXVXVXVXVXVXVXVXVXVXVXVXVXVXVXVXVXVXVXVXVXVXVXVXVXVXVXVXVXVXVXVXVXVXVXVXVXVXVXVXVXVXVXVXVXVXVXVXVXVXVXVXVXVXVXVXVXVXVXVXVXVXVXVXVXVXVXVXVXVXVXVXVXVXVXVXVXVXVXVXVX",
"VXVXVXVXVXVXVXVXVXVXVXVXVXVXVXVXVXMXlX~ O           o T $X1X3X3X3X3X3X3X3X3X3X3X3X3X3X3X3X2X:X&X X{.|.|.|.|.|.|.|.|.|.|.|.|. X|.Q Y 3             % T %X1X3X3X3X3X3X3X3X3X3X3X3X3X3X3X3X3X3X3X3X3X3X3X3X3X3X3X3X3X3X3X3X3X3X3X3X3X3X3X3X3X3X3X3X2X:X&X X[.[.{.[.[.|.$X:X2X3X4X3X3X4X3X:XXX6             o 5 E [. X X|.|. X|.Q J %                               O ~ zXNXVXVXVXVXVXVXVXVXVXVXVXVXVXVXVXVXVXVXVXVXVXVXVXVXVXVXVXVXVXVXVXVXVXVXVXVXVXVXVXVXVXVXVXVXVXVXVXVXVXVXVXVXVXVXVXVXVXVXVXVXVXVXVXVXVXVXVXVXVXVXVXVXVXVXVXVXVXVXVXVXVXVXVXVXVXVXVXVXVXVXVXVXVXVXVXVXVXVXVXVXVXVXVXVXVXVXVXVXVXVXVXVXVXVXVXVXVXVXVXVX",
"VXVXVXVXVXVXVXVXVXVXVXVXVXVXVXVXVXMXlX~ O           o K $X1X3X3X3X3X3X3X3X3X3X3X3X3X3X3X3X2X:X&X X{.|.|.|.|.|.|.|.|.|.|.|.|. X|.Q Y 3             % T %X1X3X3X3X3X3X3X3X3X3X3X3X3X3X3X3X3X3X3X3X3X3X3X3X3X3X3X3X3X3X3X3X3X3X3X3X3X3X3X3X3X3X3X3X2X:X&X@X@X@X@X@X X@X&X:X2X3X3X3X3X3X3X:XXX6             o 5 E [. X X|.|. X|.Q J 3 o o o o o o o o               O ~ zXNXVXVXVXVXVXVXVXVXVXVXVXVXVXVXVXVXVXVXVXVXVXVXVXVXVXVXVXVXVXVXVXVXVXVXVXVXVXVXVXVXVXVXVXVXVXVXVXVXVXVXVXVXVXVXVXVXVXVXVXVXVXVXVXVXVXVXVXVXVXVXVXVXVXVXVXVXVXVXVXVXVXVXVXVXVXVXVXVXVXVXVXVXVXVXVXVXVXVXVXVXVXVXVXVXVXVXVXVXVXVXVXVXVXVXVXVXVXVXVXVX",
"VXVXVXVXVXVXVXVXVXVXVXVXVXVXVXVXVXMXlX~ X           o K $X1X4X3X3X3X3X3X3X3X3X3X3X3X3X3X3X2X:X&X X{.|.|.|.|.|.|.|.|.|.|.|.|. X|.Q Y 3             % T %X1X3X3X3X3X3X3X3X3X3X3X3X3X3X3X3X3X3X3X3X3X3X3X3X3X3X3X3X3X3X3X3X3X3X3X3X3X3X3X3X3X3X3X3X3X,X;X=X&X&X&X&X&X&X-X,X2X3X3X3X3X3X3X:XXX6             o 5 E [. X X|.|.|.|.].E J 5 5 5 6 6 6 5 3 o             O ~ zXNXVXVXVXVXVXVXVXVXVXVXVXVXVXVXVXVXVXVXVXVXVXVXVXVXVXVXVXVXVXVXVXVXVXVXVXVXVXVXVXVXVXVXVXVXVXVXVXVXVXVXVXVXVXVXVXVXVXVXVXVXVXVXVXVXVXVXVXVXVXVXVXVXVXVXVXVXVXVXVXVXVXVXVXVXVXVXVXVXVXVXVXVXVXVXVXVXVXVXVXVXVXVXVXVXVXVXVXVXVXVXVXVXVXVXVXVXVXVXVXVX",
"VXVXVXVXVXVXVXVXVXVXVXVXVXVXVXVXVXMXlX~ O           o K $X,X3X3X3X3X3X3X3X3X3X3X3X3X3X3X3X2X:X&X X{.{.|.|.|.|.|.|.|.|.|.|.|. X|.Q Y 3             % T %X1X3X4X3X3X3X3X3X3X3X3X3X3X3X3X3X3X3X3X3X3X3X3X3X3X3X3X3X3X3X3X3X3X3X3X3X3X3X3X3X3X3X3X3X3X2X,X>X:X>X>X>X:X>X,X<X3X3X3X3X3X3X3X:XXX6             o 5 E [. X X|.|.|.|.[.Q Q W W W W W W Y 6 &             O ~ zXNXVXVXVXVXVXVXVXVXVXVXVXVXVXVXVXVXVXVXVXVXVXVXVXVXVXVXVXVXVXVXVXVXVXVXVXVXVXVXVXVXVXVXVXVXVXVXVXVXVXVXVXVXVXVXVXVXVXVXVXVXVXVXVXVXVXVXVXVXVXVXVXVXVXVXVXVXVXVXVXVXVXVXVXVXVXVXVXVXVXVXVXVXVXVXVXVXVXVXVXVXVXVXVXVXVXVXVXVXVXVXVXVXVXVXVXVXVXVXVXVX",
"VXVXVXVXVXVXVXVXVXVXVXVXVXVXVXVXVXMXlX~ O           o K $X,X3X3X3X3X3X3X3X3X3X3X3X3X3X3X3X2X:X&X X{.{.|.|.|.|.|.|.|.|.|.|.|. X|.Q Y 3             % T $X1X4X4X3X3X3X3X3X3X3X3X3X3X3X3X3X3X3X3X3X3X3X3X3X3X3X3X3X3X3X3X3X3X3X3X3X3X3X3X3X3X3X3X3X3X3X3X3X3X3X3X3X3X3X3X3X3X3X3X3X3X3X3X:XXX6             o 5 E [. X X|.|.|.|.|.{.[.[.[.[.[.|.{.Q Y 3             O ~ zXNXVXVXVXVXVXVXVXVXVXVXVXVXVXVXVXVXVXVXVXVXVXVXVXVXVXVXVXVXVXVXVXVXVXVXVXVXVXVXVXVXVXVXVXVXVXVXVXVXVXVXVXVXVXVXVXVXVXVXVXVXVXVXVXVXVXVXVXVXVXVXVXVXVXVXVXVXVXVXVXVXVXVXVXVXVXVXVXVXVXVXVXVXVXVXVXVXVXVXVXVXVXVXVXVXVXVXVXVXVXVXVXVXVXVXVXVXVXVXVXVX",
"VXVXVXVXVXVXVXVXVXVXVXVXVXVXVXVXVXMXlX~ O           o K $X1X3X3X3X3X3X3X3X3X3X3X3X3X3X3X3X2X:X&X X{.{.|.|.|.|.|.|.|.|.|.|.|. X|.Q Y 3             % T %X1X3X3X3X3X3X3X3X3X3X3X3X3X3X3X3X3X3X3X3X3X3X3X3X3X3X3X3X3X3X3X3X3X3X3X3X3X3X3X3X3X3X3X3X3X3X3X3X3X3X3X3X3X3X3X3X3X3X3X3X3X3X3X:XXX6             o 5 E [. X X|.|.|.|.|.|. X|.|.|. X@X@X].Y 4             O ~ zXNXVXVXVXVXVXVXVXVXVXVXVXVXVXVXVXVXVXVXVXVXVXVXVXVXVXVXVXVXVXVXVXVXVXVXVXVXVXVXVXVXVXVXVXVXVXVXVXVXVXVXVXVXVXVXVXVXVXVXVXVXVXVXVXVXVXVXVXVXVXVXVXVXVXVXVXVXVXVXVXVXVXVXVXVXVXVXVXVXVXVXVXVXVXVXVXVXVXVXVXVXVXVXVXVXVXVXVXVXVXVXVXVXVXVXVXVXVXVXVXVX",
"VXVXVXVXVXVXVXVXVXVXVXVXVXVXVXVXVXMXlX~ O           o K $X1X4X4X3X3X3X3X3X3X3X3X3X3X3X3X3X2X:X&X X{.{.|.|.|.|.|.|.|.|.|.|.|. X|.Q Y 3             % T %X1X3X3X3X3X3X3X3X3X3X3X3X3X3X3X3X3X3X3X3X3X3X3X3X3X3X3X3X3X3X3X3X3X3X3X3X3X3X3X3X3X3X3X3X3X3X3X3X3X3X3X3X3X3X3X3X3X3X3X3X3X3X3X:XXX6             o 5 E [. X X|.|.|.|.|.|.|.|.|.|. X@X X].Y 3             O ~ zXNXVXVXVXVXVXVXVXVXVXVXVXVXVXVXVXVXVXVXVXVXVXVXVXVXVXVXVXVXVXVXVXVXVXVXVXVXVXVXVXVXVXVXVXVXVXVXVXVXVXVXVXVXVXVXVXVXVXVXVXVXVXVXVXVXVXVXVXVXVXVXVXVXVXVXVXVXVXVXVXVXVXVXVXVXVXVXVXVXVXVXVXVXVXVXVXVXVXVXVXVXVXVXVXVXVXVXVXVXVXVXVXVXVXVXVXVXVXVXVXVX",
"VXVXVXVXVXVXVXVXVXVXVXVXVXVXVXVXVXMXlX~             o K $X1X4X4X3X3X3X3X3X3X3X3X3X3X3X3X3X2X:X&X X{.|.|.|.|.|.|.|.|.|.|.|.|. X|.Q Y 3             % T %X1X3X3X3X3X3X3X3X3X3X3X3X3X3X3X3X3X3X3X3X3X3X3X3X3X3X3X3X3X3X3X3X3X3X3X3X3X3X3X3X3X3X3X3X3X3X3X3X3X3X3X3X3X3X3X3X3X3X3X3X3X4X3X:XXX6             o 5 E [. X X|.|.|.|.|.|.|.|.|.|.|. X|.].Y 3             O ~ zXNXVXVXVXVXVXVXVXVXVXVXVXVXVXVXVXVXVXVXVXVXVXVXVXVXVXVXVXVXVXVXVXVXVXVXVXVXVXVXVXVXVXVXVXVXVXVXVXVXVXVXVXVXVXVXVXVXVXVXVXVXVXVXVXVXVXVXVXVXVXVXVXVXVXVXVXVXVXVXVXVXVXVXVXVXVXVXVXVXVXVXVXVXVXVXVXVXVXVXVXVXVXVXVXVXVXVXVXVXVXVXVXVXVXVXVXVXVXVXVXVX",
"VXVXVXVXVXVXVXVXVXVXVXVXVXVXVXVXVXMXlX~             o T $X1X5X5X3X3X3X3X3X3X3X3X3X3X3X3X3X2X:X&X X{.|.|.|.|.|.|.|.|.|.|.|.|. X|.Q Y 3             % T %X1X3X3X3X3X3X3X3X3X3X3X3X3X3X3X3X3X3X3X3X3X3X3X3X3X3X3X3X3X3X3X3X3X3X3X3X3X3X3X3X3X3X3X3X3X3X3X3X3X3X3X3X3X3X3X3X4X3X3X3X4X5X3X:XXX5               4 E [. X X|.|.|.|.|.|.|.|.|.|.|. X|.].Y 3             O ~ zXNXVXVXVXVXVXVXVXVXVXVXVXVXVXVXVXVXVXVXVXVXVXVXVXVXVXVXVXVXVXVXVXVXVXVXVXVXVXVXVXVXVXVXVXVXVXVXVXVXVXVXVXVXVXVXVXVXVXVXVXVXVXVXVXVXVXVXVXVXVXVXVXVXVXVXVXVXVXVXVXVXVXVXVXVXVXVXVXVXVXVXVXVXVXVXVXVXVXVXVXVXVXVXVXVXVXVXVXVXVXVXVXVXVXVXVXVXVXVXVXVX",
"VXVXVXVXVXVXVXVXVXVXVXVXVXVXVXVXVXMXlX~             o T $X1X5X5X4X3X3X3X3X3X3X3X3X3X3X3X3X2X:X&X X{.|.|.|.|.|.|.|.|.|.|.|.|. X|.Q Y 3             & T %X1X3X4X3X3X3X3X3X3X3X3X3X3X3X3X3X3X3X3X3X3X3X3X3X3X3X3X3X3X3X3X3X3X3X3X3X3X3X3X3X3X3X3X3X3X3X3X3X3X3X3X3X3X3X3X3X4X4X4X4X5X5X5X>XXX6               4 E [. X X|.|.|.|.|.|.|.|.|.|.|. X|.].Y 3             O ~ zXNXVXVXVXVXVXVXVXVXVXVXVXVXVXVXVXVXVXVXVXVXVXVXVXVXVXVXVXVXVXVXVXVXVXVXVXVXVXVXVXVXVXVXVXVXVXVXVXVXVXVXVXVXVXVXVXVXVXVXVXVXVXVXVXVXVXVXVXVXVXVXVXVXVXVXVXVXVXVXVXVXVXVXVXVXVXVXVXVXVXVXVXVXVXVXVXVXVXVXVXVXVXVXVXVXVXVXVXVXVXVXVXVXVXVXVXVXVXVXVXVX",
"VXVXVXVXVXVXVXVXVXVXVXVXVXVXVXVXVXMXlX~             o K @X>X3X3X3X3X3X3X3X3X3X3X3X3X3X3X3X2X:X&X X{.|.|.|.|.|.|.|.|.|.|.|.|. X|.Q Y 3             % T %X1X3X3X3X3X3X3X3X3X3X3X3X3X3X3X3X3X3X3X3X3X3X3X3X3X3X3X3X3X3X3X3X3X3X3X3X3X3X3X3X3X3X3X3X3X3X3X3X3X3X3X3X3X3X3X3X3X2X3X3X3X3X3X:XXX6 o           o 5 E [. X X|.|.|.|.|.|.|.|.|.|.|. X|.].Y 3             O ~ zXNXVXVXVXVXVXVXVXVXVXVXVXVXVXVXVXVXVXVXVXVXVXVXVXVXVXVXVXVXVXVXVXVXVXVXVXVXVXVXVXVXVXVXVXVXVXVXVXVXVXVXVXVXVXVXVXVXVXVXVXVXVXVXVXVXVXVXVXVXVXVXVXVXVXVXVXVXVXVXVXVXVXVXVXVXVXVXVXVXVXVXVXVXVXVXVXVXVXVXVXVXVXVXVXVXVXVXVXVXVXVXVXVXVXVXVXVXVXVXVXVX",
"VXVXVXVXVXVXVXVXVXVXVXVXVXVXVXVXVXMXlX~ O           o 6 ! %X-X-X-X=X*X=X;X:X2X3X3X3X3X3X3X2X:X&X X{.|.|.|.|.|.|.|.|.|.|.|.|. X|.Q Y 3             % T %X1X3X3X3X3X3X3X3X3X3X3X3X3X3X3X3X3X3X3X3X3X3X3X3X3X3X3X3X3X3X3X3X3X3X3X3X3X3X3X3X3X3X3X3X3X3X3X3X3X3X3X3X4X3X1X:X;X=X=X=X-X-X-X$XQ K 4 3 3 3 3 3 4 J Q [.|.|.|.|.|.|.|.|.|.|.|.|.|. X|.].Y 3             O ~ zXNXVXVXVXVXVXVXVXVXVXVXVXVXVXVXVXVXVXVXVXVXVXVXVXVXVXVXVXVXVXVXVXVXVXVXVXVXVXVXVXVXVXVXVXVXVXVXVXVXVXVXVXVXVXVXVXVXVXVXVXVXVXVXVXVXVXVXVXVXVXVXVXVXVXVXVXVXVXVXVXVXVXVXVXVXVXVXVXVXVXVXVXVXVXVXVXVXVXVXVXVXVXVXVXVXVXVXVXVXVXVXVXVXVXVXVXVXVXVXVXVX",
"VXVXVXVXVXVXVXVXVXVXVXVXVXVXVXVXVXMXlX~ O             & K E E E E E E E XX*X1X3X3X3X3X3X3X2X:X&X X{.|.|.|.|.|.|.|.|.|.|.|.|. X|.Q Y &             % T %X1X3X4X3X3X3X3X3X3X3X3X3X3X3X3X3X3X3X3X3X3X3X3X3X3X3X3X3X3X3X3X3X3X3X3X3X3X3X3X3X3X3X3X3X3X3X3X3X3X3X3X3X3X3X:X$X! E E E E E E E E Y Y Y Y Y Y Y Y W ].{.|.|.|.|.|.|.|.|.|.|.|.|.|. X|.].Y 3             O ~ zXNXVXVXVXVXVXVXVXVXVXVXVXVXVXVXVXVXVXVXVXVXVXVXVXVXVXVXVXVXVXVXVXVXVXVXVXVXVXVXVXVXVXVXVXVXVXVXVXVXVXVXVXVXVXVXVXVXVXVXVXVXVXVXVXVXVXVXVXVXVXVXVXVXVXVXVXVXVXVXVXVXVXVXVXVXVXVXVXVXVXVXVXVXVXVXVXVXVXVXVXVXVXVXVXVXVXVXVXVXVXVXVXVXVXVXVXVXVXVXVXVX",
"VXVXVXVXVXVXVXVXVXVXVXVXVXVXVXVXVXMXlX~ O             o & & & & & & & & K XX:X3X3X3X3X3X3X2X:X&X X{.{.|.|.|.|.|.|.|.|.|.|.|. X|.Q Y 3             % T %X1X3X3X3X3X3X3X3X3X3X3X3X3X3X3X3X3X3X3X3X3X3X3X3X3X3X3X3X3X3X3X3X3X3X3X3X3X3X3X3X3X3X3X3X3X3X3X3X3X3X3X3X4X3X;X! 6 & & & & & & 4 J W ].].].].].].].[.[.|.|.|.|.|.|.|.|.|.|.|.|.|.|. X|.].Y 3             O ~ zXNXVXVXVXVXVXVXVXVXVXVXVXVXVXVXVXVXVXVXVXVXVXVXVXVXVXVXVXVXVXVXVXVXVXVXVXVXVXVXVXVXVXVXVXVXVXVXVXVXVXVXVXVXVXVXVXVXVXVXVXVXVXVXVXVXVXVXVXVXVXVXVXVXVXVXVXVXVXVXVXVXVXVXVXVXVXVXVXVXVXVXVXVXVXVXVXVXVXVXVXVXVXVXVXVXVXVXVXVXVXVXVXVXVXVXVXVXVXVXVXVX",
"VXVXVXVXVXVXVXVXVXVXVXVXVXVXVXVXVXMXlX~ O                               4 ! :X3X5X3X3X3X3X2X:X&X X{.|.|.|.|.|.|.|.|.|.|.|.|. X|.Q Y 3             % T %X1X3X3X3X3X3X3X3X3X3X3X3X3X3X3X3X3X3X3X3X3X3X3X3X3X3X3X3X3X3X3X3X3X3X3X3X3X3X3X3X3X3X3X3X3X3X3X3X3X3X3X3X4X2X=XE &             & J Q |.@X X|.|.|.|.|.|.|.|.|.|.|.|.|.|.|.|.|.|.|.|. X|.].Y 3             O ~ zXNXVXVXVXVXVXVXVXVXVXVXVXVXVXVXVXVXVXVXVXVXVXVXVXVXVXVXVXVXVXVXVXVXVXVXVXVXVXVXVXVXVXVXVXVXVXVXVXVXVXVXVXVXVXVXVXVXVXVXVXVXVXVXVXVXVXVXVXVXVXVXVXVXVXVXVXVXVXVXVXVXVXVXVXVXVXVXVXVXVXVXVXVXVXVXVXVXVXVXVXVXVXVXVXVXVXVXVXVXVXVXVXVXVXVXVXVXVXVXVXVX",
"VXVXVXVXVXVXVXVXVXVXVXVXVXVXVXVXVXMXlX~ O                               4 ! :X3X5X3X3X3X3X2X:X&X X{.{.|.|.|.|.|.|.|.|.|.|.|. X|.Q Y 3             % T %X1X3X3X3X3X3X3X3X3X3X3X3X3X3X3X3X3X3X3X3X3X3X3X3X3X3X3X3X3X3X3X3X3X3X3X3X3X3X3X3X3X3X3X3X3X3X3X3X3X3X3X3X5X3X=XE &             % J Q |.@X X X X X X|.|.|.|.|.|.|.|.|.|.|.|.|.|.|.|. X|.].Y 3             O ~ zXNXVXVXVXVXVXVXVXVXVXVXVXVXVXVXVXVXVXVXVXVXVXVXVXVXVXVXVXVXVXVXVXVXVXVXVXVXVXVXVXVXVXVXVXVXVXVXVXVXVXVXVXVXVXVXVXVXVXVXVXVXVXVXVXVXVXVXVXVXVXVXVXVXVXVXVXVXVXVXVXVXVXVXVXVXVXVXVXVXVXVXVXVXVXVXVXVXVXVXVXVXVXVXVXVXVXVXVXVXVXVXVXVXVXVXVXVXVXVXVXVX",
"VXVXVXVXVXVXVXVXVXVXVXVXVXVXVXVXVXMXlX~ O                               4 ! :X3X5X3X3X3X3X2X:X&X X{.{.|.|.|.|.|.|.|.|.|.|.|. X|.Q Y 3             % T %X1X3X3X3X3X3X3X3X3X3X3X3X3X3X3X3X3X3X3X3X3X3X3X3X3X3X3X3X3X3X3X3X3X3X3X3X3X3X3X3X3X3X3X3X3X3X3X3X3X3X3X3X4X3X=XE &             & J Q |. X|.|.|.|.|.|.|.|.|.|.|.|.|.|.|.|.|.|.|.|.|. X|.].Y 3             O ~ zXNXVXVXVXVXVXVXVXVXVXVXVXVXVXVXVXVXVXVXVXVXVXVXVXVXVXVXVXVXVXVXVXVXVXVXVXVXVXVXVXVXVXVXVXVXVXVXVXVXVXVXVXVXVXVXVXVXVXVXVXVXVXVXVXVXVXVXVXVXVXVXVXVXVXVXVXVXVXVXVXVXVXVXVXVXVXVXVXVXVXVXVXVXVXVXVXVXVXVXVXVXVXVXVXVXVXVXVXVXVXVXVXVXVXVXVXVXVXVXVXVX",
"VXVXVXVXVXVXVXVXVXVXVXVXVXVXVXVXVXMXlX0                                 5 XX:X3X3X3X3X3X3X2X:X&X X{.{.|.|.|.|.|.|.|.|.|.|.|. X|.Q Y &             o T $X1X4X4X3X3X3X3X3X3X3X3X3X3X3X3X3X3X3X3X3X3X3X3X3X3X3X3X3X3X3X3X3X3X3X3X3X3X3X3X3X3X3X3X3X3X3X3X3X3X3X3X3X4X3X=XE &             & J Q |. X|.|.|.|.|.|.|.|.|.|.|.|.|.|.|.|.|.|.|.|.|. X|.].Y 3             O ~ zXNXVXVXVXVXVXVXVXVXVXVXVXVXVXVXVXVXVXVXVXVXVXVXVXVXVXVXVXVXVXVXVXVXVXVXVXVXVXVXVXVXVXVXVXVXVXVXVXVXVXVXVXVXVXVXVXVXVXVXVXVXVXVXVXVXVXVXVXVXVXVXVXVXVXVXVXVXVXVXVXVXVXVXVXVXVXVXVXVXVXVXVXVXVXVXVXVXVXVXVXVXVXVXVXVXVXVXVXVXVXVXVXVXVXVXVXVXVXVXVXVX",
"VXVXVXVXVXVXVXVXVXVXVXVXVXVXVXVXVXmXlX0                                 4 ! :X3X3X3X3X3X3X2X:X&X X{.{.|.|.|.|.|.|.|.|.|.|.|. X|.Q J &             o T $X1X4X4X3X3X3X3X3X3X3X3X3X3X3X3X3X3X3X3X3X3X3X3X3X3X3X3X3X3X3X3X3X3X3X3X3X3X3X3X3X3X3X3X3X3X3X3X3X3X3X3X3X3X3X=XE &             & J Q |. X|.|.|.|.|.|.|.|.|.|.|.|.|.|.|.|.|.|.|.|.|. X|.].Y 3             O ~ zXNXVXVXVXVXVXVXVXVXVXVXVXVXVXVXVXVXVXVXVXVXVXVXVXVXVXVXVXVXVXVXVXVXVXVXVXVXVXVXVXVXVXVXVXVXVXVXVXVXVXVXVXVXVXVXVXVXVXVXVXVXVXVXVXVXVXVXVXVXVXVXVXVXVXVXVXVXVXVXVXVXVXVXVXVXVXVXVXVXVXVXVXVXVXVXVXVXVXVXVXVXVXVXVXVXVXVXVXVXVXVXVXVXVXVXVXVXVXVXVXVX",
"VXVXVXVXVXVXVXVXVXVXVXVXVXVXVXVXVXMXlX0                                 4 ! :X3X4X3X3X3X3X2X:X&X X{.|.|.|.|.|.|.|.|.|.|.|.|. X|.Q T &             o T %X1X3X3X3X3X3X3X3X3X3X3X3X3X3X3X3X3X3X3X3X3X3X3X3X3X3X3X3X3X3X3X3X3X3X3X3X3X3X3X3X3X3X3X3X3X3X3X3X3X3X3X3X4X3X=XE &             & J Q |. X|.|.|.|.|.|.|.|.|.|.|.|.|.|.|.|.|.|.|.|.|. X|.].Y 3             O ~ zXNXVXVXVXVXVXVXVXVXVXVXVXVXVXVXVXVXVXVXVXVXVXVXVXVXVXVXVXVXVXVXVXVXVXVXVXVXVXVXVXVXVXVXVXVXVXVXVXVXVXVXVXVXVXVXVXVXVXVXVXVXVXVXVXVXVXVXVXVXVXVXVXVXVXVXVXVXVXVXVXVXVXVXVXVXVXVXVXVXVXVXVXVXVXVXVXVXVXVXVXVXVXVXVXVXVXVXVXVXVXVXVXVXVXVXVXVXVXVXVXVX",
"VXVXVXVXVXVXVXVXVXVXVXVXVXVXVXVXVXMXzX/ 8 = 7 7 7 7 7 = O               4 ! :X3X4X3X3X3X3X2X:X&X X{.{.|.|.|.|.|.|.|.|.|.|.|.|.|.].E 6 4 3 3 3 & & 5 E *X2X3X3X3X3X3X3X3X3X3X3X3X3X3X3X3X3X3X3X3X3X3X3X3X3X3X3X3X3X3X3X3X3X3X3X3X3X3X3X3X3X3X3X3X3X3X3X3X3X3X3X3X4X2X=XE &             & J Q |. X|.|.|.|.|.|.|.|.|.|.|.|.|.|.|.|.|.|.|.|.|. X|.].Y 3             O ~ zXNXVXVXVXVXVXVXVXVXVXVXVXVXVXVXVXVXVXVXVXVXVXVXVXVXVXVXVXVXVXVXVXVXVXVXVXVXVXVXVXVXVXVXVXVXVXVXVXVXVXVXVXVXVXVXVXVXVXVXVXVXVXVXVXVXVXVXVXVXVXVXVXVXVXVXVXVXVXVXVXVXVXVXVXVXVXVXVXVXVXVXVXVXVXVXVXVXVXVXVXVXVXVXVXVXVXVXVXVXVXVXVXVXVXVXVXVXVXVXVXVX",
"VXVXVXVXVXVXVXVXVXVXVXVXVXVXVXVXVXNXvXlX[ ] ] ] [ [ ] / 8 O             4 ! :X3X5X3X3X3X3X2X:X&X X{.|.|.|.|.|.|.|.|.|.|.|.|.|.|.[.].Q Q ! ! Q ! ! ! $X:X2X3X3X3X3X3X3X3X3X3X3X3X3X3X3X3X3X3X3X3X3X3X3X3X3X3X3X3X3X3X3X3X3X3X3X3X3X3X3X3X3X3X3X3X3X3X3X3X3X3X3X3X4X2X=XE &             & J Q {. X|.|.|.|.|.|.|.|.|.|.|.|.|.|.|.|.|.|.|.|.|. X|.].Y 3             O ~ zXNXVXVXVXVXVXVXVXVXVXVXVXVXVXVXVXVXVXVXVXVXVXVXVXVXVXVXVXVXVXVXVXVXVXVXVXVXVXVXVXVXVXVXVXVXVXVXVXVXVXVXVXVXVXVXVXVXVXVXVXVXVXVXVXVXVXVXVXVXVXVXVXVXVXVXVXVXVXVXVXVXVXVXVXVXVXVXVXVXVXVXVXVXVXVXVXVXVXVXVXVXVXVXVXVXVXVXVXVXVXVXVXVXVXVXVXVXVXVXVXVX",
"VXVXVXVXVXVXVXVXVXVXVXVXVXVXVXVXVXVXNXmXbXbXbXbXbXbXvXkX~ *             4 ! :X3X5X3X3X3X3X2X:X&X X{.|.|.|.|.|.|.|.|.|.|.|.|.{.|.@X$X*X;X;X;X-X;X;X;X:X1X3X3X3X3X3X3X3X3X3X3X3X3X3X3X3X3X3X3X3X3X3X3X3X3X3X3X3X3X3X3X3X3X3X3X3X3X3X3X3X3X3X3X3X3X3X3X3X3X3X3X3X3X4X2X=XE &             & J Q |. X|.|.|.|.|.|.|.|.|.|.|.|.|.|.|.|.|.|.|.|.|. X|.].Y 3             O ~ zXNXVXVXVXVXVXVXVXVXVXVXVXVXVXVXVXVXVXVXVXVXVXVXVXVXVXVXVXVXVXVXVXVXVXVXVXVXVXVXVXVXVXVXVXVXVXVXVXVXVXVXVXVXVXVXVXVXVXVXVXVXVXVXVXVXVXVXVXVXVXVXVXVXVXVXVXVXVXVXVXVXVXVXVXVXVXVXVXVXVXVXVXVXVXVXVXVXVXVXVXVXVXVXVXVXVXVXVXVXVXVXVXVXVXVXVXVXVXVXVXVX",
"VXVXVXVXVXVXVXVXVXVXVXVXVXVXVXVXVXVXVXVXVXVXVXVXVXVXBXcX/ *             4 XX:X3X3X3X3X3X3X2X:X&X X{.{.|.|.|.|.|.|.|.|.|.|.|.{.|.@X=X,X3X3X3X3X3X3X3X3X3X3X3X3X3X3X3X3X3X3X3X3X3X3X3X3X3X3X3X3X3X3X3X3X3X3X3X3X3X3X3X3X3X3X3X3X3X3X3X3X3X3X3X3X3X3X3X3X3X3X3X3X3X5X3X=XE &             & J Q {. X|.|.|.|.|.|.|.|.|.|.|.|.|.|.|.|.|.|.|.|.|. X|.].Y 3             O ~ zXNXVXVXVXVXVXVXVXVXVXVXVXVXVXVXVXVXVXVXVXVXVXVXVXVXVXVXVXVXVXVXVXVXVXVXVXVXVXVXVXVXVXVXVXVXVXVXVXVXVXVXVXVXVXVXVXVXVXVXVXVXVXVXVXVXVXVXVXVXVXVXVXVXVXVXVXVXVXVXVXVXVXVXVXVXVXVXVXVXVXVXVXVXVXVXVXVXVXVXVXVXVXVXVXVXVXVXVXVXVXVXVXVXVXVXVXVXVXVXVXVX",
"VXVXVXVXVXVXVXVXVXVXVXVXVXVXVXVXVXVXVXVXVXVXVXVXVXVXVXcX` =             4 XX:X3X3X3X3X3X3X2X:X&X X{.{.|.|.|.|.|.|.|.|.|.|.|.{.|.#X-X<X3X5X5X5X5X4X4X4X3X3X3X3X3X3X3X3X3X3X3X3X3X3X3X3X3X3X3X3X3X3X3X3X3X3X3X3X3X3X3X3X3X3X3X3X3X3X3X3X3X3X3X3X3X3X3X3X3X3X3X3X3X5X3X=XE &             & J Q {. X|.|.|.|.|.|.|.|.|.|.|.|.|.|.|.|.|.|.|.|.|. X|.].Y 3             O ~ zXNXVXVXVXVXVXVXVXVXVXVXVXVXVXVXVXVXVXVXVXVXVXVXVXVXVXVXVXVXVXVXVXVXVXVXVXVXVXVXVXVXVXVXVXVXVXVXVXVXVXVXVXVXVXVXVXVXVXVXVXVXVXVXVXVXVXVXVXVXVXVXVXVXVXVXVXVXVXVXVXVXVXVXVXVXVXVXVXVXVXVXVXVXVXVXVXVXVXVXVXVXVXVXVXVXVXVXVXVXVXVXVXVXVXVXVXVXVXVXVXVX",
"VXVXVXVXVXVXVXVXVXVXVXVXVXVXVXVXVXVXVXVXVXVXVXVXVXVXBXcX` =             4 XX:X3X5X3X3X3X3X2X:X&X X{.{.|.|.|.|.|.|.|.|.|.|.|.{.|.#X-X,X3X4X3X3X3X3X3X3X3X3X3X3X3X3X3X3X3X3X3X3X3X3X3X3X3X3X3X3X3X3X3X3X3X3X3X3X3X3X3X3X3X3X3X3X3X3X3X3X3X3X3X3X3X3X3X3X3X3X3X3X3X4X3X=XE &             & J Q {. X|.|.|.|.|.|.|.|.|.|.|.|.|.|.|.|.|.|.|.|.|. X|.].Y 3             O ~ zXNXVXVXVXVXVXVXVXVXVXVXVXVXVXVXVXVXVXVXVXVXVXVXVXVXVXVXVXVXVXVXVXVXVXVXVXVXVXVXVXVXVXVXVXVXVXVXVXVXVXVXVXVXVXVXVXVXVXVXVXVXVXVXVXVXVXVXVXVXVXVXVXVXVXVXVXVXVXVXVXVXVXVXVXVXVXVXVXVXVXVXVXVXVXVXVXVXVXVXVXVXVXVXVXVXVXVXVXVXVXVXVXVXVXVXVXVXVXVXVXVX",
"VXVXVXVXVXVXVXVXVXVXVXVXVXVXVXVXVXVXVXVXVXVXVXVXVXVXBXcX/ =             4 XX:X3X5X3X3X3X3X2X:X&X X{.{.|.|.|.|.|.|.|.|.|.|.|.{.|.#X=X,X3X3X3X3X3X3X3X3X3X3X3X3X3X3X3X3X3X3X3X3X3X3X3X3X3X3X3X3X3X3X3X3X3X3X3X3X3X3X3X3X3X3X3X3X3X3X3X3X3X3X3X3X3X3X3X3X3X3X3X3X3X4X3X=XE &             & J Q {. X|.|.|.|.|.|.|.|.|.|.|.|.|.|.|.|.|.|.|.|.|. X|.].Y 3             O ~ zXNXVXVXVXVXVXVXVXVXVXVXVXVXVXVXVXVXVXVXVXVXVXVXVXVXVXVXVXVXVXVXVXVXVXVXVXVXVXVXVXVXVXVXVXVXVXVXVXVXVXVXVXVXVXVXVXVXVXVXVXVXVXVXVXVXVXVXVXVXVXVXVXVXVXVXVXVXVXVXVXVXVXVXVXVXVXVXVXVXVXVXVXVXVXVXVXVXVXVXVXVXVXVXVXVXVXVXVXVXVXVXVXVXVXVXVXVXVXVXVXVX",
"VXVXVXVXVXVXVXVXVXVXVXVXVXVXVXVXVXVXVXVXVXVXVXVXVXVXBXcX/ =             4 XX:X3X5X3X3X3X3X2X:X&X X{.{.|.|.|.|.|.|.|.|.|.|.|.{.|.#X=X,X3X3X3X3X3X3X3X3X3X3X3X3X3X3X3X3X3X3X3X3X3X3X3X3X3X3X3X3X3X3X3X3X3X3X3X3X3X3X3X3X3X3X3X3X3X3X3X3X3X3X3X3X3X3X3X3X3X3X3X3X3X4X3X=XE &             & J Q |. X|.|.|.|.|.|.|.|.|.|.|.|.|.|.|.|.|.|.|.|.|. X|.].Y 3             O ~ zXNXVXVXVXVXVXVXVXVXVXVXVXVXVXVXVXVXVXVXVXVXVXVXVXVXVXVXVXVXVXVXVXVXVXVXVXVXVXVXVXVXVXVXVXVXVXVXVXVXVXVXVXVXVXVXVXVXVXVXVXVXVXVXVXVXVXVXVXVXVXVXVXVXVXVXVXVXVXVXVXVXVXVXVXVXVXVXVXVXVXVXVXVXVXVXVXVXVXVXVXVXVXVXVXVXVXVXVXVXVXVXVXVXVXVXVXVXVXVXVXVX",
"VXVXVXVXVXVXVXVXVXVXVXVXVXVXVXVXVXVXVXVXVXVXVXVXVXVXBXcX/ =             4 XX:X3X5X3X3X3X3X2X:X&X X{.{.|.|.|.|.|.|.|.|.|.|.|.{.|.#X=X,X3X3X3X3X3X3X3X3X3X3X3X3X3X3X3X3X3X3X3X3X3X3X3X3X3X3X3X3X3X3X3X3X3X3X3X3X3X3X3X3X3X3X3X3X3X3X3X3X3X3X3X3X3X3X3X3X3X3X3X3X3X3X3X=XE &             & J Q |. X|.|.|.|.|.|.|.|.|.|.|.|.|.|.|.|.|.|.|.|.|. X|.].Y 3             O ~ zXNXVXVXVXVXVXVXVXVXVXVXVXVXVXVXVXVXVXVXVXVXVXVXVXVXVXVXVXVXVXVXVXVXVXVXVXVXVXVXVXVXVXVXVXVXVXVXVXVXVXVXVXVXVXVXVXVXVXVXVXVXVXVXVXVXVXVXVXVXVXVXVXVXVXVXVXVXVXVXVXVXVXVXVXVXVXVXVXVXVXVXVXVXVXVXVXVXVXVXVXVXVXVXVXVXVXVXVXVXVXVXVXVXVXVXVXVXVXVXVXVX",
"VXVXVXVXVXVXVXVXVXVXVXVXVXVXVXVXVXVXVXVXVXVXVXVXVXVXBXcX/ =             4 ! :X3X5X3X3X3X3X2X:X&X X{.{.|.|.|.|.|.|.|.|.|.|.|.{.|.#X=X,X3X3X3X3X3X3X3X3X3X3X3X3X3X3X3X3X3X3X3X3X3X3X3X3X3X3X3X3X3X3X3X3X3X3X3X3X3X3X3X3X3X3X3X3X3X3X3X3X3X3X3X3X3X3X3X3X3X3X3X3X3X3X3X=XE &             & J Q |. X|.|.|.|.|.|.|.|.|.|.|.|.|.|.|.|.|.|.|.|.|. X|.].Y 3             O ~ zXNXVXVXVXVXVXVXVXVXVXVXVXVXVXVXVXVXVXVXVXVXVXVXVXVXVXVXVXVXVXVXVXVXVXVXVXVXVXVXVXVXVXVXVXVXVXVXVXVXVXVXVXVXVXVXVXVXVXVXVXVXVXVXVXVXVXVXVXVXVXVXVXVXVXVXVXVXVXVXVXVXVXVXVXVXVXVXVXVXVXVXVXVXVXVXVXVXVXVXVXVXVXVXVXVXVXVXVXVXVXVXVXVXVXVXVXVXVXVXVXVX",
"VXVXVXVXVXVXVXVXVXVXVXVXVXVXVXVXVXVXVXVXVXVXVXVXVXVXBXcX/ =             4 ! :X3X5X3X3X3X3X2X:X&X X{.{.|.|.|.|.|.|.|.|.|.|.|.{.|.#X=X,X3X3X3X3X3X3X3X3X3X3X3X3X3X3X3X3X3X3X3X3X3X3X3X3X3X3X3X3X3X3X3X3X3X3X3X3X3X3X3X3X3X3X3X3X3X3X3X3X3X3X3X3X3X3X3X3X3X3X3X3X3X3X3X=XE &             & J Q |. X|.|.|.|.|.|.|.|.|.|.|.|.|.|.|.|.|.|.|.|.|. X|.].Y 3             O ~ zXNXVXVXVXVXVXVXVXVXVXVXVXVXVXVXVXVXVXVXVXVXVXVXVXVXVXVXVXVXVXVXVXVXVXVXVXVXVXVXVXVXVXVXVXVXVXVXVXVXVXVXVXVXVXVXVXVXVXVXVXVXVXVXVXVXVXVXVXVXVXVXVXVXVXVXVXVXVXVXVXVXVXVXVXVXVXVXVXVXVXVXVXVXVXVXVXVXVXVXVXVXVXVXVXVXVXVXVXVXVXVXVXVXVXVXVXVXVXVXVXVX"
};
