/* XPM */
static char *palette[] = {
/* columns rows colors chars-per-pixel */
"300 300 242 2 ",
"   c #010000",
".  c #080604",
"X  c #0D0A05",
"o  c #0A030C",
"O  c #0B0B0B",
"+  c #120D07",
"@  c #161109",
"#  c #1B1408",
"$  c #1C150B",
"%  c #0E0411",
"&  c #150519",
"*  c #151514",
"=  c #1B1B1B",
"-  c #251B0E",
";  c #251B13",
":  c #291F10",
">  c #311F1B",
",  c #2E2211",
"<  c #27231E",
"1  c #372915",
"2  c #1D0623",
"3  c #24092B",
"4  c #2B0A33",
"5  c #310E39",
"6  c #252525",
"7  c #2D2D2D",
"8  c #37322A",
"9  c #373737",
"0  c #402F17",
"q  c #433219",
"w  c #49361B",
"e  c #4D3A1D",
"r  c #523D1E",
"t  c #4E0927",
"y  c #550B2A",
"u  c #570A2B",
"i  c #581729",
"p  c #6D0F36",
"a  c #55322A",
"s  c #65362A",
"d  c #094E16",
"f  c #0A5217",
"g  c #095718",
"h  c #165319",
"j  c #2B521D",
"k  c #0C681D",
"l  c #0E7821",
"z  c #127421",
"x  c #366625",
"c  c #564121",
"v  c #584928",
"b  c #525331",
"n  c #664A27",
"m  c #664C26",
"M  c #694E26",
"N  c #685326",
"B  c #6C5129",
"V  c #72552B",
"C  c #785A2D",
"Z  c #714A32",
"A  c #7E5E30",
"S  c #6F6A26",
"D  c #0F1857",
"F  c #06135B",
"G  c #08145B",
"H  c #390B45",
"J  c #3C1447",
"K  c #1C2258",
"L  c #2D2B4E",
"P  c #10176F",
"I  c #2B2872",
"U  c #480E57",
"Y  c #451553",
"T  c #4E3851",
"R  c #561668",
"E  c #58126B",
"W  c #631379",
"Q  c #67227A",
"!  c #3C6D5A",
"~  c #317668",
"^  c #474747",
"/  c #544C4E",
"(  c #5C5C5C",
")  c #635C5C",
"_  c #676767",
"`  c #74706B",
"'  c #747474",
"]  c #7B7B7B",
"[  c #8A3A3D",
"{  c #837A1B",
"}  c #895138",
"|  c #836232",
" . c #896634",
".. c #8C6935",
"X. c #926D37",
"o. c #877431",
"O. c #96733A",
"+. c #9C753C",
"@. c #A37A3E",
"#. c #A6793D",
"$. c #911448",
"%. c #B4195A",
"&. c #A52C4E",
"*. c #C4365D",
"=. c #C71964",
"-. c #C91B65",
";. c #D01C68",
":. c #C72861",
">. c #C93060",
",. c #957253",
"<. c #A87E41",
"1. c #B8724F",
"2. c #9C6261",
"3. c #C24958",
"4. c #C15456",
"5. c #C16D51",
"6. c #0F8926",
"7. c #11982A",
"8. c #348D2E",
"9. c #13A82F",
"0. c #0EB731",
"q. c #13B532",
"w. c #17B733",
"e. c #30AD35",
"r. c #5E9A39",
"t. c #759A3E",
"y. c #4FA63A",
"u. c #1F857E",
"i. c #2D887C",
"p. c #7C9758",
"a. c #4D8B73",
"s. c #6F8C66",
"d. c #8E8D16",
"f. c #8A8519",
"g. c #928F18",
"h. c #8F9014",
"j. c #919016",
"k. c #999618",
"l. c #A9A718",
"z. c #998C27",
"x. c #AA8E34",
"c. c #B1A523",
"v. c #CAA93B",
"b. c #D2B736",
"n. c #CBC91B",
"m. c #E2DF1F",
"M. c #E9E81E",
"N. c #F7F51F",
"B. c #F8F61F",
"V. c #FAF91E",
"C. c #DDC92F",
"Z. c #E5D62A",
"A. c #F1EB23",
"S. c #F4F021",
"D. c #919249",
"F. c #AD8242",
"G. c #A78E48",
"H. c #AB8B48",
"J. c #B38645",
"K. c #B68A46",
"L. c #B98B47",
"P. c #B88648",
"I. c #B68A49",
"U. c #BC8D48",
"Y. c #BC9245",
"T. c #BF9049",
"R. c #AA9556",
"E. c #9E9D61",
"W. c #8CAA73",
"Q. c #C18B46",
"!. c #C29743",
"~. c #C1914A",
"^. c #1C1B8E",
"/. c #211D98",
"(. c #362C8D",
"). c #281FAB",
"_. c #291EB6",
"`. c #3627AB",
"'. c #2C20B4",
"]. c #2E21B8",
"[. c #6D1585",
"{. c #72158C",
"}. c #771691",
"|. c #7C1897",
" X c #7E189A",
".X c #4E3A97",
"XX c #75268B",
"oX c #4231A2",
"OX c #574095",
"+X c #6B5083",
"@X c #81199E",
"#X c #871DA4",
"$X c #8B28A6",
"%X c #942FAF",
"&X c #9725B6",
"*X c #9530B1",
"=X c #9F29C0",
"-X c #A92FCA",
";X c #A933CA",
":X c #B538D8",
">X c #BE3BE1",
",X c #C53EEA",
"<X c #CB3FF1",
"1X c #C840EE",
"2X c #CE41F5",
"3X c #D745FF",
"4X c #DD47FE",
"5X c #E249FF",
"6X c #158987",
"7X c #1A8984",
"8X c #158C89",
"9X c #179490",
"0X c #249A8F",
"qX c #1DA69C",
"wX c #21AFA2",
"eX c #22B8A9",
"rX c #6EB88B",
"tX c #28CDB8",
"yX c #5CC79E",
"uX c #67C397",
"iX c #4FD3AE",
"pX c #2CDCC3",
"aX c #2EE7CC",
"sX c #37E4C6",
"dX c #30E9CD",
"fX c #27EFD6",
"gX c #31EED1",
"hX c #878787",
"jX c #91908F",
"kX c #979797",
"lX c #A1A1A1",
"zX c #ABAAAA",
"xX c #B8B8B8",
"cX c #C5C5C5",
"vX c #CACACA",
"bX c #CFCFD0",
"nX c #D6D6D6",
"mX c #E2E2E2",
"MX c #E9E9E9",
"NX c #F3F3F3",
"BX c #FCFCFC",
"VX c #FFFFFF",
/* pixels */
"VXVXVXVXVXVXVXVXVXVXVXVXVXVXVXVXVXVXVXVXVXVXVXVXVXVXVXVXVXVXVXVXVXVXVXVXVXVXVXVXVXVXVXVXVXVXVXVXVXVXVXVXVXVXVXVXVXVXVXVXVXVXVXVXVXVXVXVXVXVXVXVXVXVXVXVXVXVXVXVXVXVXVXVXVXVXVXVXVXVXVXVXVXVXVXVXVXVXVXVXVXVXVXVXVXVXVXVXVXVXVXnXhX7                                                                                                                                                 7 ] nXVXVXVXVXVXVXVXVXVXVXVXVXVXVXVXVXVXVXVXVXVXVXVXVXVXVXVXVXVXVXVXVXVXVXVXVXVXVXVXVXVXVXVXVXVXVXVXVXVXVXVXVXVXVXVXVXVXVXVXVXVXVXVXVXVXVXVXVXVXVXVXVXVXVXVXVXVXVXVXVXVXVXVXVXVXVXVXVXVXVXVXVXVXVXVXVXVXVXVXVXVXVXVXVXVXVXVXVXVXVXVX",
"VXVXVXVXVXVXVXVXVXVXVXVXVXVXVXVXVXVXVXVXVXVXVXVXVXVXVXVXVXVXVXVXVXVXVXVXVXVXVXVXVXVXVXVXVXVXVXVXVXVXVXVXVXVXVXVXVXVXVXVXVXVXVXVXVXVXVXVXVXVXVXVXVXVXVXVXVXVXVXVXVXVXVXVXVXVXVXVXVXVXVXVXVXVXVXVXVXVXVXVXVXVXVXVXVXVXVXVXVXVXVXnX] 7                                                                                                                                                 7 ] nXVXVXVXVXVXVXVXVXVXVXVXVXVXVXVXVXVXVXVXVXVXVXVXVXVXVXVXVXVXVXVXVXVXVXVXVXVXVXVXVXVXVXVXVXVXVXVXVXVXVXVXVXVXVXVXVXVXVXVXVXVXVXVXVXVXVXVXVXVXVXVXVXVXVXVXVXVXVXVXVXVXVXVXVXVXVXVXVXVXVXVXVXVXVXVXVXVXVXVXVXVXVXVXVXVXVXVXVXVXVXVX",
"VXVXVXVXVXVXVXVXVXVXVXVXVXVXVXVXVXVXVXVXVXVXVXVXVXVXVXVXVXVXVXVXVXVXVXVXVXVXVXVXVXVXVXVXVXVXVXVXVXVXVXVXVXVXVXVXVXVXVXVXVXVXVXVXVXVXVXVXVXVXVXVXVXVXVXVXVXVXVXVXVXVXVXVXVXVXVXVXVXVXVXVXVXVXVXVXVXVXVXVXVXVXVXVXVXVXVXVXVXVXVXnX+X7                                                                                                                                                 7 hXnXVXVXVXVXVXVXVXVXVXVXVXVXVXVXVXVXVXVXVXVXVXVXVXVXVXVXVXVXVXVXVXVXVXVXVXVXVXVXVXVXVXVXVXVXVXVXVXVXVXVXVXVXVXVXVXVXVXVXVXVXVXVXVXVXVXVXVXVXVXVXVXVXVXVXVXVXVXVXVXVXVXVXVXVXVXVXVXVXVXVXVXVXVXVXVXVXVXVXVXVXVXVXVXVXVXVXVXVXVXVXVX",
"VXVXVXVXVXVXVXVXVXVXVXVXVXVXVXVXVXVXVXVXVXVXVXVXVXVXVXVXVXVXVXVXVXVXVXVXVXVXVXVXVXVXVXVXVXVXVXVXVXVXVXVXVXVXVXVXVXVXVXVXVXVXVXVXVXVXVXVXVXVXVXVXVXVXVXVXVXVXVXVXVXVXVXVXVXVXVXVXVXVXVXVXVXVXVXVXVXVXVXVXVXVXVXVXVXVXVXVXVXVXVXnXrX7                                                                                                                                                 7 hXnXVXVXVXVXVXVXVXVXVXVXVXVXVXVXVXVXVXVXVXVXVXVXVXVXVXVXVXVXVXVXVXVXVXVXVXVXVXVXVXVXVXVXVXVXVXVXVXVXVXVXVXVXVXVXVXVXVXVXVXVXVXVXVXVXVXVXVXVXVXVXVXVXVXVXVXVXVXVXVXVXVXVXVXVXVXVXVXVXVXVXVXVXVXVXVXVXVXVXVXVXVXVXVXVXVXVXVXVXVXVXVX",
"VXVXVXVXVXVXVXVXVXVXVXVXVXVXVXVXVXVXVXVXVXVXVXVXVXVXVXVXVXVXVXVXVXVXVXVXVXVXVXVXVXVXVXVXVXVXVXVXVXVXVXVXVXVXVXVXVXVXVXVXVXVXVXVXVXVXVXVXVXVXVXVXVXVXVXVXVXVXVXVXVXVXVXVXVXVXVXVXVXVXVXVXVXVXVXVXVXVXVXVXVXVXVXVXVXVXVXVXVXVXVXnXhX7                                                                                                                                                 7 hXnXVXVXVXVXVXVXVXVXVXVXVXVXVXVXVXVXVXVXVXVXVXVXVXVXVXVXVXVXVXVXVXVXVXVXVXVXVXVXVXVXVXVXVXVXVXVXVXVXVXVXVXVXVXVXVXVXVXVXVXVXVXVXVXVXVXVXVXVXVXVXVXVXVXVXVXVXVXVXVXVXVXVXVXVXVXVXVXVXVXVXVXVXVXVXVXVXVXVXVXVXVXVXVXVXVXVXVXVXVXVXVX",
"VXVXVXVXVXVXVXVXVXVXVXVXVXVXVXVXVXVXVXVXVXVXVXVXVXVXVXVXVXVXVXVXVXVXVXVXVXVXVXVXVXVXVXVXVXVXVXVXVXVXVXVXVXVXVXVXVXVXVXVXVXVXVXVXVXVXVXVXVXVXVXVXVXVXVXVXVXVXVXVXVXVXVXVXVXVXVXVXVXVXVXVXVXVXVXVXVXVXVXVXVXVXVXVXVXVXVXVXVXVXVXnXhX7                                                                                                                                                 7 hXnXVXVXVXVXVXVXVXVXVXVXVXVXVXVXVXVXVXVXVXVXVXVXVXVXVXVXVXVXVXVXVXVXVXVXVXVXVXVXVXVXVXVXVXVXVXVXVXVXVXVXVXVXVXVXVXVXVXVXVXVXVXVXVXVXVXVXVXVXVXVXVXVXVXVXVXVXVXVXVXVXVXVXVXVXVXVXVXVXVXVXVXVXVXVXVXVXVXVXVXVXVXVXVXVXVXVXVXVXVXVXVX",
"VXVXVXVXVXVXVXVXVXVXVXVXVXVXVXVXVXVXVXVXVXVXVXVXVXVXVXVXVXVXVXVXVXVXVXVXVXVXVXVXVXVXVXVXVXVXVXVXVXVXVXVXVXVXVXVXVXVXVXVXVXVXVXVXVXVXVXVXVXVXVXVXVXVXVXVXVXVXVXVXVXVXVXVXVXVXVXVXVXVXVXVXVXVXVXVXVXVXVXVXVXVXVXVXVXVXVXVXVXVXVXnXhX7                                                                                                                                                 7 hXnXVXVXVXVXVXVXVXVXVXVXVXVXVXVXVXVXVXVXVXVXVXVXVXVXVXVXVXVXVXVXVXVXVXVXVXVXVXVXVXVXVXVXVXVXVXVXVXVXVXVXVXVXVXVXVXVXVXVXVXVXVXVXVXVXVXVXVXVXVXVXVXVXVXVXVXVXVXVXVXVXVXVXVXVXVXVXVXVXVXVXVXVXVXVXVXVXVXVXVXVXVXVXVXVXVXVXVXVXVXVXVX",
"VXVXVXVXVXVXVXVXVXVXVXVXVXVXVXVXVXVXVXVXVXVXVXVXVXVXVXVXVXVXVXVXVXVXVXVXVXVXVXVXVXVXVXVXVXVXVXVXVXVXVXVXVXVXVXVXVXVXVXVXVXVXVXVXVXVXVXVXVXVXVXVXVXVXVXVXVXVXVXVXVXVXVXVXVXVXVXVXVXVXVXVXVXVXVXVXVXVXVXVXVXVXVXVXVXVXVXVXVXVXVXvX2.7                                                                                                                                                 7 ] vXVXVXVXVXVXVXVXVXVXVXVXVXVXVXVXVXVXVXVXVXVXVXVXVXVXVXVXVXVXVXVXVXVXVXVXVXVXVXVXVXVXVXVXVXVXVXVXVXVXVXVXVXVXVXVXVXVXVXVXVXVXVXVXVXVXVXVXVXVXVXVXVXVXVXVXVXVXVXVXVXVXVXVXVXVXVXVXVXVXVXVXVXVXVXVXVXVXVXVXVXVXVXVXVXVXVXVXVXVXVXVX",
"VXVXVXVXVXVXVXVXVXVXVXVXVXVXVXVXVXVXVXVXVXVXVXVXVXVXVXVXVXVXVXVXVXVXVXVXVXVXVXVXVXVXVXVXVXVXVXVXVXVXVXVXVXVXVXVXVXVXVXVXVXVXVXVXVXVXVXVXVXVXVXVXVXVXVXVXVXVXVXVXVXVXVXNXmXnXvXcXvXvXvXvXvXvXvXvXvXvXvXvXvXvXvXvXvXvXvXvXvXvXvXzX` a : - - : : : : : : : : : : : : : : : : : : : : : : : : : : : : : : : : : : : : : : : : : : : : : : : : : : : : : : : : : : : : : : : : : : - - : a ` zXvXvXvXvXvXvXvXvXvXvXvXvXvXvXvXvXvXvXvXvXvXvXvXvXvXvXvXvXvXvXvXvXcXcXvXnXMXVXVXVXVXVXVXVXVXVXVXVXVXVXVXVXVXVXVXVXVXVXVXVXVXVXVXVXVXVXVXVXVXVXVXVXVXVXVXVXVXVXVXVXVXVXVXVXVXVXVXVXVXVXVXVXVXVXVXVXVXVXVXVXVXVXVXVXVXVXVXVXVXVXVX",
"VXVXVXVXVXVXVXVXVXVXVXVXVXVXVXVXVXVXVXVXVXVXVXVXVXVXVXVXVXVXVXVXVXVXVXVXVXVXVXVXVXVXVXVXVXVXVXVXVXVXVXVXVXVXVXVXVXVXVXVXVXVXVXVXVXVXVXVXVXVXVXVXVXVXVXVXVXVXVXVXVXVXVXmXxXjX' ' ' ' ' ' ' ' ' ' ' ' ' ' ' ' ' ' ' ' ' ' ' ' ' ` ) Z n n n n n n n n n n n n n n n n n n n n n n n n n n n n n n n n n n n n n n n n n n n n n n n n n n n n n n n n n n n n n n n n n n n n n n n n Z ) ` ' ' ' ' ' ' ' ' ' ' ' ' ' ' ' ' ' ' ' ' ' ' ' ' ' ' ' ' ' ' ' ' ' ' ] lXnXNXVXVXVXVXVXVXVXVXVXVXVXVXVXVXVXVXVXVXVXVXVXVXVXVXVXVXVXVXVXVXVXVXVXVXVXVXVXVXVXVXVXVXVXVXVXVXVXVXVXVXVXVXVXVXVXVXVXVXVXVXVXVXVXVXVXVXVXVXVXVXVXVXVX",
"VXVXVXVXVXVXVXVXVXVXVXVXVXVXVXVXVXVXVXVXVXVXVXVXVXVXVXVXVXVXVXVXVXVXVXVXVXVXVXVXVXVXVXVXVXVXVXVXVXVXVXVXVXVXVXVXVXVXVXVXVXVXVXVXVXVXVXVXVXVXVXVXVXVXVXVXVXVXVXVXVXVXVXnXjX^ 6 = 6 6 6 6 6 6 6 6 6 6 6 6 6 6 6 6 6 6 6 6 6 6 6 8 n ..+.@.+.+.+.+.+.+.+.+.+.+.+.+.+.+.+.+.+.+.+.+.+.+.+.+.+.+.+.+.+.+.+.+.+.+.+.+.+.+.+.+.+.+.+.+.+.+.+.+.+.+.+.+.+.+.+.+.+.+.+.+.+.+.+.+.+.+.+.+.@.+...n 8 6 6 6 6 6 6 6 6 6 6 6 6 6 6 6 6 6 6 6 6 6 6 6 6 6 6 6 6 6 6 6 6 6 6 9 _ xXNXVXVXVXVXVXVXVXVXVXVXVXVXVXVXVXVXVXVXVXVXVXVXVXVXVXVXVXVXVXVXVXVXVXVXVXVXVXVXVXVXVXVXVXVXVXVXVXVXVXVXVXVXVXVXVXVXVXVXVXVXVXVXVXVXVXVXVXVXVXVXVXVXVX",
"VXVXVXVXVXVXVXVXVXVXVXVXVXVXVXVXVXVXVXVXVXVXVXVXVXVXVXVXVXVXVXVXVXVXVXVXVXVXVXVXVXVXVXVXVXVXVXVXVXVXVXVXVXVXVXVXVXVXVXVXVXVXVXVXVXVXVXVXVXVXVXVXVXVXVXVXVXVXVXVXVXVXVXvX' 6                                                   - c +.U.~.U.U.L.U.U.U.U.U.U.U.U.U.U.U.U.U.U.U.U.U.U.U.U.U.U.U.U.U.U.U.U.U.U.U.U.U.U.U.U.U.U.U.U.U.U.U.U.U.U.U.U.U.U.U.U.U.U.U.U.U.U.U.U.U.U.U.U.U.~.L.+.c -                                                                     O ( zXMXVXVXVXVXVXVXVXVXVXVXVXVXVXVXVXVXVXVXVXVXVXVXVXVXVXVXVXVXVXVXVXVXVXVXVXVXVXVXVXVXVXVXVXVXVXVXVXVXVXVXVXVXVXVXVXVXVXVXVXVXVXVXVXVXVXVXVXVXVXVXVXVXVX",
"VXVXVXVXVXVXVXVXVXVXVXVXVXVXVXVXVXVXVXVXVXVXVXVXVXVXVXVXVXVXVXVXVXVXVXVXVXVXVXVXVXVXVXVXVXVXVXVXVXVXVXVXVXVXVXVXVXVXVXVXVXVXVXVXVXVXVXVXVXVXVXVXVXVXVXVXVXVXVXVXVXVXVXcX' =                                                   $ c +.T.~.~.T.T.T.T.T.T.T.T.T.T.T.T.T.T.T.T.T.T.T.T.T.T.T.T.T.T.T.T.T.T.T.T.T.T.T.T.T.T.T.T.T.T.T.T.T.T.T.T.T.T.T.T.T.T.T.T.T.T.T.T.T.T.T.T.T.T.~.~.T.+.c $                                                                     O ^ zXMXVXVXVXVXVXVXVXVXVXVXVXVXVXVXVXVXVXVXVXVXVXVXVXVXVXVXVXVXVXVXVXVXVXVXVXVXVXVXVXVXVXVXVXVXVXVXVXVXVXVXVXVXVXVXVXVXVXVXVXVXVXVXVXVXVXVXVXVXVXVXVXVXVX",
"VXVXVXVXVXVXVXVXVXVXVXVXVXVXVXVXVXVXVXVXVXVXVXVXVXVXVXVXVXVXVXVXVXVXVXVXVXVXVXVXVXVXVXVXVXVXVXVXVXVXVXVXVXVXVXVXVXVXVXVXVXVXVXVXVXVXVXVXVXVXVXVXVXVXVXVXVXVXVXVXVXVXVXvX' 6                                                   - c +.U.~.U.U.U.U.U.U.U.U.U.U.U.U.U.U.U.U.U.U.U.U.U.U.U.U.U.U.U.U.U.U.U.U.U.U.U.U.U.U.U.U.U.U.U.U.U.U.U.U.U.U.U.U.U.U.U.U.U.U.U.U.U.U.U.U.U.U.U.U.~.U.+.c -                                                                     O ( zXMXVXVXVXVXVXVXVXVXVXVXVXVXVXVXVXVXVXVXVXVXVXVXVXVXVXVXVXVXVXVXVXVXVXVXVXVXVXVXVXVXVXVXVXVXVXVXVXVXVXVXVXVXVXVXVXVXVXVXVXVXVXVXVXVXVXVXVXVXVXVXVXVXVX",
"VXVXVXVXVXVXVXVXVXVXVXVXVXVXVXVXVXVXVXVXVXVXVXVXVXVXVXVXVXVXVXVXVXVXVXVXVXVXVXVXVXVXVXVXVXVXVXVXVXVXVXVXVXVXVXVXVXVXVXVXVXVXVXVXVXVXVXVXVXVXVXVXVXVXVXVXVXVXVXVXVXVXVXvX' 6                                                   - c +.L.T.U.L.L.L.L.L.L.L.L.L.L.L.L.L.L.L.L.L.L.L.L.L.L.L.L.L.L.L.L.L.L.L.L.L.L.L.L.L.L.L.L.L.L.L.L.L.L.L.L.L.L.L.L.L.L.L.L.L.L.L.L.L.L.L.L.L.L.U.T.U.+.c -                                                                     * ( zXMXVXVXVXVXVXVXVXVXVXVXVXVXVXVXVXVXVXVXVXVXVXVXVXVXVXVXVXVXVXVXVXVXVXVXVXVXVXVXVXVXVXVXVXVXVXVXVXVXVXVXVXVXVXVXVXVXVXVXVXVXVXVXVXVXVXVXVXVXVXVXVXVXVX",
"VXVXVXVXVXVXVXVXVXVXVXVXVXVXVXVXVXVXVXVXVXVXVXVXVXVXVXVXVXVXVXVXVXVXVXVXVXVXVXVXVXVXVXVXVXVXVXVXVXVXVXVXVXVXVXVXVXVXVXVXVXVXVXVXVXVXVXVXVXVXVXVXVXVXVXVXVXVXVXVXVXVXVXvX] 6                                                   @ c O.L.~.U.L.L.L.L.L.L.L.L.L.L.L.L.L.L.L.L.L.L.L.L.L.L.L.L.L.L.L.L.L.L.L.L.L.L.L.L.L.L.L.L.L.L.L.L.L.L.L.L.L.L.L.L.L.L.L.L.L.L.L.L.L.L.L.L.L.L.U.~.L.O.c @                                                                     * ( xXNXVXVXVXVXVXVXVXVXVXVXVXVXVXVXVXVXVXVXVXVXVXVXVXVXVXVXVXVXVXVXVXVXVXVXVXVXVXVXVXVXVXVXVXVXVXVXVXVXVXVXVXVXVXVXVXVXVXVXVXVXVXVXVXVXVXVXVXVXVXVXVXVXVX",
"VXVXVXVXVXVXVXVXVXVXVXVXVXVXVXVXVXVXVXVXVXVXVXVXVXVXVXVXVXVXVXVXVXVXVXVXVXVXVXVXVXVXVXVXVXVXVXVXVXVXVXVXVXVXVXVXVXVXVXVXVXVXVXVXVXVXVXVXVXVXVXVXVXVXVXVXVXVXVXVXVXVXVXvX' 6                                                   @ c O.L.~.U.L.L.L.L.L.L.L.L.L.L.L.L.L.L.L.L.L.L.L.L.L.L.L.L.L.L.L.L.L.L.L.L.L.L.L.L.L.L.L.L.L.L.L.L.L.L.L.L.L.L.L.L.L.L.L.L.L.L.L.L.L.L.L.L.L.L.U.~.L.+.c $                                                                     * ( zXNXVXVXVXVXVXVXVXVXVXVXVXVXVXVXVXVXVXVXVXVXVXVXVXVXVXVXVXVXVXVXVXVXVXVXVXVXVXVXVXVXVXVXVXVXVXVXVXVXVXVXVXVXVXVXVXVXVXVXVXVXVXVXVXVXVXVXVXVXVXVXVXVXVX",
"VXVXVXVXVXVXVXVXVXVXVXVXVXVXVXVXVXVXVXVXVXVXVXVXVXVXVXVXVXVXVXVXVXVXVXVXVXVXVXVXVXVXVXVXVXVXVXVXVXVXVXVXVXVXVXVXVXVXVXVXVXVXVXVXVXNXmXmXmXmXmXmXmXmXmXmXmXmXmXmXmXMXnXxX_ 6               X + @ @ @ @ @ @ @ @ @ @ @ @ @ @ + @ , M +.L.~.U.L.L.L.L.L.L.L.L.L.L.L.L.L.L.L.L.L.L.L.L.L.L.L.L.L.L.L.L.L.L.L.L.L.L.L.L.L.L.L.L.L.L.L.L.L.L.L.L.L.L.L.L.L.L.L.L.L.L.L.L.L.L.L.L.L.L.U.T.L.+.M , @ + @ @ @ @ @ @ @ @ @ @ @ @ @ @ @ @ @ @ @ @ @ @ @ + X               * ^ kXnXMXmXmXmXmXmXMXNXVXVXVXVXVXVXVXVXVXVXVXVXVXVXVXVXVXVXVXVXVXVXVXVXVXVXVXVXVXVXVXVXVXVXVXVXVXVXVXVXVXVXVXVXVXVXVXVXVXVXVXVXVXVXVXVXVXVXVXVXVXVXVXVXVX",
"VXVXVXVXVXVXVXVXVXVXVXVXVXVXVXVXVXVXVXVXVXVXVXVXVXVXVXVXVXVXVXVXVXVXVXVXVXVXVXVXVXVXVXVXVXVXVXVXVXVXVXVXVXVXVXVXVXVXVXVXVXVXVXVXNXvXzXkXkXkXkXkXkXkXkXkXkXkXkXkXkXkXkX' ^ *             X - 1 e r e e e e e e e e e e e e w e n | <.L.U.U.L.L.L.L.L.L.L.L.L.L.L.L.L.L.L.L.L.L.L.L.L.L.L.L.L.L.L.L.L.L.L.L.L.L.L.L.L.L.L.L.L.L.L.L.L.L.L.L.L.L.L.L.L.L.L.L.L.L.L.L.L.L.L.L.L.L.U.U.L.<.| n e w e e e e e e e e e e e e e e e e e e e e e r e q , +             O 9 _ jXkXkXkXkXkXkXzXvXNXVXVXVXVXVXVXVXVXVXVXVXVXVXVXVXVXVXVXVXVXVXVXVXVXVXVXVXVXVXVXVXVXVXVXVXVXVXVXVXVXVXVXVXVXVXVXVXVXVXVXVXVXVXVXVXVXVXVXVXVXVXVXVXVX",
"VXVXVXVXVXVXVXVXVXVXVXVXVXVXVXVXVXVXVXVXVXVXVXVXVXVXVXVXVXVXVXVXVXVXVXVXVXVXVXVXVXVXVXVXVXVXVXVXVXVXVXVXVXVXVXVXVXVXVXVXVXVXVXVXmXzX_ ^ 9 9 ^ ^ ^ ^ ^ ^ ^ ^ ^ ^ ^ ^ ^ 9 = O             + 1 M | X......................... ...X.@.J.L.U.L.L.L.L.L.L.L.L.L.L.L.L.L.L.L.L.L.L.L.L.L.L.L.L.L.L.L.L.L.L.L.L.L.L.L.L.L.L.L.L.L.L.L.L.L.L.L.L.L.L.L.L.L.L.L.L.L.L.L.L.L.L.L.L.L.L.L.L.U.L.J.@.X... ...........................................X...C e @               * 7 9 ^ ^ ^ 9 9 ^ _ zXmXVXVXVXVXVXVXVXVXVXVXVXVXVXVXVXVXVXVXVXVXVXVXVXVXVXVXVXVXVXVXVXVXVXVXVXVXVXVXVXVXVXVXVXVXVXVXVXVXVXVXVXVXVXVXVXVXVXVXVXVXVXVXVXVX",
"VXVXVXVXVXVXVXVXVXVXVXVXVXVXVXVXVXVXVXVXVXVXVXVXVXVXVXVXVXVXVXVXVXVXVXVXVXVXVXVXVXVXVXVXVXVXVXVXVXVXVXVXVXVXVXVXVXVXVXVXVXVXVXVXnXjX9 O     O O O O .   O O O O O O O                   @ e | F.U.K.J.J.J.J.J.J.J.J.J.J.J.J.J.K.K.L.L.L.L.L.L.L.L.L.L.L.L.L.L.L.L.L.L.L.L.L.L.L.L.L.L.L.L.L.L.L.L.L.L.L.L.L.L.L.L.L.L.L.L.L.L.L.L.L.L.L.L.L.L.L.L.L.L.L.L.L.L.L.L.L.L.L.L.L.L.L.L.L.L.K.K.J.J.J.J.J.J.J.J.J.J.J.J.J.J.J.J.J.J.J.J.J.J.K.L.K.+.n :                   . O O O     O 9 jXnXVXVXVXVXVXVXVXVXVXVXVXVXVXVXVXVXVXVXVXVXVXVXVXVXVXVXVXVXVXVXVXVXVXVXVXVXVXVXVXVXVXVXVXVXVXVXVXVXVXVXVXVXVXVXVXVXVXVXVXVXVXVXVXVX",
"VXVXVXVXVXVXVXVXVXVXVXVXVXVXVXVXVXVXVXVXVXVXVXVXVXVXVXVXVXVXVXVXVXVXVXVXVXVXVXVXVXVXVXVXVXVXVXVXVXVXVXVXVXVXVXVXVXVXVXVXVXVXVXVXnXhX9                                                   @ r X.U.~.~.~.~.T.T.T.T.~.~.~.~.~.~.T.U.U.L.L.L.L.L.L.L.L.L.L.L.L.L.L.L.L.L.L.L.L.L.L.L.L.L.L.L.L.L.L.L.L.L.L.L.L.L.L.L.L.L.L.L.L.L.L.L.L.L.L.L.L.L.L.L.L.L.L.L.L.L.L.L.L.L.L.L.L.L.L.L.L.L.L.U.U.T.~.~.~.~.~.~.T.T.T.T.~.~.~.~.~.T.T.T.~.T.T.~.~.~.@.M ,                                 9 hXnXVXVXVXVXVXVXVXVXVXVXVXVXVXVXVXVXVXVXVXVXVXVXVXVXVXVXVXVXVXVXVXVXVXVXVXVXVXVXVXVXVXVXVXVXVXVXVXVXVXVXVXVXVXVXVXVXVXVXVXVXVXVXVXVX",
"VXVXVXVXVXVXVXVXVXVXVXVXVXVXVXVXVXVXVXVXVXVXVXVXVXVXVXVXVXVXVXVXVXVXVXVXVXVXVXVXVXVXVXVXVXVXVXVXVXVXVXVXVXVXVXVXVXVXVXVXVXVXVXVXnXjX9                                                   @ e ..K.~.~.U.U.U.U.U.U.U.U.U.U.U.U.U.U.U.L.L.L.L.L.L.L.L.L.L.L.L.L.L.L.L.L.L.L.L.L.L.L.L.L.L.L.L.L.L.L.L.L.L.L.L.L.L.L.L.L.L.L.L.L.L.L.L.L.L.L.L.L.L.L.L.L.L.L.L.L.L.L.L.L.L.L.L.L.L.L.L.L.L.U.U.U.U.U.U.U.U.U.U.U.U.U.U.U.U.U.U.U.U.U.U.U.U.U.~.U.@.M :                                 9 jXnXVXVXVXVXVXVXVXVXVXVXVXVXVXVXVXVXVXVXVXVXVXVXVXVXVXVXVXVXVXVXVXVXVXVXVXVXVXVXVXVXVXVXVXVXVXVXVXVXVXVXVXVXVXVXVXVXVXVXVXVXVXVXVXVX",
"VXVXVXVXVXVXVXVXVXVXVXVXVXVXVXVXVXVXVXVXVXVXVXVXVXVXVXVXVXVXVXVXVXVXVXVXVXVXVXVXVXVXVXVXVXVXVXVXVXVXVXVXVXVXVXVXVXVXVXVXVXVXVXVXnXjX9                                                   @ e ..J.~.U.L.L.L.L.L.L.L.L.L.L.L.L.L.L.L.L.L.L.L.L.L.L.L.L.L.L.L.L.L.L.L.L.L.L.L.L.L.L.L.L.L.L.L.L.L.L.L.L.L.L.L.L.L.L.L.L.L.L.L.L.L.L.L.L.L.L.L.L.L.L.L.L.L.L.L.L.L.L.L.L.L.L.L.L.L.L.L.L.L.L.L.L.L.L.L.L.L.L.L.L.L.L.L.L.L.L.L.L.L.L.L.L.L.U.T.U.+.n :                                 9 jXnXVXVXVXVXVXVXVXVXVXVXVXVXVXVXVXVXVXVXVXVXVXVXVXVXVXVXVXVXVXVXVXVXVXVXVXVXVXVXVXVXVXVXVXVXVXVXVXVXVXVXVXVXVXVXVXVXVXVXVXVXVXVXVXVX",
"VXVXVXVXVXVXVXVXVXVXVXVXVXVXVXVXVXVXVXVXVXVXVXVXVXVXVXVXVXVXVXVXVXVXVXVXVXVXVXVXVXVXVXVXVXVXVXVXVXVXVXVXVXVXVXVXVXVXVXVXVXVXVXVXnXjX9                                                   + e ..J.~.U.L.L.L.L.L.L.L.L.L.L.L.L.L.L.L.L.L.L.L.L.L.L.L.L.L.L.L.L.L.L.L.L.L.L.L.L.L.L.L.L.L.L.L.L.L.L.L.L.L.L.L.L.L.L.L.L.L.L.L.L.L.L.L.L.L.L.L.L.L.L.L.L.L.L.L.L.L.L.L.L.L.L.L.L.L.L.L.L.L.L.L.L.L.L.L.L.L.L.L.L.L.L.L.L.L.L.L.L.L.L.L.L.L.U.~.U.+.n -                                 9 jXnXVXVXVXVXVXVXVXVXVXVXVXVXVXVXVXVXVXVXVXVXVXVXVXVXVXVXVXVXVXVXVXVXVXVXVXVXVXVXVXVXVXVXVXVXVXVXVXVXVXVXVXVXVXVXVXVXVXVXVXVXVXVXVXVX",
"VXVXVXVXVXVXVXVXVXVXVXVXVXVXVXVXVXVXVXVXVXVXVXVXVXVXVXVXVXVXVXVXVXVXVXVXVXVXVXVXVXVXVXVXVXVXVXVXVXVXVXVXVXVXVXVXVXVXVXVXVXVXVXVXmXjX9                                                   + e  .J.~.U.L.L.L.L.L.L.L.L.L.L.L.L.L.L.L.L.L.L.L.L.L.L.L.L.L.L.L.L.L.L.L.L.L.L.L.L.L.L.L.L.L.L.L.L.L.L.L.L.L.L.L.L.L.L.L.L.L.L.L.L.L.L.L.L.L.L.L.L.L.L.L.L.L.L.L.L.L.L.L.L.L.L.L.L.L.L.L.L.L.L.L.L.L.L.L.L.L.L.L.L.L.L.L.L.L.L.L.L.L.L.L.L.L.U.~.U.+.n -                                 9 jXmXVXVXVXVXVXVXVXVXVXVXVXVXVXVXVXVXVXVXVXVXVXVXVXVXVXVXVXVXVXVXVXVXVXVXVXVXVXVXVXVXVXVXVXVXVXVXVXVXVXVXVXVXVXVXVXVXVXVXVXVXVXVXVXVX",
"VXVXVXVXVXVXVXVXVXVXVXVXVXVXVXVXVXVXVXVXVXVXVXVXVXVXVXVXVXVXVXVXVXVXVXVXVXVXVXVXVXVXVXVXVXVXVXVXVXVXVXVXVXVXVXVXVXNXNXNXNXNXVXNXnXhX9                   . . X X . . . . . . . . X .     @ r ..J.T.U.L.L.L.L.L.L.L.L.L.L.L.L.L.L.L.L.L.L.L.L.L.L.L.L.L.L.L.L.L.L.L.L.L.L.L.L.L.L.L.L.L.L.L.L.L.L.L.L.L.L.L.L.L.L.L.L.L.L.L.L.U.I.I.I.I.I.I.I.I.I.I.I.L.L.L.L.L.L.L.L.L.L.L.L.L.L.L.L.L.L.L.L.L.L.L.L.L.L.L.L.L.L.L.L.L.L.L.L.L.L.L.L.L.U.~.U.+.M , .                             X 9 hXnXNXVXNXNXNXNXNXNXNXNXNXNXNXNXNXNXNXVXVXVXVXVXVXVXVXVXVXVXVXVXVXVXVXVXVXVXVXVXVXVXVXVXVXVXVXVXVXVXVXVXVXVXVXVXVXVXVXVXVXVXVXVXVXVX",
"VXVXVXVXVXVXVXVXVXVXVXVXVXVXVXVXVXVXVXVXVXVXVXVXVXVXVXVXVXVXVXVXVXVXVXVXVXVXVXVXVXVXVXVXVXVXVXVXVXVXVXVXVXVXVXMXnXxXxXxXxXxXxXxXkX_ 6               + - , 1 1 1 1 1 1 1 1 1 1 1 1 1 , 1 q B +.K.U.U.L.L.L.L.L.L.L.L.L.L.L.L.L.L.L.L.L.L.L.L.L.L.L.L.L.L.L.L.L.L.L.L.L.L.L.L.L.L.L.L.L.L.L.L.L.L.L.L.L.L.L.L.L.L.L.L.L.L.L.U.I.R.W.W.W.W.W.W.W.W.R.R.U.L.L.L.L.L.L.L.L.L.L.L.L.L.L.L.L.L.L.L.L.L.L.L.L.L.L.L.L.L.L.L.L.L.L.L.L.L.L.L.L.U.U.U.@.V 1 - @ @ @ @ @ @ @ @ @ @ @ @ @ $ - 9 ` kXxXxXxXxXxXxXxXxXxXxXxXxXxXxXxXxXvXmXVXVXVXVXVXVXVXVXVXVXVXVXVXVXVXVXVXVXVXVXVXVXVXVXVXVXVXVXVXVXVXVXVXVXVXVXVXVXVXVXVXVXVXVXVXVX",
"VXVXVXVXVXVXVXVXVXVXVXVXVXVXVXVXVXVXVXVXVXVXVXVXVXVXVXVXVXVXVXVXVXVXVXVXVXVXVXVXVXVXVXVXVXVXVXVXVXVXVXVXVXVXVXnXlX' ( ( ( _ _ _ ( 9 *             . : e B C C C C C C C C C C C C C V C A X.<.K.U.U.L.L.L.L.L.L.L.L.L.L.L.L.L.L.L.L.L.L.L.L.L.L.L.L.L.L.L.L.L.L.L.L.L.L.L.L.L.L.L.L.L.L.L.L.L.L.L.L.L.L.L.L.L.L.L.L.L.L.L.U.R.W.rXuXyXuXuXyXuXrXW.R.I.L.L.L.L.L.L.L.L.L.L.L.L.L.L.L.L.L.L.L.L.L.L.L.L.L.L.L.L.L.L.L.L.L.L.L.L.L.L.L.L.L.U.U.<.| c q 1 q q q q q q q q q q q 0 0 q e b ( ) _ ( ( ( ( ( ( ( ( ( ( _ ( ( _ jXcXNXVXVXVXVXVXVXVXVXVXVXVXVXVXVXVXVXVXVXVXVXVXVXVXVXVXVXVXVXVXVXVXVXVXVXVXVXVXVXVXVXVXVXVXVXVX",
"VXVXVXVXVXVXVXVXVXVXVXVXVXVXVXVXVXVXVXVXVXVXVXVXVXVXVXVXVXVXVXVXVXVXVXVXVXVXVXVXVXVXVXVXVXVXVXVXVXVXVXVXVXVXVXcX' 9 * O * = = = * O               X 1 V +.F.F.<.<.<.<.<.<.<.<.<.<.<.<.<.F.F.K.L.L.L.L.L.L.L.L.L.L.L.L.L.L.L.L.L.L.L.L.L.L.L.L.L.L.L.L.L.L.L.L.L.L.L.L.L.L.L.L.L.L.L.L.L.L.L.L.L.L.L.L.L.L.L.L.L.L.L.L.L.L.I.E.rXiXsXsXsXsXsXsXiXrXE.I.L.L.L.L.L.L.L.L.L.L.L.L.L.L.L.L.L.L.L.L.L.L.L.L.L.L.L.L.L.L.L.L.L.L.L.L.L.L.L.L.L.U.L.F...V c c c c c c c c c c c c c c n c e 1 ; * * * = = = = = * * = = = * * 6 ( zXMXVXVXVXVXVXVXVXVXVXVXVXVXVXVXVXVXVXVXVXVXVXVXVXVXVXVXVXVXVXVXVXVXVXVXVXVXVXVXVXVXVXVXVXVXVX",
"VXVXVXVXVXVXVXVXVXVXVXVXVXVXVXVXVXVXVXVXVXVXVXVXVXVXVXVXVXVXVXVXVXVXVXVXVXVXVXVXVXVXVXVXVXVXVXVXVXVXVXVXVXVXVXxX_ =                               X 1 | J.~.~.U.U.U.U.U.U.U.U.U.U.U.U.U.U.U.L.L.L.L.L.L.L.L.L.L.L.L.L.L.L.L.L.L.L.L.L.L.L.L.L.L.L.L.L.L.L.L.L.L.L.L.L.L.L.L.L.L.L.L.L.L.L.L.L.L.L.L.L.L.L.L.L.L.L.L.L.L.L.I.E.uXiXfXfXfXfXfXfXsXuXW.I.L.L.L.L.L.L.L.L.L.L.L.L.L.L.L.L.L.L.L.L.L.L.L.L.L.L.L.L.L.L.L.L.L.L.L.L.L.L.L.L.L.U.L.F.X.C M n M M M M M M M M M M M B B n r , .                                 ^ kXmXVXVXVXVXVXVXVXVXVXVXVXVXVXVXVXVXVXVXVXVXVXVXVXVXVXVXVXVXVXVXVXVXVXVXVXVXVXVXVXVXVXVXVXVXVX",
"VXVXVXVXVXVXVXVXVXVXVXVXVXVXVXVXVXVXVXVXVXVXVXVXVXVXVXVXVXVXVXVXVXVXVXVXVXVXVXVXVXVXVXVXVXVXVXVXVXVXVXVXVXVXNXxX_ =                               X q | J.~.~.T.T.T.U.U.U.U.U.U.U.U.U.U.U.U.U.L.L.L.L.L.L.L.L.L.L.L.L.L.L.L.L.L.L.L.L.L.L.L.L.L.L.L.L.L.L.L.L.L.L.L.L.L.L.L.L.L.L.L.L.L.L.L.L.L.L.L.L.L.L.L.L.L.L.L.L.L.L.I.E.uXiXfXfXfXfXfXfXsXuXW.I.L.L.L.L.L.L.L.L.L.L.L.L.L.L.L.L.L.L.L.L.L.L.L.L.L.L.L.L.L.L.L.L.L.L.L.L.L.L.L.L.L.U.L.F.X.C M n M M M M M M M M M M M B B M r , .                                 ^ kXmXVXVXVXVXVXVXVXVXVXVXVXVXVXVXVXVXVXVXVXVXVXVXVXVXVXVXVXVXVXVXVXVXVXVXVXVXVXVXVXVXVXVXVXVXVX",
"VXVXVXVXVXVXVXVXVXVXVXVXVXVXVXVXVXVXVXVXVXVXVXVXVXVXVXVXVXVXVXVXVXVXVXVXVXVXVXVXVXVXVXVXVXVXVXVXVXVXVXVXVXVXVXcX_ =                               X 1 A F.T.U.L.L.L.L.L.L.L.L.L.L.L.L.L.L.L.L.L.L.L.L.L.L.L.L.L.L.L.L.L.L.L.L.L.L.L.L.L.L.L.L.L.L.L.L.L.L.L.L.L.L.L.L.L.L.L.L.L.L.L.L.L.L.L.L.L.L.L.L.L.L.L.L.L.L.L.L.L.L.I.E.rXiXdXfXdXfXfXfXsXuXW.I.L.L.L.L.L.L.L.L.L.L.L.L.L.L.L.L.L.L.L.L.L.L.L.L.L.L.L.L.L.L.L.L.L.L.L.L.L.L.L.L.L.U.L.F.X.C n n n n n n n n n n n n n M N n r , X                               O ^ lXMXVXVXVXVXVXVXVXVXVXVXVXVXVXVXVXVXVXVXVXVXVXVXVXVXVXVXVXVXVXVXVXVXVXVXVXVXVXVXVXVXVXVXVXVXVX",
"VXVXVXVXVXVXVXVXVXVXVXVXVXVXVXVXVXVXVXVXVXVXVXVXVXVXVXVXVXVXVXVXVXVXVXVXVXVXVXVXVXVXVXVXVXVXVXVXVXVXVXVXVXVXVXcX_ =                               X 1 A F.U.U.L.L.L.L.L.L.L.L.L.L.L.L.L.L.L.L.L.L.L.L.L.L.L.L.L.L.L.L.L.L.L.L.L.L.L.L.L.L.L.L.L.L.L.L.L.L.L.L.L.L.L.L.L.L.L.L.L.L.L.L.L.L.L.L.L.L.L.L.L.L.L.L.L.L.L.L.L.Q.U.E.rXiXdXfXdXfXfXfXtXuXE.I.Q.L.L.L.L.L.L.L.L.L.L.L.L.L.L.L.L.L.L.L.L.L.L.L.L.L.L.L.L.L.L.L.L.L.L.L.L.L.L.L.L.U.L.F.X.C n n n n n n n n n n n n n M N n r , X                               O ^ lXMXVXVXVXVXVXVXVXVXVXVXVXVXVXVXVXVXVXVXVXVXVXVXVXVXVXVXVXVXVXVXVXVXVXVXVXVXVXVXVXVXVXVXVXVXVX",
"VXVXVXVXVXVXVXVXVXVXVXVXVXVXVXVXVXVXVXVXVXVXVXVXVXVXVXVXVXVXVXVXVXVXVXVXVXVXVXVXVXVXVXVXVXVXVXVXVXVXVXVXVXVXVXcX_ =                                 1 C F.U.U.L.L.L.L.L.L.L.L.L.L.L.L.L.L.L.L.L.L.L.L.L.L.L.L.L.L.L.L.L.L.L.L.L.L.L.L.L.L.L.L.L.L.L.L.L.L.L.L.L.L.L.L.L.L.L.L.L.L.L.L.L.L.L.L.L.L.L.L.L.L.L.L.L.L.L.L.Q.Q.L.E.rXiXfXfXdXdXfXfXiXuXE.I.L.L.L.L.L.L.L.L.L.L.L.L.L.L.L.L.L.L.L.L.L.L.L.L.L.L.L.L.L.L.L.L.L.L.L.L.L.L.L.L.L.U.L.F.X.C n n n n n n n n n n n n n M N n r , X                               O ^ lXNXVXVXVXVXVXVXVXVXVXVXVXVXVXVXVXVXVXVXVXVXVXVXVXVXVXVXVXVXVXVXVXVXVXVXVXVXVXVXVXVXVXVXVXVXVX",
"VXVXVXVXVXVXVXVXVXVXVXVXVXVXVXVXVXVXVXVXVXVXVXVXVXVXVXVXVXVXVXVXVXVXVXVXVXVXVXVXVXVXVXVXVXVXVXVXVXVXVXVXVXVXNXxX_ =                               X 1 A F.U.U.L.L.L.L.L.L.L.L.L.L.L.L.L.L.L.L.L.L.L.L.L.L.L.L.L.L.L.L.L.L.L.L.L.L.L.L.L.L.L.L.L.L.L.L.L.L.L.L.L.L.L.L.L.L.L.L.L.L.L.L.L.L.L.L.L.L.L.L.L.L.L.L.L.L.L.L.L.L.I.E.rXiXfXfXdXdXfXfXiXuXE.I.Q.L.L.L.L.L.L.L.L.L.L.L.L.L.L.L.L.L.L.L.L.L.L.L.L.L.L.L.L.L.L.L.L.L.L.L.L.L.L.L.L.U.L.F.X.C n n n n n n n n n n n n n M M n r , +                               O ^ lXMXVXVXVXVXVXVXVXVXVXVXVXVXVXVXVXVXVXVXVXVXVXVXVXVXVXVXVXVXVXVXVXVXVXVXVXVXVXVXVXVXVXVXVXVXVX",
"VXVXVXVXVXVXVXVXVXVXVXVXVXVXVXVXVXVXVXVXVXVXVXVXVXVXVXVXVXVXVXVXVXVXVXVXVXVXVXVXVXVXVXVXVXVXMXnXnXnXnXnXnXnXvXkX( =               + @ - - - - @ @ , r | F.U.U.L.L.L.L.L.L.L.L.L.L.L.L.L.L.L.L.L.L.L.L.L.L.L.L.L.L.L.L.L.L.L.L.L.L.L.L.L.L.L.L.L.L.L.L.L.L.L.L.L.L.L.L.L.L.L.L.L.L.L.L.L.L.L.L.L.L.L.L.L.U.I.R.R.R.R.E.R.R.E.W.uXtXdXfXdXdXfXdXiXuXW.I.L.L.L.L.L.L.L.L.L.L.L.L.L.L.L.L.L.L.L.L.L.L.L.L.L.L.L.L.L.L.L.L.L.L.L.L.L.L.L.L.L.U.L.F.+.| C V V V C C V V N n n n n n M n c 1 - + + + + + + + X               O 9 hXxXnXnXnXnXnXnXnXmXNXVXVXVXVXVXVXVXVXVXVXVXVXVXVXVXVXVXVXVXVXVXVXVXVXVXVXVXVXVXVXVXVXVXVXVXVX",
"VXVXVXVXVXVXVXVXVXVXVXVXVXVXVXVXVXVXVXVXVXVXVXVXVXVXVXVXVXVXVXVXVXVXVXVXVXVXVXVXVXVXVXVXVXNXnXlXhX] ] hXhXhX] ( 9 *             X , w c n c c c c n A +.J.U.U.L.L.L.L.L.L.L.L.L.L.L.L.L.L.L.L.L.L.L.L.L.L.L.L.L.L.L.L.L.L.L.L.L.L.L.L.L.L.L.L.L.L.L.L.L.L.L.L.L.L.L.L.L.L.L.L.L.L.L.L.L.L.L.L.L.L.U.L.L.I.R.W.rXrXrXrXrXrXrXuXiXsXdXfXdXdXfXdXiXuXW.I.L.L.L.L.L.L.L.L.L.L.L.L.L.L.L.L.L.L.L.L.L.L.L.L.L.L.L.L.L.L.L.L.L.L.L.L.L.L.L.L.L.L.L.J.@.O.......X.X.X...| V M n n n n M n c e 1 , , , , 1 , , @ X               6 ( ' hXhXhX] ] ] kXxXMXVXVXVXVXVXVXVXVXVXVXVXVXVXVXVXVXVXVXVXVXVXVXVXVXVXVXVXVXVXVXVXVXVXVXVXVX",
"VXVXVXVXVXVXVXVXVXVXVXVXVXVXVXVXVXVXVXVXVXVXVXVXVXVXVXVXVXVXVXVXVXVXVXVXVXVXVXVXVXVXVXVXVXMXxX_ 9 6 7 7 7 9 7 6 *               @ q C O.+.+.+.O.+.+.@.F.K.U.U.L.L.L.L.L.L.L.L.L.L.L.L.L.L.L.L.L.L.L.L.L.L.L.L.L.L.L.L.L.L.L.L.L.L.L.L.L.L.L.L.L.L.L.L.L.L.L.L.L.L.L.L.L.L.L.L.L.L.L.L.L.L.L.L.L.U.U.L.L.I.W.uXiXiXiXiXiXiXiXiXsXsXdXdXdXdXfXdXiXuXE.I.L.L.L.L.L.L.L.L.L.L.L.L.L.L.L.L.L.L.L.L.L.L.L.L.L.L.L.L.L.L.L.L.L.L.L.L.L.L.L.L.L.L.L.K.J.F.F.F.F.F.F.F.@.X.C N n n n n n n n c c r r r c c c w , @               O = 7 9 9 7 7 6 7 ( kXnXVXVXVXVXVXVXVXVXVXVXVXVXVXVXVXVXVXVXVXVXVXVXVXVXVXVXVXVXVXVXVXVXVXVXVXVX",
"VXVXVXVXVXVXVXVXVXVXVXVXVXVXVXVXVXVXVXVXVXVXVXVXVXVXVXVXVXVXVXVXVXVXVXVXVXVXVXVXVXVXVXVXVXMXlX^ O                               @ c X.K.~.U.L.L.L.L.L.L.L.L.L.L.L.L.L.L.L.L.L.L.L.L.L.L.L.L.L.L.L.L.L.L.L.L.L.L.L.L.L.L.L.L.L.L.L.L.L.L.L.L.L.L.L.L.L.L.L.L.L.L.L.L.L.L.L.L.L.L.L.L.L.L.L.L.L.L.U.L.L.L.R.W.yXsXfXfXdXdXdXdXdXdXdXdXdXdXdXfXdXiXuXE.I.L.L.L.L.L.L.L.L.L.L.L.L.L.L.L.L.L.L.L.L.L.L.L.L.L.L.L.L.L.L.L.L.L.L.L.L.L.L.L.L.L.L.L.L.L.L.L.L.L.L.U.U.J.+.| B n n n n n n n n n n n n n M M c 1 @                                 7 hXnXVXVXVXVXVXVXVXVXVXVXVXVXVXVXVXVXVXVXVXVXVXVXVXVXVXVXVXVXVXVXVXVXVXVXVXVX",
"VXVXVXVXVXVXVXVXVXVXVXVXVXVXVXVXVXVXVXVXVXVXVXVXVXVXVXVXVXVXVXVXVXVXVXVXVXVXVXVXVXVXVXVXVXMXkX^                                 @ c O.U.~.~.~.~.~.T.U.U.L.L.L.L.L.L.L.L.L.L.L.L.L.L.L.L.L.L.L.L.L.L.L.L.L.L.L.L.L.L.L.L.L.L.L.L.L.L.L.L.L.L.L.L.L.U.U.L.L.L.L.L.L.L.L.L.L.L.L.L.L.L.L.L.L.L.L.L.L.L.L.L.I.W.yXsXfXfXfXfXfXfXfXdXdXdXdXdXdXfXdXiXuXW.I.L.L.L.L.L.L.L.L.L.L.L.L.L.L.L.L.L.L.L.L.L.L.L.L.L.L.L.L.L.L.L.L.L.L.L.L.L.L.L.L.L.L.L.L.U.U.U.U.U.U.U.U.K.@.| B n n n n n n n n M N N N N B B c 1 @                                 6 ] nXVXVXVXVXVXVXVXVXVXVXVXVXVXVXVXVXVXVXVXVXVXVXVXVXVXVXVXVXVXVXVXVXVXVXVXVX",
"VXVXVXVXVXVXVXVXVXVXVXVXVXVXVXVXVXVXVXVXVXVXVXVXVXVXVXVXVXVXVXVXVXVXVXVXVXVXVXVXVXVXVXVXVXMXlX^ O                               @ c X.L.~.U.U.U.U.U.U.L.L.L.L.L.L.L.L.L.L.L.L.L.L.L.L.L.L.L.L.L.L.L.L.L.L.L.L.L.L.L.L.L.L.L.L.L.L.L.L.L.L.L.L.L.L.L.U.U.L.L.L.L.L.L.L.L.L.L.L.U.L.L.L.L.L.L.L.L.L.L.L.L.I.W.yXsXfXfXdXdXdXdXdXdXdXdXdXdXdXfXdXiXuXE.I.L.L.L.L.L.L.L.L.L.L.L.L.L.L.L.L.L.L.L.L.L.L.L.L.L.L.L.L.L.L.L.L.L.L.L.L.L.L.L.L.L.L.L.L.L.L.L.L.L.U.U.U.K.+.| B n n n n n n n n n n n M M B M c 1 @                                 7 ] nXVXVXVXVXVXVXVXVXVXVXVXVXVXVXVXVXVXVXVXVXVXVXVXVXVXVXVXVXVXVXVXVXVXVXVXVX",
"VXVXVXVXVXVXVXVXVXVXVXVXVXVXVXVXVXVXVXVXVXVXVXVXVXVXVXVXVXVXVXVXVXVXVXVXVXVXVXVXVXVXVXVXVXMXlX^ O                               @ c X.K.~.U.U.L.L.L.L.L.L.L.L.L.L.L.L.L.L.L.L.L.L.L.L.L.L.L.L.L.L.L.L.L.L.L.L.L.L.L.L.L.L.L.L.L.L.L.L.L.L.L.L.L.U.U.U.U.L.L.L.L.L.L.L.L.L.L.L.L.L.L.L.L.L.L.L.L.L.L.L.L.I.W.yXsXfXfXdXdXdXdXdXdXdXdXdXdXdXfXdXiXuXE.I.L.L.L.L.L.L.L.L.L.L.L.L.L.L.L.L.L.L.L.L.L.L.L.L.L.L.L.L.L.L.L.L.L.L.L.L.L.L.L.L.L.L.L.L.L.L.L.L.L.L.U.U.J.+.| B n n n n n n n n n n n n n M M c 1 @                                 7 hXnXVXVXVXVXVXVXVXVXVXVXVXVXVXVXVXVXVXVXVXVXVXVXVXVXVXVXVXVXVXVXVXVXVXVXVXVX",
"VXVXVXVXVXVXVXVXVXVXVXVXVXVXVXVXVXVXVXVXVXVXVXVXVXVXVXVXVXVXVXVXVXVXVXVXVXVXVXVXVXVXVXVXVXMXlX^ O                               @ r X.K.~.U.U.L.L.L.L.L.L.L.L.L.L.L.L.L.L.L.L.L.L.L.L.L.L.L.L.L.L.L.L.L.L.L.L.L.L.L.L.L.L.L.L.L.L.L.L.L.L.L.L.L.U.U.L.U.L.L.L.L.L.L.L.L.L.L.L.L.L.L.L.L.L.L.L.L.L.L.Q.Q.I.W.yXsXfXfXdXdXdXdXdXdXdXdXdXdXdXgXfXtXuXW.I.L.L.L.L.L.L.L.L.L.L.L.L.L.L.L.L.L.L.L.L.L.L.L.L.L.L.L.L.L.L.L.L.L.L.L.L.L.L.L.L.L.L.L.L.L.L.L.L.L.L.U.U.J.+.| M n n n n n n n n n n n n n B M c 1 @                                 9 hXnXVXVXVXVXVXVXVXVXVXVXVXVXVXVXVXVXVXVXVXVXVXVXVXVXVXVXVXVXVXVXVXVXVXVXVXVX",
"VXVXVXVXVXVXVXVXVXVXVXVXVXVXVXVXVXVXVXVXVXVXVXVXVXVXVXVXVXVXVXVXVXVXVXVXVXVXVXVXVXVXVXVXVXMXlX^ O                               @ r X.K.~.U.L.L.L.L.L.L.L.L.L.L.L.L.L.L.L.L.L.L.L.L.L.L.L.L.L.L.L.L.L.L.L.L.L.L.L.L.L.L.L.L.L.L.L.L.L.L.L.L.L.L.U.U.L.U.L.L.L.L.L.L.L.L.L.L.L.L.L.L.L.L.L.L.L.L.L.L.Q.Q.I.W.yXsXfXfXdXdXdXdXdXdXdXdXdXdXdXfXfXtXuXW.I.L.L.L.L.L.L.L.L.L.L.L.L.L.L.L.L.L.L.L.L.L.L.L.L.L.L.L.L.L.L.L.L.L.L.L.L.L.L.L.L.L.L.L.L.L.L.L.L.L.L.U.U.J.+.| M n n n n n n n n n n n n n B M c 1 @                                 9 hXnXVXVXVXVXVXVXVXVXVXVXVXVXVXVXVXVXVXVXVXVXVXVXVXVXVXVXVXVXVXVXVXVXVXVXVXVX",
"VXVXVXVXVXVXVXVXVXVXVXVXVXVXVXVXVXVXVXVXVXVXVXVXVXVXVXVXVXVXVXVXVXVXVXVXVXVXVXVXVXVXVXVXVXMXlX^ O               X + + + + + X + , c O.K.T.U.L.L.L.L.L.L.L.L.L.L.L.L.L.L.L.L.L.L.L.L.L.L.L.L.L.L.L.L.L.L.L.L.L.L.L.L.L.L.L.L.L.L.L.L.L.L.L.L.L.L.U.I.H.H.H.H.H.H.H.H.H.R.R.R.R.R.R.R.R.R.R.R.R.R.R.R.R.R.R.W.yXsXfXfXdXdXdXdXdXdXdXdXdXdXdXfXfXtXuXW.I.L.L.L.L.L.L.L.L.L.L.L.L.L.L.L.L.L.L.L.L.L.L.L.L.L.L.L.L.L.L.L.L.L.L.L.L.L.L.L.L.L.L.L.L.L.L.L.L.L.L.U.U.J.@.| V B B B B B B B M n n n n n M M c q - X   . X X X X                   7 ' xXMXNXMXMXMXMXMXNXVXVXVXVXVXVXVXVXVXVXVXVXVXVXVXVXVXVXVXVXVXVXVXVXVXVXVXVX",
"VXVXVXVXVXVXVXVXVXVXVXVXVXVXVXVXVXVXVXVXVXVXVXVXVXVXVXVXVXVXVXVXVXVXVXVXVXVXVXVXVXVXVXVXVXMXlX^ O             + : 1 q q q q q q c C @.K.U.U.L.L.L.L.L.L.L.L.L.L.L.L.L.L.L.L.L.L.L.L.L.L.L.L.L.L.L.L.L.L.L.L.L.L.L.L.L.L.L.L.L.L.L.L.L.L.L.L.L.L.I.G.D.D.s.s.s.s.p.s.s.W.W.W.W.W.W.W.W.W.W.W.W.W.W.W.W.W.W.uXiXsXdXdXdXdXdXdXdXdXdXdXdXdXdXfXdXiXuXE.I.L.L.L.L.L.L.L.L.L.L.L.L.L.L.L.L.L.L.L.L.L.L.L.L.L.L.L.L.L.L.L.L.L.L.L.L.L.L.L.L.L.L.L.L.L.L.L.L.L.L.U.U.K.<.O. .| | | | | | C V N n n n n M n c e 1 : - - - : : - @ X               = ( hXlXlXlXlXkXkXzXcXmXVXVXVXVXVXVXVXVXVXVXVXVXVXVXVXVXVXVXVXVXVXVXVXVXVXVXVX",
"VXVXVXVXVXVXVXVXVXVXVXVXVXVXVXVXVXVXVXVXVXVXVXVXVXVXVXVXVXVXVXVXVXVXVXVXVXVXVXVXVXVXVXVXVXMXlX^ O             - e C |  .| | | | ..+.F.L.U.L.L.L.L.L.L.L.L.L.L.L.L.L.L.L.L.L.L.L.L.L.L.L.L.L.L.L.L.L.L.L.L.L.L.L.L.L.L.L.L.L.L.L.L.L.L.L.L.L.L.L.H.D.s.a.a.a.a.a.a.a.0XyXyXyXiXiXiXiXyXyXyXyXyXyXiXiXyXyXiXiXtXsXdXdXdXdXdXdXdXdXdXdXdXdXdXfXdXiXuXE.I.L.L.L.L.L.L.L.L.L.L.L.L.L.L.L.L.L.L.L.L.L.L.L.L.L.L.L.L.L.L.L.L.L.L.L.L.L.L.L.L.L.L.L.L.L.L.L.L.L.L.L.L.K.J.<.@.@.@.@.@.@.@.O.| B n n n n n n n c r w q w w e e q , @ .             O 6 9 ^ ^ ^ ^ ^ ^ ( jXvXNXVXVXVXVXVXVXVXVXVXVXVXVXVXVXVXVXVXVXVXVXVXVXVXVXVXVX",
"VXVXVXVXVXVXVXVXVXVXVXVXVXVXVXVXVXVXVXVXVXVXVXVXVXVXVXVXVXVXVXVXVXVXVXVXVXVXVXVXVXVXVXVXVXMXlX^ O             , M +.J.K.J.J.J.J.J.K.K.L.L.L.L.L.L.L.L.L.L.L.L.L.L.L.L.L.L.L.L.L.L.L.L.L.L.L.L.L.L.L.L.L.L.L.L.L.L.L.L.L.L.L.L.L.L.L.L.L.L.L.L.L.H.D.a.7X7X7X7X7X7X7XqXtXtXsXsXsXsXsXsXsXsXsXsXsXsXsXsXsXsXsXsXdXdXdXdXdXdXdXdXdXdXdXdXdXdXfXdXiXuXW.I.L.L.L.L.L.L.L.L.L.L.L.L.L.L.L.L.L.L.L.L.L.L.L.L.L.L.L.L.L.L.L.L.L.L.L.L.L.L.L.L.L.L.L.L.L.L.L.L.L.L.L.L.L.L.K.K.K.K.K.K.L.K.@...V n n n n n n n n n n n n n n n c q - X                 O O O O O     6 _ xXNXVXVXVXVXVXVXVXVXVXVXVXVXVXVXVXVXVXVXVXVXVXVXVXVXVXVX",
"VXVXVXVXVXVXVXVXVXVXVXVXVXVXVXVXVXVXVXVXVXVXVXVXVXVXVXVXVXVXVXVXVXVXVXVXVXVXVXVXVXVXVXVXVXMXlX^ O           . , V F.~.~.~.T.~.T.U.U.U.L.L.L.L.L.L.L.L.L.L.L.L.L.L.L.L.L.L.L.L.L.L.L.L.L.L.L.L.L.L.L.L.L.L.L.L.L.L.L.L.L.L.L.L.L.L.L.L.L.L.L.L.L.H.s.a.7X8X8X8X8X8X8XqXtXaXfXfXfXfXfXfXfXfXfXfXfXfXfXfXfXfXdXdXdXdXdXdXdXdXdXdXdXdXdXdXdXdXfXdXiXuXW.I.L.L.L.L.L.L.L.L.L.L.L.L.L.L.L.L.L.L.L.L.L.L.L.L.L.L.L.L.L.L.L.L.L.L.L.L.L.L.L.L.L.L.L.L.L.L.L.L.L.L.L.L.L.L.U.U.U.U.U.U.U.L.<...V n n n n n n n M M M M M M B B n e : X                               * ( xXNXVXVXVXVXVXVXVXVXVXVXVXVXVXVXVXVXVXVXVXVXVXVXVXVXVXVX",
"VXVXVXVXVXVXVXVXVXVXVXVXVXVXVXVXVXVXVXVXVXVXVXVXVXVXVXVXVXVXVXVXVXVXVXVXVXVXVXVXVXVXVXVXVXMXlX^ O             , B <.~.~.U.U.U.U.U.U.L.L.L.L.L.L.L.L.L.L.L.L.L.L.L.L.L.L.L.L.L.L.L.L.L.L.L.L.L.L.L.L.L.L.L.L.L.L.L.L.L.L.L.L.L.L.L.L.U.U.L.L.L.L.H.s.a.7X8X8X8X8X6X8XqXtXpXfXfXdXfXfXfXfXdXdXdXfXfXfXfXdXfXdXdXdXdXdXdXdXdXdXdXdXdXdXdXdXdXfXdXiXuXW.I.L.L.L.L.L.L.L.L.L.L.L.L.L.L.L.L.L.L.L.L.L.L.L.L.L.L.L.L.L.L.L.L.L.L.L.L.L.L.L.L.L.L.L.L.L.L.L.L.L.L.L.L.L.L.U.U.U.U.U.U.U.L.<...V n n n n n n n n M M M M M N B n e - X                               * ( xXNXVXVXVXVXVXVXVXVXVXVXVXVXVXVXVXVXVXVXVXVXVXVXVXVXVXVX",
"VXVXVXVXVXVXVXVXVXVXVXVXVXVXVXVXVXVXVXVXVXVXVXVXVXVXVXVXVXVXVXVXVXVXVXVXVXVXVXVXVXVXVXVXVXMXlX^ O             , B @.U.T.L.L.L.L.L.L.L.L.L.L.L.L.L.L.L.L.L.L.L.L.L.L.L.L.L.L.L.L.L.L.L.L.L.L.L.L.L.L.L.L.L.L.L.L.L.L.L.L.L.L.L.L.L.U.U.U.L.L.L.L.H.s.a.7X8X8X8X8X6X7XqXtXpXdXdXsXdXdXdXdXdXdXdXdXdXdXdXdXdXdXdXdXdXdXdXdXdXdXdXdXdXdXdXdXdXfXfXiXuXW.I.L.L.L.L.L.L.L.L.L.L.L.L.L.L.L.L.L.L.L.L.L.L.L.L.L.L.L.L.L.L.L.L.L.L.L.L.L.L.L.L.L.L.L.L.L.L.L.L.L.L.L.L.L.L.L.L.L.L.L.U.U.L.@...V n n n n n n n n n n n n n M M n w - X                               = ( xXNXVXVXVXVXVXVXVXVXVXVXVXVXVXVXVXVXVXVXVXVXVXVXVXVXVXVX",
"VXVXVXVXVXVXVXVXVXVXVXVXVXVXVXVXVXVXVXVXVXVXVXVXVXVXVXVXVXVXVXVXVXVXVXVXVXVXVXVXVXVXVXVXVXMXlX^ O             , B @.U.T.L.L.L.L.L.L.L.L.L.L.L.L.L.L.L.L.L.L.L.L.L.L.L.L.L.L.L.L.L.L.L.L.L.L.L.L.L.L.L.L.L.L.L.L.L.L.L.L.L.L.L.L.U.U.U.U.L.L.Q.L.H.s.a.7X8X8X8X8X6X8XqXtXaXgXgXdXdXdXgXdXdXdXdXdXdXdXdXdXdXdXdXdXdXdXdXdXdXdXdXdXdXdXdXdXdXfXfXsXuXE.U.Q.L.L.L.L.L.L.L.L.L.L.L.L.L.L.L.L.L.L.L.L.L.L.L.L.L.L.L.L.L.L.L.L.L.L.L.L.L.L.L.L.L.L.L.L.L.L.L.L.L.L.L.L.L.L.L.L.L.L.L.U.L.@...V n n n n n n n n n n n n n M M n w - .                               = ( xXNXVXVXVXVXVXVXVXVXVXVXVXVXVXVXVXVXVXVXVXVXVXVXVXVXVXVX",
"VXVXVXVXVXVXVXVXVXVXVXVXVXVXVXVXVXVXVXVXVXVXVXVXVXVXVXVXVXVXVXVXVXVXVXVXVXVXVXVXVXVXVXVXVXNXlX^ O             , B @.U.T.L.L.L.L.L.L.L.L.L.L.L.L.L.L.L.L.L.L.L.L.L.L.L.L.L.L.L.L.L.L.L.L.L.L.L.L.L.L.L.L.L.L.L.L.L.L.L.L.L.L.L.L.L.L.L.U.L.L.Q.Q.H.D.a.7X8X8X8X8X6X8XqXtXaXgXgXdXgXgXgXgXgXgXgXgXgXgXgXgXdXdXdXdXdXdXdXdXdXdXdXdXdXdXdXdXdXfXfXtXuXE.U.Q.Q.L.L.L.L.L.L.L.L.L.L.L.L.L.L.L.L.L.L.L.L.L.L.L.L.L.L.L.L.L.L.L.L.L.L.L.L.L.L.L.L.L.L.L.L.L.L.L.L.L.L.L.L.L.L.L.L.L.L.U.L.@...V n n n n n n n n n n n n n M M n q -                                 = ( xXNXVXVXVXVXVXVXVXVXVXVXVXVXVXVXVXVXVXVXVXVXVXVXVXVXVXVX",
"VXVXVXVXVXVXVXVXVXVXVXVXVXVXVXVXVXVXVXVXVXVXVXVXVXVXVXVXVXVXVXVXVXVXVXVXVXVXVXVXNXVXVXVXVXmXkX^ O             , B @.U.T.U.L.L.L.L.L.L.L.L.L.L.L.L.L.L.L.L.L.L.L.L.L.L.L.L.L.L.L.L.L.L.L.L.L.L.L.L.L.L.L.L.L.L.L.L.L.L.L.L.L.L.L.I.I.I.I.I.I.L.U.G.s.a.7X8X8X8X8X6X8XqXtXpXdXdXaXaXaXaXaXsXsXaXaXaXaXaXaXsXsXdXdXdXdXdXdXdXdXdXdXdXdXdXdXdXfXfXtXuXW.I.L.L.I.I.I.I.I.I.L.L.L.L.L.L.L.L.L.L.L.L.L.L.L.L.L.L.L.L.L.L.L.L.L.L.L.L.L.L.L.L.L.L.L.L.L.L.L.L.L.L.L.L.L.L.L.L.L.L.L.L.U.L.<...V n n M M M M M M n n n n n M M n w : X                               = ( xXNXVXVXVXVXVXVXVXVXVXVXVXVXVXVXVXVXVXVXVXVXVXVXVXVXVXVX",
"VXVXVXVXVXVXVXVXVXVXVXVXVXVXVXVXVXVXVXVXVXVXVXVXVXVXVXVXVXVXVXVXVXVXVXVXNXnXvXxXxXxXcXcXcXzX] 9 O             , B @.U.T.L.L.L.L.L.L.L.L.L.L.L.L.L.L.L.L.L.L.L.L.L.L.L.L.L.L.L.L.L.L.L.L.L.L.L.L.L.L.L.L.L.L.L.L.L.L.L.L.L.L.L.I.G.G.D.D.D.D.D.D.D.s.i.7X8X8X8X8X6X8X9XwXtXtXtXtXtXtXtXtXtXtXtXtXtXtXtXtXtXpXaXsXdXdXdXdXdXdXdXdXdXdXdXdXdXfXdXsXyXs.D.D.D.D.D.D.D.G.H.I.L.L.L.L.L.L.L.L.L.L.L.L.L.L.L.L.L.L.L.L.L.L.L.L.L.L.L.L.L.L.L.L.L.L.L.L.L.L.L.L.L.L.L.L.L.L.L.L.L.L.L.U.L.F.O.| C C C C C C C V B n n n n n M n r 1 - @ @ @ @ @ @ @ X               = ( xXNXVXVXVXVXVXVXVXVXVXVXVXVXVXVXVXVXVXVXVXVXVXVXVXVXVXVX",
"VXVXVXVXVXVXVXVXVXVXVXVXVXVXVXVXVXVXVXVXVXVXVXVXVXVXVXVXVXVXVXVXVXVXVXVXmXxXhX_ _ _ _ _ _ _ ^ 6               , B @.U.T.U.L.L.L.L.L.L.L.L.L.L.L.L.L.L.L.L.L.L.L.L.L.L.L.L.L.L.L.L.L.L.L.L.L.L.L.L.L.L.L.L.L.L.L.L.L.L.L.L.L.L.H.D.s.s.a.a.s.s.s.a.a.7X7X8X8X8X8X8X8X9XqXwXwXwXwXwXwXwXwXwXwXwXwXwXwXwXwXwXtXtXaXdXdXdXdXdXdXdXdXdXdXdXdXdXfXdXsXiXrXa.s.s.s.a.a.s.s.D.I.L.L.L.L.L.L.L.L.L.L.L.L.L.L.L.L.L.L.L.L.L.L.L.L.L.L.L.L.L.L.L.L.L.L.L.L.L.L.L.L.L.L.L.L.L.L.L.L.L.L.L.U.L.J.<.+.O.O.O.O.+.+.X.| V n n n n n M n c e 0 1 1 1 1 1 1 , - X             = ( xXNXVXVXVXVXVXVXVXVXVXVXVXVXVXVXVXVXVXVXVXVXVXVXVXVXVXVX",
"VXVXVXVXVXVXVXVXVXVXVXVXVXVXVXVXVXVXVXVXVXVXVXVXVXVXVXVXVXVXVXVXVXVXVXVXnXjX^ = * = = = = = * O               , B @.U.T.U.L.L.L.L.L.L.L.L.L.L.L.L.L.L.L.L.L.L.L.L.L.L.L.L.L.L.L.L.L.L.L.L.L.L.L.L.L.L.L.L.L.L.L.L.L.L.L.L.L.L.G.s.a.7X7X7X7X7X7X7X7X7X8X8X8X8X8X8X8X8X9X9X9X9X9X9X9X9X9X9X9X9X9X9X9X9X9X9XwXtXaXdXdXdXdXdXdXdXdXdXdXdXdXdXgXdXpXtX0X7Xi.7X7X7X7Xi.a.D.H.L.L.L.L.L.L.L.L.L.L.L.L.L.L.L.L.L.L.L.L.L.L.L.L.L.L.L.L.L.L.L.L.L.L.L.L.L.L.L.L.L.L.L.L.L.L.L.L.L.L.L.L.L.K.J.J.F.F.F.J.J.J.@.X.C M n n n n n n n c c c c c c c c e , +             = ( xXNXVXVXVXVXVXVXVXVXVXVXVXVXVXVXVXVXVXVXVXVXVXVXVXVXVXVX",
"VXVXVXVXVXVXVXVXVXVXVXVXVXVXVXVXVXVXVXVXVXVXVXVXVXVXVXVXVXVXVXVXVXVXVXVXnX] 7                                 , B @.U.T.L.L.L.L.L.L.L.L.L.L.L.L.L.L.L.L.L.L.L.L.L.L.L.L.L.L.L.L.L.L.L.L.L.L.L.L.L.L.L.L.L.L.L.L.L.L.L.L.L.L.L.G.s.i.8X8X8X8X8X8X8X8X8X8X8X8X8X8X8X8X8X8X8X6X6X6X8X8X8X8X6X6X6X6X8X8X6X6X8XqXtXaXdXdXdXdXdXdXdXdXdXdXdXdXdXgXdXpXtXqX8X6X8X8X8X8X7Xa.s.H.L.L.L.L.L.L.L.L.L.L.L.L.L.L.L.L.L.L.L.L.L.L.L.L.L.L.L.L.L.L.L.L.L.L.L.L.L.L.L.L.L.L.L.L.L.L.L.L.L.L.L.L.L.L.L.U.U.U.U.U.U.U.J.O.C M n n n n n n n n M M M M M B M c 1 @             * ( xXNXVXVXVXVXVXVXVXVXVXVXVXVXVXVXVXVXVXVXVXVXVXVXVXVXVXVX",
"VXVXVXVXVXVXVXVXVXVXVXVXVXVXVXVXVXVXVXVXVXVXVXVXVXVXVXVXVXVXVXVXVXVXVXVXnX] 7                                 , B @.U.T.L.L.L.L.L.L.L.L.L.L.L.L.L.L.L.L.L.L.L.L.L.L.L.L.L.L.L.L.L.L.L.L.L.L.L.L.L.L.L.L.L.L.L.L.L.L.L.L.L.L.L.G.s.7X8X8X8X8X8X8X8X8X8X8X8X8X8X8X8X8X8X8X6X6X6X6X8X8X8X6X6X6X6X6X6X6X6X6X8XqXtXaXdXdXdXdXdXdXdXdXdXdXdXdXdXdXdXpXtXqX8X8X8X8X8X8X7Xa.s.H.L.L.L.L.L.L.L.L.L.L.L.L.L.L.L.L.L.L.L.L.L.L.L.L.L.L.L.L.L.L.L.L.L.L.L.L.L.L.L.L.L.L.L.L.L.L.L.L.L.L.L.L.L.L.U.U.U.U.U.U.U.U.J.+.C M n n n n n n n M M M M M N B M c 1 @             * ( xXNXVXVXVXVXVXVXVXVXVXVXVXVXVXVXVXVXVXVXVXVXVXVXVXVXVXVX",
"VXVXVXVXVXVXVXVXVXVXVXVXVXVXVXVXVXVXVXVXVXVXVXVXVXVXVXVXVXVXVXVXVXVXVXVXnX] 7                                 , B @.U.T.L.L.L.L.L.L.L.L.L.L.L.L.L.L.L.L.L.L.L.L.L.L.L.L.L.L.L.L.L.L.L.L.L.L.L.L.L.L.L.L.L.L.L.L.U.U.I.I.L.L.U.G.s.i.8X8X8X8X8X8X8X8X8X8X8X8X8X8X8X8X8X8X8X8X8X8X8X8X8X8X8X8X8X8X8X8X6X6X9XqXtXaXdXdXdXdXdXdXdXdXdXdXdXdXdXdXdXpXtXqX8X6X6X8X8X8X7Xa.s.H.L.L.L.L.L.L.L.L.L.L.L.L.L.L.L.L.L.L.L.L.L.L.L.L.L.L.L.L.L.L.L.L.L.L.L.L.L.L.L.L.L.L.L.L.L.L.L.L.L.L.L.L.L.L.L.L.L.L.L.L.U.U.J.O.C M n n n n n n n n n n n n M M n r , +             * ( xXNXVXVXVXVXVXVXVXVXVXVXVXVXVXVXVXVXVXVXVXVXVXVXVXVXVXVX",
"VXVXVXVXVXVXVXVXVXVXVXVXVXVXVXVXVXVXVXVXVXVXVXVXVXVXVXVXVXVXVXVXVXVXVXVXnXhX7                                 , B @.U.T.L.L.L.L.L.L.L.L.L.L.L.L.L.L.L.L.L.L.L.L.L.L.L.L.L.L.L.L.L.L.L.L.L.L.L.L.L.L.L.L.L.L.L.L.L.U.U.I.L.L.U.G.s.i.8X8X8X8X8X8X8X8X8X8X8X8X8X8X8X8X8X8X8X8X8X8X8X8X8X8X8X8X8X8X8X8X6X6X9XqXtXaXgXgXdXdXdXdXdXdXdXdXdXdXdXgXdXpXtXqX8X6X6X8X8X8X7Xa.s.H.L.L.L.L.L.L.L.L.L.L.L.L.L.L.L.L.L.L.L.L.L.L.L.L.L.L.L.L.L.L.L.L.L.L.L.L.L.L.L.L.L.L.L.L.L.L.L.L.L.L.L.L.L.L.L.L.L.L.L.L.U.L.F.O.C M n n n n n n n n n n n n M M n r , +             * _ xXNXVXVXVXVXVXVXVXVXVXVXVXVXVXVXVXVXVXVXVXVXVXVXVXVXVXVX",
"VXVXVXVXVXVXVXVXVXVXVXVXVXVXVXVXVXVXVXVXVXVXVXVXVXVXVXVXVXVXVXVXVXVXVXVXnXhX7                                 , B @.U.T.U.L.L.L.L.L.L.L.L.L.L.L.L.L.L.L.L.L.L.L.L.L.L.L.L.L.L.L.L.L.L.L.L.L.L.L.L.L.L.L.L.L.L.L.L.L.U.U.L.L.U.G.s.i.8X8X8X8X8X8X8X8X6X6X6X6X6X6X6X6X6X6X6X6X6X6X6X6X6X6X6X6X6X6X6X6X6X6X8XqXtXaXgXgXgXgXdXdXdXdXdXdXdXdXgXgXgXaXtXqX8X6X6X8X8X8X7Xa.s.H.Q.Q.U.U.U.U.U.U.L.L.L.L.L.L.L.L.L.L.L.L.L.L.L.L.L.L.L.L.L.L.L.L.L.L.L.L.L.L.L.L.L.L.L.L.L.L.L.L.L.L.L.L.L.L.L.L.L.L.L.L.U.U.F.O.C M n n n n n n n n n n n n M B n r , +             = _ xXVXVXVXVXVXVXVXVXVXVXVXVXVXVXVXVXVXVXVXVXVXVXVXVXVXVXVX",
"VXVXVXVXVXVXVXVXVXVXVXVXVXVXVXVXVXVXVXVXVXVXVXVXVXVXVXVXVXVXVXVXVXVXVXVXnXhX7                                 , B @.U.T.U.L.L.L.L.L.L.L.L.L.L.L.L.L.L.L.L.L.L.L.L.L.L.L.L.L.L.L.L.L.L.L.L.L.L.L.L.L.L.L.L.L.L.L.L.L.U.U.L.L.L.G.s.i.8X8X8X8X8X8X8X8X8X8X8X8X8X8X8X8X8X8X8X8X8X8X8X8X8X8X8X8X8X8X8X8X6X6X9XqXtXaXgXgXdXdXdXdXdXdXdXdXdXdXdXgXdXpXtXqX8X6X6X8X8X8X7Xa.s.H.L.L.U.U.L.L.L.L.L.L.L.L.L.L.L.L.L.L.L.L.L.L.L.L.L.L.L.L.L.L.L.L.L.L.L.L.L.L.L.L.L.L.L.L.L.L.L.L.L.L.L.L.L.L.L.L.L.L.L.L.U.U.F.O.C M n n n n n n n n n n n n M B n r , +             = _ xXNXVXVXVXVXVXVXVXVXVXVXVXVXVXVXVXVXVXVXVXVXVXVXVXVXVXVX",
"VXVXVXVXVXVXVXVXVXVXVXVXVXVXVXVXVXVXVXVXVXVXVXVXVXVXVXNXMXnXnXnXnXnXmXnXxX_ 7               X + @ @ @ @ @ @ - q C <.U.U.L.L.L.L.L.L.L.L.L.L.L.L.L.L.L.L.L.L.L.L.L.L.L.L.L.L.L.L.L.L.L.L.L.L.L.L.L.L.L.L.L.L.L.L.L.L.L.L.U.L.I.G.s.i.8X8X8X8X8X8X8X8X9X9X9X9X9X9X9X9X9X9X9X9X9X9X9X9X9X9X9X9X9X9X9X9X9X9X9XwXtXtXpXpXpXpXpXpXpXpXpXpXpXpXpXpXpXtXeXqX8X6X8X8X8X8X7Xa.s.F.x.x.F.F.F.F.F.J.K.L.L.L.L.L.L.L.L.L.L.L.L.L.L.L.L.L.L.L.L.L.L.L.L.L.L.L.L.L.L.L.L.L.L.L.L.L.L.L.L.L.L.L.L.L.L.L.L.L.L.L.U.U.F.O.C M n n n n n n n n n n n n n M n c , +             * ( kXnXmXnXnXnXnXnXmXMXVXVXVXVXVXVXVXVXVXVXVXVXVXVXVXVXVXVX",
"VXVXVXVXVXVXVXVXVXVXVXVXVXVXVXVXVXVXVXVXVXVXVXVXVXVXVXnXxXkXjXjXjXjXkXjX' ^ =             . - 1 r c c c r r c B ..F.U.U.L.L.L.L.L.L.L.L.L.L.L.L.L.L.L.L.L.L.L.L.L.L.L.L.L.L.L.L.L.L.L.L.L.L.L.L.L.L.L.L.L.L.L.L.L.L.L.L.U.L.U.G.s.i.8X8X8X8X8X8X8X9XqXwXeXeXeXeXeXeXeXeXeXeXeXeXeXeXeXeXeXeXeXeXeXeXeXeXeXeXeXeXeXeXeXeXeXeXeXeXeXeXeXeXeXtXeXeXqX9X8X8X8X8X8X8X7Xi._ X.X.X.X.X.X.X.+.@.J.L.U.L.L.L.L.L.L.L.L.L.L.L.L.L.L.L.L.L.L.L.L.L.L.L.L.L.L.L.L.L.L.L.L.L.L.L.L.L.L.L.L.L.L.L.L.L.L.L.L.L.U.U.F.O.C M n n n n n n n n n n n n n M n c , +             O 9 _ hXjXjXjXjXhXjXzXvXNXVXVXVXVXVXVXVXVXVXVXVXVXVXVXVXVXVX",
"VXVXVXVXVXVXVXVXVXVXVXVXVXVXVXVXVXVXVXVXVXVXVXVXVXVXNXcXhX^ 9 9 9 9 9 9 7 = O             X 1 M ..O.O.X.X.X.X.+.<.K.L.U.L.L.L.L.L.L.L.L.L.L.L.L.L.L.L.L.L.L.L.L.L.L.L.L.L.L.L.L.L.L.L.L.L.L.L.L.L.L.L.L.L.L.L.L.L.L.L.L.L.L.L.G.s.i.8X8X8X8X8X8X9XqXtXtXpXpXtXtXtXtXpXtXtXtXtXtXtXtXpXtXtXtXtXtXtXtXpXpXtXtXwXqX9X9XqXqXqXqXqXqX9XqXqXqXqXqXqX9X9X8X8X8X8X8X8X8X7X~ ( C C C C C C C | +.F.L.U.L.L.L.L.L.L.L.L.L.L.L.L.L.L.L.L.L.L.L.L.L.L.L.L.L.L.L.L.L.L.L.L.L.L.L.L.L.L.L.L.L.L.L.L.L.L.L.L.L.U.U.F.O.C M n n n n n n n n n n n n n M n r , +               * 6 9 9 9 9 9 9 9 _ zXmXVXVXVXVXVXVXVXVXVXVXVXVXVXVXVXVXVX",
"VXVXVXVXVXVXVXVXVXVXVXVXVXVXVXVXVXVXVXVXVXVXVXVXVXVXNXxX_ =                               + q | F.U.U.K.K.K.K.L.L.L.L.L.L.L.L.L.L.L.L.L.L.L.L.L.L.L.L.L.L.L.L.L.L.L.L.L.L.L.L.L.L.L.L.L.L.L.L.L.L.L.L.L.L.L.L.L.L.L.L.L.L.L.L.G.s.i.8X8X8X8X8X8X9XwXtXaXdXdXdXdXdXdXdXdXdXdXdXdXdXdXdXdXdXdXdXdXdXdXdXdXaXtXqX9X8X8X8X8X8X8X8X8X8X8X8X8X8X8X8X8X8X8X8X8X8X8X8X8X7X~ ! n M M n n n n C X.F.L.U.L.L.L.L.L.L.L.L.L.L.L.L.L.L.L.L.L.L.L.L.L.L.L.L.L.L.L.L.L.L.L.L.L.L.L.L.L.L.L.L.L.L.L.L.L.L.L.L.L.U.U.F.O.C M n n n n n n n n n n n n n M n r , +                               O ^ kXmXVXVXVXVXVXVXVXVXVXVXVXVXVXVXVXVXVX",
"VXVXVXVXVXVXVXVXVXVXVXVXVXVXVXVXVXVXVXVXVXVXVXVXVXVXNXxX( O                               + w  .K.~.~.~.~.~.T.U.U.L.L.L.L.L.L.L.L.L.L.L.L.L.L.L.L.L.L.L.L.L.L.L.L.L.L.L.L.L.L.L.L.L.L.L.L.L.L.L.L.L.L.L.L.L.L.L.L.L.L.L.L.L.L.G.s.i.8X8X8X8X6X6X9XwXtXdXgXgXgXdXgXgXgXgXdXdXdXdXgXgXgXgXdXdXdXgXdXgXgXgXaXtXqX8X6X6X6X6X6X6X6X6X6X6X6X6X6X6X6X6X8X8X8X8X8X8X8X8X7X~ ! v n n n n n n V ..<.L.U.L.L.L.L.L.L.L.L.L.L.L.L.L.L.L.L.L.L.L.L.L.L.L.L.L.L.L.L.L.L.L.L.L.L.L.L.L.L.L.L.L.L.L.L.L.L.L.L.L.U.U.F.O.C M n n n n n n n n n n n n M M n r , +                                 9 kXmXVXVXVXVXVXVXVXVXVXVXVXVXVXVXVXVXVX",
"VXVXVXVXVXVXVXVXVXVXVXVXVXVXVXVXVXVXVXVXVXVXVXVXVXVXNXxX( *                               + q | J.~.~.U.U.U.U.U.U.L.L.L.L.L.L.L.L.L.L.L.L.L.L.L.L.L.L.L.L.L.L.L.L.L.L.L.L.L.L.L.L.L.L.L.L.L.L.L.L.L.L.L.L.L.L.L.L.L.L.L.L.L.L.G.s.i.8X8X8X8X6X6X9XwXtXaXgXgXdXdXdXdXdXdXdXdXdXdXdXdXdXdXdXdXdXdXdXdXgXgXaXtXqX8X6X6X8X8X8X8X8X8X8X8X8X8X8X8X8X8X8X8X8X8X8X8X8X8X7X~ ! v n M n n n n V ..F.L.U.L.L.L.L.L.L.L.L.L.L.L.L.L.L.L.L.L.L.L.L.L.L.L.L.L.L.L.L.L.L.L.L.L.L.L.L.L.L.L.L.L.L.L.L.L.L.L.L.L.U.U.F.O.C M n n n n n n n n n n n n M M n r , +                                 9 kXmXVXVXVXVXVXVXVXVXVXVXVXVXVXVXVXVXVX",
"VXVXVXVXVXVXVXVXVXVXVXVXVXVXVXVXVXVXVXVXVXVXVXVXVXVXNXxX( *                               + q | J.T.U.L.L.L.L.L.L.L.L.L.L.L.L.L.L.L.L.L.L.L.L.L.L.L.L.L.L.L.L.L.L.L.L.L.L.L.L.L.L.L.L.L.L.L.L.L.L.L.L.L.L.L.L.L.L.L.L.L.L.L.L.G.s.i.8X8X8X8X6X6X9XwXtXaXdXdXdXdXdXdXdXdXdXdXdXdXdXdXdXdXdXdXdXdXdXdXdXgXaXtXqX9X6X6X8X8X8X8X8X8X8X8X8X8X8X8X8X8X8X8X8X8X8X8X8X8X7X~ ! v M M n n n n V ..F.L.U.L.L.L.L.L.L.L.L.L.L.L.L.L.L.L.L.L.L.L.L.L.L.L.L.L.L.L.L.L.L.L.L.L.L.L.L.L.L.L.L.L.L.L.L.L.L.L.L.L.U.U.J.O.C M n n n n n n n n n n n n M B n r , +                               O ^ kXmXVXVXVXVXVXVXVXVXVXVXVXVXVXVXVXVXVX",
"VXVXVXVXVXVXVXVXVXVXVXVXVXVXVXVXVXVXVXVXVXVXVXVXVXVXNXxX( *                               + q | J.T.U.L.L.L.L.L.L.L.L.L.L.L.L.L.L.L.U.I.I.I.I.I.I.I.I.I.I.I.U.I.I.I.I.I.I.I.I.I.I.I.I.I.I.U.L.L.L.L.L.L.L.L.L.L.L.L.L.L.L.L.L.G.s.i.8X8X8X8X8X8X9XwXtXaXdXdXdXdXdXdXdXdXdXdXdXdXdXdXdXdXdXdXdXdXdXgXgXgXaXtXwX9X6X8X8X8X8X8X8X8X8X8X8X8X8X8X8X8X8X8X8X8X8X8X8X9X7X~ ! v M M n n n n V ..F.L.U.L.L.L.L.L.L.L.L.L.L.L.L.L.L.L.L.L.L.L.L.L.L.L.L.L.L.U.U.U.U.U.U.U.L.L.L.L.L.L.L.L.L.L.L.L.L.L.L.L.U.U.F.O.C M n n n n n n n n n n n n M B n r , +                               O ^ kXmXVXVXVXVXVXVXVXVXVXVXVXVXVXVXVXVXVX",
"VXVXVXVXVXVXVXVXVXVXVXVXVXVXVXVXVXVXVXVXVXVXVXVXVXVXNXxX( =                               + q | J.T.U.L.L.L.L.L.L.L.L.L.L.L.L.L.L.U.I.I.I.I.I.I.I.I.I.U.I.I.I.I.I.I.I.U.I.I.I.I.I.I.P.I.U.U.L.L.L.L.L.L.L.L.L.L.L.L.L.U.L.L.L.G.s.i.8X8X8X8X8X8X9XwXtXaXdXdXdXdXdXdXdXdXdXdXdXdXdXdXdXdXdXdXdXdXdXdXgXgXaXtXwX9X6X6X8X8X8X8X8X8X8X8X8X8X8X8X8X8X8X8X8X8X8X8X8X9X7X~ ! b M M n n n n C ..F.L.U.L.L.L.L.L.L.L.L.L.L.L.L.L.L.L.L.L.L.L.L.L.L.L.L.L.U.U.U.U.L.L.L.L.L.L.L.L.L.L.L.L.L.L.L.L.L.L.L.L.U.U.F.O.C M n n n n n n n n n n n n M N n r , +                               O ^ kXmXVXVXVXVXVXVXVXVXVXVXVXVXVXVXVXVXVX",
"VXVXVXVXVXVXVXVXVXVXVXVXVXVXVXVXVXVXVXVXVXVXVXVXVXVXNXxX( =                               + q | J.T.U.L.L.L.L.L.L.L.L.L.L.L.L.L.L.L.Y.Y.Y.Y.Y.Y.Y.Y.Y.Y.Y.Y.Y.Y.Y.Y.Y.Y.Y.Y.Y.Y.Y.Y.Y.Y.Y.L.L.L.L.L.L.L.L.L.L.L.L.L.L.U.L.L.L.G.s.i.7X7X7X7X7X7X0XwXtXaXdXdXdXdXdXdXdXdXdXdXdXdXdXdXdXdXaXaXaXaXaXaXaXaXpXtXqX8X6X6X8X8X8X8X8X8X8X8X8X8X8X8X8X8X7X7X7X7X7X7X7X7Xu.~ ! b M M M n n n C X.F.L.U.L.L.L.L.L.L.L.L.L.L.L.L.L.L.L.L.L.L.L.L.L.L.L.K.K.H.H.H.H.H.H.H.H.K.K.L.L.L.L.L.L.L.L.L.L.L.L.L.L.U.U.F.O.C M n n n n n n n n n n n n n M n c 1 @ .     . . .                   O ^ kXmXVXVXVXVXVXVXVXVXVXVXVXVXVXVXVXVXVX",
"VXVXVXVXVXVXVXVXVXVXVXVXVXVXVXVXVXVXVXVXVXVXVXVXVXVXNXxX( =                               + q | J.T.U.L.L.L.L.L.L.L.L.L.L.L.U.L.Y.!.v.v.v.v.v.v.v.v.v.v.v.v.v.v.v.v.v.v.v.v.v.v.v.v.v.v.v.!.Y.L.L.L.L.L.L.L.L.L.L.L.U.U.L.L.L.G.D.s.a.a.a.a.a.a.a.wXtXsXdXdXdXdXdXdXdXdXdXdXdXdXdXdXdXaXpXtXtXtXtXtXtXtXtXwXqX8X6X8X8X8X8X8X8X8X8X8X8X8X8X8X8X7Xu.~ ~ ~ ~ ~ ~ ~ ~ ! b n M M M n n n C X.F.L.U.L.L.L.L.L.L.L.L.L.L.L.L.L.L.L.L.L.L.L.L.L.L.L.K.G.D.D.t.z.D.z.D.D.D.G.K.L.L.L.L.L.L.L.L.L.L.L.L.L.U.U.F.O.C M n n n n n n n n n n n n n M n c q , - - - - - - $ @ X             O ^ kXmXVXVXVXVXVXVXVXVXVXVXVXVXVXVXVXVXVX",
"VXVXVXVXVXVXVXVXVXVXVXVXVXVXVXVXVXVXVXVXVXVXVXVXVXVXNXxX( =                               + q | J.U.U.L.L.L.L.L.L.L.L.L.L.L.I.L.Y.v.C.Z.Z.Z.Z.Z.Z.Z.Z.Z.Z.Z.Z.Z.Z.Z.Z.Z.Z.Z.Z.Z.Z.Z.Z.Z.C.b.!.L.I.I.L.L.L.L.L.L.L.L.U.U.L.L.L.H.G.D.D.D.D.D.D.D.s.rXiXsXfXdXdXdXdXdXdXdXdXdXdXdXdXdXdXaXtXeXwXqXqXwXwXwXqXqX9X8X8X8X8X8X8X8X8X8X8X8X8X8X8X8X8X7X~ ! ! b b b ! ! b b b M M M M n n n C ..F.L.U.L.L.L.L.L.L.L.L.L.L.L.L.L.L.L.L.L.L.L.L.L.U.L.H.D.r.y.y.y.y.y.y.y.t.D.K.U.L.L.L.L.L.L.L.L.L.L.L.L.U.U.F.O.C M n n n n n n n n n n n n n n n n c e q q q q w q 1 , @             O ^ kXmXVXVXVXVXVXVXVXVXVXVXVXVXVXVXVXVXVX",
"VXVXVXVXVXVXVXVXVXVXVXVXVXVXVXVXVXVXVXVXVXVXVXVXVXVXNXxX( *                               + q | J.T.U.L.L.L.L.L.L.L.L.L.L.L.P.L.!.b.Z.A.N.N.A.A.A.A.A.A.A.A.A.A.A.A.A.A.A.A.A.A.A.A.N.N.M.C.v.L.P.U.L.L.L.L.L.L.L.L.L.L.L.L.L.I.I.I.H.H.H.H.I.I.R.p.iXsXfXfXdXdXdXdXdXdXdXdXdXdXdXgXdXpXtXqX9X8X9X9X9X9X9X8X8X8X8X8X8X8X8X8X8X8X8X8X8X8X8X8X8Xu.~ / v M M n n n n M M n n n n n n n V ..F.L.U.L.L.L.L.L.L.L.L.L.L.L.L.L.L.L.L.L.L.L.L.L.L.L.G.t.e.e.q.q.e.q.q.e.y.D.H.L.L.K.L.L.L.L.L.L.L.L.L.L.U.L.J.O.C M n n n n n n n n n n n n n n n n n n n c c n n n c 1 @             O ^ kXmXVXVXVXVXVXVXVXVXVXVXVXVXVXVXVXVXVX",
"VXVXVXVXVXVXVXVXVXVXVXVXVXVXVXVXVXVXVXVXVXVXVXVXVXVXNXxX( *                               + q | J.T.U.L.L.L.L.L.L.L.L.L.L.L.P.L.!.b.M.B.V.V.V.V.V.V.V.V.V.V.V.V.V.V.V.V.V.V.V.V.V.V.V.V.A.C.v.L.P.U.L.L.L.L.L.L.L.L.L.L.L.L.L.L.U.L.L.U.L.L.Q.Q.R.W.yXsXfXfXdXdXdXdXdXdXdXdXdXdXdXgXdXpXeX9X6X6X6X6X6X6X6X6X8X8X8X8X8X8X8X8X8X8X8X8X8X8X8X8X8Xu.! b n M M M M M M M n n n n n n n n V ..F.L.U.L.L.L.L.L.L.L.L.L.L.L.L.L.L.L.L.L.L.L.L.L.L.L.D.t.e.q.0.0.q.0.0.q.y.D.H.L.U.K.L.L.L.L.L.L.L.L.L.L.U.U.F.O.C M n n n n n n n n n n n n n n n n M M M M M M B B n q $             O ^ kXmXVXVXVXVXVXVXVXVXVXVXVXVXVXVXVXVXVX",
"VXVXVXVXVXVXVXVXVXVXVXVXVXVXVXVXVXVXVXVXVXVXVXVXVXVXNXxX_ =                               + q | J.T.U.L.L.L.L.L.L.L.L.L.L.L.P.L.!.b.M.B.V.V.V.V.V.V.V.V.V.V.V.V.B.V.V.V.V.V.V.V.V.V.V.V.A.C.v.L.P.U.L.L.L.L.L.L.L.L.L.L.L.L.L.L.U.U.U.U.L.L.Q.Q.R.W.yXsXfXfXdXdXdXdXdXdXdXdXdXdXdXgXdXpXeX9X8X6X6X6X6X6X6X8X8X8X8X8X8X8X8X8X8X8X8X8X8X8X8X8X8Xu.! b n M M M M M M M n n n n n n n n V X.F.L.U.L.L.L.L.L.L.L.L.L.L.L.L.L.L.L.L.L.L.L.L.L.L.L.D.t.e.q.0.0.q.0.0.q.y.z.H.L.U.U.L.L.L.L.L.L.L.L.L.L.U.U.F.O.C M n n n n n n n n n n n n n n n n M M M M M M B B n q @             O ^ kXmXVXVXVXVXVXVXVXVXVXVXVXVXVXVXVXVXVX",
"VXVXVXVXVXVXVXVXVXVXVXVXVXVXVXVXVXVXVXVXVXVXVXVXVXVXNXxX_ =                               + q | J.T.U.L.L.L.L.L.L.L.L.L.L.L.P.L.!.b.Z.N.V.B.N.N.N.B.N.N.N.N.N.N.N.N.N.N.N.N.N.N.N.N.V.B.A.C.v.L.P.U.L.L.L.L.L.L.L.L.L.L.L.L.L.L.I.I.I.I.L.L.L.L.R.W.yXsXfXfXdXdXdXdXdXdXdXdXdXdXdXdXdXpXeXqX8X6X8X8X8X8X8X8X8X8X8X8X8X8X8X8X8X8X8X8X8X8X8X8X8Xu.~ b M M n n n n n n n n n n n n n n V X.F.L.U.L.L.L.L.L.L.L.L.L.L.L.L.L.L.L.L.L.L.L.L.L.L.L.H.t.e.q.0.q.q.q.0.q.y.D.H.L.U.L.L.L.L.L.L.L.L.L.L.L.U.U.F.O.C M n n n n n n n n n n n n n n n n n n n n n n M M c q @             O ^ kXmXVXVXVXVXVXVXVXVXVXVXVXVXVXVXVXVXVX",
"VXVXVXVXVXVXVXVXVXVXVXVXVXVXVXVXVXVXVXVXVXVXVXVXVXVXNXxX_ =                               X q | J.T.U.L.L.L.L.L.L.L.L.L.L.L.P.L.!.b.Z.N.V.B.N.N.N.N.N.N.N.N.N.N.N.N.N.N.N.N.N.N.N.N.V.B.A.C.v.L.P.I.L.L.L.L.L.L.L.L.L.L.L.L.L.L.L.L.L.L.L.L.L.L.R.W.yXsXfXdXdXdXdXdXdXdXdXdXdXdXdXdXdXpXeX9X8X6X6X6X6X6X8X8X8X8X8X8X8X8X8X8X8X8X8X8X8X8X8X8X8Xu.~ b M M M n n n n n n n n n n n n n V ..F.L.U.L.L.L.L.L.L.L.L.L.L.L.L.L.L.L.L.L.L.L.L.L.Q.L.G.t.e.q.0.q.q.q.0.q.y.D.H.U.U.L.L.L.L.L.L.L.L.L.L.L.U.U.F.O.C n n n n n n n n n n n n n n n n n n n n n n n M M c q @             O ^ kXmXVXVXVXVXVXVXVXVXVXVXVXVXVXVXVXVXVX",
"VXVXVXVXVXVXVXVXVXVXVXVXVXVXVXVXVXVXVXVXVXVXVXVXVXVXVXxX_ =                               X q | J.T.U.L.L.L.L.L.L.L.L.L.L.L.P.U.!.b.Z.N.V.B.N.N.N.N.N.N.N.N.N.N.N.N.N.N.N.N.N.N.N.N.V.B.A.C.v.L.P.I.L.L.L.L.L.L.L.L.L.L.L.L.L.L.L.L.L.L.L.L.L.L.R.W.yXsXfXdXdXdXdXdXdXdXdXdXdXdXdXdXdXpXeX9X8X6X6X6X6X6X6X6X8X8X8X8X8X8X8X8X8X8X8X8X8X8X8X8X8Xu.~ b M M M n n M n n n n n n n n n n V ..<.L.U.L.L.L.L.L.L.L.L.L.L.L.L.L.L.L.L.U.U.U.Q.Q.Q.Q.G.t.e.q.0.q.q.q.0.q.y.D.H.U.U.L.L.L.L.L.L.L.L.L.L.L.U.U.F.O.C n n n n n n n n n n n n n n n n n n n n n n n M M c q @             O ^ kXMXVXVXVXVXVXVXVXVXVXVXVXVXVXVXVXVXVX",
"VXVXVXVXVXVXVXVXVXVXVXVXVXVXVXVXVXVXVXVXVXVXVXVXVXVXNXxX( *                               + q | J.T.U.L.L.L.L.L.L.L.L.L.L.L.P.L.!.b.Z.N.V.B.N.N.N.N.N.N.N.N.N.N.N.N.N.N.N.N.N.N.N.N.V.B.A.C.v.L.P.I.L.L.L.L.L.L.L.L.L.L.L.L.L.L.L.L.L.L.L.L.L.L.R.W.yXsXfXfXdXdXdXdXdXdXdXdXdXdXdXdXdXpXtXqX8X8X8X8X8X8X8X8X8X8X8X8X8X8X8X8X8X8X8X8X8X8X8X8X8Xu.~ b M M n n n n n n n n n n n n n n C X.F.L.U.L.L.L.L.L.L.L.L.L.L.L.L.L.L.L.L.K.K.K.K.L.L.L.G.t.e.q.0.q.q.q.q.q.y.D.H.U.U.L.L.L.L.L.L.L.L.L.L.L.U.U.J.O.C M n n n n n n n n n n n n n n n n n n n n n n M M c q @             O ^ kXnXVXVXVXVXVXVXVXVXVXVXVXVXVXVXVXVXVX",
"VXVXVXVXVXVXVXVXVXVXVXVXVXVXVXVXVXVXMXnXvXcXvXvXvXvXcXjX^ *             . @ - : : : : - - 1 c ..J.U.U.L.L.L.L.L.L.L.L.L.L.L.P.L.!.b.Z.N.V.B.N.N.N.N.N.N.N.N.N.N.N.N.N.N.N.N.N.N.N.N.V.B.A.C.v.L.P.I.L.L.L.L.L.L.L.L.L.L.L.L.L.L.L.L.L.L.L.L.L.L.R.W.yXsXfXfXdXdXdXdXdXdXdXdXdXdXdXdXdXpXtXwXqX9X9XqXqXqX9X9X9X8X8X8X8X8X8X8X8X8X8X8X8X8X8X8X8Xu.~ b M M M n n n n B V C C C C C C C | +.F.L.U.L.L.L.L.L.L.L.L.L.L.L.L.L.L.K.G.D.D.D.D.D.D.D.D.r.e.q.0.q.q.q.q.q.y.D.H.U.U.L.L.L.L.L.L.L.L.L.L.L.U.L.J.+. .C C C C C C C C C C C C C C C C V B M n n n n M M c q @               9 ' xXvXvXvXvXcXvXnXmXNXVXVXVXVXVXVXVXVX",
"VXVXVXVXVXVXVXVXVXVXVXVXVXVXVXVXVXMXcXkX] ' ' ' ] ] ' ( 7 O             + , r n M n n n n B | @.K.U.U.L.L.L.L.L.L.L.L.L.L.L.P.L.!.b.M.N.V.B.N.N.N.N.N.N.N.N.N.N.N.N.N.N.N.N.N.N.N.N.V.B.A.C.v.L.P.U.L.L.L.L.L.L.L.L.L.L.L.L.L.L.L.L.L.L.U.L.L.L.R.W.iXsXfXfXdXdXdXdXdXdXdXdXdXdXdXdXdXaXpXtXeXeXeXeXtXtXeXwX9X8X8X8X8X8X8X8X8X8X8X8X8X8X8X8X8Xu.! b M M M n n n M V | ..X.X.X.X.X.X.+.@.J.L.U.L.L.L.L.L.L.L.L.L.L.L.L.L.K.G.z.r.r.r.r.r.r.r.y.e.e.q.q.q.q.0.0.q.y.z.H.L.U.L.L.L.L.L.L.L.L.L.L.L.L.L.K.<.+.X.X.X.X.X.X.X.X.X.X.X.X.X.X.O.X...C B n n n n M M c q @               = ^ _ ' ] ' ' ' ' jXxXmXVXVXVXVXVXVXVXVX",
"VXVXVXVXVXVXVXVXVXVXVXVXVXVXVXVXVXmXlX( 7 = 6 6 6 6 6 = O               @ e | +.@.@.+.+.+.@.<.J.L.L.L.L.L.L.L.L.L.L.L.L.L.L.P.L.!.b.M.N.V.B.N.N.N.N.N.N.N.N.N.N.N.N.N.N.N.N.N.N.N.N.V.B.A.C.v.L.P.U.L.L.L.L.L.L.L.L.L.L.L.L.L.L.L.L.L.L.U.L.L.L.R.W.iXsXfXfXdXdXdXdXdXdXdXdXdXdXdXdXdXdXaXpXpXpXpXpXpXpXtXtXqX9X6X6X8X8X8X8X8X8X8X8X8X8X8X8X8Xu.! b M M M n n n M C X.<.F.F.F.F.F.F.F.J.K.L.L.L.L.L.L.L.L.L.L.L.L.L.L.L.K.D.r.e.e.e.e.e.e.e.e.e.q.q.q.q.q.0.0.q.y.z.H.L.U.L.L.L.L.L.L.L.L.L.L.L.L.L.L.J.J.F.F.F.F.F.F.F.F.F.F.F.F.F.F.J.F.@. .V n n n n M M c q @               O * 6 6 6 6 6 = 6 ^ jXnXVXVXVXVXVXVXVXVX",
"VXVXVXVXVXVXVXVXVXVXVXVXVXVXVXVXVXmXkX9                                 - c +.U.~.U.U.U.U.U.L.L.L.L.L.L.L.L.L.L.L.L.L.L.L.L.P.U.!.b.M.N.V.B.N.N.N.N.N.N.N.N.N.N.N.N.N.N.N.N.N.N.N.N.V.B.A.C.v.L.P.U.L.L.L.L.L.L.L.L.L.L.L.L.L.L.L.L.L.L.L.L.L.L.R.W.iXsXfXfXdXdXdXdXdXdXdXdXdXdXdXdXdXdXdXdXdXdXdXdXdXgXaXtXqX9X6X6X8X8X8X8X8X8X8X8X8X8X8X8X8Xu.! b M M n n n n M A +.J.U.U.L.L.L.L.L.L.L.L.L.L.L.L.L.L.L.L.L.L.U.L.U.U.K.D.r.e.0.0.q.q.q.q.q.q.q.q.q.q.q.0.0.q.y.D.H.L.U.L.L.L.L.L.L.L.L.L.L.L.L.L.L.L.L.L.L.L.L.L.L.L.L.L.L.L.L.L.U.U.L.F.X.V n n n n M M c q -                                 6 ' vXVXVXVXVXVXVXVXVX",
"VXVXVXVXVXVXVXVXVXVXVXVXVXVXVXVXVXmXkX9                                 - n +.~.~.~.~.~.~.T.U.U.L.L.L.L.L.L.L.L.L.L.L.L.L.L.P.L.!.b.M.N.V.B.N.N.N.N.N.N.N.N.N.N.N.N.N.N.N.N.N.N.N.N.V.B.A.C.v.L.P.U.L.L.L.L.L.L.L.L.L.L.L.L.L.L.L.L.L.L.L.L.L.L.R.W.yXsXfXdXdXdXdXdXdXdXdXdXdXdXdXdXdXdXdXdXdXdXgXdXgXgXaXtXwX9X6X6X8X8X8X8X8X8X8X8X8X8X8X8X8Xu.~ b M M n n n n M A +.K.U.U.U.U.U.U.L.L.L.L.L.L.L.L.L.L.L.L.L.L.U.U.U.U.K.D.y.e.0.0.0.0.0.0.0.q.q.q.q.q.q.0.0.e.y.D.H.L.U.L.L.L.L.L.L.L.L.L.L.L.L.L.L.L.U.U.U.U.U.U.U.U.U.U.U.U.U.U.U.T.U.F.X.V n n n n M M c q - .                               = ' cXVXVXVXVXVXVXVXVX",
"VXVXVXVXVXVXVXVXVXVXVXVXVXVXVXVXVXmXkX9                                 - c +.U.~.U.U.U.U.U.L.L.L.L.L.L.L.L.L.L.L.L.L.L.L.L.P.L.!.b.Z.N.V.B.N.N.N.N.N.N.N.N.N.N.N.N.N.N.N.N.N.N.N.N.V.B.A.C.v.L.P.I.L.L.L.L.L.L.L.L.L.L.L.L.L.L.L.L.L.L.L.L.L.L.R.W.iXsXfXfXdXdXdXdXdXdXdXdXdXdXdXdXdXdXdXdXdXdXdXdXgXgXaXtXqX9X6X6X8X8X8X8X8X8X8X8X8X8X8X8X8Xu.~ b M M M n n n M A +.J.U.U.L.L.L.L.L.L.L.L.L.L.L.L.L.L.L.L.L.L.L.L.L.U.K.D.y.e.0.0.q.q.q.q.q.q.q.q.q.q.q.q.q.e.y.D.H.L.L.K.K.I.L.L.L.L.L.L.L.L.L.L.L.L.L.L.L.L.L.L.L.L.L.L.L.L.L.L.U.U.L.F.X.V n n n n M M c q -                                 6 ' cXVXVXVXVXVXVXVXVX",
"VXVXVXVXVXVXVXVXVXVXVXVXVXVXVXVXVXmXkX^ O                               - c +.L.~.U.L.L.L.L.L.L.L.L.L.L.L.L.L.L.L.L.L.L.L.L.P.L.!.b.M.B.V.V.B.B.B.B.N.N.N.N.N.N.N.N.N.N.N.N.N.N.N.N.V.B.A.C.v.L.P.I.L.L.L.L.L.L.L.L.L.L.L.L.L.L.L.L.L.L.L.L.L.L.R.W.yXsXfXfXdXdXdXdXdXdXdXdXdXdXdXdXdXdXdXdXdXdXdXdXdXdXaXtXqX9X6X6X8X8X8X8X8X8X8X8X8X8X8X8X8Xu.~ b M M M n n n M A +.J.U.U.L.L.L.L.L.L.L.L.L.L.L.L.L.L.L.L.L.L.L.L.L.U.K.D.y.e.q.0.q.q.q.q.q.q.q.q.q.q.q.q.q.e.y.D.H.L.L.L.L.U.L.L.L.L.L.L.L.L.L.L.L.L.L.L.L.L.L.L.L.L.L.L.L.L.L.L.L.U.L.F...V n n n n M M c q @                                 6 ' vXVXVXVXVXVXVXVXVX",
"VXVXVXVXVXVXVXVXVXVXVXVXVXVXVXVXVXmXkX^ O                               @ c O.L.~.U.L.L.L.L.L.L.L.L.L.L.L.L.L.L.L.L.L.L.L.L.P.L.!.b.A.V.V.V.B.V.V.V.V.B.N.N.N.N.N.N.N.N.N.N.N.N.N.N.V.B.A.C.v.L.P.P.I.I.P.I.I.L.L.L.L.L.L.L.L.L.L.L.L.L.L.L.L.L.R.W.iXsXfXfXdXdXdXdXdXdXdXdXdXdXdXdXdXdXdXdXdXdXdXdXdXdXaXtXqX9X6X6X8X8X8X8X8X8X8X8X8X8X8X8X8Xu.~ / n M n n n n M A +.J.U.U.L.L.L.L.L.L.L.L.L.L.L.L.L.L.L.L.L.L.L.L.L.U.K.D.y.e.q.0.q.q.q.q.q.q.q.q.q.q.q.q.0.q.y.D.K.Q.Q.L.L.L.Q.L.Q.Q.U.U.U.U.U.U.U.U.L.U.Q.Q.U.U.U.U.U.L.L.L.L.L.L.U.L.F.X.V n n n n M M c 1 @                                 6 ' vXVXVXVXVXVXVXVXVX",
"VXVXVXVXVXVXVXVXVXVXVXVXVXVXVXVXVXmXkX^ O                               $ c +.L.~.U.L.L.L.L.L.L.L.L.L.L.L.L.L.L.L.L.L.L.L.L.P.L.!.b.A.B.V.V.B.B.B.B.B.B.N.N.N.N.N.N.N.N.N.N.N.N.N.N.V.B.A.C.v.L.P.P.U.U.I.U.L.L.L.L.L.L.L.L.L.L.L.L.L.L.L.L.L.L.R.W.iXsXfXfXdXdXdXdXdXdXdXdXdXdXdXdXdXdXdXdXdXdXdXdXdXdXaXtXqX9X6X6X8X8X8X8X8X8X8X8X8X8X8X8X8X7X~ / n M n n n n M A +.J.U.U.L.L.L.L.L.L.L.L.L.L.L.L.L.L.L.L.L.L.L.L.L.U.K.D.y.e.q.0.q.q.q.q.q.q.q.q.q.q.q.q.0.q.y.z.H.L.Q.L.L.L.L.L.L.L.L.L.L.L.L.L.U.U.L.L.L.L.L.L.U.L.L.L.L.L.L.L.L.U.L.F.X.V n n n n M M c q @                                 6 ' vXVXVXVXVXVXVXVXVX",
"VXVXVXVXVXVXVXVXVXVXVXVXVXVXVXVXVXmXkX^ O             . X @ @ @ @ @ + @ , M +.L.U.U.L.L.L.L.L.L.L.L.L.L.L.L.L.L.L.L.L.L.L.L.P.L.!.b.Z.M.M.M.M.M.M.M.M.N.N.N.N.N.N.N.N.N.N.N.N.N.N.N.V.B.A.C.v.!.Y.!.!.!.!.!.Y.L.L.L.L.L.L.L.L.L.L.L.L.L.L.L.L.L.R.W.yXsXfXdXdXdXdXdXdXdXdXdXdXdXdXdXdXdXdXdXdXdXdXdXdXdXaXtXqX9X6X6X8X8X8X8X7X7X7Xu.u.u.7X7X7Xu.! b n M n n n n M C +.J.U.U.L.L.L.L.L.L.L.L.L.L.L.L.L.L.L.L.L.L.L.L.L.U.K.D.r.e.q.0.q.q.q.q.q.q.q.q.q.q.q.q.q.q.y.t.D.H.H.G.G.G.H.H.H.H.H.H.H.H.G.G.G.G.H.H.H.H.G.G.G.G.H.K.L.L.L.L.L.U.L.F...C n n n n M M c q - + X X X X X X .                 6 ' vXVXVXVXVXVXVXVXVX",
"VXVXVXVXVXVXVXVXVXVXVXVXVXVXVXVXVXmXkX^ O             @ , q e e e e w e n | <.L.U.L.L.L.L.L.L.L.L.L.L.L.L.L.L.L.L.L.L.L.L.L.U.L.Y.v.b.n.n.n.n.n.n.n.m.M.N.B.B.N.N.N.N.N.N.N.N.N.N.N.B.B.A.Z.C.b.b.b.b.b.b.b.v.!.L.L.U.L.L.L.L.L.L.L.L.L.L.L.L.L.R.W.yXsXfXdXdXdXdXdXdXdXdXdXdXdXdXdXdXdXdXdXdXdXdXdXdXdXaXtXqX9X6X6X8X8X8X8X7X~ ~ ~ ! ~ ~ ~ ~ ! b b n n n n n n M A +.J.U.U.L.L.L.L.L.L.L.L.L.L.L.L.L.L.L.L.L.L.L.L.L.U.K.D.r.e.q.0.q.q.q.q.q.q.q.q.q.q.q.q.q.q.e.r.t.t.t.t.t.t.t.t.t.t.t.t.t.t.t.t.t.t.t.t.t.t.t.t.t.t.D.G.K.L.L.L.L.U.L.F...C n n n n M M n r 1 , : : , , , : - +               6 ' vXVXVXVXVXVXVXVXVX",
"VXVXVXVXVXVXVXVXVXVXVXVXVXVXVXVXVXmXkX^ O           . : c A ........ ...X.@.J.L.U.L.L.L.L.L.L.L.L.L.L.L.L.L.L.L.L.L.L.L.L.L.U.U.Y.x.c.l.l.l.l.l.l.l.n.m.N.B.B.N.N.N.N.N.N.N.N.N.N.N.B.B.N.A.M.Z.Z.Z.Z.Z.Z.Z.C.v.Y.U.U.L.L.L.L.L.L.L.L.L.L.L.L.L.R.W.yXsXfXfXdXdXdXdXdXdXdXdXdXdXdXdXdXdXdXdXdXdXdXdXdXdXaXtXqX9X6X6X8X8X8X8Xu.~ ! b b b / / b b b n n n n n n n M A +.J.U.U.L.L.L.L.L.L.L.L.L.L.L.L.L.L.L.L.L.L.L.L.L.U.K.D.r.e.q.0.q.q.q.q.q.q.q.q.q.q.q.q.q.q.e.e.e.y.e.e.e.e.e.e.e.e.y.y.e.e.e.e.e.e.e.e.e.e.e.e.e.y.r.D.H.L.L.L.L.U.L.F...C n n n n n n n c r e e e e e e w 1 - .             6 ' vXVXVXVXVXVXVXVXVX",
"VXVXVXVXVXVXVXVXVXVXVXVXVXVXVXVXVXmXkX^ O           X 1 V @.L.L.K.J.J.J.K.K.L.L.L.L.L.L.L.L.L.L.L.L.L.L.L.L.L.L.L.L.L.L.L.L.U.U.x.x.z.j.j.j.j.j.j.k.l.n.S.V.V.N.N.N.N.N.N.N.N.N.N.N.B.N.N.N.N.N.N.N.N.N.N.A.Z.b.Y.I.I.L.L.L.L.L.L.L.L.L.L.L.L.L.R.W.yXsXfXfXdXdXdXdXdXdXdXdXdXdXdXdXdXdXdXdXdXdXdXdXdXdXaXtXqX9X6X6X8X8X8X8X~ ! b M n M M M M M n n n n n n n n M A +.J.U.U.L.L.L.L.L.L.L.L.L.L.L.L.L.L.L.L.L.L.L.L.L.U.K.D.r.e.q.0.q.q.q.q.q.q.q.q.q.q.q.q.q.q.q.q.q.q.q.q.q.q.q.q.q.q.q.q.q.q.q.q.q.q.q.q.q.q.q.q.q.q.y.t.H.L.L.L.L.U.L.F...C n n n n n n n n n n n n n n n n e : X             6 ' vXVXVXVXVXVXVXVXVX",
"VXVXVXVXVXVXVXVXVXVXVXVXVXVXVXVXVXmXkX^ O           . 1 C F.~.~.~.~.~.T.U.U.L.L.L.L.L.L.L.L.L.L.L.L.L.L.L.L.L.L.L.L.L.L.L.U.U.U.x.x.g.d.d.d.d.d.d.j.l.n.S.V.V.B.N.N.N.N.N.N.N.N.N.N.N.N.N.B.V.V.V.V.V.V.V.N.Z.b.Y.I.P.L.L.L.L.L.L.L.L.L.L.L.L.L.R.W.yXsXfXfXdXdXdXdXdXdXdXdXdXdXdXdXdXdXdXdXdXdXdXdXdXdXaXtXqX9X6X6X8X8X8X8X~ ! b M M M M M M M M n n n n n n n M C +.J.U.U.L.L.L.L.L.L.L.L.L.L.L.L.L.L.L.L.L.L.L.L.L.L.K.D.y.e.q.0.q.q.q.q.q.q.q.q.q.q.q.q.q.q.q.q.0.0.0.0.0.0.0.0.0.0.0.0.0.0.0.0.0.0.0.0.0.0.0.0.0.q.e.t.H.U.U.L.U.U.L.F.X.V n n n n n n n M M M M M M B B n e , X             6 ' vXVXVXVXVXVXVXVXVX",
"VXVXVXVXVXVXVXVXVXVXVXVXVXVXVXVXVXmXkX^ O           . 1 C F.~.~.U.U.U.U.U.U.L.L.L.L.L.L.L.L.L.L.L.L.L.L.L.L.L.L.L.L.L.L.L.U.U.U.x.x.g.d.d.d.d.d.d.j.l.n.S.V.V.B.N.N.N.N.N.N.N.N.N.N.N.N.N.B.B.B.B.B.B.V.V.N.Z.b.Y.I.P.L.L.L.L.L.L.L.L.L.L.L.L.L.R.W.yXsXfXfXdXdXdXdXdXdXdXdXdXdXdXdXdXdXdXdXdXdXdXdXdXdXaXtXqX9X6X6X8X8X8X8X~ ! b M M M M M M M n n n n n n n n N C +.J.U.U.L.L.L.L.L.L.L.L.L.L.L.L.L.L.L.L.L.L.L.L.L.L.K.D.y.e.q.0.q.q.q.q.q.q.q.q.q.q.q.q.q.q.q.q.q.q.q.q.q.q.q.q.q.q.q.q.q.q.q.q.q.q.q.q.q.q.q.0.0.q.y.t.H.L.U.L.U.U.L.F...V n n n n n n n n M M M M M N B n e , X             6 ' vXVXVXVXVXVXVXVXVX",
"VXVXVXVXVXVXVXVXVXVXVXVXVXVXVXVXVXmXkX^ O           . 1 C <.U.U.L.L.L.L.L.L.L.L.L.L.L.L.L.L.L.L.L.L.L.L.L.L.L.L.L.L.L.L.L.U.U.U.K.x.z.j.j.j.j.d.d.k.l.n.S.V.V.V.N.N.N.N.N.N.N.N.N.N.N.N.N.N.N.N.N.N.N.V.B.A.Z.b.Y.U.I.L.L.L.L.L.L.L.L.L.L.L.L.L.R.W.yXsXfXfXdXdXdXdXdXdXdXdXdXdXdXdXdXdXdXdXdXdXdXdXdXdXaXtXqX9X6X6X8X8X8X8X~ ! b n M n M n n n n n n n n n n n N C +.J.U.U.L.L.L.L.L.L.L.L.L.L.L.L.L.L.L.L.L.L.L.L.L.L.K.D.r.e.q.0.q.q.q.q.q.q.q.q.q.q.q.q.q.q.q.q.q.q.q.q.q.q.q.q.q.q.q.q.q.q.q.q.q.q.q.q.q.q.q.q.0.q.y.t.H.U.L.L.L.L.L.F.X.V n n n n n n n n n n n n n M M n e , X             6 ' vXVXVXVXVXVXVXVXVX",
"VXVXVXVXVXVXVXVXVXVXVXVXVXVXVXVXVXmXkX^ O           . 1 C <.U.U.L.L.L.L.L.L.L.L.L.L.L.L.L.L.L.L.L.L.L.L.L.L.L.L.U.U.I.I.U.U.U.U.K.x.z.j.j.j.j.d.d.j.l.n.S.V.V.V.N.N.N.N.N.N.N.N.N.N.N.N.N.N.N.N.N.N.N.V.V.A.Z.b.Y.U.I.L.L.L.L.L.L.L.L.L.L.L.L.L.R.W.iXsXfXfXfXfXfXfXfXfXfXfXfXdXfXfXfXfXdXdXdXdXdXdXdXdXaXtXqX9X6X6X8X8X8X8X~ ! b M M M M M M M n n n n n n n n N C +.J.U.U.U.U.U.U.U.L.L.L.L.L.L.L.L.L.L.L.L.L.L.L.L.L.K.D.r.e.q.0.q.q.q.q.q.q.q.q.q.q.q.q.q.q.q.q.q.q.q.q.q.q.q.q.q.q.q.q.q.q.q.q.q.q.q.q.q.q.q.q.0.q.y.t.H.Q.Q.L.U.U.U.<.X.V n n n n n n n n n n n n n M M n e , X             6 ' vXVXVXVXVXVXVXVXVX",
"VXVXVXVXVXVXVXVXVXVXVXVXVXVXVXVXVXMXkX^ O           . 1 C <.U.U.L.L.L.L.L.L.L.L.L.L.L.L.L.L.L.L.L.L.L.L.L.L.L.L.U.I.P.P.P.U.P.P.K.x.z.j.h.j.j.d.d.k.l.n.S.V.V.N.N.N.N.N.N.N.N.N.N.N.N.N.N.N.N.N.N.N.N.V.V.N.Z.b.Y.I.I.L.L.L.L.L.L.L.L.L.L.L.L.L.R.W.iXdXfXfXfXfXfXfXfXfXfXfXfXfXfXfXfXfXfXdXdXdXdXdXdXdXaXtXqX9X8X8X8X8X8X8X~ ! b M M M M M M M M n n n n n n n M A +.J.U.U.U.U.U.U.U.U.L.L.L.L.L.L.L.L.L.L.L.L.L.L.L.U.K.D.y.e.q.0.q.q.q.q.q.q.q.q.q.q.q.q.q.q.q.q.q.q.q.q.q.q.q.q.q.q.q.q.q.q.q.q.q.q.q.q.q.q.q.q.0.q.y.D.H.Q.Q.U.U.Q.L.J.X.C n n n n n n n n n n n n n M M n e , X             6 ' vXVXVXVXVXVXVXVXVX",
"VXVXVXVXVXVXVXVXVXVXNXNXNXNXNXVXVXnXjX9 O           . 1 C <.U.U.L.L.L.L.L.L.L.L.L.L.L.L.L.L.L.L.L.L.L.L.L.L.L.L.L.L.Y.Y.Y.Y.Y.Y.x.x.k.j.j.j.j.d.d.k.l.n.S.V.V.N.N.N.N.N.N.N.N.N.N.N.N.N.N.N.N.N.N.N.N.V.V.N.Z.b.Y.I.I.L.L.L.L.L.L.L.L.L.L.L.L.L.R.W.yXsXdXsXsXsXsXsXsXsXsXsXsXsXsXsXsXsXsXdXdXdXdXdXdXdXaXtXqX9X6X6X8X8X8X8Xu.! b M M M M M M M M n n n n n n n M C +.F.K.L.K.K.K.K.K.K.L.L.L.L.L.L.L.L.L.L.L.L.L.L.L.U.K.D.y.e.q.0.q.q.q.q.q.q.q.q.q.q.q.q.q.q.q.q.q.q.q.q.q.q.q.q.q.q.q.q.q.q.q.q.q.q.q.q.q.q.q.q.0.q.y.t.G.K.K.K.K.K.K.x...C n n n n n n n n n n n n n M M n e , X             6 ' vXVXVXVXVXVXVXVXVX",
"VXVXVXVXVXVXVXVXMXnXcXxXxXxXxXxXxXlX_ 7             . 1 C <.U.U.L.L.L.L.L.L.L.L.L.L.L.L.L.L.L.L.L.L.L.L.L.L.L.Y.!.v.v.v.v.v.v.v.v.c.k.j.d.j.j.d.d.k.l.n.S.V.V.N.N.N.N.N.N.N.N.N.N.N.N.N.N.N.N.N.N.N.N.B.V.N.Z.b.Y.U.I.L.L.L.L.L.L.L.L.L.L.L.L.L.R.W.rXyXiXiXyXyXiXiXyXyXyXyXyXyXyXyXyXiXiXsXdXdXdXdXdXdXaXtXwX9X6X6X8X8X8X8Xu.~ ! / / b / b b / b n n n M n n n M C ..+.@.@.@.@.@.@.@.F.K.L.L.L.L.L.L.L.L.L.L.L.L.L.L.U.K.D.y.e.q.0.q.q.q.q.q.9.7.7.7.7.7.7.7.7.9.9.q.q.q.q.q.q.q.q.9.7.7.7.7.7.7.7.7.7.7.7.7.7.7.7.7.7.8.r.t.D.D.D.D.D.D.z.S V n n n n n n n n n n n n n M M n e , X             6 ' vXVXVXVXVXVXVXVXVX",
"VXVXVXVXVXVXVXVXnXzX' ( ( ( _ _ _ ( 9 =             . 1 C <.U.U.L.L.L.L.L.L.L.L.L.L.L.L.L.L.L.L.L.L.L.L.L.I.L.!.b.C.C.C.C.C.Z.C.C.c.k.j.d.j.j.d.j.k.l.n.S.V.V.N.N.N.N.N.N.N.N.N.N.N.N.N.N.N.N.N.N.N.N.B.V.N.Z.b.Y.U.I.L.L.L.L.L.L.L.L.L.L.L.L.L.I.R.W.W.W.W.W.W.W.W.W.W.W.W.W.W.W.W.W.rXyXiXdXdXdXdXdXdXaXtXwX9X6X6X8X8X8X8X7X~ ~ ~ ~ ~ ~ ~ ~ ! ! b n M M n n n M B C | | | | | | | ..+.J.L.U.L.L.L.L.L.L.L.L.L.L.L.L.U.K.D.y.e.q.0.q.q.q.q.9.7.6.l z z z z z l 6.9.q.q.q.q.q.q.q.9.7.6.z z z z z z z z z z z z z z z l 6.8.y.y.y.y.y.y.y.y.S N n n n n n n n n n n n n n M M n e , X             6 ' vXVXVXVXVXVXVXVXVX",
"VXVXVXVXVXVXVXVXvXhX9 * * * = = = * O               X 1 C <.U.U.L.L.L.L.L.L.L.L.L.L.L.L.L.L.L.L.L.L.L.L.U.I.L.v.C.M.A.A.A.A.A.A.m.n.l.j.d.d.j.d.j.k.l.n.S.V.V.B.N.N.N.N.N.N.N.N.N.N.N.N.N.N.N.N.N.N.N.B.V.N.Z.b.Y.U.P.L.L.L.L.L.L.L.L.L.L.L.L.L.L.I.I.R.R.R.R.R.R.R.R.R.R.R.R.R.R.I.R.E.rXiXsXfXdXdXdXdXaXtXqX8X6X6X8X8X8X8X7X7X7X7X7X7X7X7X7Xu.! b M M M n n n n M B B B B B B N B C X.F.L.U.L.L.L.L.L.L.L.L.L.L.L.U.U.K.D.r.e.q.0.q.q.q.q.9.6.k g g g g g g k l 7.q.q.q.q.q.q.q.9.6.k g g g g g g g g g g g g g g g g z 7.9.e.e.e.e.e.e.e.x b n M n n n n n n n n n n n M M n e , X             6 ' vXVXVXVXVXVXVXVXVX",
"VXVXVXVXVXVXVXVXcX' 6                               . 1 C <.U.U.L.L.L.L.L.L.L.L.L.L.L.L.L.L.L.L.L.L.L.L.U.P.L.v.C.A.V.V.V.V.V.V.M.n.l.j.d.d.j.d.j.k.l.n.S.V.V.B.N.N.N.N.N.N.N.N.N.N.N.N.N.N.N.N.N.N.N.B.V.N.Z.b.Y.U.P.L.L.L.L.L.L.L.L.L.L.L.L.L.L.L.L.L.L.L.L.L.L.L.L.L.L.L.L.L.L.Q.L.R.rXiXsXfXdXdXdXdXaXtXqX8X6X6X8X8X8X8X8X8X8X8X8X8X8X8X8X7X~ b M M M n n n n n n n n n n n n n V ..F.L.U.L.L.L.L.L.L.L.L.L.L.L.U.U.K.D.r.e.q.0.q.q.q.q.9.6.k f d d d d d g z 7.q.q.q.q.q.q.q.9.l g d d d d f f f f f f f f d d d g k 6.9.q.0.0.0.0.0.9.8.b n M n n n n n n n n n n n M M n e , X             6 ' vXVXVXVXVXVXVXVXVX",
"VXVXVXVXVXVXVXVXcX' =                               X 1 C <.U.U.L.L.L.L.L.L.L.L.L.L.L.L.L.L.L.L.L.L.L.L.U.P.L.v.C.A.V.V.V.V.V.V.M.n.l.j.d.d.j.d.j.k.l.n.N.V.V.V.N.N.N.N.N.N.N.N.N.N.N.N.N.N.N.N.N.N.N.B.V.A.Z.b.Y.U.I.L.L.L.L.L.L.L.L.L.L.L.L.L.L.L.L.L.L.L.L.L.L.L.L.L.L.L.L.L.L.Q.Q.R.rXiXdXfXdXdXdXdXaXtXqX9X6X6X8X8X8X8X8X8X8X8X8X8X8X8X8X7X~ b M M M n n n n n n n n n n n n n V ..F.L.U.L.L.L.L.L.L.L.L.L.L.L.L.Q.K.D.r.e.q.0.q.q.q.q.9.6.k f d d d d d g z 7.q.q.q.q.q.q.q.7.l g d d d d d d d d d d d d d d d f k 6.9.0.0.0.0.0.0.9.8.b n M n n n n n n n n n n n M M n e , X             6 ' vXVXVXVXVXVXVXVXVX",
"VXVXVXVXVXVXVXVXvX' 6                               X 1 C <.U.U.L.L.L.L.L.L.L.L.L.L.L.L.L.L.L.L.L.L.L.L.U.P.L.v.C.A.V.V.B.B.V.B.M.n.l.j.d.d.j.d.j.k.l.n.S.V.V.V.N.N.B.B.N.N.N.N.N.N.N.N.N.N.N.N.N.N.N.B.V.A.Z.b.Y.U.I.L.L.L.L.L.L.L.L.L.L.L.L.L.L.L.L.L.L.L.L.L.L.L.L.L.L.L.L.L.L.L.L.R.rXiXdXfXdXdXdXdXaXtXqX9X6X6X8X8X8X8X8X8X8X8X8X8X8X8X8Xu.~ b M M M n n n n n n n n n n n n n V ..F.L.U.L.L.L.L.L.L.L.L.L.L.L.L.Q.K.D.r.e.q.0.q.q.q.q.9.6.k f d f f d d g z 7.q.q.q.q.q.q.q.9.l k f d f f f f f f f f f f f d d g z 7.q.q.q.q.q.q.q.9.8.b n M n n n n n n n n n n n M M n e , X             6 ' vXVXVXVXVXVXVXVXVX",
"VXVXVXVXVXVXVXVXvX' 6                                 1 V <.U.U.L.L.L.L.L.L.L.L.L.L.L.L.L.L.L.L.L.L.L.L.U.P.L.v.C.A.B.V.N.B.V.B.M.n.l.j.d.j.j.d.d.k.l.n.N.V.V.B.B.B.B.B.B.B.B.B.B.B.B.B.N.N.N.B.B.B.B.V.V.N.Z.b.!.U.P.U.U.U.U.L.L.L.L.L.L.L.L.L.L.L.L.L.L.L.L.L.L.L.L.L.L.L.L.L.L.L.L.R.rXiXdXfXfXdXfXfXaXtXwX8X8X8X8X8X8X8X8X8X8X8X8X8X8X8X8Xu.~ b M M M n n n n n n n n n n n n n V ..F.L.U.L.L.L.L.L.L.L.L.L.L.L.L.Q.K.D.r.e.q.0.q.q.q.q.9.6.k f d f f d d g z 7.q.q.q.q.q.q.q.9.l k f d f f f f f f f f f f f d d g z 7.9.q.q.q.q.0.q.9.8.b n M n n n n n n n n n n n M M n e : X             6 ' vXVXVXVXVXVXVXVXVX",
"VXVXVXVXVXVXVXVXvX' 6                                 , V <.U.T.L.L.L.L.L.L.L.L.L.L.L.L.L.L.L.L.L.L.L.L.U.P.L.v.C.A.B.V.N.B.V.B.M.n.l.j.d.j.j.d.d.k.l.m.N.V.V.V.V.V.V.V.V.V.V.V.V.V.V.V.V.V.V.V.V.V.V.V.V.N.Z.b.!.U.P.U.U.U.U.U.U.L.L.L.L.L.L.L.L.L.L.L.L.L.L.L.L.L.L.L.L.L.L.L.L.L.L.R.rXiXfXfXfXfXfXfXaXtXwX8X8X8X8X8X8X8X8X8X8X8X8X8X8X9X8X7X~ / M M M n n n n n n n n n n n n n V ..F.L.U.L.L.L.L.L.L.U.U.U.L.L.Q.Q.L.D.r.e.q.0.q.q.q.q.9.6.k f d f f d d g z 7.q.q.q.q.q.q.q.9.6.k f d f f f f f f f d d f d d d g z 6.9.0.q.q.0.0.0.9.8.b n n n n n n n n n n n n n M M n e : .             6 ' vXVXVXVXVXVXVXVXVX",
"VXVXVXVXVXVXVXVXvX' 6                               . 1 C <.U.U.L.L.L.L.L.L.L.L.L.L.L.L.L.L.L.L.L.L.L.L.U.P.L.v.C.A.B.V.N.B.V.B.M.n.l.j.d.j.j.j.d.k.l.n.S.V.V.N.N.N.N.N.N.N.N.N.N.N.N.N.N.N.N.N.N.N.N.B.V.N.Z.b.Y.U.P.L.L.L.L.L.L.L.L.L.L.L.L.L.L.L.L.L.L.L.L.L.L.L.L.L.L.L.L.L.L.L.L.R.rXiXdXfXdXdXdXdXaXtXqX9X6X6X8X8X8X8X8X8X8X8X8X8X8X8X8Xu.~ / M M M n n n n n n n n n n n n n C ..F.L.U.L.L.L.L.L.L.L.L.L.L.L.L.L.K.D.r.e.q.0.q.q.q.q.9.6.k f d f f d d g z 7.q.q.q.q.q.q.q.9.6.k f d f f f f f f f f f f f d d g k 7.9.q.q.q.q.q.q.9.8.b n M n n n n n n n n n n n M N n e , X             6 ' vXVXVXVXVXVXVXVXVX",
"VXVXVXVXVXVXVXVXvX' 6               X @ - - - - @ @ : e | F.U.U.L.L.L.L.L.L.L.L.L.L.L.L.L.L.L.L.L.L.L.L.U.P.L.v.C.A.B.V.N.B.V.B.M.n.l.j.d.j.j.j.d.j.l.n.m.m.m.m.m.m.m.m.m.m.m.m.m.m.m.m.m.m.m.m.m.m.m.m.m.m.C.v.x.K.K.x.x.x.x.K.K.L.L.L.L.L.L.L.L.L.L.L.L.L.L.L.L.L.L.L.L.L.L.L.L.L.L.R.W.uXiXiXiXiXiXiXiXiX0X0Xi.i.i.i.i.i.i.i.u.u.u.u.u.u.u.~ ! b M M n n n n n n n n n n n n n n C ..F.L.U.L.L.L.L.K.H.G.D.D.D.D.D.G.D.t.y.9.9.9.9.9.9.9.7.l k f d f f f f g k 6.7.9.9.9.9.9.9.7.z g f d f f f f f h h h h h h h h h z 8.e.e.e.e.e.e.e.8.r.S V V V V C C V B N n n n n M M n r 1 @ + + + + X + 6 _ zXvXnXnXnXnXnXnXnX",
"VXVXVXVXVXVXVXVXvX' 6             X - q c n c c c c n C O.J.U.U.L.L.L.L.L.L.L.L.L.L.L.L.L.L.L.L.L.L.L.L.U.P.L.v.C.A.B.V.N.B.V.B.M.n.l.j.d.d.j.d.d.j.l.l.n.n.n.n.n.n.n.n.n.n.n.n.n.n.n.n.n.n.n.n.n.n.n.n.n.n.c.c.x.x.x.x.x.x.x.x.x.K.L.U.L.L.L.U.L.L.L.L.L.L.L.L.L.L.L.L.L.L.L.L.L.L.L.R.E.W.rXrXrXrXrXrXrXs.s.s.s.s.s.s.s.s.s.! ! ! ! ! ! ! ! ! / b n M n n n n n n n n n n n n n n V ..F.L.U.L.L.L.L.K.D.t.t.r.r.r.r.r.r.y.8.6.6.6.6.6.6.6.l k g f f f f f f g k z l 6.6.6.6.6.6.l k g f f f f f f g h j j j j j j j j x r.r.r.r.r.r.r.r.t.t.o.X.X.X.X.X.X...| V M n n n n M n c w 1 , , , , , , 8 / ` ] hXhXhXhXhX] ] ",
"VXVXVXVXVXVXVXVXvX' 6             + 1 V X.+.+.+.O.O.+.@.F.K.L.L.L.L.L.L.L.L.L.L.L.L.L.L.L.L.L.L.L.L.L.L.U.P.L.v.C.A.B.V.N.B.V.B.M.n.l.j.d.d.j.j.j.j.j.k.l.l.l.l.l.l.l.l.l.l.l.l.l.l.l.l.l.l.l.l.l.l.l.l.l.l.k.k.k.g.g.g.g.g.g.z.x.K.L.U.L.L.U.U.L.L.L.L.L.L.L.L.L.L.L.L.L.L.L.L.L.L.U.I.R.R.R.E.R.R.E.E.R.E.R.G.G.G.G.G.G.G.D.A b b b b b b b b b M n n n n n n n n n n n n n n n n V ..F.L.U.L.L.L.L.H.D.r.e.e.e.e.e.e.e.8.6.k k k k k k k k g g f f f f f f f g g k k k k k k k k g g f f f f f f h j b v v v v v v v S o.D.D.D.D.D.D.D.G.G.F.F.<.<.F.F.F.@.X.C M n n n n n n n c c r r r r c r e e 8 7 7 7 7 7 7 7 7 ",
"VXVXVXVXVXVXVXVXvX' 6             @ e ..K.~.U.L.L.L.L.L.L.L.L.L.L.L.L.L.L.L.L.L.L.L.L.L.L.L.L.L.L.L.L.L.I.P.L.v.C.A.B.V.N.B.V.B.M.n.l.j.d.d.j.j.j.j.j.j.j.j.j.j.j.j.j.j.d.d.j.d.j.j.j.j.j.d.d.d.j.j.j.j.j.d.j.j.j.j.j.j.j.j.j.g.x.x.L.U.U.L.L.L.L.L.L.L.L.L.L.L.L.L.L.L.L.L.L.L.L.L.L.L.L.L.L.L.U.U.U.U.L.L.L.L.L.U.U.U.U.I.<...V n n n n n M n n n n n n n n n n n n n n n n n n n V X.F.L.U.L.L.U.L.H.t.y.q.0.q.q.q.q.q.7.l g f d f f f f f f f f f f f f f f f f f f f f f f f f f f f f f f d f h j v n M n n n n M | +.J.L.U.L.L.L.L.L.L.L.L.L.L.L.U.U.J.+.C N n n n n n n n n n n n n n M M c 1 @                 ",
"VXVXVXVXVXVXVXVXvX' 6             @ r X.U.~.~.~.~.~.~.U.U.L.L.L.L.L.L.L.L.L.L.L.L.L.L.L.L.L.L.L.L.L.L.L.I.P.L.v.C.A.B.V.N.B.V.B.M.n.l.j.d.d.j.j.j.j.j.d.d.d.d.d.d.d.d.d.d.d.d.d.d.d.d.d.d.d.d.d.d.d.d.d.d.d.d.d.h.h.j.j.h.h.h.g.x.x.L.U.U.L.L.L.L.L.L.L.L.L.L.L.L.L.L.L.L.L.L.L.L.L.L.L.L.L.L.L.L.L.L.L.L.L.L.L.L.L.L.U.Q.L.<. .V n n n M M M M M M n n n n n n n n n n n n n n n n V X.F.L.U.L.L.U.L.H.t.y.q.0.0.0.0.0.0.7.l g d d d d d d d d f f f f f f f f f d d d d d d d d d f f f f f f d f h j v n M M M n n M | @.L.Q.Q.U.U.U.Q.Q.Q.U.U.U.U.U.U.U.J.+.C N n n n n n n M M M M M M N B B c , +                 ",
"VXVXVXVXVXVXVXVXvX' 6             @ e ..K.~.~.U.U.U.U.U.L.L.L.L.L.L.L.L.L.L.L.L.L.L.L.L.L.L.L.L.L.L.L.L.I.P.L.v.C.A.B.V.N.B.V.B.M.n.l.j.d.d.j.j.j.j.j.j.j.j.j.j.j.j.j.j.d.d.d.d.j.j.j.j.j.j.j.j.j.j.j.j.d.j.j.j.j.j.j.j.j.h.j.g.x.x.L.U.U.L.L.L.L.L.L.L.L.L.L.L.L.L.L.L.L.L.L.L.L.L.L.L.L.L.L.L.L.L.L.L.L.L.L.L.L.L.L.L.U.L.<...V n n n n n n n n n n n n n n n n n n n n n n n n n C X.F.L.U.L.L.U.L.H.t.y.q.0.0.q.q.q.q.7.l g d d f f f f f f f f f f f f f f f f f f f f f f f f f f f f f f d f h j v n M M n n n M | +.J.L.U.L.L.L.L.L.L.L.L.L.L.U.U.U.J.+.C M n n n n n n n M M M M M M B M c 1 +                 ",
"VXVXVXVXVXVXVXVXvX' 6             @ e ..K.~.U.L.L.L.L.L.L.L.L.L.L.L.L.L.L.L.L.L.L.L.L.L.L.L.L.L.L.L.L.L.I.P.L.v.C.A.B.V.N.B.V.B.M.n.l.j.d.d.j.j.j.j.j.j.j.j.j.j.j.j.j.j.d.d.j.j.j.j.j.j.j.j.j.j.j.j.j.j.j.j.j.j.j.j.j.j.j.j.j.g.x.x.L.U.U.L.L.L.L.L.L.L.L.L.L.L.L.L.L.L.L.L.L.L.L.L.L.L.L.L.L.L.L.L.L.L.L.L.L.L.L.L.L.U.U.I.<...V n n n n n n n n n n n n n n n n n n n n n n n n n V ..F.L.U.L.L.U.L.H.t.y.q.0.q.q.q.q.q.7.l g f d f f f f f f f f f f f f f f f f f f f f f f f f f f f f f f f f h j v n M n n n n M C +.J.L.U.L.L.L.L.L.L.L.L.L.L.L.U.U.J.+.C M n n n n n n n n n n n n n M n c 1 @                 ",
"VXVXVXVXVXVXVXVXvX] 6             @ r ..L.~.~.U.U.U.U.U.U.L.L.L.L.L.L.L.L.L.L.L.L.L.L.L.L.L.L.L.L.L.L.L.U.P.L.v.C.A.B.V.N.B.V.B.M.n.l.j.d.d.j.j.j.j.j.j.j.j.j.j.j.j.j.j.j.j.j.j.j.j.j.j.j.j.j.j.j.j.j.j.j.j.j.j.j.j.j.j.j.j.j.k.x.x.U.U.U.U.U.U.U.U.L.L.L.L.L.L.L.L.L.L.L.L.L.L.L.L.L.L.L.L.L.L.L.L.L.L.L.L.L.L.L.L.L.U.U.K.<...V n n n n n n n n n n n n n n n n n n n n n n n n n V ..<.L.U.L.L.L.L.H.t.y.q.0.q.q.q.q.q.7.l g f d f f f f f f f d d d d d d d f f f f f f f f f f f f f f f f f f h j v n M M n n n M C +.J.U.U.L.L.L.L.L.L.L.L.L.L.L.U.U.J.+.C M n n n n n n n n n n n n n M n c 1 @                 ",
"VXVXVXVXVXVXVXVXvX] 6             @ e ..L.~.~.U.U.U.U.U.U.L.L.L.L.L.L.L.L.L.L.L.L.L.L.L.L.L.L.L.L.L.L.L.U.P.L.v.C.A.B.V.N.B.V.B.M.n.l.j.d.d.j.j.j.j.j.j.j.j.j.j.j.j.j.j.j.j.j.j.j.j.j.j.j.j.j.j.j.j.j.j.j.j.j.j.j.j.j.j.j.j.j.k.x.x.U.U.U.U.U.U.U.U.L.L.L.L.L.L.L.L.L.L.L.L.L.L.L.L.L.L.L.L.L.L.L.L.L.L.L.L.L.L.L.L.L.U.U.L.<...V n n n n n n n n n n n n n n n n n n n n n n n n n V ..<.L.U.L.L.L.L.H.t.y.q.0.q.q.q.q.q.7.l g f d f f f f f f f f f f d d d f f f f f f f f f f f f f f f f f d f h j v n M M n n n M C +.J.L.U.L.L.L.L.L.L.L.L.L.L.L.U.U.J.+.C M n n n n n n n n n n n n n M n c 1 @                 ",
"MXMXMXMXMXMXNXmXxX_ 6             @ q A @.F.F.<.<.<.<.F.J.L.L.L.L.L.L.L.L.L.L.L.L.L.L.L.L.L.L.L.L.L.L.L.I.P.L.v.C.A.B.V.N.B.V.B.M.n.l.j.d.d.j.j.j.j.j.j.j.j.j.j.j.j.j.j.j.j.j.j.j.j.j.j.j.j.d.d.d.d.d.d.d.d.d.j.j.j.j.j.j.j.j.g.x.x.J.J.J.J.J.J.J.K.K.L.L.L.L.L.L.L.L.L.L.L.L.L.L.L.L.L.L.L.L.L.L.L.L.L.L.L.L.L.L.L.L.L.U.L.<.X.C B B B B B B B B B B B B B B B B B B B B B B B B B C X.F.L.U.L.L.U.U.H.t.y.q.q.9.q.q.q.9.7.l g f d f f f f f g g g g g g g g g g g f f f f f f f f f f f f f f d d h j v n M n n n n M C +.J.L.U.L.L.L.L.L.L.L.L.L.L.L.U.U.J.+.| V B B B B B B B M n n n n n M n c 1 @                 ",
"lXlXlXlXlXlXlXkX] ^ =             X , c V C C C V V C  .@.J.U.U.L.L.L.L.L.L.L.L.L.L.L.L.L.L.L.L.L.L.L.L.U.P.L.v.C.A.B.V.N.B.V.B.M.n.l.j.d.d.j.j.j.j.j.j.j.j.j.j.j.j.j.j.j.j.j.j.j.j.j.j.d.f.{ { { { { { { { { f.j.j.j.j.j.j.j.g.z.O.+.+.+.+.+.+.+.@.J.L.L.L.L.L.L.L.L.L.L.L.L.L.L.L.L.L.L.L.L.L.L.L.L.L.L.L.L.L.L.L.L.L.U.L.F.+...| | | | | | | | | | | | | | | | | | | | | | | | | ..+.J.L.U.L.L.U.U.H.t.8.7.7.6.7.7.7.6.6.k g f f f f f f g k k z l l z l l z k g g f f f f f f f f f f f f f d d h j v n M n n n n M C +.J.L.U.L.L.L.L.L.L.L.L.L.L.L.U.U.J.@.X.| | | | | | | C V M n n n n M n c 1 @                 ",
"^ ^ ^ ^ ^ ^ ^ ^ 9 6 O               @ : 1 1 1 1 , , 1 c  .F.U.U.L.L.L.L.L.L.L.L.L.L.L.L.L.L.L.L.L.L.L.L.U.P.L.v.C.A.B.V.N.B.V.B.m.n.l.j.d.d.j.j.j.j.j.j.j.j.j.j.j.j.j.j.j.j.j.j.j.j.j.j.d.{ S S V V V V V S S { d.j.j.j.j.j.j.f.{ | A A C C C C | X.<.K.U.L.L.L.L.L.L.L.L.L.L.L.L.L.L.L.L.L.L.L.L.L.L.L.L.L.L.L.L.L.L.L.L.L.J.F.@.@.@.@.@.@.@.@.@.@.@.@.@.@.@.@.@.@.@.@.@.@.@.@.@.@.@.F.J.L.L.L.U.U.U.F.t.x z k k k z z k k g g f f f f d f g z 6.7.7.7.7.7.7.7.6.k g f f f f f f f f f f f f f d f h j v n M n n n n M C +.J.U.U.L.L.L.L.L.L.L.L.L.L.L.L.L.K.J.@.@.@.@.@.@.@.+.X.C B n n n n M n c 1 @                 ",
"O O O O O O O O O                       . X . .     + 1 C <.U.U.L.L.L.L.L.L.L.L.L.L.L.L.L.L.L.L.L.L.L.L.I.P.L.v.C.A.B.V.N.B.V.B.M.n.l.j.d.d.j.j.j.j.j.j.j.j.j.j.j.j.j.j.j.j.j.j.j.j.j.j.d.{ S N n n M n n N S { d.j.j.j.j.j.j.f.S V M M M M n M V | @.K.U.U.L.L.L.L.L.L.L.L.L.L.L.L.L.L.L.L.L.L.L.L.L.L.L.L.L.L.L.L.L.L.L.L.L.K.K.K.K.K.K.K.K.K.K.K.K.K.K.K.K.K.K.K.K.K.K.K.K.K.K.K.K.K.L.L.L.L.U.U.U.F.S x h g d g g g g g f f f f f f d f k l 7.q.q.q.q.q.q.9.7.z g d d f f f f f f f f f f f d f h j v n M n n n n M A +.J.U.U.L.L.L.L.L.L.L.L.L.L.L.L.L.L.K.K.K.K.K.K.K.L.J.@.| B n n n n M n c 1 @                 ",
"                                                      , V <.U.T.L.L.L.L.L.L.L.L.L.L.L.L.L.L.L.L.L.L.L.L.U.P.L.v.C.A.B.V.N.B.V.B.M.n.l.j.d.d.j.j.j.j.j.j.j.j.j.j.j.j.j.j.j.j.j.j.j.j.j.j.f.S V n n n n n n n V { d.j.j.j.j.j.j.f.S N n n n n n n B | @.K.U.U.L.L.L.L.L.L.L.L.L.L.L.L.L.L.L.L.L.L.L.L.L.L.L.L.L.L.L.L.L.L.L.L.L.U.U.U.U.U.U.U.U.U.U.U.U.U.U.U.U.U.U.U.U.U.U.U.U.U.U.U.U.U.L.L.L.L.L.U.U.F.S x h d d d d d d f f f f f f f d f k 6.9.q.q.q.q.q.q.q.7.z g d d f f f f f f f f f f f d f h j v n M n n n n M A +.J.U.U.L.L.L.L.L.L.L.L.L.L.L.L.L.L.L.U.U.U.U.U.U.T.L.@. .V n n n n M n c 1 @                 ",
"                                                      , V <.U.~.L.L.L.L.L.L.L.L.L.L.L.L.L.L.L.L.L.L.L.L.U.P.L.v.C.A.B.V.N.B.V.B.M.n.l.j.d.d.j.j.j.j.j.j.j.j.j.j.j.j.j.j.j.j.j.j.j.j.j.j.f.S V n n n n n n n V { d.j.j.j.j.j.j.f.S N n n n n n n B | @.K.U.U.L.L.L.L.L.L.L.L.L.L.L.L.L.L.L.L.L.L.L.L.L.L.L.L.L.L.L.L.L.L.L.L.L.L.U.U.U.U.U.U.U.U.U.U.U.U.U.U.U.U.U.U.U.U.U.U.U.U.U.U.U.L.L.L.L.L.L.U.U.F.S x h d d f f f f f f f f f f f d f k 6.9.q.q.q.q.q.q.q.7.z g d d f f f f f f f f f f f d f h j v n M n n n n M C +.J.U.U.L.L.L.L.L.L.L.L.L.L.L.L.L.L.L.U.U.U.U.U.U.U.L.@. .V n n n n M n c 1 @                 ",
"                                                    X 1 C <.U.T.L.L.L.L.L.L.L.L.L.L.L.L.L.L.L.L.L.L.L.L.U.P.L.v.C.A.B.V.N.B.V.B.M.n.l.j.d.d.j.j.j.j.j.j.j.j.j.j.j.j.j.j.j.j.j.j.j.j.j.j.f.{ V M n n n n n N S { d.j.j.j.j.j.j.f.S N n n n n n n B | @.K.U.U.L.L.L.L.L.L.L.L.L.L.L.L.L.L.L.L.L.L.L.L.L.L.L.L.L.L.L.L.L.L.L.L.L.L.L.L.L.L.L.L.L.L.L.L.L.L.L.L.L.L.L.L.L.L.L.L.L.L.L.L.L.L.L.L.L.L.L.U.U.F.S x h d d f f f f f f f f f f d d d k 6.9.q.q.q.q.q.q.q.7.z g d d f f f f f f f f f f f d f h j v n M n n n n M A +.J.U.U.L.L.L.L.L.L.L.L.L.L.L.L.L.L.L.L.L.L.L.L.U.U.K.@. .V n n n n M n c 1 @                 ",
"                                                      1 V <.U.T.L.L.L.L.L.L.L.L.L.L.L.L.L.L.L.L.L.L.L.L.U.P.L.v.C.A.V.V.V.V.V.V.M.n.l.j.d.d.j.j.j.j.j.j.j.j.j.j.j.j.j.j.j.j.j.j.j.j.j.j.d.{ V M n n n n n N S { d.j.j.j.j.j.j.f.S N n n n n n n B | @.K.U.U.L.L.L.L.L.L.L.L.L.L.L.L.L.L.L.L.L.L.L.L.L.L.L.L.L.L.L.L.L.L.L.L.L.L.L.L.L.L.L.L.L.L.L.L.L.L.L.L.L.L.L.L.L.L.L.L.L.L.L.L.L.L.L.L.L.L.L.U.U.F.S x h d d f f f f f f f f f f f d d k l 9.q.q.q.q.q.q.q.7.z g d f f f f f f f f f f f d d d h j v n M M n n n M C +.J.U.U.L.L.L.L.L.L.L.L.L.L.L.L.L.L.L.L.L.L.L.L.U.U.K.@. .V n n n n M n c 1 @                 ",
"                                                      , V <.U.U.L.L.L.L.L.L.L.L.L.L.L.L.L.L.L.L.L.L.L.L.U.P.L.v.C.A.V.V.V.V.V.V.M.n.l.j.d.d.h.h.j.j.j.j.h.h.h.h.j.j.j.j.j.j.j.j.j.j.j.j.d.{ V n n n n n n N S { d.j.j.j.j.j.j.f.S N n n n n n n B | @.K.U.U.L.L.L.L.L.L.L.L.L.L.L.L.L.L.L.L.L.L.L.L.L.L.L.L.L.L.L.L.L.L.L.L.L.L.L.L.L.L.L.L.L.L.L.L.L.L.L.L.L.L.L.L.L.L.L.L.L.L.L.L.L.L.L.L.L.L.L.U.U.F.S x h d d d d d d f f g f f f f d f k 6.9.0.0.0.0.0.0.9.7.z g d d d d d f f f f f f d d d d h j v n M M n n n M C +.J.L.U.L.L.L.L.L.L.L.L.L.L.L.L.L.L.L.L.L.L.L.L.U.U.K.@. .V n n n n M n c 1 @                 ",
"                                                    X 1 C <.U.U.L.L.L.L.L.L.L.L.L.L.L.L.L.L.L.L.L.L.L.L.U.P.L.v.C.M.N.N.N.N.B.N.m.n.l.j.d.j.j.j.j.j.j.j.j.j.j.j.j.j.j.j.j.j.j.j.j.j.j.j.f.S V n n n n n n N S { f.j.j.j.j.j.j.f.S N M n M M n n V | @.K.U.U.L.L.L.L.L.L.L.L.L.L.L.L.L.L.L.L.L.L.L.L.L.L.L.L.L.L.L.L.L.L.L.L.L.L.L.L.L.L.L.L.L.L.L.L.L.L.L.L.L.L.L.L.L.L.L.L.L.L.L.L.L.L.L.L.L.L.L.U.U.F.S x h d g g g g g g g g f f f f d f k l 7.q.q.q.q.q.q.q.7.z g d d f f f f f f f h f f f f f h j v n M M n n n M C +.J.L.U.L.L.L.L.L.L.L.L.L.L.L.L.L.L.L.L.L.L.L.L.U.U.K.@. .V n n n n M n c 1 @                 ",
"                X @ : , , , , , , , , , , , , , , , 1 c | F.U.U.L.L.L.L.L.L.L.L.L.L.L.L.L.L.L.L.L.L.L.L.L.I.L.!.b.Z.Z.Z.Z.Z.Z.Z.C.b.c.z.z.z.z.z.z.z.z.z.z.z.z.z.z.z.z.z.f.f.{ { { f.f.f.{ S N n n n n n n M V S { f.f.{ f.f.{ { { A C C C C C C | X.<.K.U.U.L.L.L.L.L.L.L.L.L.L.L.L.L.L.L.L.L.L.L.L.L.L.L.L.L.L.L.L.L.L.L.L.L.L.L.L.L.L.L.L.L.L.L.L.L.L.L.L.L.L.L.L.L.L.L.L.L.L.L.L.L.L.L.L.L.L.L.U.U.H.S x z k k k k k k k g g f f f f d f h z 8.e.y.e.e.e.e.e.8.x j j j j j j j j j j j j j j h h j b v n M M n n n M C +.J.L.U.L.L.L.L.L.L.L.L.L.L.L.L.L.L.L.L.L.L.L.L.U.U.K.@. .V n n n n M n c 1 @                 ",
"                @ 1 c B V B B B B B B B B B B B B B V | +.J.U.U.L.L.L.L.L.L.L.L.L.L.L.L.L.L.L.L.L.L.L.L.L.L.L.Y.v.b.b.b.b.b.b.b.b.v.x.x.x.x.x.x.x.x.x.x.x.x.x.x.x.x.x.z.o.S S S S S S S S V N n n n n n n n N V S S S S S S S S o.X.O.+.O.O.O.O.+.@.F.K.L.L.L.L.L.L.L.L.L.L.L.L.L.L.L.L.L.L.L.L.L.L.L.L.L.L.L.L.L.L.L.L.L.L.L.L.L.L.L.L.L.L.L.L.L.L.L.L.L.L.L.L.L.L.L.L.L.L.L.L.L.L.L.L.L.L.L.L.L.U.U.H.t.8.6.6.6.6.6.6.6.l k g f f f f d f h x r.t.t.t.t.t.t.t.r.b b j j b j b j j j j b j j j j j b v v n M n n n n M A +.J.U.U.L.L.L.L.L.L.L.L.L.L.L.L.L.L.L.L.L.L.L.L.U.U.K.@. .V n n n n M n c 1 @                 ",
"                - c ..<.<.@.@.@.@.@.@.@.@.@.@.@.@.@.<.F.J.K.L.L.L.L.L.L.L.L.L.L.L.L.L.L.L.L.L.L.L.L.L.L.L.L.L.L.Y.!.!.!.!.!.!.!.Y.Y.K.K.K.K.K.K.K.K.K.K.K.K.K.K.K.K.K.x...C N N N N N N N N n n n n n n n n M N N N N N N N N C ..@.J.J.J.F.F.F.J.J.K.L.L.L.L.L.L.L.L.L.L.L.L.L.L.L.L.L.L.L.L.L.L.L.L.L.L.L.L.L.L.L.L.L.L.L.L.L.L.L.L.L.L.L.L.L.L.L.L.L.L.L.L.L.L.L.L.L.L.L.L.L.L.L.L.L.L.L.L.L.L.U.U.H.t.y.q.9.9.9.q.q.9.7.z g f f f f d f h x z.H.G.G.G.G.G.G.O.C n v v v v v v v v v v v v v v v v n n n n n n n n M A +.J.U.U.L.L.L.L.L.L.L.L.L.L.L.L.L.L.L.L.L.L.L.L.U.U.K.@. .B n n n n M n c 1 @                 ",
"                : M @.U.~.U.U.U.U.U.U.U.U.U.U.U.U.U.U.U.U.L.L.L.L.L.L.L.L.L.L.L.L.L.L.L.L.L.L.L.L.L.L.L.L.L.L.L.L.L.U.U.U.U.U.U.L.L.L.L.U.U.U.U.L.L.L.L.U.U.U.U.L.U.L.<...V n n n n n n n n n n n n n n n n n n n n n n n n n V X.F.L.U.U.U.U.U.L.L.L.L.L.L.L.L.L.L.L.L.L.L.L.L.L.L.L.L.L.L.L.L.L.L.L.L.L.L.L.L.L.L.L.L.L.L.L.L.L.L.L.L.L.L.L.L.L.L.L.L.L.L.L.L.L.L.L.L.L.L.L.L.L.L.L.L.L.L.L.L.L.U.U.H.t.y.q.0.q.q.q.q.q.7.l g f f f d d d j S O.L.Q.U.U.U.U.J.@.| B n n n n n M M M M M n n n M M M M n n n n n n n M C +.J.U.U.L.L.L.L.L.L.L.L.L.L.L.L.L.L.L.L.L.L.L.L.U.U.K.@. .B n n n n M n c 1 @                 ",
"                : M @.~.~.~.T.T.T.T.~.~.T.T.T.T.T.T.U.U.U.L.L.L.L.L.L.L.L.L.L.L.L.L.L.L.L.L.L.L.L.L.L.L.L.L.L.L.I.P.P.P.P.P.P.P.K.K.L.L.U.U.U.U.U.U.U.U.U.U.U.U.U.U.U.<...V n n n n n n n n n n n n n n n n n n n n n n n n n V X.F.L.~.U.U.U.U.U.U.L.L.L.L.L.L.L.L.L.L.L.L.L.L.L.L.L.L.L.L.L.L.L.L.L.L.L.L.L.L.L.L.L.L.L.L.L.L.L.L.L.L.L.L.L.L.L.L.L.L.L.L.L.L.L.L.L.L.L.L.L.L.L.L.L.L.L.L.L.L.L.L.L.H.t.y.q.0.q.q.q.q.q.7.l g f f g g d d j S +.U.Q.Q.U.Q.Q.L.@.| B n n M n M M M M M M M M M M M M M n n n n n n n M A +.J.U.U.L.L.L.L.L.L.L.L.L.L.L.L.L.L.L.L.L.L.L.L.U.U.K.@. .V n n n n M n c 1 @                 ",
"                : n +.U.~.U.L.L.U.U.U.U.L.L.L.L.U.L.U.L.L.L.L.L.L.L.L.L.L.L.L.L.L.L.L.L.L.L.L.L.L.L.L.L.L.L.L.L.L.L.L.L.L.L.L.L.L.K.L.L.L.L.L.L.L.L.L.L.L.L.L.L.L.L.L.@...V n n n n n n n n n n n n n n n n n n n n n n n n n V X.<.L.L.U.L.L.L.L.L.L.L.L.L.L.L.L.L.L.L.L.L.L.L.L.L.L.L.L.L.L.L.L.L.L.L.L.L.L.L.L.L.L.L.L.L.L.L.L.L.L.L.L.L.L.L.L.L.L.L.L.L.L.L.L.L.L.L.L.L.L.L.L.L.L.L.L.L.L.L.L.L.L.H.t.y.q.0.q.q.q.q.q.7.l g f f g g d d j S O.L.Q.U.U.U.U.J.+.| N n n n n n n n n n n n n n n n n n n n n n n n n M C +.J.U.U.L.L.L.L.L.L.L.L.L.L.L.L.L.L.L.L.L.L.L.L.U.U.K.@. .V n n n n M n c 1 @                 ",
"                : n +.U.T.U.L.L.L.L.L.L.L.L.L.L.L.L.L.L.L.L.L.L.L.L.L.L.L.L.L.L.L.L.L.L.L.L.L.L.L.L.L.L.L.L.L.L.L.L.L.L.L.L.L.L.L.L.L.L.L.L.L.L.L.L.L.L.L.L.L.L.L.U.L.<...V n n n n n n n n n n n n n n n n n n n n n n n n n V ..F.L.U.L.L.L.L.L.L.L.L.L.L.L.L.L.L.L.L.L.L.L.L.L.L.L.L.L.L.L.L.L.L.L.L.L.L.L.L.L.L.L.L.L.L.L.L.L.L.L.L.L.L.L.L.L.L.L.L.L.L.L.L.L.L.L.L.L.L.L.L.L.L.L.L.L.L.L.L.L.L.L.H.t.y.q.0.0.q.q.q.q.7.l g g d g d d d j b O.K.U.U.L.U.U.J.+.| N n n n n n n n n n n n n n n n n n n n n n n n n M C +.J.L.U.L.L.L.L.L.L.L.L.L.L.L.L.L.L.L.L.L.L.L.L.U.U.K.@. .V n n n n M n c 1 @                 ",
"                : n +.U.T.U.L.L.L.L.L.L.L.L.L.L.L.L.L.L.L.L.L.L.L.L.L.L.L.L.L.L.L.L.L.L.L.L.L.L.L.L.L.L.L.L.L.L.L.L.L.L.L.L.L.L.L.L.L.L.L.L.L.L.L.L.L.L.L.L.L.L.L.U.L.<...V n n n n n n n n n n n n n n n n n n n n n n n n n V ..<.L.U.L.L.L.L.L.L.L.L.L.L.L.L.L.L.L.L.L.L.L.L.L.L.L.L.L.L.L.L.L.L.L.L.L.L.L.L.L.L.L.L.L.L.L.L.L.L.L.L.L.L.L.L.L.L.L.L.L.L.L.L.L.L.L.L.L.L.L.L.L.L.L.L.L.L.L.L.L.L.L.H.t.y.q.0.0.0.0.0.0.7.l g d d d d d d h b O.K.U.U.L.U.U.J.+.A M n n n n n n n n n n n n n n n n n n n n n n n n n C +.J.L.U.L.L.L.L.L.L.L.L.L.L.L.L.L.L.L.L.L.L.L.L.U.U.K.@. .V n n n n M n c 1 @                 ",
"                : n +.U.T.L.L.L.L.L.L.L.L.L.L.L.L.L.L.L.L.L.L.L.L.L.L.L.L.L.L.L.L.L.L.L.L.L.L.L.L.L.L.L.L.L.L.L.L.L.L.L.L.L.L.L.L.L.L.L.L.L.L.L.L.L.L.L.L.L.L.L.U.U.L.<...V n n n n n n n n n n n n n n n n n n n n n n n n n V ..F.L.U.L.L.L.L.L.L.L.L.L.L.L.L.L.L.L.L.L.L.L.L.L.L.L.L.L.L.L.L.L.L.L.L.L.L.L.L.L.L.L.L.L.L.L.L.L.L.L.L.L.L.L.L.L.L.L.L.L.L.L.L.L.L.L.L.L.L.L.L.L.L.L.L.L.L.L.L.L.L.L.H.t.y.q.0.0.q.q.q.q.7.l g g d g g d d j b O.K.U.U.L.U.U.J.+.| B n n n n n n n n n n n n n n n n n n n n n n n n M C +.J.L.U.L.L.L.L.L.L.L.L.L.L.L.L.L.L.L.L.L.L.L.L.U.U.K.@. .V n n n n M n c 1 @                 ",
"                : n +.U.T.L.L.L.L.L.L.L.L.L.L.L.L.L.L.L.L.L.L.L.L.L.L.L.L.L.L.L.L.L.L.L.L.L.L.L.L.L.L.L.L.L.L.L.L.L.L.L.L.L.L.L.L.L.L.L.L.L.L.L.L.L.L.L.L.L.L.L.U.U.L.F.X.C V B V V V V V V V V V V V V V V V V V V V V V B V C O.F.L.U.L.L.L.L.L.L.L.L.L.L.L.L.L.L.L.L.L.L.L.L.L.L.L.L.L.L.L.L.L.L.L.L.L.L.L.L.L.L.L.L.L.L.L.L.L.L.L.L.L.L.L.L.L.L.L.L.L.L.L.L.L.L.L.L.L.L.L.L.L.L.L.L.L.L.L.L.L.L.L.H.D.y.e.e.e.e.e.e.e.8.z x j j j j h j x S x.K.U.U.L.U.U.J.@. .C B V V V V V V V V V V V V V V V V V V V V V V B C | +.J.L.U.L.L.L.L.L.L.L.L.L.L.L.L.L.L.L.L.L.L.L.L.U.U.K.@. .V n n n n M n c 1 @                 ",
"                - n +.U.T.U.L.L.L.L.L.L.L.L.L.L.L.L.L.L.L.L.L.L.L.L.L.L.L.L.L.L.L.L.L.L.L.L.L.L.L.L.L.L.L.L.L.L.L.L.L.L.L.L.L.L.L.L.L.L.L.L.L.L.L.L.L.L.L.L.L.L.L.U.L.J.@.X... ........................................... ...X.@.J.L.U.L.L.L.L.L.L.L.L.L.L.L.L.L.L.L.L.L.L.L.L.L.L.L.L.L.L.L.L.L.L.L.L.L.L.L.L.L.L.L.L.L.L.L.L.L.L.L.L.L.L.L.L.L.L.L.L.L.L.L.L.L.L.L.L.L.L.L.L.L.L.L.L.L.L.L.L.L.L.L.K.D.t.r.r.r.r.r.r.r.r.r.S S S S S b S S o.F.L.U.U.L.U.U.K.F.+.....................................................+.<.K.L.U.L.L.L.L.L.L.L.L.L.L.L.L.L.L.L.L.L.L.L.L.U.U.K.@. .V n n n n M n c 1 @                 ",
"                - n +.U.T.U.L.L.L.L.L.L.L.L.L.L.L.L.L.L.L.L.L.L.L.L.L.L.L.L.L.L.L.L.L.L.L.L.L.L.L.L.L.L.L.L.L.L.L.L.L.L.L.L.L.L.L.L.L.L.L.L.L.L.L.L.L.L.L.L.L.L.L.L.L.K.F.<.@.@.<.<.<.<.<.<.<.<.<.<.<.<.@.@.@.@.<.<.<.<.<.<.<.F.J.K.L.L.L.L.L.L.L.L.L.L.L.L.L.L.L.L.L.L.L.L.L.L.L.L.L.L.L.L.L.L.L.L.L.L.L.L.L.L.L.L.L.L.L.L.L.L.L.L.L.L.L.L.L.L.L.L.L.L.L.L.L.L.L.L.L.L.L.L.L.L.L.L.L.L.L.L.L.L.L.L.L.K.G.G.D.D.D.D.D.D.D.D.z.z.z.z.O.O.O.O.x.F.K.L.U.U.L.L.L.L.J.F.<.@.<.<.<.<.@.@.<.<.<.<.<.<.@.@.@.@.<.<.<.<.<.<.<.<.F.J.K.L.L.L.L.L.L.L.L.L.L.L.L.L.L.L.L.L.L.L.L.L.L.U.U.K.@. .V n n n n M n c 1 @                 ",
"                - n +.U.T.U.L.L.L.L.L.L.L.L.L.L.L.L.L.L.L.L.L.L.L.L.L.L.L.L.L.L.L.L.L.L.L.L.L.L.L.L.L.L.L.L.L.L.L.L.L.L.L.L.L.L.L.L.L.L.L.L.L.L.L.L.L.L.L.L.L.L.L.L.L.L.L.L.L.L.L.L.L.L.L.L.L.L.L.L.L.L.L.L.L.L.L.L.L.L.L.L.L.L.L.L.L.L.L.L.L.L.L.L.L.L.L.L.L.L.L.L.L.L.L.L.L.L.L.L.L.L.L.L.L.L.L.L.L.L.L.L.L.L.L.L.L.L.L.L.L.L.L.L.L.L.L.L.L.L.L.L.L.L.L.L.L.L.L.L.L.L.L.L.L.L.L.L.L.L.L.L.L.L.L.L.L.L.L.L.K.K.K.K.I.I.K.K.K.K.I.K.K.K.K.K.K.K.K.L.U.U.L.L.L.L.L.L.L.L.L.L.L.L.K.L.L.L.L.L.L.L.L.L.L.L.L.L.L.L.L.L.L.L.L.L.L.L.L.L.L.L.L.L.L.L.L.L.L.L.L.L.L.L.L.L.L.L.L.U.U.K.@. .B n n n n M n c 1 @                 ",
"                - n +.U.T.U.L.L.L.L.L.L.L.L.L.L.L.L.L.L.L.L.L.L.L.L.L.L.L.L.L.L.L.L.L.L.L.L.L.L.L.L.L.L.L.L.L.L.L.L.L.L.L.L.L.L.L.L.L.L.L.L.L.L.L.L.L.L.L.L.L.L.L.L.L.L.U.U.U.U.U.U.U.U.U.U.U.U.U.U.U.U.U.U.U.U.U.U.U.U.U.U.U.U.U.L.L.L.L.L.L.L.L.L.L.L.L.L.L.L.L.L.L.L.L.L.L.L.L.L.L.L.L.L.L.L.L.L.L.L.L.L.L.L.L.L.L.L.L.L.L.L.L.L.L.L.L.L.L.L.L.L.L.L.L.L.L.L.L.L.L.L.L.L.L.L.L.L.L.L.L.L.L.L.L.L.L.L.U.L.U.Q.Q.Q.U.U.U.U.U.U.U.U.U.U.U.U.U.U.U.U.U.U.L.L.L.L.L.L.U.U.U.U.U.U.L.L.U.U.U.U.U.U.U.U.U.U.U.U.U.U.U.U.U.U.U.L.L.L.L.L.L.L.L.L.L.L.L.L.L.L.L.L.L.L.L.L.L.L.L.U.U.K.@. .V n n n n M n c 1 @                 ",
"                : n +.U.T.U.L.L.L.L.L.L.L.L.L.L.L.L.L.L.L.L.L.L.L.L.L.L.L.L.L.L.L.L.L.L.L.L.L.L.L.L.L.L.L.L.L.L.L.L.L.L.L.L.L.L.L.L.L.L.L.L.L.L.L.L.L.L.L.L.L.L.L.L.L.L.L.L.U.U.U.U.U.U.U.U.U.U.L.L.L.L.U.U.U.U.U.U.L.L.L.U.U.L.L.L.L.L.L.L.L.L.L.L.L.L.L.L.L.L.L.L.L.L.L.L.L.L.L.L.L.L.L.L.L.L.L.L.L.L.L.L.L.L.L.L.L.L.L.L.L.L.L.L.L.L.L.L.L.L.L.L.L.L.L.L.L.L.L.L.L.L.L.L.L.L.L.L.L.L.L.L.L.L.L.L.L.L.L.L.L.L.L.L.L.L.L.L.U.U.U.U.U.U.U.U.U.L.L.L.L.L.L.L.L.L.L.L.L.L.U.U.U.U.U.L.L.L.U.U.U.U.L.L.L.L.U.U.U.U.U.U.L.L.L.L.L.L.L.L.L.L.L.L.L.L.L.L.L.L.L.L.L.L.L.L.L.L.L.U.U.K.@. .V n n n n M n c 1 @                 ",
"                - n +.U.~.U.L.L.L.L.L.L.L.L.L.L.L.L.L.L.L.L.L.L.L.L.L.L.L.L.L.L.L.L.L.L.L.L.L.L.L.L.L.L.L.L.L.L.L.L.L.L.L.L.L.L.L.L.L.L.L.L.L.L.L.L.L.L.L.L.L.L.L.L.L.L.L.L.L.L.L.L.L.L.L.L.L.L.L.L.L.L.L.L.L.L.L.L.L.L.L.L.L.L.L.L.L.L.L.L.L.L.L.L.L.L.L.L.L.L.L.L.L.L.L.L.L.L.L.L.L.L.L.L.L.L.L.L.L.L.L.L.L.L.L.L.L.L.L.L.L.L.L.L.L.L.L.L.L.L.L.L.L.L.L.L.L.L.L.L.L.L.L.L.L.L.L.L.L.L.L.L.L.L.L.L.L.L.L.L.L.L.L.L.L.L.L.L.L.L.L.L.L.L.L.L.L.L.L.L.L.L.L.L.L.L.L.L.L.L.L.L.L.L.L.L.L.L.L.L.L.L.L.L.L.L.L.L.L.L.L.L.L.L.L.L.L.L.L.L.L.L.L.L.L.L.L.L.L.L.L.L.L.L.L.L.L.L.L.U.U.K.@. .B n n n n M n c 1 @                 ",
"                - n +.U.T.U.L.L.L.L.L.L.L.L.L.L.L.L.L.L.L.L.L.L.L.L.L.L.L.L.L.L.L.L.L.L.L.L.L.L.L.L.L.L.L.L.L.L.L.L.L.L.L.L.L.L.L.L.L.L.L.L.L.L.L.L.L.L.L.L.L.L.L.L.L.L.L.L.L.L.L.L.L.L.L.L.L.L.L.L.L.L.L.L.L.L.L.L.L.L.L.L.L.L.L.L.L.L.L.L.L.L.L.L.L.L.L.L.L.L.L.L.L.U.U.U.U.U.U.U.U.U.U.U.U.U.U.U.U.U.U.U.U.U.U.U.U.U.U.U.U.U.U.U.U.U.U.U.U.U.U.U.U.U.U.U.U.U.U.U.U.U.U.U.U.U.U.U.U.U.U.U.U.U.U.U.U.U.U.L.L.L.L.L.L.L.L.L.L.L.L.L.L.L.L.L.L.L.L.L.L.L.L.L.L.L.L.L.L.L.L.L.L.L.L.L.L.L.L.L.L.L.L.L.L.L.L.L.L.L.L.L.L.L.L.L.L.L.L.L.L.L.L.L.L.L.L.L.L.L.L.L.L.L.L.L.L.L.L.U.U.K.@. .V n n n n M n c 1 @                 ",
"                - n +.U.T.U.L.L.L.L.L.L.L.L.L.L.L.L.L.L.L.L.L.L.L.L.L.L.L.L.L.L.L.L.L.L.L.L.L.L.L.L.L.L.L.L.L.L.L.L.L.L.L.L.L.L.L.L.L.L.L.L.L.L.L.L.L.L.L.L.L.L.L.L.L.L.L.L.L.L.L.L.L.L.L.L.L.L.L.L.L.L.L.L.L.L.L.L.L.L.L.L.L.L.L.L.L.L.L.L.L.L.L.L.L.L.L.L.L.L.L.L.L.U.U.U.U.U.U.U.U.U.U.U.U.U.U.U.U.U.U.U.U.U.U.U.U.U.U.U.U.U.U.U.U.U.U.U.U.U.U.U.U.U.U.U.U.U.U.U.U.U.U.U.U.U.U.U.U.U.U.U.U.U.U.U.U.U.U.L.L.L.L.L.L.L.L.L.L.L.L.L.L.L.L.L.L.L.L.L.L.L.L.L.L.L.L.L.L.L.L.L.L.L.L.L.L.L.L.L.L.L.L.L.L.L.L.L.L.L.L.L.L.L.L.L.L.L.L.L.L.L.L.L.L.L.L.L.L.L.L.L.L.L.L.L.L.L.L.U.U.K.@. .V n n n n M n c 1 @                 ",
"                - n +.U.T.U.L.L.L.L.L.L.L.L.L.L.L.L.L.L.L.L.L.L.L.L.L.L.L.L.L.L.L.L.L.L.L.L.L.L.L.L.L.L.L.L.L.L.L.L.L.L.L.L.L.L.L.L.L.L.L.L.L.L.L.L.L.L.L.L.L.L.L.L.L.L.L.L.L.L.L.L.L.L.L.L.L.L.L.L.L.L.L.L.L.L.L.L.L.L.L.L.L.L.L.L.L.L.L.L.L.L.L.L.L.L.L.L.L.L.L.L.L.K.J.J.J.J.J.J.J.J.J.J.J.J.J.J.J.J.J.J.J.J.J.J.J.J.J.J.J.J.J.J.J.J.J.J.J.K.J.J.J.J.J.J.J.J.J.J.J.J.J.J.J.J.J.J.J.J.J.J.J.J.J.J.J.J.K.L.L.L.L.L.L.L.L.L.L.L.L.L.L.L.L.L.L.L.L.L.L.L.L.L.L.L.L.L.L.L.L.L.L.L.L.L.L.L.L.L.L.L.L.L.L.L.L.L.L.L.L.L.L.L.L.L.L.L.L.L.L.L.L.L.U.P.P.P.P.P.P.P.P.P.U.L.L.L.L.L.U.K.@. .V n n n n M n c 1 @                 ",
"                - n +.U.T.U.L.L.L.L.L.L.L.L.L.L.L.L.L.L.L.L.L.L.L.L.L.L.L.L.L.L.L.L.L.L.L.L.L.L.L.L.L.L.L.L.L.L.L.L.L.L.L.L.L.L.L.L.L.L.L.L.L.L.L.L.L.L.L.L.L.L.L.L.L.L.L.L.L.L.L.L.L.L.L.L.L.L.L.L.L.L.L.L.L.L.L.L.L.L.L.L.L.L.L.L.L.L.L.L.L.L.L.L.L.L.L.L.L.L.L.L.J.<.@.+.+.+.+.+.+.+.+.+.+.+.+.+.+.+.+.+.+.+.+.+.+.+.+.+.+.+.+.+.+.+.+.+.+.+.+.+.+.+.+.+.+.+.+.+.+.+.+.+.+.+.+.+.+.+.+.+.+.+.+.+.+.@.<.J.L.L.L.L.L.L.L.L.L.L.L.L.L.L.L.L.L.L.L.L.L.L.L.L.L.L.L.L.L.L.L.L.L.L.L.L.L.L.L.L.L.L.L.L.L.L.L.L.L.L.L.L.L.L.L.L.L.L.L.L.L.L.L.P.1.1.1.1.1.1.1.1.1.1.P.L.L.L.L.L.U.K.@. .V n n n n M n c 1 @                 ",
"                - n +.U.T.U.L.L.L.L.L.L.L.L.L.L.L.L.L.L.L.L.L.L.L.L.L.L.L.L.L.L.L.L.L.L.L.L.L.L.L.L.L.L.L.L.L.L.L.L.L.L.L.L.L.L.L.L.L.L.L.L.L.L.L.L.L.L.L.L.L.L.L.L.L.L.L.L.L.L.L.L.L.L.L.L.L.L.L.L.L.L.L.L.L.L.L.L.L.L.L.L.L.L.L.L.L.L.L.L.L.L.L.L.L.L.L.L.L.L.U.K.F.+. .| | | | | | | | | | | | | | | | | | | | | | | | | | | | | | | | | | | | | | | | | | | | | | | | | | | | | | | | | | | | | | | O.<.K.U.U.L.L.L.L.L.L.L.L.L.L.L.L.L.L.L.L.L.L.L.L.L.L.L.L.L.L.L.L.L.L.L.L.L.L.L.L.L.L.L.L.L.L.L.L.L.L.L.L.L.L.L.L.L.L.L.L.L.L.L.L.1.1.4.3.*.3.3.*.*.3.4.1.P.L.L.L.L.U.K.@. .V n n n n M n c 1 @                 ",
"                : n +.U.T.U.L.L.L.L.L.L.L.L.L.L.L.L.L.L.L.L.L.L.L.L.L.L.L.L.L.L.L.L.L.L.L.L.L.L.L.L.L.L.L.L.L.L.L.L.L.L.L.L.L.L.L.L.L.L.L.L.L.L.L.L.L.L.L.L.L.L.L.L.L.L.L.L.L.L.L.L.L.L.L.L.L.L.L.L.L.L.L.L.L.L.L.L.L.L.L.L.L.L.L.L.L.L.L.L.L.L.L.L.L.L.L.L.L.U.U.K.@...V M M B B B B B N N N N B B B B B B B B B B B B B B B B B B B B B B N N B B B B B B B B B B B B B B B B B B B B N N N N B M M V  .@.K.U.U.L.L.L.L.L.L.L.L.L.L.L.L.L.L.L.L.L.L.L.L.L.L.L.L.L.L.L.L.L.L.L.L.L.L.L.L.L.L.L.L.L.L.L.L.L.L.L.L.L.L.L.L.L.L.L.L.L.L.L.L.1.4.*.:.:.:.:.-.-.:.3.1.P.L.L.L.L.U.K.@. .V n n n n M n c 1 @                 ",
"                : n +.U.T.U.L.L.L.L.L.L.L.L.L.L.L.L.L.L.L.L.L.L.L.L.L.L.L.L.L.L.L.L.L.L.L.L.L.L.L.L.L.L.L.L.L.L.L.L.L.L.L.L.U.U.L.L.L.L.L.L.U.U.L.L.L.L.L.L.L.L.L.L.L.L.L.L.L.L.L.L.L.L.L.L.L.U.L.L.L.L.L.L.L.L.L.L.L.L.L.L.L.L.L.L.L.L.L.L.L.L.L.L.L.L.L.L.L.U.U.K.@.| B n n n n n n n n n n n n n n n n n n n n n n n n n n n n n n n n n n n n n n n n n n n n n n n n n n n n n n n n n n n n n n B | @.K.U.U.L.L.L.L.L.L.L.L.L.L.L.L.L.L.L.L.L.L.L.L.L.L.L.L.L.L.L.L.L.L.L.L.L.L.L.L.L.L.L.L.L.L.L.L.L.L.L.L.L.L.L.L.L.L.L.L.L.L.L.L.1.4.>.-.=.=.=.=.=.:.3.1.P.L.L.L.U.U.K.@. .V n n n n M n c 1 @                 ",
"                - n +.U.T.U.L.L.L.L.L.L.L.L.L.L.L.L.L.L.L.L.L.L.L.L.L.L.L.L.L.L.L.L.L.L.L.L.L.L.L.L.L.L.L.L.L.L.L.L.L.L.L.L.L.U.L.L.L.L.L.L.U.U.L.L.L.L.L.L.L.L.L.L.L.L.L.L.L.L.L.L.L.L.L.L.L.U.L.L.L.L.L.L.L.L.L.L.L.L.L.L.L.L.L.L.L.L.L.L.L.L.L.L.L.L.L.L.L.U.U.K.@.| B n n n n n n n n n n n n n n n n n n n n n n n n n n n n n n n n n n n n n n n n n n n n n n n n n n n n n n n n n n n n n n B | @.K.U.U.L.L.L.L.L.L.L.L.L.L.L.L.L.L.L.L.L.L.L.L.L.L.L.L.L.L.L.L.L.L.L.L.L.L.L.L.L.L.L.L.L.L.L.L.L.L.L.L.L.L.L.L.L.L.L.L.L.L.L.L.1.4.>.-.=.=.=.=.=.:.3.1.P.L.L.L.U.U.K.@. .B n n n n M n c 1 @                 ",
"                : n +.U.T.U.L.L.L.L.L.L.L.L.L.L.L.L.L.L.L.L.L.L.L.L.L.L.L.L.L.L.L.L.L.L.L.L.L.L.U.U.U.U.L.L.L.L.L.L.L.L.L.L.U.L.L.L.L.L.L.L.U.U.L.L.L.L.L.L.L.L.U.U.U.U.L.L.L.L.L.L.L.L.L.L.U.U.L.L.L.L.L.L.L.L.L.L.L.L.L.L.L.L.L.L.L.L.L.L.L.L.L.L.L.L.L.L.L.U.U.K.@. .V n n n n n n n n n n n n n n n n n n n n n n n n n n n n n n n n n n n n n n n n n n n n n n n n n n n n n n n n n n n n n n B | @.K.U.U.L.L.L.L.L.L.L.L.L.L.L.L.L.L.L.L.L.L.L.L.L.L.L.L.L.L.L.L.L.L.L.L.L.L.L.L.L.L.L.L.L.L.L.L.L.L.L.L.L.L.L.L.L.L.L.L.L.L.L.L.1.4.*.-.=.-.-.=.-.:.3.1.P.L.L.L.L.U.K.@. .B n n n n M n c 1 @                 ",
"                : n +.U.T.U.L.L.L.L.L.L.L.L.L.L.L.L.L.L.L.L.L.L.L.L.L.L.L.L.L.L.L.L.L.L.L.L.L.L.U.U.L.U.L.L.L.L.L.L.L.L.L.L.L.L.L.L.L.L.L.L.L.L.L.L.L.L.L.L.L.L.L.L.L.L.L.L.L.L.L.L.L.L.L.L.U.U.L.L.L.L.L.L.L.L.L.L.L.L.L.L.L.L.L.L.L.L.L.L.L.L.L.L.L.L.L.L.L.U.U.K.@. .B n n n n n n n n n n n n n n M M M n n M M n n n n n n n M M n n n n n n n n M M M n n n n n n n n n n n n n n n n n n n n n B | @.K.U.U.L.L.L.L.L.L.L.L.L.L.L.L.L.L.L.L.L.L.L.L.L.L.L.L.L.L.L.L.L.L.L.L.L.L.L.L.L.L.L.L.L.L.L.L.L.L.L.L.L.L.L.L.L.L.L.L.L.L.Y.L.1.4.*.-.=.-.-.=.-.:.3.1.P.L.L.L.L.U.K.@. .V n n n n M n c 1 @                 ",
"                - n +.U.T.U.L.L.L.L.L.L.L.L.L.L.L.L.L.L.L.L.L.L.L.L.L.L.L.L.L.L.U.U.U.U.L.L.L.L.L.L.Q.L.L.Y.L.Y.L.L.L.L.L.L.L.L.L.L.L.L.L.L.!.L.L.Y.L.Y.L.L.L.L.Y.L.!.L.L.L.L.L.L.L.L.L.L.L.L.U.L.L.L.L.L.L.L.L.L.L.L.L.L.L.L.L.L.L.L.L.L.L.L.L.L.L.L.L.L.L.L.U.L.K.@. .B n n n n n n n M M M M M M M M M M M M M M M M M M M M M M M M M M M M M M M M M M M M M M n n n n n n n n n n n n n n n n n B | @.K.U.U.L.L.L.L.L.L.L.L.L.L.L.L.L.L.L.L.L.L.L.L.L.L.L.L.L.L.L.L.L.L.L.L.L.L.L.L.L.L.L.L.L.L.L.L.L.L.L.L.L.L.L.L.L.L.L.L.L.L.Y.L.1.4.*.-.=.-.-.=.-.:.3.1.P.L.L.L.U.U.K.@. .B n n n n M n c 1 @                 ",
"                - n +.U.T.U.L.L.L.L.L.L.L.L.L.L.L.L.L.L.L.L.L.L.L.L.L.L.L.L.L.L.U.U.U.U.L.L.L.U.U.U.U.U.U.U.U.U.I.I.I.I.U.I.U.U.I.I.I.I.U.U.U.U.U.U.U.U.I.I.I.I.U.U.U.U.U.U.U.U.I.I.I.I.U.U.U.U.L.L.L.L.L.L.L.L.L.L.L.L.L.L.L.L.L.L.L.L.L.L.L.L.L.L.L.L.L.L.L.U.U.K.@. .B n n n n n n n n n n n n n n n n n n n n n n n n n n n n n n n n n n n n n n n n n n n n n n n n n n n n n n n n n n n n n n B | @.K.U.U.L.L.L.L.L.L.L.L.L.L.L.L.L.L.L.L.L.L.L.L.L.L.L.L.L.L.L.L.L.L.L.L.L.L.L.L.L.L.L.L.L.L.L.L.L.L.L.L.L.L.L.L.L.L.L.L.L.L.L.L.1.4.>.-.=.-.-.-.-.:.3.1.P.L.L.L.U.U.K.@. .V n n n n M n c 1 @                 ",
"                - n +.U.T.U.L.L.L.L.L.L.L.L.L.L.L.L.L.L.L.L.L.L.L.L.L.L.L.L.L.L.L.L.L.L.L.I.H.,.,.,.,.,.,.,.,.,.,.,.,.,.,.,.,.,.,.,.,.,.,.,.,.,.,.,.,.,.,.,.,.,.,.,.,.,.,.,.,.,.,.,.,.,.,.,.P.U.L.L.L.L.L.L.L.L.L.L.L.L.L.L.L.L.L.L.L.L.L.L.L.L.L.L.L.L.L.L.L.U.U.K.@. .V n n n n n n n c r r e r r r r r r r r r r r r r r r r r r r r r r r r r r r r r r r r r c c n n n n n n n n n n n n n n n n B | @.K.U.U.L.L.L.L.L.L.L.L.L.L.L.L.L.L.L.L.L.L.L.L.L.L.L.L.L.L.L.L.L.L.L.L.P.1.1.1.1.1.1.1.1.1.1.1.1.1.1.1.1.1.1.1.1.1.1.1.1.1.1.1.1.3.:.-.-.-.-.-.-.:.3.1.P.L.L.L.U.U.K.@. .V n n n n M n c 1 @                 ",
"                : n +.U.T.U.L.L.L.L.L.L.L.L.L.L.L.L.L.L.L.L.L.L.L.L.L.L.L.L.L.L.L.L.L.L.L.P.,.2._ +X+X+X+X+X+X+X+X+X+X+X+X+X+X+X+X+X+X+X+X+X+X+X+X+X+X+X+X+X+X+X+X+X+X+X+X+X+X+X+X+X+X+X_ 2.,.I.L.L.L.L.L.L.L.L.L.L.L.L.L.L.L.L.L.L.L.L.L.L.L.L.L.L.L.L.L.L.L.U.U.K.@. .V n n n n M n c e 1 , , , , , , , , , , , , , , , , , , , , , , , , , , , , , , , , , , , 1 r n n M n n n n n n n n n n n n n B | @.K.U.U.L.L.L.L.L.L.L.L.L.L.L.L.L.L.L.L.L.L.L.L.L.L.L.L.L.L.L.L.L.L.L.L.1.1.4.4.4.4.4.4.4.4.4.4.4.4.4.4.4.4.4.4.4.4.4.4.4.4.4.4.3.*.:.-.-.-.-.-.-.:.3.1.P.L.L.L.U.U.K.@. .V n n n n M n c 1 @                 ",
"                : n +.U.T.U.L.L.L.L.L.L.L.L.L.L.L.L.L.L.L.L.L.L.L.L.L.L.L.L.L.L.L.L.L.L.L.H.2.+XoX`.`.oXoXoXoXoXoXoXoXoXoXoXoXoXoXoXoXoXoXoXoXoXoXoXoXoXoXoXoXoXoXoXoXoXoXoXoXoXoXoX`.`..X_ ,.I.L.L.L.L.L.L.L.L.L.L.L.L.L.L.L.L.L.L.L.L.L.L.L.L.L.L.L.L.L.L.L.U.U.K.@. .V n n n n M n c 1 - + X X X X X X X X X X X X X X X X X X X X X X X X X X X X X X X X X + : q n M M n n n n n n n n n n n n n B | @.K.U.U.L.L.L.L.L.L.L.L.L.L.L.L.L.L.L.L.L.L.L.L.L.L.L.L.L.L.L.L.L.L.L.L.1.4.*.:.:.:.:.:.:.:.:.:.:.:.:.:.:.:.>.:.:.:.:.:.:.:.:.:.:.:.=.-.-.-.-.=.-.:.3.1.P.L.L.L.U.U.K.@. .B n n n n M n c 1 @                 ",
"                : n +.U.T.U.L.L.L.L.L.L.L.L.L.L.L.L.L.L.L.L.L.L.L.L.L.L.L.L.L.L.L.L.L.L.L.H.2.OX'._._._._._._._._._._._._._._._.'.'._._._._._._._._._._._._._._._._._._._._._._._._._._.`.+X2.P.L.L.L.L.L.L.L.L.L.L.L.L.L.L.L.L.L.L.L.L.L.L.L.L.L.L.L.L.L.L.L.U.U.K.@. .V n n n n M n c 1 @                                                                       @ q c M M n n n n n n n n n n n n n B | @.K.U.U.L.L.L.L.L.L.L.L.L.L.L.L.L.L.L.L.L.L.L.L.L.L.L.L.L.L.L.L.L.L.L.L.1.4.:.-.=.-.-.-.-.-.-.-.-.-.-.-.-.-.-.-.-.-.-.-.-.-.-.-.-.-.-.-.-.-.-.-.-.:.3.1.P.L.L.L.U.U.K.@. .B n n n n M n c 1 @                 ",
"                : n +.U.T.L.L.L.L.L.L.L.L.L.L.L.L.L.L.L.L.L.L.L.L.L.L.L.L.L.L.L.L.L.L.L.L.H.2..X'._._._._._._._._._._._._._._._._._._._._._._._._._._._._._._._._._._._._._._._._._._._.`.+X2.I.Y.L.L.L.L.L.L.L.L.L.L.L.L.L.L.L.L.L.L.L.L.L.L.L.L.L.L.L.L.L.L.U.U.K.@. .V n n n n M n c 1 +                                                                       @ q c M M n n n n n n n n n n n n n B | @.K.U.U.L.L.L.L.L.L.L.L.L.L.L.L.L.L.L.L.L.L.L.L.L.L.L.L.L.L.L.L.L.L.L.L.1.4.:.=.=.=.-.-.-.-.-.-.-.-.-.-.-.-.-.-.-.-.-.-.-.-.-.-.-.-.-.-.-.-.-.-.-.:.3.1.P.L.L.L.U.U.K.@. .V n n n n M n c 1 @                 ",
"                : n +.U.T.L.L.L.L.L.L.L.L.L.L.L.L.L.L.L.L.L.L.L.L.L.L.L.L.L.L.L.L.L.L.L.L.H.2.OX'._._._._._._._._._._._._._._._.'._.'.'._._._._._._._._._._._._._._._._._._._._._._._._.`.+X2.I.Y.L.L.L.L.L.L.L.L.L.L.L.L.L.L.L.L.L.L.L.L.L.L.L.L.L.L.L.L.L.L.U.U.K.@. .V n n n n M n c 1 @                                                                       @ q c M M n n n n n n n n n n n n n B | @.K.U.U.L.L.L.L.L.L.L.L.L.L.L.L.L.L.L.L.L.L.L.L.L.L.L.L.L.L.L.L.L.L.L.L.1.4.:.-.=.-.-.-.-.-.-.-.-.-.-.-.-.-.-.-.-.-.-.-.-.-.-.-.-.-.-.-.-.-.-.-.-.:.3.1.P.L.L.L.U.U.K.@. .V n n n n M n c 1 @                 ",
"                : n +.U.~.U.U.U.L.L.L.L.L.L.L.L.L.L.L.L.L.L.L.L.L.L.L.L.U.U.U.U.L.L.L.Y.L.H.2.OX`._._.'.'.'.'.'.'.'.'.'.'.'.'.'.'.'.'.'.'.'.'.'.'.'.'.'.'.'.'.'.'.'.'.'.'.'.'.'.'.'._._.`.+X2.I.L.L.L.L.L.L.L.L.L.L.L.L.L.L.L.L.L.L.L.L.L.L.L.L.L.L.L.L.L.L.L.U.U.K.@. .V n n n M M M c 1 @                                                                       @ q c M M n n n n n n n n n n n n n B | @.K.U.U.L.L.L.L.L.L.L.L.L.L.L.L.L.L.L.L.L.L.L.L.L.L.L.L.L.L.L.L.L.L.Y.L.1.4.>.-.-.-.-.-.-.-.-.-.-.-.-.-.-.-.-.-.-.-.-.-.-.-.-.-.-.-.-.-.-.-.-.-.-.:.3.1.P.L.L.L.U.U.K.@. .V n n n n M n c 1 @                 ",
"                : M @.~.~.~.~.~.T.U.U.U.L.L.L.L.L.L.L.L.L.L.L.L.L.L.U.U.U.L.L.L.L.L.L.!.!.P.2.OX'._._.'.'.'.'.'.'.'.'.'.'.'.'.'.'.'.'.'.'.'.'.'.'.'.'.'.'.'.'.'.'.'.'.'.'.'.'.'.'.'._.].`.+X2.I.L.L.L.L.L.L.L.L.L.L.L.L.L.L.L.L.L.L.L.L.L.L.L.L.L.L.L.L.L.L.L.U.U.K.@...V M n M M B M c 1 @                                                                       @ q n B B M M M M M M n n n n n n n B | @.K.U.U.L.L.L.L.L.L.L.L.L.L.L.L.L.L.L.L.L.L.L.L.L.L.L.L.L.L.L.L.L.Y.Y.L.1.4.>.-.-.-.-.-.-.-.-.-.-.-.-.-.-.-.-.-.-.-.-.-.-.-.-.-.-.-.-.-.-.-.-.=.=.:.3.5.U.Y.Y.U.U.T.L.@. .V n n n n M n c 1 @                 ",
"                : n @.U.~.U.U.U.U.U.U.L.L.L.L.L.L.L.L.L.L.L.L.L.L.L.L.U.U.U.U.U.L.L.L.!.Y.P.2.OX`._._.'.'.'.'.'.'.'.'.'.'.'.'.'.'.'.'.'.'.'.'.'.'.'.'.'.'.'.'.'.'.'.'.'.'.'.'.'.'.'._.'.`.+X2.I.L.L.L.L.L.L.L.L.L.L.L.L.L.L.L.L.L.L.L.L.L.L.L.L.L.L.L.L.L.L.L.U.U.K.@. .V n n M M B M c 1 @                                                                       @ q c B B M M M M M n n n n n n n n B | @.K.U.U.L.L.L.L.L.L.L.L.L.L.L.L.L.L.L.L.L.L.L.L.L.L.L.L.L.L.L.L.L.Y.Y.L.1.4.>.-.-.-.-.-.-.-.-.-.-.-.-.=.-.-.-.-.-.-.-.-.-.-.-.-.-.-.-.-.-.-.-.=.-.:.3.1.P.Y.L.U.U.U.L.@. .V n n n n M n c 1 @                 ",
"                - c ..<.<.@.@.@.@.<.F.J.L.L.L.L.L.L.L.L.L.L.L.L.L.L.L.U.I.P.H.1.1.1.H.H.H.,.` .X).).).).).).).).).'.'.'.'.'.'.'.'.'.'.'.'.'.'.'.'.'.'.).).).).).).).).).).).).).).).).).oX+X2.I.L.L.L.L.L.L.L.L.L.L.L.L.L.L.L.L.L.L.L.L.L.L.L.L.L.L.L.L.L.L.L.U.U.K.@.| n c c c c c c e , +                                                                       @ 1 r c c c c c c c n n n n n n n n B | @.K.U.U.L.L.L.L.L.L.L.L.L.L.L.L.L.L.L.L.L.L.L.L.L.L.L.U.P.P.1.1.1.P.P.1.1.3.:.-.-.-.-.-.-.-.-.-.-.-.-.-.-.-.-.=.=.%.%.%.%.%.%.%.%.%.:.:.:.:.:.%.%.:.3.1.J.F.F.F.J.J.F.+.| B n n n n M n c 1 @                 ",
"                @ 1 c B V B B B B C ..<.K.U.U.L.L.L.L.L.L.L.L.L.L.L.L.L.P.,.2.` ` ` ` 2.2._ Q (.^.^.^.^.^.^.^./.).'.'.'.'.'.'.'.'.'.'.'.'.'.'.'.'.'.)./.^.^.^.^.^.^.^.^.^.^.^.^.^.^.^.^.(.( ,.P.L.L.L.L.L.L.L.L.L.L.L.L.L.L.L.L.L.L.L.L.L.L.L.L.L.L.L.L.L.L.L.U.U.K.+.V e 1 1 1 1 1 1 , - X                                                                       + - 1 1 1 1 1 1 1 q r c n M n n n n B | @.K.L.U.L.L.L.L.L.L.L.L.L.L.L.L.L.L.L.L.L.L.L.L.L.L.U.1.1.1.4.4.4.4.1.4.4.*.:.-.-.-.-.-.-.-.-.-.-.-.-.-.-.-.=.%.%.$.$.$.$.$.$.$.$.&.&.&.&.&.&.&.&.&.} X.X.O.O.O.O.+.O...C B n n n n M n c 1 @                 ",
"                . @ : , , , , , , 1 M O.K.U.U.L.L.L.L.L.L.L.L.L.L.L.L.L.,.2.+X.X.X.X.X.X.X.X(.I P P P P P P P ^./.).'.'.'.'.'.'.'.'.'.'.'.'.'.'.'.)./.^.P P P P P P P P P P P P P P P P I / ,.P.!.L.L.L.L.L.L.L.L.L.L.L.L.L.L.L.L.L.L.L.L.L.L.L.L.L.L.L.L.L.L.U.U.K.X.c , @ + @ @ @ @ @ X                                                                           + @ @ @ @ @ @ @ : q c n M n n n n B | @.K.L.U.L.L.L.L.L.L.L.L.L.L.L.L.L.L.L.L.L.L.L.L.L.L.P.1.4.*.*.*.*.*.*.*.*.:.:.-.-.-.-.-.-.-.-.-.-.-.-.-.-.-.=.%.$.p p p p p p p p p s Z [ [ [ Z Z Z Z C C C C C C C C C B M n n n n M n c 1 @                 ",
"                                  @ r ..J.T.U.L.L.L.L.L.L.L.L.L.L.L.L.L.,._ .X'._.'.'.'.'.'./.P G G G G G G G P ^.).'.'.'.'.'.'.'.'.'.'.'.'.'.'.'.)./.P G G G G G G G G G G G G G G F F K / ,.P.!.L.L.L.L.L.L.L.L.L.L.L.L.L.L.L.L.L.L.L.L.L.L.L.L.L.L.L.L.L.L.U.T.J...e @                                                                                                           @ 1 c n M M n n n B | @.K.U.U.L.L.L.L.L.L.L.L.L.L.L.L.L.L.L.L.L.L.L.L.L.L.P.1.3.:.-.-.-.-.-.-.-.-.-.-.-.-.-.-.-.-.-.-.-.-.-.-.-.-.=.%.$.p y y y y y u i s s M M M M M M M M M M M M M M M M M n n n n n n M n c 1 @                 ",
"                                  + w  .J.~.U.L.L.L.L.L.L.L.L.L.L.L.L.L.,._ oX_._._._._._._.^.P G F F F F F G P ^.).'.'.'.'.'.'.'.'.'.'.'.'.'.'.'.)./.P G F F F F F F F F F F F F F F F K / ,.P.!.L.L.L.L.L.L.L.L.L.L.L.L.L.L.L.L.L.L.L.L.L.L.L.L.L.L.L.L.L.L.U.~.J...e +                                                                                                           + , r n M n n n n B | @.K.U.U.L.L.L.L.L.L.L.L.L.L.L.L.L.L.L.L.L.L.L.L.L.L.P.1.*.:.=.=.=.=.=.=.-.-.-.-.-.-.-.-.-.-.-.-.-.-.-.-.-.-.=.%.p y t t t y t y i a n n n n n n n n n n n n n n n n n n n n n n n n M n c 1 @                 ",
"                                  + e ..J.~.U.L.L.L.L.L.L.L.L.L.U.U.Q.U.,._ oX_._._._._._.).^.P G F F G F F G P ^.).'.'.'.'.'.'.'.'.'.'.'.'.'.'.'.)./.P G F F G G G G G G G G G F F F F K / ,.J.L.L.L.L.L.L.L.L.L.L.L.L.L.L.L.L.L.L.L.L.L.L.L.L.L.L.L.L.L.L.L.U.~.J...e +                                                                                                           + , r n M n n n n B | @.K.U.U.L.L.L.L.L.L.L.L.L.L.L.L.L.L.L.L.L.L.L.L.L.L.P.1.*.-.=.=.-.-.-.-.-.-.-.-.-.-.-.-.-.-.-.-.-.-.-.=.-.-.=.%.p y y t y y y y i a n n n n n n n n n n n n n n n n n n n n n n n n M n c 1 @                 ",
"                                  @ e ..J.T.U.L.L.L.L.L.L.L.L.L.U.U.Q.U.,._ oX'._._._._.'.)./.P G F G G G F G P ^.).'.'.'.'.'.'.'.'.'.'.'.'.'.'.'.)./.P G F F G G G G G G G G G F F F F K / ,.J.L.L.L.L.L.L.L.L.L.L.L.L.L.L.L.L.L.L.L.L.L.L.L.L.L.L.L.L.L.L.L.U.~.J...e @                                                                                                           + , r n M n n n n B | @.K.U.U.L.L.L.L.L.L.L.L.L.L.L.L.L.L.L.L.L.L.L.L.L.L.P.1.3.:.=.=.-.-.-.-.-.-.-.-.-.-.-.-.-.-.-.-.-.-.-.-.-.-.=.%.$.y y y y y y y i a n n n n n n n n n n n n n n n n n n n n n n n n M n c 1 @                 ",
"                                  @ e ..J.T.U.L.L.L.L.L.L.L.L.L.U.U.Q.U.,._ oX'._._._._.'.).^.P G F F G G F G P ^.).'.].'.'.'.'.'.'.'.'.'.'.'.'.].'./.P G F G G G G G G F G F F F F F F K / ,.P.L.L.L.L.L.L.L.L.L.L.L.L.L.L.L.L.L.L.L.L.L.L.L.L.L.U.U.U.U.U.U.~.~.L...e @                                                                                                           + , r n M M n n n B | @.K.U.U.L.L.L.L.L.L.L.L.L.L.L.L.L.L.L.L.L.L.L.L.L.L.P.1.3.:.=.=.-.-.-.-.-.-.-.-.-.-.-.-.-.-.-.-.-.-.-.-.-.-.=.%.p u y y y y t y i a n n n n n n n n n n n n n n n n n n n M M M M M B M c , +                 ",
"                                  @ e ..J.T.U.L.L.L.L.L.L.L.L.L.U.U.Q.U.,._ oX'._._.'._.'.).^.P G F F G G F G P ^.).].].'.'.'.'.'.'.'.'.'.'.'.].].'./.P G F G G G G G G F F F F F F F F K / ,.P.L.L.L.L.L.L.L.L.L.L.L.L.L.L.L.L.L.L.L.L.L.L.L.L.L.U.U.U.T.T.T.~.~.L...e @                                                                                                           + , r n M M n n n B | @.K.U.U.L.L.L.L.L.L.L.L.L.L.L.L.L.L.L.L.L.L.L.L.L.L.P.1.3.:.=.=.-.-.-.-.-.-.-.-.-.-.-.-.-.-.-.-.-.-.-.-.-.;.=.%.$.u y y y y t y i a n n n n n n n n n n n n n n n n n n M M M M M N B N c , +                 ",
"                                  @ e ..J.~.U.L.L.L.L.L.L.L.L.L.L.L.L.L.,._ oX_._._._.].'.).^.P G F F G F F G P ^.).'.'.'.'.'.'.'.'.'.'.'.'.'.'.'.)./.P G F F G G G G G G G G G G F F F K / ,.P.!.L.L.L.L.L.L.L.L.L.L.L.L.L.L.L.L.L.L.L.L.L.L.L.L.K.J.J.J.J.J.J.K.F.| w @                           o o o o o     o o o o o         o o o o o                                       + , r n B M n n n B | @.K.U.U.L.L.L.L.L.L.L.L.L.L.L.L.L.L.L.L.L.L.L.L.L.L.P.1.3.:.-.-.-.-.-.-.-.-.-.-.-.-.-.-.-.=.=.=.=.=.=.=.=.=.%.%.p p y y y y y y i a n n n n n n n n n n n n n n n n n n n n n n n n n n c 1 = O O O O O O O O ",
"                                  @ e ..J.~.U.L.L.L.L.L.L.L.L.L.L.L.L.L.,._ oX'._._._._.'.).^.P G F F G G F G P ^.^././././././././././././././././.^.P G F F G G G G G G G G G G F F F K / ,.P.!.L.L.L.L.L.L.L.L.L.L.L.L.L.L.L.L.L.L.L.L.L.U.U.J.@.X.| | | | |  .| n 1 X               & 2 3 3 3 3 3 3 3 3 3 3 3 3 3 3 3 3 3 3 3 3 3 3 3 3 3 3 & o                                 + , r n B M n n n B | @.K.U.U.L.L.L.L.L.L.L.L.L.L.L.L.L.L.L.L.L.L.L.L.L.L.P.1.3.:.-.-.-.-.-.-.-.-.-.-.-.-.-.-.-.=.%.%.%.%.%.%.%.%.%.$.p u y y y y y y i a n n n n n n n n n n n n n n n n n c r e w q w w w w e a ^ ^ ^ ^ ^ ^ ^ ^ ^ ",
"                                  @ e ..J.~.U.L.L.L.L.L.L.L.L.L.L.L.L.L.,._ oX'._._.'.'.'.).^.P G F F G G G G G P P P P P P P P P P P P P P P P P P P G G G G G G G G G G G G G G F F F K / ,.P.!.L.L.L.L.L.L.L.L.L.L.L.L.L.L.L.L.L.L.L.L.L.U.U.F...n e q q q q q q , @ .             o 3 H U R U U U U U U U U U U U U U U U U U U U U U U U U 4 &                                 + , r n M M n n n B | @.K.U.U.L.L.L.L.L.L.L.L.L.L.L.L.L.L.L.L.L.L.L.L.L.L.P.1.3.:.-.-.-.-.-.-.-.-.-.-.-.-.-.-.-.=.%.$.$.p p p p p p p p u y y y y y y i a n n M n n n n n n n n n n n n M n c q , - - - - - - 8 ( hXkXlXlXlXlXlXlXlX",
"                                  @ e ..J.~.U.L.L.L.L.L.L.L.L.L.L.L.L.L.,._ oX'._._.'.'.'.).^.P G F F G G G G G G G G G G G G G G G G G G G G G G G G G G G G G G G G G G G G G G F F F K / ,.P.!.L.L.L.U.L.L.L.L.L.L.L.L.L.L.L.L.L.L.L.L.L.U.U.F.C q @ X X + + + + X                 & 5 E [.{.{.{.[.[.[.[.[.[.[.[.[.[.{.{.[.[.[.[.[.[.[.{.{.W U 2                                 + , r n M M n n n B | @.K.U.U.L.L.L.L.L.L.L.L.L.L.L.L.L.L.L.L.L.L.L.L.L.L.P.1.*.:.-.-.-.-.-.-.-.-.-.-.-.-.-.-.-.%.$.p p u u y y y y y y y y y y y y y i a n n n n n n n n n n n n n n n M n e , + .   .       6 _ xXmXNXMXMXMXMXMXMX",
"                                  @ e ..J.T.U.L.L.L.L.L.L.L.L.L.U.U.Q.U.,._ oX'._._.'.'.'.).^.P G F G G G G G G G G F F F F F F G G F F F F F F G G G G G G G G G G G G G G G G F F F F K / ,.J.L.L.L.L.L.L.L.L.L.L.L.L.L.L.L.L.L.L.L.L.L.L.U.U.<.V ,                                 & H W |.@X X|.|.|.|.|.|.|.|.|.|.|.|.|.|.|.|.|.|.|.|.@X X[.U 2                                 + , r n M M n n n B | @.K.U.U.L.L.L.L.L.L.L.L.L.L.L.K.K.L.L.L.L.L.L.L.L.L.P.1.*.:.=.-.-.-.-.-.-.-.-.-.-.-.-.-.-.%.$.p y t y y y y y y y y y y y y y y i a s n n n n n n n n n n n n n M M n e : .             6 ' vXVXVXVXVXVXVXVXVX",
"                                  @ e ..J.T.U.L.L.L.L.L.L.L.L.L.U.U.Q.U.,._ oX'._._.'.'.'.).^.P G F G G G G G G G G F F F F F F G G F F F F F F F F F G G G G G G G G G G G G G F F F F K / ,.J.L.L.L.L.L.L.L.L.L.L.L.L.L.L.L.L.L.L.L.L.L.L.U.U.<.V ,                                 & H W |.@X X|.|. X|.|. X|.|. X|.|.|.|.|.|. X X|. X|.@X@X[.U 2                                 + , r n M M n n n B | @.K.U.U.L.L.L.L.L.L.L.L.L.L.L.L.K.L.L.L.L.L.L.L.L.L.P.1.*.:.=.-.-.-.-.-.-.-.-.-.-.-.-.-.-.%.$.p y t y y y y y y y y y y y y y y i a s n n n n n n n n n n n n n M M n e : .             6 ' vXVXVXVXVXVXVXVXVX",
"                                  @ e ..J.T.U.L.L.L.L.L.L.L.L.L.U.U.Q.U.,._ oX'._._.'.'.'.).^.P G F G G G G G G G G G G G G G G G G G G G G G G G G G G G G G G G G G G G G G G F F F F K / ,.P.L.L.L.L.L.L.L.L.L.L.L.L.L.L.L.L.L.L.L.L.L.L.T.U.<.C 1 .                               & H W |. X|.|.|.|.|.|.|.|.|.|.|.|.|.|.|.|.|.|.|.|.|. X|.[.U 2                                 + , r n M M n n n B | @.K.U.U.L.L.L.L.L.L.L.L.L.L.L.L.L.L.L.L.L.L.L.L.L.L.P.1.*.:.=.-.-.-.-.-.-.-.-.-.-.-.-.-.-.%.$.p y y y y y y y y y y y y y y y y i a s n n n n n n n n n n n n n M M n e : X             6 ' vXVXVXVXVXVXVXVXVX",
"                                  @ e ..J.T.U.L.L.L.L.L.L.L.L.L.U.U.Q.U.,._ oX]._._.'.'.'.).^.P G F G G G G G G G G G G G G G G G G G G F F F F F G G G G F F F F F F F F F F F F F F F K / ,.P.L.L.L.L.L.L.L.L.L.L.L.L.L.L.L.L.L.L.L.L.L.L.T.U.<.C 1 .                               & H W |. X|.|.|.|.|.|.|.|.|.|.|.|.|.|.|.|.|.|.|.|.|. X|.[.U 2                                 + , r n M n n n n B | @.K.U.U.L.L.L.L.L.L.L.L.L.L.L.L.L.L.L.L.L.L.L.L.Y.Y.P.5.*.:.=.-.-.-.-.-.-.-.-.-.-.-.-.-.-.%.$.p y y y y y y y y y y y y y y y y i a n n n n n n n n n n n n n n M M n e : X             6 ' vXVXVXVXVXVXVXVXVX",
"                                  + w  .J.~.U.L.L.L.L.L.L.L.L.L.L.L.L.L.,._ oX]._._.'.].].)./.P G F G G G G G G G G G G G G G G G F F F F F F F F F F F F F F F F F F F F F F F F F F F K / ,.I.!.L.L.L.L.L.L.L.L.L.L.L.L.L.L.L.L.L.L.L.L.L.U.U.<.V 1 .                               % H W |. X|.|.|.|.|.|.|.|.|.|.|.|.|.|.|.|.|.|.|.|.|. X|.[.U 2                                 + , r n M n n n n B | @.K.U.U.L.L.L.L.L.L.L.Y.Y.L.Y.L.Y.L.Y.U.U.T.U.T.T.T.U.5.3.:.-.-.-.-.-.-.-.-.-.-.-.-.-.;.-.%.$.p u y y y y y y y y y y y y y y y i a n n n n n n n n n n n n n n M N n e : X             6 ' vXVXVXVXVXVXVXVXVX",
"                                  @ e ..J.T.U.L.L.L.L.L.L.L.L.L.L.L.L.L.,._ oX'._._.'.'.'.).^.P G F G G G G G G G G G G G G G G G G G G G G G G G G G G G G G G G G G G G G G G F F F F K / ,.I.L.L.L.L.L.L.L.L.L.L.L.L.L.L.L.L.L.L.L.L.L.L.U.U.<.C 1 .                               & H W |. X|.|.|.|.|.|.|.|.|.|.|.|.|.|.|.|.|.|.|.|.|. X|.[.U 2                                 + , r n M n n n n B | @.K.U.U.L.L.L.L.L.L.L.L.L.L.L.L.L.L.L.L.L.L.L.U.L.L.P.1.3.:.-.-.-.-.-.=.=.=.=.-.-.-.-.-.-.%.$.p u y y y y y y y y y y y y y y y i a n n n n n n n n n n n n n n M N n e : X             6 ' vXVXVXVXVXVXVXVXVX",
"                . + @ - - - - @ $ , n X.K.U.U.L.L.L.L.L.L.L.L.L.L.L.L.L.,._ (.).).).).).)./.^.P G F G G G G G G G G G G G G F G G D D K K K K K K K K K K K K K K K K K K K L L L L K K L / ,.I.L.L.L.L.L.L.L.L.L.L.L.L.L.L.L.L.L.L.L.L.L.L.U.U.<.C 1 .               o & & & & & & & 3 U W |. X|.|.|.|.|.|.|.|.|.|.|.|.|.|.|.|.|.|.|.|.|. X|.[.U 2                                 + , r n M M n n n B | @.K.U.U.L.L.L.L.P.P.1.1.1.1.1.1.1.1.1.<.<.<.<.<.<.<.<.4.&.%.%.%.%.%.%.%.%.%.%.%.%.%.%.%.%.%.$.p y y y y y y y y y y y y y y y y i a n n n n n n n n n n n n n n M N n e : X             6 ' vXVXVXVXVXVXVXVXVX",
"                @ , e c n c c c c M | @.K.U.U.L.L.L.L.L.L.L.L.L.L.L.L.L.,.) I ^.^.^.^.^.^.^.P G G G G G G G G G G G G G G G F F D K L L 9 L L 9 L L L L 9 L L L L 9 L ^ ^ / / / / / / / ) ,.<.I.L.L.L.L.L.L.L.L.L.L.L.L.L.L.L.L.L.L.L.L.L.L.U.U.<.C 1 .             % 3 H H H H H H H U E [.|.|.|.|.|.|.|.|.|.|.|.|.|.|.|.|.|.|.|.|.|.|.|. X|.[.U 2                                 + , r n M M n n n B | @.K.U.U.L.L.L.L.1.1.4.4.4.4.4.4.4.4.4.} } } } } } } } [ $.$.$.$.$.$.$.$.$.$.$.$.$.$.$.$.$.$.p p y y y y y y y y y y y y y y y y i a n n n n n n n n n n n n n n M M n e : X             6 ' vXVXVXVXVXVXVXVXVX",
"                - r | +.+.+.+.O.O.+.<.J.L.L.L.L.L.L.L.L.L.L.L.L.L.L.!.L.,.) I P P P P P P P G G G G G G G G G G G G G G G G F F D L a v v v v v v v v v v v v v v v v n A ,.,.,.,.,.,.,.,.<.J.L.L.L.L.L.L.L.L.L.L.L.L.L.L.L.L.L.L.L.L.L.L.L.T.U.<.V 1 .             & H E W W W W W W W [.{.|.|.|.|.|.|.|.|.|.|.|.|.|.|.|.|.|.|.|.|.|.|.|.|.|.[.U 2                                 + , r n M M n n n B | @.K.U.U.L.L.L.U.1.4.*.:.:.>.:.>.:.*.&.p p i i i i i i p p p p p p p p p p p p p p p p p p p p y y y y y y y y y y y y y y y y y i a n n n n n n n n n n n n n n M M n e : X             6 ' vXVXVXVXVXVXVXVXVX",
"                : n +.U.T.U.L.L.L.L.L.L.L.L.L.L.L.L.L.L.L.L.L.L.L.L.!.L.,./ L G F F F G G G G G G G G G G G G G G G G G G G F F D L v n M n n n n n n n n n n n n n n C X.F.U.U.L.L.L.L.L.L.L.L.L.L.L.L.L.L.L.L.L.L.L.L.L.L.L.L.L.L.L.L.L.L.T.U.<.V 1 .             2 U [.|. X|.|.|.|.|.|.|.|.|.|.|.|.|.|.|.|.|.|.|.|.|.|.|.|.|.|.|.|.|.|.|.|.[.U 2                                 + , r n M M n n n B | @.K.U.L.L.L.L.U.1.3.:.-.-.-.-.-.-.%.$.p y y y y y y y y y y y y y y y y y y y y y y y y y y y y y y y y y y y y y y y y y y y y i a n n n n n n n n n n n n n n M M n e : X             6 ' vXVXVXVXVXVXVXVXVX",
"                : M @.~.~.~.T.~.~.T.U.U.L.L.L.L.L.L.L.L.L.L.L.L.L.L.!.L.,./ K F F F F F F F F G G G G G G G G G G G G G G G F F D L v M M M M M M M M M M M M M M n M C O.J.!.!.!.!.L.L.Q.L.L.L.L.L.L.L.L.L.L.L.L.L.L.L.L.L.L.L.L.L.L.L.L.L.T.U.<.V 1 .             3 U {.@X@X@X|. X|.|.|.|.|.|.|.|.|.|.|.|.|.|.|.|.|.|.|.|.|.|.|.|.|.|.|.|.|.[.U 2                                 + , r n M M n n n B | @.K.U.L.L.L.Y.P.1.3.:.=.=.=.-.;.-.%.$.p t t t t t t t y y y t y y y y y y y y t t y t y y y y y y y y y y y y y y y y y y y t y i a n n n n n n n n n n n n n n M M n e : X             6 ' vXVXVXVXVXVXVXVXVX",
"                : n @.U.~.U.U.U.U.U.U.L.L.L.L.L.L.L.L.L.L.L.L.L.L.L.!.L.,./ K F F F F F F F G G G G G G G G G G G G G G G G F F D L v n M M M M n n n n n n n n n n M C X.F.L.L.L.L.L.L.L.L.L.L.L.L.L.L.L.L.L.L.L.L.L.L.L.L.L.L.L.L.L.L.L.L.T.U.<.V 1 .             2 U [.|.@X|.|.|.|.|.|.|.|.|.|.|.|.|.|.|.|.|.|.|.|.|.|.|.|.|.|.|.|.|.|.|.|.[.U 2                                 + , r n M M n n n B | @.K.U.U.L.L.L.P.1.3.:.=.=.-.-.-.-.%.$.p y y y y y y y y y y y y y y y y y y y y y y y y y y y y y y y y y y y y y y y y y y t y i a n n n n n n n n n n n n n n M M n e : X             6 ' vXVXVXVXVXVXVXVXVX",
"                : n +.U.T.U.L.L.L.L.L.L.L.L.L.L.L.L.L.L.L.L.L.L.L.L.Q.L.,./ L G F F F F F F F F F F F F G G G G G G G G G F F F D L v M M M n n n n n n n n n n n n n C X.F.L.L.L.L.L.L.L.L.L.L.L.L.L.L.L.L.L.L.L.L.L.L.L.L.L.L.L.L.L.L.L.U.T.U.<.C 1 .             2 U [.|.|.|.|.|.|.|.|.|.|.|.|.|.|.|.|.|.|.|.|.|.|.|.|.|.|.|.|.|.|.|.|. X|.[.U 2                                 + , r n N n n n n B | @.K.U.U.L.L.L.U.1.3.:.-.-.-.-.-.-.%.$.p y y y y y y y y y y y y y y y y y y y y y y y y y y y y y y y y y y y y y y y y y y y y i a s n n n n n n n n n n n n n M N n e : X             6 ' vXVXVXVXVXVXVXVXVX",
"                : n +.U.T.U.L.L.L.L.L.L.L.L.L.L.L.L.L.L.L.L.L.L.L.L.!.L.,./ K F F F F F F F F F F F F F G G G G G G G G G F F F D L v n N M M M M M M n n n n n n n n C X.F.L.U.L.L.L.L.L.L.L.L.L.L.L.L.L.L.U.U.U.U.T.U.T.T.T.T.U.U.U.T.T.~.~.~.F.C 1 .             2 U [.|.|.|.}.}.}.}.|.|.|.|.|.|.|.|.|.|.|.|.|.|.|.|.|.|.|.|.|.|.|.|.|. X|.[.U 2                                 + , r n N n n n n B | @.K.U.U.L.L.L.U.1.3.:.-.-.-.-.-.-.%.$.p y y y y y y y y y y y y y y y y y y y y y y y y y y y y y y y y y y y y y y y y y y t y i a s n n n n n n n n M M M M M B B n e -               = ' cXVXVXVXVXVXVXVXVX",
"                : n +.U.T.U.L.L.L.L.L.L.L.L.L.L.L.L.L.L.L.L.L.L.L.L.L.L.,./ K F F F F F F F F F G G G G G G G G G G G G G F F F D L v n N M M M M M M n n n n n n n n C X.F.L.U.L.L.L.L.L.L.L.L.L.L.L.L.L.L.U.U.U.U.U.U.U.U.U.U.U.U.U.U.U.U.~.~.F.C 1 .             2 U [.|.|.|.}.}.}.|.|.|.|.|.|.|.|.|.|.|.|.|.|.|.|.|.|.|.|.|.|.|.|.|.|. X|.[.U 2                                 + , r n N n n n n B | @.K.U.U.L.L.L.U.1.3.:.-.-.-.-.-.-.%.$.p y y y y y y y y y y y y y y y y y y y y y y y y y y y y y y y y y y y y y y y y y y y y i a n n M n n n n n n M M M M M B B n e -               6 ' cXVXVXVXVXVXVXVXVX",
"                : n +.U.T.U.L.L.L.L.L.L.L.L.L.L.L.L.L.L.L.L.L.L.L.L.L.L.,.) L K D K K K K K K G G G G G G G G G G G G G G F F F D L a v n M v v v v M n n n n n n n n C X.F.L.U.L.L.L.L.L.L.L.L.L.L.L.L.L.L.K.F.F.<.<.<.<.<.<.<.<.<.<.<.<.F.F.F.+.B , .             3 U {.@X@X@X@X@X@X@X X|.|.|.|.|.|.|.|.|.|.|.|.|.|.|.|.|.|.|.|.|.|.|.|. X|.[.U 2                   . . . . .   . @ 1 c n M n n n n B | @.K.U.U.L.L.L.U.1.3.:.-.-.-.-.-.-.%.$.p y y y y y y y y y y y y y y y y y y y y y y y y y y y y y y y y y y y y y i i i i i i i i a n n n n n n n n n n c c c c c n c e 1 = * * * * O * 9 hXvXVXVXVXVXVXVXVXVX",
"                : n +.U.T.U.L.L.L.L.L.L.L.L.L.L.L.L.L.L.L.L.L.L.L.L.L.K.<.,./ / T T / / / T L K G F F F F F G G G G G G G G F G D L L a a a a a a a a v M n n n n n n C X.F.L.U.L.L.L.L.L.L.L.L.L.L.L.U.U.K.@...C V V V C C C C V V V V V C C C B w -               4 E $X=X=X&X&X&X&X&X$X@X|.|.|.|.|.|.|.|.|.|.|.|.|.|.|.|.|.|.|.|.|.|.|. X|.[.U 2               X @ - - - - - - - , q c n M n n n n B | @.K.U.L.L.L.L.P.1.3.:.-.-.-.-.-.-.%.$.p y y y y y y y y y y y y y y y y y y y y y y y y y y y y y y y y y y y i i i i i i i i i a s n n n n n n n n c e q 1 1 q 0 1 q w / ( ) _ ( ( ( ( ' zXnXVXVXVXVXVXVXVXVX",
"                : n +.U.T.U.L.L.L.L.L.L.L.L.L.L.L.L.L.L.L.L.L.L.L.L.L.L.P.<.,.,.,.,.,.,.,.) / L D F F G F F G G G G G G G G F G G D K L L L L L L L L a M n M n n n n C X.F.L.U.L.L.L.L.L.L.L.L.L.L.L.U.U.J.X.n q , , 1 1 1 1 1 1 1 1 1 1 1 1 1 , - X               5 XX-X,X,X>X>X>X>X:X&X#X|.}.|.|.|.|.|.|.|.|.|.|.|.|.|.|.|.|.|.|.|.|.|. X|.[.U 2               @ , q w e w w w w e c n n n n n n n B | @.K.U.L.L.L.L.U.1.3.:.-.-.-.-.-.-.%.$.p y y y y y y y y y y y y y y y y y y y y y y y y y y y y y y y y y y y i a s s s s s s s s n n n n n n M M n e , - @ @ @ @ $ : a ` lXxXxXxXxXxXxXcXnXMXVXVXVXVXVXVXVXVX",
"                : n +.U.T.U.L.L.L.L.L.L.L.L.L.L.L.L.L.L.L.L.L.L.L.L.K.K.K.K.P.P.P.P.P.L.L.<.) L K F F G F G G G G G G G G G G G F F G G G G G G G D L a v n n n n n n C X.F.L.U.L.L.L.L.L.L.L.L.L.L.L.U.U.J.| e @       . . . . . . . . . . . . .                 o 5 XX:X3X3X3X3X3X3X,X-X$X|.|.|.|.|.|.|.|.|.|.|.|.|.|.|.|.|.|.|.|.|.|.|. X|.[.U 2               @ 1 c n n n n n n n n n n n n n n n B | @.K.U.L.L.L.L.P.1.3.:.-.-.-.-.-.-.%.$.p y y y y y y y y y y y y y y y y y y y y y y y y y y y y y y y y y y y i s n n n n n n n n n n n n n n M M c q - .           O a jXnXNXVXNXNXNXNXNXVXVXVXVXVXVXVXVXVXVX",
"                : n +.U.T.U.L.L.L.L.L.L.L.L.L.L.L.L.L.L.L.L.L.L.L.L.K.I.L.L.L.Q.Q.Q.!.!.!.P.) L K F F G F F G G G G G G G G G G F F F F F F F F F G L a v M n M n n n C X.F.L.U.L.L.L.L.L.L.L.L.L.L.L.U.T.J.| q X                                                 o H @X,X4X5X3X3X4X3X2X;X$X|.|.}.|.|.|.|.|.|.|.|.|.|.|.|.|.|.|.|.|.|.|.|. X|.[.U 2               @ q n B B M M M M M M n n n n n n n B | @.K.U.L.L.L.L.P.1.3.:.-.-.-.-.-.-.%.$.p y y y y y y y y y y y y y y y y y y y y y y y y y y y y y y y y y y y i s n n n n n n n n n n n n n n M M c 1 @               ^ kXMXVXVXVXVXVXVXVXVXVXVXVXVXVXVXVXVXVX",
"                : n +.U.T.U.L.L.L.L.L.L.L.L.L.L.L.L.L.L.L.L.L.L.L.L.L.L.L.L.L.L.L.L.L.!.!.F.) T K F F G G G G G G G G G G G G G G F F F F F F F F G L a v M M n n n n C X.F.L.U.L.L.L.L.L.L.L.L.L.L.L.U.T.J.| q X                                                 o H XX,X4X5X3X3X4X3X<X;X$X|.|.}.|.|.|.|.|.|.|.|.|.|.|.|.|.|.|.|.|.|.|.|. X|.[.U 2               @ q n B B M M M M M n n n n n n n n B | @.K.U.L.L.L.L.U.1.3.:.-.-.-.-.-.-.%.$.p y y y y y y y y y y y y y y y y y y y y y y y y y y y y y y y y y y y i s n M n n n n n n n n n n n n M M c 0 @               ^ kXmXVXVXVXVXVXVXVXVXVXVXVXVXVXVXVXVXVX",
"                : n +.U.T.U.L.L.L.L.L.L.L.L.L.L.L.L.L.L.L.L.L.L.L.L.L.L.L.L.L.L.L.L.L.L.L.P.) L D F F G G G G G G G G G G G G G G G G G G G G F F G L a M M M n n n n C X.F.L.U.L.L.L.L.L.L.L.L.L.L.L.U.T.J.| q +                                                 o H XX>X3X4X3X3X3X3X<X-X$X|.|.|.|.|.|.|.|.|.|.|.|.|.|.|.|.|.|.|.|.|.|.|. X|.[.U 2               @ q c M B n n n n n n n n n n n n n B | @.K.U.U.L.L.L.U.1.3.:.-.-.-.-.-.-.%.$.p y y y y y y y y y y y y y y y y y y y y y y y y y y y y y y y y y y y i s n n n n n n n n n n n n n n M M c q @               ^ kXmXVXVXVXVXVXVXVXVXVXVXVXVXVXVXVXVXVX",
"                : M @.U.~.U.U.U.U.U.U.U.L.L.L.L.L.L.L.L.L.L.L.L.L.L.L.L.L.L.L.L.L.L.L.L.L.P.) L G F F F F F F F F G G G G G G G G G G G G G G F F D L a M M M n n n n C X.F.L.U.L.L.L.L.U.U.U.U.U.U.U.~.~.K.| q +                                                   5 XX>X3X4X3X3X3X3X<X-X$X|.}.|.|.|.|.|.|.|.|.|.|.|.|.|.|.|.|.|.|.|.|.|.@X X[.U 2               @ q c M M n n n n n n n n n n n n n B | @.K.U.U.U.L.Y.U.1.3.:.-.-.-.-.;.-.%.$.p y y y y y y y y y y y y y y y y y y y y y y y y y y y y y y y y y t y i s n n n n n n n n n M M M M M B B c 0 @               9 kXmXVXVXVXVXVXVXVXVXVXVXVXVXVXVXVXVXVX",
"                , M @.~.~.~.~.~.~.U.U.U.L.L.L.L.L.L.L.L.L.L.L.L.L.L.L.L.L.L.L.L.L.L.L.L.L.P.) L G F F F F F F F F F G G G G G G G G G G G G G F F D L a M M M n n n n C X.F.L.U.L.L.L.L.U.U.U.T.~.~.~.~.~.K. .q +                                                   5 XX>X3X4X3X3X3X3X<X-X$X|.}.|.|.|.|.|.|.|.|.|.|.|.|.|.|.|.|.|. X X X X@X@X[.U 3               @ q c M M n n n n n n n n n n n n n B | @.L.T.U.U.T.Y.U.5.3.:.-.=.-.-.;.-.%.$.p y y y y y y y y y y y t t y y y y y y y y y y y y y y y y y y y t t y i s n n n n n n n n M N M M M N B B n 1 $               9 kXmXVXVXVXVXVXVXVXVXVXVXVXVXVXVXVXVXVX",
"                : n +.K.L.K.J.J.J.K.K.L.L.L.L.L.L.L.L.L.L.L.L.L.L.L.L.L.L.L.L.L.L.L.L.L.L.P.) L K F G G D D D G G G G G G G G G G G G G F F F F F D L a M M M n n n n C X.F.L.U.L.L.L.L.L.K.K.J.J.J.J.L.L.F.| q +                       o o o o         o o o     o J @X>X3X4X3X3X3X3X<X-X$X|.}.|.|.|.|.|.|.|.|.|.|.|.|.|.|.|.|.}.}.}.}.}.|.|.[.U 2               @ q c M M n n n n n n n n n n n n n B | @.J.L.L.K.K.K.J.1.3.>.=.=.=.=.-.=.%.$.p y y y y y y y y y y y y y y y y y y y y y y y y y y y y y y y y y y i i s n n n n n n n n n n n n n n n n c q : O     o     O ^ kXmXVXVXVXVXVXVXVXVXVXVXVXVXVXVXVXVXVX",
"                @ e C ..X..... ...X.+.F.L.U.L.L.L.L.L.L.L.L.L.L.L.L.L.L.L.L.L.L.L.L.L.L.L.P.,./ L L L L L L L L K G F F G G G G G G G G F F F F F D L a M M M n n n n C X.F.L.U.L.L.U.L.J.<.O... .......X.| n , X             o & 4 5 J J J H H H H H H H H H 5 5 J Q *X,X3X3X3X3X3X3X<X-X$X|.}.|.|.|.|.|.|.|.|.|.|.|.|.|.|.{.[.W W E E W W W R H &               @ q c M M n n n n n n n n n n n n n N C X.@.@.@.@.@.@.@.1.4.&.%.%.%.%.%.&.&.$.p i i i i i i i i i i i i i i i i i i y y y y y y y y i i i i i i i i i a s n n n n n n n n c r e e e e e e e w a b ^ ^ ^ 9 9 ^ ' xXMXVXVXVXVXVXVXVXVXVXVXVXVXVXVXVXVXVX",
"                + , q e r e e e e c C +.K.U.U.L.L.L.L.L.L.L.L.L.L.L.L.L.L.L.L.L.L.L.L.L.L.P.,.,.) ) ) ) ) ) ) / L K F F F G G G G G G G F F F F F D L a v M M n n n n C X.F.L.U.L.L.U.U.F...M r w e e e r e 1 @               & J Q XX@X@X@XXXXXXXXXXXXXXXXXXXXXXX@X*X:X2X3X3X3X3X3X3X<X-X$X|.}.|.|.|.|.|.|.|.|.|.|.|.|.|.|.[.R H 5 4 5 5 5 5 4 2 o               @ q c M M n n n n n n n n n n n n n M V A | .. . .|  . .} } [ [ [ [ [ [ [ [ s s s s s s s s s s s s s s s s s s a i i y y y y y y y i i s s s s s s s s n n n n n n M n c w , , : : : - - 1 / ` jXkXkXkXkXkXkXxXnXNXVXVXVXVXVXVXVXVXVXVXVXVXVXVXVXVXVX",
"                  X + @ @ @ @ + + : c X.K.U.U.L.L.L.L.L.L.L.L.L.L.L.L.L.L.L.L.L.L.L.L.L.L.K.P.P.<.<.<.<.<.P.<.) T K F F F G G G G G G G F F F F F D L a M M M n n n n C X.F.L.U.L.L.U.U.<.C 1 @ + + @ @ @ @ + .               4 Q *X>X1X,X>X>X>X>X>X>X>X>X>X>X>X:X>X,X2X3X3X3X3X3X3X3X<X-X$X|.}.|.|.|.|.|.|.|.|.|.|.|.|.|.|.W H 2 % o o % % % o o                 @ q c M M n n n n n n n n n n n n n n M B B V V V B B B V Z Z Z Z Z Z Z Z n n n n n n n n n n n n n n n n n n n s i i y y y y y y i i s n n n n n n n n n n n n n n M n c 1 @ X . X X     = ( lXnXMXmXmXmXmXmXMXNXVXVXVXVXVXVXVXVXVXVXVXVXVXVXVXVXVXVX",
"                                  + e ..J.T.U.L.L.L.L.L.L.L.L.L.L.L.L.L.L.L.L.L.L.L.L.L.L.L.L.L.U.L.L.L.L.!.K.,./ K F F F G F F G G G G G G G F F D L a v M M n n n n C X.F.L.U.L.U.T.U.@.B ,                                 4 XX:X3X5X3X3X3X3X3X3X3X3X3X3X3X3X3X3X3X3X3X3X3X3X3X3X3X<X-X$X|.}.|.|.|.|.|.|.|.|.|.|.|.|. X|.W H &                                 @ q c M M M n n n n n n n n n n n n n n n n n n n n n n n n n n n n n n n n n n n n n n n n n n n n n n n n n n s a i y y y y y y i i s n n n n n n n n n n n n n n M n r , +             * _ xXVXVXVXVXVXVXVXVXVXVXVXVXVXVXVXVXVXVXVXVXVXVXVXVXVXVXVX",
"                                  + w  .J.~.U.L.L.L.L.L.L.L.L.L.L.L.L.L.L.L.L.L.L.L.L.L.L.L.L.L.~.Q.Q.Q.!.!.L.,./ K F F F G F F G G G G G G G F F D L a M M M n n n n C X.F.L.U.L.U.T.U.@.B ,                                 4 XX:X3X5X5X4X4X4X3X3X3X3X4X4X5X5X4X4X3X3X3X3X3X3X3X3X3X<X-X$X|.}.|.|.|.|.|.|.|.|.|.|.|.|. X|.W H %                                 @ q c M M n n n n n n n n n n n n n n n n n n n n n n n n n n n n n n n n n n n n n n n n n n n n n n n n n N n s a i y y y y y y i i s n n n n n n n n n n n n n n N n r , +             * _ xXVXVXVXVXVXVXVXVXVXVXVXVXVXVXVXVXVXVXVXVXVXVXVXVXVXVXVX",
"                                  @ e ..J.T.U.L.L.L.L.L.L.L.L.L.L.L.L.L.L.L.L.L.L.L.L.L.L.L.L.L.L.L.L.L.L.!.K.,./ K F F F G F F G G G G G G G F F D L a M M M n n n n C X.F.L.U.L.U.T.U.<.B ,                                 4 XX:X3X4X3X3X3X3X3X3X3X3X3X3X3X3X3X3X3X3X3X3X3X3X3X3X3X<X-X$X|.}.|.|.|.|.|.|.|.|.|.|.|.|. X|.W H &                                 @ q c M B M n n n n n n n n n n n n n n n n n n n n n n n n n n n n n n n n n n n n n n n n n n n n n n n n n n s a i y y y y y y i i s n n n n n n n n n n n n n n M n r , +             * ( xXNXVXVXVXVXVXVXVXVXVXVXVXVXVXVXVXVXVXVXVXVXVXVXVXVXVXVX",
"                                  @ e ..J.T.U.L.L.L.L.L.L.L.L.L.L.L.L.L.L.L.L.L.L.L.L.L.L.L.L.L.L.L.L.U.L.L.K.,./ K F F F F F F F G G G F F F F F G L a v M M n n n n C X.F.L.U.L.U.T.U.<.B ,                                 4 Q :X3X4X3X3X3X3X3X3X3X3X3X3X3X3X3X3X3X3X3X3X3X3X3X3X3X<X-X$X|.}.|.|.|.|.|.|.|.|.|.|.|.|. X|.W H &                                 @ q c M B M n n n n n n n n n n n n n n n n n n n n n n n n n n n n n n n n n n n n n n n n n n n n n n n n n n s a i y y y y y y i i s n n n n n n n n n n n n n M M n r , +             * ( xXNXVXVXVXVXVXVXVXVXVXVXVXVXVXVXVXVXVXVXVXVXVXVXVXVXVXVX",
"                                  @ e ..J.~.U.L.L.L.L.L.L.L.L.L.L.L.L.L.L.L.L.L.L.L.L.L.L.L.L.L.L.L.L.L.L.!.I.,./ K F F F F F F F F F F F F F F F F L a v n n n n n n C X.F.L.U.L.L.T.U.<.B ,                                 3 Q :X3X4X3X3X3X3X3X3X3X3X3X3X3X3X3X3X3X3X3X3X3X3X3X3X3X<X;X$X|.}.|.|.|.|.|.|.|.|. X X|.@X@X|.W H %                                 @ 1 c M M n n n n n n n n n n n n n n n n n n n n n n n n n n n n n n n n n n n n n n n n n n n n n n n n n n n s i i y t y y t y i i s n n n n n n n n n n n n n M M n r , +             * ( xXNXVXVXVXVXVXVXVXVXVXVXVXVXVXVXVXVXVXVXVXVXVXVXVXVXVXVX",
"                                  @ e ..J.~.U.L.L.L.L.L.L.L.L.L.L.L.L.L.L.L.L.L.L.L.L.L.L.L.L.L.L.L.L.L.L.L.I.,./ K F F F F F F F F G G F F F F F G L a v M n n n n n C X.F.L.U.L.L.T.U.<.B ,                                 4 Q :X3X4X3X3X3X3X3X3X3X3X3X3X3X3X3X3X3X3X3X3X3X3X3X3X3X<X-X$X|.}.|.|.|.|.|.|.|.|.|.|.|.|.|.|.W H &                                 @ q c M M n n n n n n n n n n n n n n n n n n n n n n n n n n n n n n n n n n n n n n n n n n n n n n n n n n n s a i y y y y y y i i s n n n n n n n n n n n n n M M n r , +             * ( xXNXVXVXVXVXVXVXVXVXVXVXVXVXVXVXVXVXVXVXVXVXVXVXVXVXVXVX",
"                                  @ e ..J.~.U.L.L.L.L.L.L.L.L.L.L.L.L.L.L.L.L.L.L.L.L.L.L.L.L.L.L.L.L.L.L.L.I.,./ L K K K K K K K K K K K K K K K K L b B V V V V B V | +.F.L.U.L.L.T.U.@.B ,               o & 2 3 3 3 2 & 3 Y XX:X3X3X3X3X3X3X3X3X3X3X3X3X3X3X3X3X3X3X3X3X3X3X3X3X3X<X-X$X|.}.|.|.|.|.|.{.[.[.W W W [.[.W R 5 & X X X X X X X X X X X X X X X + : q c M M n n n n n n n n n n n n n n n n n n n n n n n n n n n n n n n n n n n n n n n n n n n n n n n n n n n n a i i i i i i i i a s n n n n n n n n n n n n n M B n r , +             * ( xXNXVXVXVXVXVXVXVXVXVXVXVXVXVXVXVXVXVXVXVXVXVXVXVXVXVXVX",
"                                  @ e ..J.~.U.L.L.L.L.L.L.L.L.L.L.L.L.L.L.L.L.L.L.L.L.L.L.L.L.L.L.L.L.L.L.L.K.<.,./ / / / / / / / / / / / / / / / / ) A  ......... ...O.@.J.L.U.L.L.T.U.@.B ,               2 J R Q Q Q Q R Q XX*X,X3X3X3X3X3X3X3X3X3X3X3X3X3X3X3X3X3X3X3X3X3X3X3X3X3X<X-X$X|.}.|.|.|.|.}.W R U Y Y U U U U J 5 > , , , , , , , , , , , , , , , , 1 r n M M n n n n n n n n n n n n n n n n n n n n n n n n n n n n n n n n n n n n n n n n n n n n n n n n n n n n s a a a a a a a a s n n n n n n n n n n n n n n M B n r , +             * ( xXNXVXVXVXVXVXVXVXVXVXVXVXVXVXVXVXVXVXVXVXVXVXVXVXVXVXVX",
"                                  @ e ..J.~.U.L.L.L.L.L.L.L.L.L.L.L.L.L.L.L.L.L.L.L.L.L.L.L.L.L.L.L.L.L.L.L.L.P.<.,.,.,.,.,.,.,.,.,.,.,.,.,.,.,.,.,.,.<.<.<.<.<.@.@.<.F.J.K.L.L.L.L.T.U.@.B ,             o 5 Q *X;X;X-X-X;X-X:X,X2X3X3X3X3X3X3X3X3X3X3X3X3X3X3X3X3X3X3X3X3X3X3X3X3X3X<X-X$X|.}.|.|.|.|.{.E H 3 & & 2 2 2 2 ; 1 w r r r r r r r r r r r r r r e r c c n n n n n n n n n n n n n n n n n n n n n n n n n n n n n n n n n n n n n n n n n n n n n n n n n n n n n n n n n s s s s s s n n n n n n n n n n n n n n n n n M n r , +             * ( xXNXVXVXVXVXVXVXVXVXVXVXVXVXVXVXVXVXVXVXVXVXVXVXVXVXVXVX",
"                                  @ e ..J.~.U.L.L.L.L.L.L.L.L.L.L.L.L.L.L.L.L.L.L.L.L.L.L.L.L.L.L.L.L.L.L.L.L.L.I.I.I.U.K.K.K.K.K.K.K.K.K.K.K.K.K.K.K.K.L.L.L.L.K.K.L.L.L.L.L.L.L.U.T.U.@.B ,             o J @X,X3X3X3X3X3X3X3X3X3X3X3X3X3X3X3X3X3X3X3X3X3X3X3X3X3X3X3X3X3X3X3X3X3X3X<X-X$X|.}.|.|.|.|.{.R 4 o             @ 1 c n M n n n n n n n n n n n n n n n n n n n n n n n n n n n n n n n n n n n n n n n n n n n n n n n n n n n n n n n n n n n n n n n n n n n n n n n n n n n n n n n n n n n n n n n n n n n n n n n n M n r , +             * ( xXNXVXVXVXVXVXVXVXVXVXVXVXVXVXVXVXVXVXVXVXVXVXVXVXVXVXVX",
"                                  @ e ..J.~.U.L.L.L.L.L.L.L.L.L.L.L.L.L.L.L.L.L.L.L.L.L.L.L.L.L.L.L.L.L.L.L.L.L.L.L.Q.Q.L.L.Y.L.Q.Q.L.L.!.Y.L.L.!.L.L.L.U.U.U.U.U.U.U.U.L.L.L.L.L.L.T.U.@.B ,             o Y $X2X5X5X5X4X5X4X3X3X3X3X3X3X3X3X3X3X3X3X3X3X3X3X3X3X3X3X3X3X3X3X3X3X3X3X<X-X$X|.}.|.|.|.|.{.R 3               @ 1 c B B M M M N N M M M M M M M M N M M n n n n n n n n n n n n n n n n n n n n n n n n n n n n n n n n n n n n n n n n n n n n n n n n n n n n n n n n n n n n n n n n n n n n n n n n n n n n n n n n M n r , +             * ( xXNXVXVXVXVXVXVXVXVXVXVXVXVXVXVXVXVXVXVXVXVXVXVXVXVXVXVX",
"                                  @ e ..J.~.U.L.L.L.L.L.L.L.L.L.L.L.L.L.L.L.L.L.L.L.L.L.L.L.L.L.L.L.L.L.L.L.L.L.U.U.U.U.L.L.L.L.L.L.L.L.L.L.L.L.L.L.L.L.L.U.U.U.L.L.L.L.L.L.L.L.L.U.T.U.@.B ,             o Y $X1X5X5X3X3X3X3X3X3X3X3X3X3X3X3X3X3X3X3X3X3X3X3X3X3X3X3X3X3X3X3X3X3X3X3X<X-X$X|.}.|.|.|.|.{.R 3               @ 1 c M B M M M M M M M M M n n n n M n n n n n n n n n n n n n n n n n n n n n n n n n n n n n n n n n n n n n n n n n n n n n n n n n n n n n n n n n n n n n n n n n n n n n n n n n n n n n n n n n n M n r , +             * ( xXNXVXVXVXVXVXVXVXVXVXVXVXVXVXVXVXVXVXVXVXVXVXVXVXVXVXVX",
"                                  @ e ..J.T.U.L.L.L.L.L.L.L.L.L.L.L.L.L.L.L.L.L.L.L.L.L.L.L.L.L.L.L.L.L.L.L.L.L.L.L.L.L.L.L.L.L.L.L.L.L.L.L.L.L.L.L.L.L.L.L.L.L.L.L.L.L.L.L.L.L.L.U.T.U.@.B ,             o J $X1X4X3X3X3X3X3X3X3X3X3X3X3X3X3X3X3X3X3X3X3X3X3X3X3X3X3X3X3X3X3X3X3X3X3X<X;X$X|.}.|.|.|.|.{.R 4 o             @ 1 c n M n n n n n n n n n n n n n n n n n n n n n n n n n n n n n n n n n n n n n n n n n n n n n n n n n n n n n n n n n n n n n n n n n n n n n n n n n n n n n n n n n n n n n n n n n n n n n n n n M n r , +             * ( xXNXVXVXVXVXVXVXVXVXVXVXVXVXVXVXVXVXVXVXVXVXVXVXVXVXVXVX",
"                                  @ e ..J.T.U.L.L.L.L.L.L.L.L.L.L.L.L.L.L.L.L.L.L.L.L.L.L.L.L.L.L.L.L.L.L.L.L.L.L.L.L.L.L.L.L.L.L.L.L.L.L.L.L.L.L.L.L.L.U.U.U.U.U.U.U.U.U.U.U.U.U.T.~.~.<.V ,             o J $X1X4X3X3X3X3X3X3X3X3X3X3X3X3X3X3X3X3X3X3X3X3X3X3X3X3X3X3X3X3X3X3X3X3X3X<X-X$X|.}.|.|.|.|.{.R 4 o             @ 1 c n M n n n n n n n n n n n n n n n n n n n n n n n n n n n n n n n n n n n n n n n n n n n n n n n n n n n n n n n n n n n n n n n n n n n n n n n n n n n n n n n n n n n n n n n n n n M M M M M M B M r , X             * ( xXNXVXVXVXVXVXVXVXVXVXVXVXVXVXVXVXVXVXVXVXVXVXVXVXVXVXVX",
"                                  @ e ..J.T.U.L.L.L.L.L.L.L.L.L.L.L.L.L.L.L.L.L.L.L.L.L.L.L.L.L.L.L.L.L.L.L.L.L.L.L.L.L.L.L.L.L.L.L.L.L.L.L.L.L.L.L.L.U.U.T.T.T.T.T.T.U.U.U.U.U.T.~.~.~.<.V ,             o J $X1X3X3X3X3X3X3X3X3X3X3X3X3X3X3X3X3X3X3X3X3X3X3X3X3X3X3X3X3X3X3X3X3X3X3X<X-X$X|.}.|.|.|.|.{.R 4 o             @ 1 c n M n n n n n n n n n n n n n n n n n n n n n n n n n n n n n n n n n n n n n n n n n n n n n n n n n n n n n n n n n n n n n n n n n n n n n n n n n n n n n n n n n n n n n n n n n n M M M M M N B M r , .             * ( xXNXVXVXVXVXVXVXVXVXVXVXVXVXVXVXVXVXVXVXVXVXVXVXVXVXVXVX",
"                                  @ e ..J.T.U.L.L.L.L.L.L.L.L.L.L.L.L.L.L.L.L.L.L.L.L.L.L.L.L.L.L.L.L.L.L.L.L.L.L.L.L.L.L.L.L.L.L.L.L.L.L.L.L.L.L.L.K.J.F.F.F.F.F.F.F.F.F.F.F.F.F.F.J.J.+.M ,             o J $X1X3X3X3X3X3X3X3X3X3X3X3X3X3X3X3X3X3X3X3X3X3X3X3X3X3X3X3X3X3X3X3X3X3X3X<X-X$X|.}.|.|.|.|.{.R 4 o             @ 1 c n M n n n n n n n n n n n n n n n n n n n n n n n n n n n n n n n n n n n n n n n n n n n n n n n n n n n n n n n n n n n n n n n n n n n n n n n n n n n n n n n n n n n n n n n n n n n n v n n n n n r 1 = * O * * O O 6 _ xXNXVXVXVXVXVXVXVXVXVXVXVXVXVXVXVXVXVXVXVXVXVXVXVXVXVXVX",
"                                  @ e ..J.~.U.L.L.L.L.L.L.L.L.L.L.L.L.L.L.L.L.L.L.L.L.L.L.L.L.L.L.L.L.L.L.L.L.L.L.L.L.L.L.L.L.L.L.L.L.L.L.L.L.U.U.K.@.X.| C C A A A A A A A A A A A | A B w -             o J $X,X3X3X3X3X3X3X3X3X3X3X3X3X3X3X3X3X3X3X3X3X3X3X3X3X3X3X3X3X3X3X3X3X3X3X<X-X$X|.|.|.|.|.|.{.R 4 o             @ 1 c n M n n n n n n n n n n n n n n n n n n n n n n n n n n n n n n n n n n n n n n n n n n n n n n n n n n n n n n n n n n n n n n n n n n n n n n n n n n n n n n n n n n n n n n n n n c r q q q q q 0 q e b / ( ( ( ( ^ ( _ kXvXNXVXVXVXVXVXVXVXVXVXVXVXVXVXVXVXVXVXVXVXVXVXVXVXVXVXVX",
"                                  @ e ..J.~.U.L.L.L.L.L.L.L.L.L.L.L.L.L.L.L.L.L.L.L.L.L.L.L.L.L.L.L.L.L.L.L.L.L.L.L.L.L.L.L.L.L.L.L.L.L.L.L.L.U.U.J.X.M q 1 1 1 1 1 1 1 1 1 1 1 1 1 q 1 1 - +             o J $X,X3X3X3X3X3X3X3X3X3X3X3X3X3X3X3X3X3X3X3X3X3X3X3X3X3X3X3X3X3X3X3X3X3X3X<X-X$X|.}.|.|.|.|.{.R 4 o             @ 1 c n M n n n n n n n n n n n n n n n n n n n n n n n n n n n n n n n n n n n n n n n n n n n n n n n n n n n n n n n n n n n n n n n n n n n n n n n n n n n n n n n n n n n n n n M M n r 1 : - @ - - $ - 8 ) jXzXxXzXzXzXzXxXvXmXVXVXVXVXVXVXVXVXVXVXVXVXVXVXVXVXVXVXVXVXVXVXVXVXVXVXVX",
"                                  @ e ..J.~.U.L.L.L.L.L.L.L.L.L.L.L.L.L.L.L.L.L.L.L.L.L.L.L.L.L.L.L.L.L.L.L.L.L.L.L.L.L.L.L.L.L.L.L.L.L.L.L.L.U.U.F.| q @ . . X X X X X X X X X X X X X X .               o J $X,X3X3X3X3X3X3X3X3X3X3X3X3X3X3X3X3X3X3X3X3X3X3X3X3X3X3X3X3X3X3X3X3X3X3X<X-X$X|.}.|.|.|.|.{.R 4 o             @ 1 c n M n n n n n n n n n n n n n n n n n n n n n n n n n n n n n n n n n n n n n n n n n n n n n n n n n n n n n n n n n n n n n n n n n n n n n n n n n n n n n n n n n n n n n n M M n e , X             7 ] cXMXNXNXMXMXMXNXNXVXVXVXVXVXVXVXVXVXVXVXVXVXVXVXVXVXVXVXVXVXVXVXVXVXVXVXVX",
"                                  @ e ..J.~.U.L.L.L.L.L.L.L.L.L.L.L.L.L.L.L.L.L.L.L.L.L.L.L.L.L.L.L.L.L.L.L.L.L.L.L.L.L.L.L.L.L.L.L.L.L.L.L.L.U.U.F.C 1 .                                                 o J $X,X3X3X3X3X3X3X3X3X3X3X3X3X3X3X3X3X3X3X3X3X3X3X3X3X3X3X3X3X3X3X3X3X3X3X<X-X$X|.}.|.|.|.|.{.R 4 o             @ 1 c M M n n n n n n n n n n n n n n n n n n n n n n n n n n n n n n n n n n n n n n n n n n n n n n n n n n n n n n n n n n n n n n n n n n n n n n n n n n n n n n n n n n n n n n M M n w -               7 hXnXVXVXVXVXVXVXVXVXVXVXVXVXVXVXVXVXVXVXVXVXVXVXVXVXVXVXVXVXVXVXVXVXVXVXVXVX",
"                                  @ e ..J.T.U.L.L.L.L.L.L.L.L.L.L.L.L.L.L.L.L.L.L.L.L.L.L.L.L.L.L.L.L.L.L.L.L.L.L.L.L.L.L.L.L.L.L.L.L.L.L.U.U.T.U.F.A 1 .                                                 o Y $X,X3X4X3X3X3X3X3X3X3X3X3X3X3X3X3X3X3X3X3X3X3X3X3X3X3X3X3X3X3X3X3X3X3X3X<X-X$X|.}.|.|.|.|.{.R 4 o             @ 1 c n M n n n n n n n n n n n n n n n n n n n n n n n n n n n n n n n n n n n n n n n n n n n n n n n n n n n n n n n n n n n n n n n n n n n n n n n n n n n n n n n n n n n n n n M M n w -               7 hXnXVXVXVXVXVXVXVXVXVXVXVXVXVXVXVXVXVXVXVXVXVXVXVXVXVXVXVXVXVXVXVXVXVXVXVXVX",
"                                  @ e ..J.T.U.L.L.L.L.L.L.L.L.L.L.L.L.L.L.L.L.L.L.L.L.L.L.L.L.L.L.L.L.L.L.L.L.L.L.L.L.L.L.L.L.L.L.L.L.L.L.L.L.U.U.F.A 1 X                                                 o Y $X,X3X4X3X3X3X3X3X3X3X3X3X3X3X3X3X3X3X3X3X3X3X3X3X3X3X3X3X3X3X3X3X3X3X3X<X-X$X|.}.|.|.|.|.{.R 4 o             @ 1 c n M n n n n n n n n n n n n n n n n n n n n n n n n n n n n n n n n n n n n n n n n n n n n n n n n n n n n n n n n n n n n n n n n n n n n n n n n n n n n n n n n n n n n n n M M n w - .             7 hXnXVXVXVXVXVXVXVXVXVXVXVXVXVXVXVXVXVXVXVXVXVXVXVXVXVXVXVXVXVXVXVXVXVXVXVXVX",
"                                  @ e ..K.~.T.U.U.U.U.U.U.U.U.U.U.U.U.U.U.U.L.L.L.L.L.L.L.L.L.L.L.L.L.L.L.L.L.L.U.U.U.U.U.U.U.U.U.U.U.U.U.U.U.~.~.J.A 1 X                                                 o J @X,X3X4X3X3X3X3X3X3X3X3X3X3X3X3X3X3X3X3X3X3X3X3X3X3X3X3X3X3X3X3X3X3X3X3X<X-X$X X|.|.|. X X{.R 4 o             @ 1 c M B M n M M M M M M M M M M M M M M M M M M M M M M n n n n n n n n n n n n n n n n n n n n n n n n n n n n n n n n n n n n n n n n n n n n n n n n n n n M M M M M M M M M M n M B n w -               7 ] nXVXVXVXVXVXVXVXVXVXVXVXVXVXVXVXVXVXVXVXVXVXVXVXVXVXVXVXVXVXVXVXVXVXVXVXVX",
"                                  @ r X.L.~.~.~.~.~.~.~.~.~.~.~.~.~.~.~.U.U.U.L.L.L.L.L.L.L.L.L.L.L.L.L.L.L.L.U.U.U.~.~.~.~.~.~.~.~.~.~.~.~.~.~.~.J.| q X                                                   J @X,X3X4X3X3X3X3X3X3X3X3X3X3X3X3X3X3X3X3X3X3X3X3X3X3X3X3X3X3X3X3X3X3X3X3X<X;X&X@X|.|. X@X@X}.E 4 o             @ 1 c N B B M M M M N N N N M M M M M M M M N N N N N N M M n n n n n n n n n n n n n n n n n n n n n n n n n n n n n n n n n n n n n n n n n n n n n n M M M M M M N N N N M M M M M B B n w -               6 ] bXVXVXVXVXVXVXVXVXVXVXVXVXVXVXVXVXVXVXVXVXVXVXVXVXVXVXVXVXVXVXVXVXVXVXVXVX",
"                                  @ e  .J.U.U.K.K.K.K.K.K.K.K.K.K.K.K.K.K.L.L.L.L.L.L.L.L.L.L.L.L.L.L.L.L.L.L.L.K.K.K.K.K.K.K.K.K.K.K.K.K.K.K.U.U.F.C 1 X                                                 % Y $X,X3X3X3X3X3X3X3X3X3X3X3X3X3X3X3X3X3X3X3X3X3X3X3X3X3X3X3X3X3X3X3X3X3X3X<X-X$X|.}.}.|.|.|.{.R 4 o             @ 1 c n M n n n n n n n n n n n n n n n n n n n n n n n n n n n n n n n n n n n n n n n n n n n n n n n n n n n n n n n n n n n n n n n n n n n n n n n n n n n n n n n n n n n n n n n M n w : X             9 hXnXVXVXVXVXVXVXVXVXVXVXVXVXVXVXVXVXVXVXVXVXVXVXVXVXVXVXVXVXVXVXVXVXVXVXVXVX",
"9 9 9 9 9 9 9 9 7 = O             + 1 B ..O.O.X.X.X.X.X.X.X.X.X.X.X.X.X.+.@.J.L.U.L.L.L.L.L.L.L.L.L.L.L.L.U.L.F.@.O.X.X.X.X.X.X.X.X.X.X.X.X.X.O.O. .n , X             o & 4 5 5 5 5 5 5 5 5 5 5 5 5 5 4 4 H Q *X1X3X3X3X3X3X3X3X3X3X3X3X3X3X3X3X3X3X3X3X3X3X3X3X3X3X3X3X3X3X3X3X3X3X3X,X=X|.W W W W W W E Y 2 o             + , q r r r r r r r r r r r r r r r r r r r r r r r r r r c n n n n n n n n n n n n n n n n n n n n n n n n n n n n n n n n n n n n n n n n n n n n n n c r r e r r r r r r r r r r r r r e e w 9 9 9 9 9 7 9 ( kXnXVXVXVXVXVXVXVXVXVXVXVXVXVXVXVXVXVXVXVXVXVXVXVXVXVXVXVXVXVXVXVXVXVXVXVXVX",
"jXjXjXjXjXjXkXjX_ ^ *             X - q r c c c c c c c c c c c c r r c M | <.L.U.L.L.L.L.L.L.L.L.L.L.L.U.U.K.@.A n r r c c c c c c c c c c c c c r 1 @               & Y Q XXXXXXXXXXXXXXXXXXXXXXXXXXXXXXXX%X:X2X3X3X3X3X3X3X3X3X3X3X3X3X3X3X3X3X3X3X3X3X3X3X3X3X3X3X3X3X3X3X3X3X3X3X,X$XE H 5 H H H H H 3 &               . @ : , , , , , , , , , , , , , , , , , , , , , , , , , 1 w c n M n n n n n n n n n n n n n n n n n n n n n n n n n n n n n n n n n n n n n n n n M n c w 1 , , , , , , , , , , , , , , , 1 b ) hXjXjXjXjXhXjXkXcXMXVXVXVXVXVXVXVXVXVXVXVXVXVXVXVXVXVXVXVXVXVXVXVXVXVXVXVXVXVXVXVXVXVXVXVXVX",
"nXnXnXnXnXnXmXnXzX_ 6               X @ @ @ @ @ @ @ @ @ @ @ @ @ @ @ @ @ 1 B +.L.U.U.L.L.L.L.L.L.L.L.L.L.U.U.K.X.c , @ @ @ @ @ @ @ @ @ @ @ @ @ @ @ @ + .               4 Q *X:X>X:X:X:X:X:X:X:X:X:X:X:X:X:X:X,X2X3X3X3X3X3X3X3X3X3X3X3X3X3X3X3X3X3X3X3X3X3X3X3X3X3X3X3X3X3X3X3X3X3X3X3X:XXXJ & o % & & & & o                   . X X X X X X X X X X X X X X X X X X X X X X X X X X @ 1 c n M n n n n n n n n n n n n n n n n n n n n n n n n n n n n n n n n n n n n n n n M M n r 1 @ X X X X X X X X X X X X X . . @ ^ jXcXmXmXnXnXnXnXmXMXVXVXVXVXVXVXVXVXVXVXVXVXVXVXVXVXVXVXVXVXVXVXVXVXVXVXVXVXVXVXVXVXVXVXVXVXVX",
"VXVXVXVXVXVXVXVXvX' 6                                                   - c +.L.~.U.L.L.L.L.L.L.L.L.L.L.U.~.J...e @                                                   4 XX:X3X5X3X3X3X3X3X3X3X3X3X3X3X3X3X3X3X3X3X3X3X3X3X3X3X3X3X3X3X3X3X3X3X3X3X3X3X3X3X3X3X3X3X3X3X3X3X3X3X3X3X4X3X:XXX4                                                                                         + , r n M M n n n n n n n n n n n n n n n n n n n n n n n n n n n n n n n n n n n n n n M N n r , X                               O ^ lXMXVXVXVXVXVXVXVXVXVXVXVXVXVXVXVXVXVXVXVXVXVXVXVXVXVXVXVXVXVXVXVXVXVXVXVXVXVXVXVXVXVXVXVXVXVX",
"VXVXVXVXVXVXVXVXnX] 6                                                   @ c O.L.~.U.L.L.L.L.L.L.L.L.L.L.U.~.J. .w +                                                   4 XX>X5X5X5X4X4X4X4X4X4X4X4X4X4X4X4X4X3X3X3X3X3X3X3X3X3X3X3X3X3X3X3X3X3X3X3X3X3X3X3X3X3X3X3X3X3X3X3X3X3X3X3X4X3X:XXX4                                                                                         X , r n M M n n n n n n n n n n n n n n n n n n n n n n n n n n n n n n n n n n n n n n M N n e , X                               O ^ lXNXVXVXVXVXVXVXVXVXVXVXVXVXVXVXVXVXVXVXVXVXVXVXVXVXVXVXVXVXVXVXVXVXVXVXVXVXVXVXVXVXVXVXVXVXVX",
"VXVXVXVXVXVXVXVXvX' 6                                                   - c +.L.~.U.L.L.L.L.L.L.L.L.L.L.U.T.J...e @                                                   4 XX:X3X5X3X3X3X3X3X3X3X3X3X3X3X3X3X3X3X3X3X3X3X3X3X3X3X3X3X3X3X3X3X3X3X3X3X3X3X3X3X3X3X3X3X3X3X3X3X3X3X3X3X4X3X:XXX4                                                                                         + , r n M M n n n n n n n n n n n n n n n n n n n n n n n n n n n n n n n n n n n n n n M N n r , X                               O ^ lXMXVXVXVXVXVXVXVXVXVXVXVXVXVXVXVXVXVXVXVXVXVXVXVXVXVXVXVXVXVXVXVXVXVXVXVXVXVXVXVXVXVXVXVXVXVX",
"VXVXVXVXVXVXVXVXvX' 6                                                   - c +.L.~.U.L.L.L.L.L.L.L.L.L.L.U.~.K...e @                                                   4 XX:X3X5X3X3X3X3X3X3X3X3X3X3X3X3X3X3X3X3X3X3X3X3X3X3X3X3X3X3X3X3X3X3X3X3X3X3X3X3X3X3X3X3X3X3X3X3X3X3X3X3X3X5X3X:XXX4                                                                                         + , r n B M n n n n n n n n n n n n n n n n n n n n n n n n n n n n n n M M n n n n n n M N n r , X                               O ^ lXMXVXVXVXVXVXVXVXVXVXVXVXVXVXVXVXVXVXVXVXVXVXVXVXVXVXVXVXVXVXVXVXVXVXVXVXVXVXVXVXVXVXVXVXVXVX",
"VXVXVXVXVXVXVXVXvX' 6                                                   $ v +.T.~.~.T.T.~.~.~.~.T.T.T.T.~.~.U...r @                                                   4 XX:X3X4X3X3X3X3X3X3X3X3X3X3X3X3X3X3X3X3X3X3X3X3X3X3X3X3X3X3X3X3X3X3X3X3X3X3X3X3X3X3X3X3X3X3X3X3X4X4X4X4X5X5X5X>XXX5                                                                                         + , c M B B N M M M M M M M M M M M M M B B M M M M M M M M M M B B M M M M M M M M M M B B M r : .                                 ^ kXMXVXVXVXVXVXVXVXVXVXVXVXVXVXVXVXVXVXVXVXVXVXVXVXVXVXVXVXVXVXVXVXVXVXVXVXVXVXVXVXVXVXVXVXVXVX",
"VXVXVXVXVXVXVXVXvX' 6                                                   $ v +.L.~.T.U.U.U.U.U.U.U.U.U.U.~.~.K...e @                                                   4 XX:X3X4X3X3X3X3X3X3X3X3X3X3X3X3X3X3X3X3X3X3X3X3X3X3X3X3X3X3X3X3X3X3X3X3X3X3X3X3X3X3X3X3X3X3X3X3X3X3X3X3X4X5X4X:XXX4                                                                                         + , c M B M M M M M M M M M M M M M M M M M M M M M M M M M M M M M M M M M M M M M M M M B n r , .                                 ^ kXMXVXVXVXVXVXVXVXVXVXVXVXVXVXVXVXVXVXVXVXVXVXVXVXVXVXVXVXVXVXVXVXVXVXVXVXVXVXVXVXVXVXVXVXVXVX",
"VXVXVXVXVXVXVXVXvX' 6                                 o & & & & & & & & > v  .@.<.<.@.@.@.@.@.@.@.@.@.@.<.<.@.A q @               o o % & % % % % % o                 4 XX:X3X4X3X3X3X3X3X3X3X3X3X3X3X3X3X3X3X3X3X3X3X3X3X3X3X3X3X3X3X3X3X3X3X3X3X3X3X3X3X3X3X3X3X3X3X1X,X>X>X>X>X1X,X-XQ 4                 o % % % % % % % o o                 O * = = = = = = = * O               + , e c c c c c c c c c c c c c c c c c c c c c c c c c c c c c c c c c c c c c c c c c c c c e 8 < = = = = = = = = = = = = = = * 7 ( zXMXVXVXVXVXVXVXVXVXVXVXVXVXVXVXVXVXVXVXVXVXVXVXVXVXVXVXVXVXVXVXVXVXVXVXVXVXVXVXVXVXVXVXVXVXVX",
"VXVXVXVXVXVXVXVXvX' 6                                 2 J R R R R R R R R T Z B B B B B B B B B B B B B B V B r , X             o & 4 5 H 5 5 H H 5 3 &               4 XX:X3X4X3X3X3X3X3X3X3X3X3X3X3X3X3X3X3X3X3X3X3X3X3X3X3X3X3X3X3X3X3X3X3X3X3X3X3X3X3X3X3X3X3X3X,X-X$XXXXXXXXX@X@XXXY 2               & 3 4 H H 5 5 H 5 4 & o             O 7 ^ _ _ _ _ _ _ _ ^ 6 O             X @ , 1 1 1 1 1 1 1 1 1 1 1 1 1 1 1 1 1 1 1 1 1 1 1 1 1 1 1 1 1 1 1 1 1 1 1 1 1 1 1 1 1 1 1 1 w / ) _ _ _ _ _ _ _ _ _ _ _ _ _ _ _ ' kXvXNXVXVXVXVXVXVXVXVXVXVXVXVXVXVXVXVXVXVXVXVXVXVXVXVXVXVXVXVXVXVXVXVXVXVXVXVXVXVXVXVXVXVXVXVXVX",
"VXVXVXVXVXVXVXVXvX' 6                               o 5 Q %X-X-X-X-X-X=X$XQ a , , , , , , , , , , , , , , , , - +               % 4 U E W W W W W E H 2               4 XX:X3X4X3X3X3X3X3X3X3X3X3X3X3X3X3X3X3X3X3X3X3X3X3X3X3X3X3X3X3X3X3X3X3X3X3X3X3X3X3X3X3X3X3X3X;XXXY 5 5 H H J J 5 2 o             o 2 H E W W E W W E U 4 %             * ^ jXxXcXcXcXcXcXxXjX^ *               X @ @ @ @ @ @ @ @ @ @ @ @ @ @ @ @ @ @ @ @ @ @ @ @ @ @ @ @ @ @ @ @ @ @ @ @ @ @ @ @ @ @ @ + @ 9 ` lXcXcXcXxXxXxXxXxXxXxXcXcXxXxXxXcXnXmXVXVXVXVXVXVXVXVXVXVXVXVXVXVXVXVXVXVXVXVXVXVXVXVXVXVXVXVXVXVXVXVXVXVXVXVXVXVXVXVXVXVXVXVXVXVX",
"VXVXVXVXVXVXVXVXvX' 6                               o J @X>X3X3X3X3X3X2X;XQ 4                                                   & H W {.|.|.}.|.|.[.U 3 o             4 XX:X3X4X3X3X3X3X3X3X3X3X3X3X3X3X3X3X3X3X3X3X3X3X3X3X3X3X3X3X3X3X3X3X3X3X3X3X3X3X3X3X3X3X4X3X-XR 2         o o                   o 4 U [.|.|.}.|.|.{.W H &             = _ xXNXVXVXVXVXVXMXxX( *                                                                                                           9 hXnXVXVXVXVXVXVXVXVXNXNXVXVXVXVXNXVXVXVXVXVXVXVXVXVXVXVXVXVXVXVXVXVXVXVXVXVXVXVXVXVXVXVXVXVXVXVXVXVXVXVXVXVXVXVXVXVXVXVXVXVXVXVXVXVX",
"VXVXVXVXVXVXVXVXvX' 6                               o Y $X2X5X5X4X5X5X4X:XXX4                                                   & H W |.@X@X X@X@X}.R 4 o             4 XX:X3X3X3X3X3X3X3X3X3X3X3X3X3X3X3X3X3X3X3X3X3X3X3X3X3X3X3X3X3X3X3X3X3X3X3X3X3X3X3X3X3X3X4X2X=XR &                               o 4 E }.@X@X|.@X@X|.W H &             = _ cXVXVXVXVXVXVXVXxX_ *                                                                                                           9 jXmXVXVXVXVXVXVXVXVXVXVXVXVXVXVXVXVXVXVXVXVXVXVXVXVXVXVXVXVXVXVXVXVXVXVXVXVXVXVXVXVXVXVXVXVXVXVXVXVXVXVXVXVXVXVXVXVXVXVXVXVXVXVXVXVX",
"VXVXVXVXVXVXVXVXvX' 6                               o Y $X1X5X5X4X4X5X3X:XXX4                                                   & H W |.@X X|.@X@X{.R 4 o             4 XX:X3X4X3X3X3X3X3X3X3X3X3X3X3X3X3X3X3X3X3X3X3X3X3X3X3X3X3X3X3X3X3X3X3X3X3X3X3X3X3X3X3X3X4X2X=XR &                               o 4 R {.@X@X|.|.@X|.W H &             = _ cXVXVXVXVXVXVXNXxX_ *                                                                                                           9 jXnXVXVXVXVXVXVXVXVXVXVXVXVXVXVXVXVXVXVXVXVXVXVXVXVXVXVXVXVXVXVXVXVXVXVXVXVXVXVXVXVXVXVXVXVXVXVXVXVXVXVXVXVXVXVXVXVXVXVXVXVXVXVXVXVX",
"VXVXVXVXVXVXVXVXvX' 6                               o J $X1X4X4X3X3X4X3X:XXX4                                                   & H W }.|.|.|. X|.{.R 4 o             4 XX:X3X4X3X3X3X3X3X3X3X3X3X3X3X3X3X3X3X3X3X3X3X3X3X3X3X3X3X3X3X3X3X3X3X3X3X3X3X3X3X3X3X3X4X2X=XR &                               o 4 R {.|.|.|.|. X|.W H &             = _ xXVXVXVXVXVXVXNXxX( *                                                                                                           9 jXnXVXVXVXVXVXVXVXVXVXVXVXVXVXVXVXVXVXVXVXVXVXVXVXVXVXVXVXVXVXVXVXVXVXVXVXVXVXVXVXVXVXVXVXVXVXVXVXVXVXVXVXVXVXVXVXVXVXVXVXVXVXVXVXVX",
"VXVXVXVXVXVXVXVXcX' 6                               o J $X1X3X4X3X3X4X3X:XQ 4                                                   & H W }. X|.|.|.|.{.R 4 o             4 XX:X3X4X3X3X3X3X3X3X3X3X3X3X3X3X3X3X3X3X3X3X3X3X3X3X3X3X3X3X3X3X3X3X3X3X3X3X3X3X3X3X3X3X5X3X-XR &                               o 4 R {.|.|.|.|. X|.W H &             = _ xXVXVXVXVXVXVXNXxX( *                                                                                                           9 jXnXVXVXVXVXVXVXVXVXVXVXVXVXVXVXVXVXVXVXVXVXVXVXVXVXVXVXVXVXVXVXVXVXVXVXVXVXVXVXVXVXVXVXVXVXVXVXVXVXVXVXVXVXVXVXVXVXVXVXVXVXVXVXVXVX",
"VXVXVXVXVXVXVXVXcX' =                               o J $X,X4X4X3X3X5X3X;XQ 3                                                   % H W |. X|.|.|.|.{.R 4 o             4 XX:X3X4X3X3X3X3X3X3X3X3X3X3X3X3X3X3X3X3X3X3X3X3X3X3X3X3X3X3X3X3X3X3X3X3X3X3X3X3X3X3X3X4X5X3X-XR &                               o 4 R {.|.|.|.|. X|.W H &             = _ xXVXVXVXVXVXVXNXxX( O                                                                                                           9 hXnXVXVXVXVXVXVXVXVXVXVXVXVXVXVXVXVXVXVXVXVXVXVXVXVXVXVXVXVXVXVXVXVXVXVXVXVXVXVXVXVXVXVXVXVXVXVXVXVXVXVXVXVXVXVXVXVXVXVXVXVXVXVXVXVX",
"VXVXVXVXVXVXVXVXvX] 9 O   O O O O O O               o J $X,X4X4X3X3X4X3X:XXX5 o   o o o o o o o o o o o o o o o o o o o o       & H W |.|.|.|.|.|.{.R 4 o             4 XX:X3X4X3X3X3X3X3X3X3X3X3X3X3X3X3X3X3X3X3X3X3X3X3X3X3X3X3X3X3X3X3X3X3X3X3X3X3X3X3X3X3X3X3X2X=XR 2       o o o                   o 4 R {.|.|.|.|. X|.W H &             = _ xXVXVXVXVXVXVXNXxX_ 6     O O O O O O O O O O O O O O O O O O O O O O O O O O O O O O O O O O O O O O O O O O O O O O O O O   O ^ kXnXVXVXVXVXVXVXVXVXVXVXVXVXVXVXVXVXVXVXVXVXVXVXVXVXVXVXVXVXVXVXVXVXVXVXVXVXVXVXVXVXVXVXVXVXVXVXVXVXVXVXVXVXVXVXVXVXVXVXVXVXVXVXVXVX",
"VXVXVXVXVXVXVXVXnXkX_ ^ ^ ^ ^ ^ ^ ^ 7 *             o J $X,X3X4X3X3X3X3X:X$XR J J J J J Y J J J J J J J Y Y J J 4 4 3 3 3 3 3 3 5 U W |.|.|.|.|.|.{.R 4 o             4 XX:X3X4X3X3X3X3X3X3X3X3X3X3X3X3X3X3X3X3X3X3X3X3X3X3X3X3X3X3X3X3X3X3X3X3X3X2X,X>X:X>X>X>X,X:X%XW H 3 2 4 3 3 3 2 & o             o 4 R {.|.|.|.|. X}.W H &             = _ xXVXVXVXVXVXVXNXvXjX( ^ ^ ^ ^ ^ ^ ^ ^ ^ ^ ^ ^ ^ ^ ^ ^ ^ ^ ^ ^ ^ ^ ^ ^ ^ ^ ^ ^ ^ ^ ^ ^ ^ ^ ^ ^ ^ ^ ^ ^ ^ ^ ^ ^ ^ ^ ^ ^ ^ ^ ^ ^ ^ ' zXmXVXVXVXVXVXVXVXVXVXVXVXVXVXVXVXVXVXVXVXVXVXVXVXVXVXVXVXVXVXVXVXVXVXVXVXVXVXVXVXVXVXVXVXVXVXVXVXVXVXVXVXVXVXVXVXVXVXVXVXVXVXVXVXVX",
"VXVXVXVXVXVXVXVXMXvXzXlXkXlXlXlXlXjX( 7             o J $X,X3X4X3X3X3X3X1X;X*X$X@X@X$X$X$X$X$X$X$X$X$X$X$X$X@XXXW R U U U U U U R W {.|.|.|.|.|.|.{.R 4 o             4 XX:X3X4X3X3X3X3X3X3X3X3X3X3X3X3X3X3X3X3X3X3X3X3X3X3X3X3X3X3X3X3X3X3X3X3X3X,X-X&X&X&X&X&X=X&X$X[.E U U U U U U U 4 &             o 4 R {.|.|.|.|. X}.W H &             = _ xXVXVXVXVXVXVXVXmXcXzXkXkXlXlXlXlXlXlXlXlXlXlXlXlXlXlXlXlXlXlXlXlXlXlXlXlXlXlXlXlXlXlXlXlXlXlXlXlXlXlXlXlXlXlXlXlXlXlXlXlXkXkXlXxXnXNXVXVXVXVXVXVXVXVXVXVXVXVXVXVXVXVXVXVXVXVXVXVXVXVXVXVXVXVXVXVXVXVXVXVXVXVXVXVXVXVXVXVXVXVXVXVXVXVXVXVXVXVXVXVXVXVXVXVXVXVXVXVXVXVX",
"VXVXVXVXVXVXVXVXVXNXMXMXMXMXMXNXMXvXjX9 O           o J $X,X3X3X3X3X3X3X3X2X1X1X1X1X1X,X,X,X1X1X1X,X,X,X1X1X,X;X&X|.[.[.[.[.[.{.{.{.}.|.|.|.|.|.|.{.R 4 o             4 XX:X3X4X3X3X3X3X3X3X3X3X3X3X3X3X3X3X3X3X3X3X3X3X3X3X3X3X3X3X3X3X3X3X3X3X2X:X&X@X@X@X@X@X@X@X X}.{.[.[.[.{.{.{.W H &             o 4 R {.|.|.|.|. X|.W H &             = _ cXVXVXVXVXVXVXVXVXNXMXMXMXMXMXMXMXMXMXMXMXMXMXMXMXMXMXMXMXMXMXMXMXMXMXMXMXMXMXMXMXMXMXMXMXMXMXMXMXMXMXMXMXMXMXMXMXMXMXMXMXMXmXMXMXNXVXVXVXVXVXVXVXVXVXVXVXVXVXVXVXVXVXVXVXVXVXVXVXVXVXVXVXVXVXVXVXVXVXVXVXVXVXVXVXVXVXVXVXVXVXVXVXVXVXVXVXVXVXVXVXVXVXVXVXVXVXVXVXVXVX",
"VXVXVXVXVXVXVXVXVXVXVXVXVXVXVXVXVXmXkX^ O           o J $X,X3X3X3X3X3X3X3X3X3X3X4X4X3X3X3X3X4X4X3X3X3X3X3X5X3X,X=X#X|.|.|. X X X|.|.|.|.|.|.|.|.|.{.R 4 o             4 XX:X3X4X3X3X3X3X3X3X3X3X3X3X3X3X3X3X3X3X3X3X3X3X3X3X3X3X3X3X3X3X3X3X3X3X2X:X&X|.{.}.|.}.}.|.|.|. X X X X X@X X[.U 2             o 4 R {.|.|.|.|. X|.W H &             = _ cXVXVXVXVXVXVXVXVXVXVXVXVXVXVXVXVXVXVXVXVXVXVXVXVXVXVXVXVXVXVXVXVXVXVXVXVXVXVXVXVXVXVXVXVXVXVXVXVXVXVXVXVXVXVXVXVXVXVXVXVXVXVXVXVXVXVXVXVXVXVXVXVXVXVXVXVXVXVXVXVXVXVXVXVXVXVXVXVXVXVXVXVXVXVXVXVXVXVXVXVXVXVXVXVXVXVXVXVXVXVXVXVXVXVXVXVXVXVXVXVXVXVXVXVXVXVXVXVXVXVX",
"VXVXVXVXVXVXVXVXVXVXVXVXVXVXVXVXVXMXkX^ O           o J $X,X3X3X3X3X3X3X3X3X3X3X3X3X3X3X3X3X3X3X3X3X4X4X5X5X3X,X=X#X|.|. X X X|.|.|.|.|.|.|.|.|.|.{.R 4 o             4 XX:X3X4X3X3X3X3X3X3X3X3X3X3X3X3X3X3X3X3X3X3X3X3X3X3X3X3X3X3X3X3X3X3X3X3X2X:X&X|.{.{.}.}.}.}.|.|.|.|.|.|. X@X X[.U 2             o 4 R {. X|.|.|. X|.W H &             = _ xXVXVXVXVXVXVXVXVXVXVXVXVXVXVXVXVXVXVXVXVXVXVXVXVXVXVXVXVXVXVXVXVXVXVXVXVXVXVXVXVXVXVXVXVXVXVXVXVXVXVXVXVXVXVXVXVXVXVXVXVXVXVXVXVXVXVXVXVXVXVXVXVXVXVXVXVXVXVXVXVXVXVXVXVXVXVXVXVXVXVXVXVXVXVXVXVXVXVXVXVXVXVXVXVXVXVXVXVXVXVXVXVXVXVXVXVXVXVXVXVXVXVXVXVXVXVXVXVXVXVX",
"VXVXVXVXVXVXVXVXVXVXVXVXVXVXVXVXVXmXkX^ O           o J $X,X3X3X3X3X3X3X3X3X3X3X3X3X3X3X3X3X3X3X3X3X3X3X3X3X3X,X=X@X|.}.|.|.|.|.|.|.|.|.|.|.|.|. X{.R 4 o             4 XX:X3X4X3X3X3X3X3X3X3X3X3X3X3X3X3X3X3X3X3X3X3X3X3X3X3X3X3X3X3X3X3X3X3X3X2X:X&X X}.|.|.|.|.|.|.|.|.|.|.|.|. X|.W U 2             o 4 R {. X|.|.|. X|.W H &             = _ xXVXVXVXVXVXVXVXVXVXVXVXVXVXVXVXVXVXVXVXVXVXVXVXVXVXVXVXVXVXVXVXVXVXVXVXVXVXVXVXVXVXVXVXVXVXVXVXVXVXVXVXVXVXVXVXVXVXVXVXVXVXVXVXVXVXVXVXVXVXVXVXVXVXVXVXVXVXVXVXVXVXVXVXVXVXVXVXVXVXVXVXVXVXVXVXVXVXVXVXVXVXVXVXVXVXVXVXVXVXVXVXVXVXVXVXVXVXVXVXVXVXVXVXVXVXVXVXVXVXVX",
"VXVXVXVXVXVXVXVXVXVXVXVXVXVXVXVXVXmXkX^ O           o J $X1X3X3X3X3X3X3X3X3X3X3X3X3X3X3X3X3X3X3X3X3X3X3X3X3X3X,X=X@X|.}.|.|.|.|.|.|.|.|.|.|.|. X X{.R 4               4 XX:X3X4X3X3X3X3X3X3X3X3X3X3X3X3X3X3X3X3X3X3X3X3X3X3X3X3X3X3X3X3X3X3X3X3X2X:X&X X}.}.|.|.|.|.|.|.|.|.|.|.|.|.|.W U 2             o 4 R {. X|.|.|. X|.W H &             = _ cXVXVXVXVXVXVXVXVXVXVXVXVXVXVXVXVXVXVXVXVXVXVXVXVXVXVXVXVXVXVXVXVXVXVXVXVXVXVXVXVXVXVXVXVXVXVXVXVXVXVXVXVXVXVXVXVXVXVXVXVXVXVXVXVXVXVXVXVXVXVXVXVXVXVXVXVXVXVXVXVXVXVXVXVXVXVXVXVXVXVXVXVXVXVXVXVXVXVXVXVXVXVXVXVXVXVXVXVXVXVXVXVXVXVXVXVXVXVXVXVXVXVXVXVXVXVXVXVXVXVX",
"VXVXVXVXVXVXVXVXVXVXVXVXVXVXVXVXVXmXkX^ O           o J $X1X3X4X3X3X3X3X3X3X3X3X3X3X3X3X3X3X3X3X3X3X3X3X4X4X3X,X=X@X|.}.|.|.|.|.|.|.|. X|. X X@X@X{.R 3               4 XX:X3X4X3X3X3X3X3X3X3X3X3X3X3X3X3X3X3X3X3X3X3X3X3X3X3X3X3X3X3X3X3X3X3X3X2X:X&X X}.|.|.|.|.|.|.|.}.}.}.}.|.|.}.W Y 2             o 4 R {. X|.|.|. X|.W H &             = _ cXVXVXVXVXVXVXVXVXVXVXVXVXVXVXVXVXVXVXVXVXVXVXVXVXVXVXVXVXVXVXVXVXVXVXVXVXVXVXVXVXVXVXVXVXVXVXVXVXVXVXVXVXVXVXVXVXVXVXVXVXVXVXVXVXVXVXVXVXVXVXVXVXVXVXVXVXVXVXVXVXVXVXVXVXVXVXVXVXVXVXVXVXVXVXVXVXVXVXVXVXVXVXVXVXVXVXVXVXVXVXVXVXVXVXVXVXVXVXVXVXVXVXVXVXVXVXVXVXVXVX",
"VXVXVXVXVXVXVXVXVXVXVXVXVXVXVXVXVXmXkX^ O           o Y $X1X3X4X3X3X3X3X3X3X3X3X3X3X3X3X3X3X3X3X3X3X3X3X3X3X3X,X=X@X|.}.|.|.|.|.|.|.|.|.|.|.|.|. X{.R 4 o             5 XX:X3X3X3X3X3X3X3X3X3X3X3X3X3X3X3X3X3X3X3X3X3X3X3X3X3X3X3X3X3X3X3X3X3X3X2X:X&X X}.|.|.|.|.|.|.|.|.|.|.|.|. X|.[.U 2             o 4 R {. X|.|.|.|.|.W H &             = _ xXNXVXVXVXVXVXVXVXVXVXVXVXVXVXVXVXVXVXVXVXVXVXVXVXVXVXVXVXVXVXVXVXVXVXVXVXVXVXVXVXVXVXVXVXVXVXVXVXVXVXVXVXVXVXVXVXVXVXVXVXVXVXVXVXVXVXVXVXVXVXVXVXVXVXVXVXVXVXVXVXVXVXVXVXVXVXVXVXVXVXVXVXVXVXVXVXVXVXVXVXVXVXVXVXVXVXVXVXVXVXVXVXVXVXVXVXVXVXVXVXVXVXVXVXVXVXVXVXVXVX",
"VXVXVXVXVXVXVXVXVXVXVXVXVXVXVXVXVXmXkX^ O           o Y $X1X3X4X3X3X3X3X3X3X3X3X3X3X3X3X3X3X3X<X<X,X,X,X<X<X,X:X&X@X|.}.|.|.|.|.}.{.W W W W W W W W U H 4 4 4 4 4 3 4 Y @X>X3X3X3X3X3X3X3X3X3X3X3X3X3X3X3X3X3X3X3X3X3X3X3X3X3X3X3X3X3X3X3X3X3X3X2X:X&X X}.}.|.|.|.|. X@X#X$X$X#X#X$X#X}.U 2             o 4 R {. X|.|.|.|.|.W H &             = ( kXvXnXnXnXnXnXnXnXMXVXVXVXVXVXVXVXVXVXVXVXVXVXVXVXVXVXVXVXVXVXVXVXVXVXVXVXVXVXVXVXVXVXVXVXVXVXVXVXVXVXVXVXVXVXVXVXVXVXVXVXVXVXVXVXVXVXVXVXVXVXVXVXVXVXVXVXVXVXVXVXVXVXVXVXVXVXVXVXVXVXVXVXVXVXVXVXVXVXVXVXVXVXVXVXVXVXVXVXVXVXVXVXVXVXVXVXVXVXVXVXVXVXVXVXVXVXVXVXVXVX",
"VXVXVXVXVXVXVXVXVXVXVXVXVXVXVXVXVXmXkX^ O           o Y @X1X3X4X3X3X3X3X3X3X3X3X3X3X3X3X3X3X,X:X-X-X-X-X-X-X-X&X$X X|.|.|.|.|.|.{.W U H H H H H H Y U R Q XXXXQ Q Q XX@X-X1X3X3X3X3X3X3X3X3X3X3X3X3X3X3X3X3X3X3X3X3X3X3X3X3X3X3X3X3X3X3X3X3X3X3X2X:X&X X}.|.|.|.|.|.@X&X=X-X-X-X-X-X-X&XR 4             o 4 R {.|.|.|.|.|.}.W H &             O 9 _ ] hXhX] ] ] hXlXnXNXVXVXVXVXVXVXVXVXVXVXVXVXVXVXVXVXVXVXVXVXVXVXVXVXVXVXVXVXVXVXVXVXVXVXVXVXVXVXVXVXVXVXVXVXVXVXVXVXVXVXVXVXVXVXVXVXVXVXVXVXVXVXVXVXVXVXVXVXVXVXVXVXVXVXVXVXVXVXVXVXVXVXVXVXVXVXVXVXVXVXVXVXVXVXVXVXVXVXVXVXVXVXVXVXVXVXVXVXVXVXVXVXVXVXVXVXVXVXVXVX",
"VXVXVXVXVXVXVXVXVXVXVXVXVXVXVXVXVXmXkX^             o J @X1X3X4X3X3X3X3X3X3X3X3X3X3X3X3X3X2X:X=X$X#X#X#X#X$X#X@X@X|.|.|.|.|.|.|.[.U 4 & & & & & & 3 Y XX-X:X:X:X:X:X:X:X1X3X3X3X3X3X3X3X3X3X3X3X3X3X3X3X3X3X3X3X3X3X3X3X3X3X3X3X3X3X3X3X3X3X3X3X2X:X&X X}.}.|.|.}. X$X-X>X<X<X,X<X<X<X-XXX4             o 4 R {.|.|.|.|. X|.W H &               * 6 7 7 7 7 7 6 9 _ xXMXVXVXVXVXVXVXVXVXVXVXVXVXVXVXVXVXVXVXVXVXVXVXVXVXVXVXVXVXVXVXVXVXVXVXVXVXVXVXVXVXVXVXVXVXVXVXVXVXVXVXVXVXVXVXVXVXVXVXVXVXVXVXVXVXVXVXVXVXVXVXVXVXVXVXVXVXVXVXVXVXVXVXVXVXVXVXVXVXVXVXVXVXVXVXVXVXVXVXVXVXVXVXVXVXVXVXVXVXVXVXVXVXVXVXVXVXVXVXVXVX",
"VXVXVXVXVXVXVXVXVXVXVXVXVXVXVXVXVXmXkX^ O           o J $X,X3X3X3X3X3X3X3X3X3X3X3X3X3X3X3X2X:X&X X}.|.|.|.|.|.|.|.|.|.|.|.|. X|.W U 2             % Y %X1X3X3X3X3X3X3X3X3X3X3X3X3X3X3X3X3X3X3X3X3X3X3X3X3X3X3X3X3X3X3X3X3X3X3X3X3X3X3X3X3X3X3X3X2X:X&X X}.|.|.|.}.|.&X;X<X3X3X3X3X4X3X:XXX5             o 4 R {.|.|.|.|.|.|.W H &                               O ^ lXMXVXVXVXVXVXVXVXVXVXVXVXVXVXVXVXVXVXVXVXVXVXVXVXVXVXVXVXVXVXVXVXVXVXVXVXVXVXVXVXVXVXVXVXVXVXVXVXVXVXVXVXVXVXVXVXVXVXVXVXVXVXVXVXVXVXVXVXVXVXVXVXVXVXVXVXVXVXVXVXVXVXVXVXVXVXVXVXVXVXVXVXVXVXVXVXVXVXVXVXVXVXVXVXVXVXVXVXVXVXVXVXVXVXVXVXVXVXVXVXVX",
"VXVXVXVXVXVXVXVXVXVXVXVXVXVXVXVXVXmXkX^ O           o J $X,X3X3X3X3X3X3X3X3X3X3X3X3X3X3X3X2X:X&X|.{.{.}.}.}.}.}.|.|.|.|.|.|. X|.W Y &             o Y %X2X5X5X4X4X4X4X3X3X3X3X3X3X3X3X3X3X3X3X3X3X3X3X3X3X3X3X3X3X3X3X3X3X3X3X3X3X3X3X3X3X3X3X3X2X:X&X X}.|.|.|.}.|.&X:X2X3X4X3X4X5X4X:XXX5             o 4 R {.|.|.|.|.|.}.W H &                                 ^ kXMXVXVXVXVXVXVXVXVXVXVXVXVXVXVXVXVXVXVXVXVXVXVXVXVXVXVXVXVXVXVXVXVXVXVXVXVXVXVXVXVXVXVXVXVXVXVXVXVXVXVXVXVXVXVXVXVXVXVXVXVXVXVXVXVXVXVXVXVXVXVXVXVXVXVXVXVXVXVXVXVXVXVXVXVXVXVXVXVXVXVXVXVXVXVXVXVXVXVXVXVXVXVXVXVXVXVXVXVXVXVXVXVXVXVXVXVXVXVXVXVX",
"VXVXVXVXVXVXVXVXVXVXVXVXVXVXVXVXVXmXkX^ O           o J $X1X3X4X3X3X3X3X3X3X3X3X3X3X3X3X3X2X:X&X X}.}.|.|.|.|.|.|.|.|.|.|.|. X|.W U &             % Y %X2X5X4X3X3X3X3X3X3X3X3X3X3X3X3X3X3X3X3X3X3X3X3X3X3X3X3X3X3X3X3X3X3X3X3X3X3X3X3X3X3X3X3X3X2X:X&X X}.}.|.|.}. X&X:X2X3X3X3X3X5X3X:XXX5             o 4 R {.|.|.|.|.|.}.W H &                               O ^ kXMXVXVXVXVXVXVXVXVXVXVXVXVXVXVXVXVXVXVXVXVXVXVXVXVXVXVXVXVXVXVXVXVXVXVXVXVXVXVXVXVXVXVXVXVXVXVXVXVXVXVXVXVXVXVXVXVXVXVXVXVXVXVXVXVXVXVXVXVXVXVXVXVXVXVXVXVXVXVXVXVXVXVXVXVXVXVXVXVXVXVXVXVXVXVXVXVXVXVXVXVXVXVXVXVXVXVXVXVXVXVXVXVXVXVXVXVXVXVXVXVX",
"VXVXVXVXVXVXVXVXVXVXVXVXVXVXVXVXVXmXkX^ O           o J $X1X3X4X3X3X3X3X3X3X3X3X3X3X3X3X3X2X:X&X X}.|.|.|.|.|.|.|.|.|.|.|.|. X|.W U 2             % Y %X1X3X3X3X3X3X3X3X3X3X3X3X3X3X3X3X3X3X3X3X3X3X3X3X3X3X3X3X3X3X3X3X3X3X3X3X3X3X3X3X3X3X3X3X2X:X&X X}.}.|.|.}. X&X:X<X3X3X3X3X4X3X:XXX5             o 4 R {.|.|.|.|.|.|.W H &                               O ^ lXMXVXVXVXVXVXVXVXVXVXVXVXVXVXVXVXVXVXVXVXVXVXVXVXVXVXVXVXVXVXVXVXVXVXVXVXVXVXVXVXVXVXVXVXVXVXVXVXVXVXVXVXVXVXVXVXVXVXVXVXVXVXVXVXVXVXVXVXVXVXVXVXVXVXVXVXVXVXVXVXVXVXVXVXVXVXVXVXVXVXVXVXVXVXVXVXVXVXVXVXVXVXVXVXVXVXVXVXVXVXVXVXVXVXVXVXVXVXVXVXVX",
"VXVXVXVXVXVXVXVXVXVXVXVXVXVXVXVXVXmXkX^ O           o Y $X1X3X4X3X3X3X3X3X3X3X3X3X3X3X3X3X2X:X&X X}.|.|.|.|.|.|.|.|.|.|.|.|. X|.W U 2             % Y %X1X4X3X3X3X3X3X3X3X3X3X3X3X3X3X3X3X3X3X3X3X3X3X3X3X3X3X3X3X3X3X3X3X3X3X3X3X3X3X3X3X3X3X3X2X:X&X X{.{.}.{.{.|.&X:X2X3X3X3X3X4X3X:XXX5             o 4 R {.|.|.|.|. X|.W H %                               O ^ lXMXVXVXVXVXVXVXVXVXVXVXVXVXVXVXVXVXVXVXVXVXVXVXVXVXVXVXVXVXVXVXVXVXVXVXVXVXVXVXVXVXVXVXVXVXVXVXVXVXVXVXVXVXVXVXVXVXVXVXVXVXVXVXVXVXVXVXVXVXVXVXVXVXVXVXVXVXVXVXVXVXVXVXVXVXVXVXVXVXVXVXVXVXVXVXVXVXVXVXVXVXVXVXVXVXVXVXVXVXVXVXVXVXVXVXVXVXVXVXVXVX",
"VXVXVXVXVXVXVXVXVXVXVXVXVXVXVXVXVXmXkX^ O           o Y $X,X3X4X3X3X3X3X3X3X3X3X3X3X3X3X3X2X:X&X X}.|.|.|.|.|.|.|.|.|.|.|.|. X|.W U 2             % Y %X1X3X3X3X3X3X3X3X3X3X3X3X3X3X3X3X3X3X3X3X3X3X3X3X3X3X3X3X3X3X3X3X3X3X3X3X3X3X3X3X3X3X3X3X2X:X&X X{.{.}.{.{.|.&X:X2X3X3X3X3X4X3X:XXX5             o 4 R {.|.|.|.|. X|.W H %                               O ^ lXMXVXVXVXVXVXVXVXVXVXVXVXVXVXVXVXVXVXVXVXVXVXVXVXVXVXVXVXVXVXVXVXVXVXVXVXVXVXVXVXVXVXVXVXVXVXVXVXVXVXVXVXVXVXVXVXVXVXVXVXVXVXVXVXVXVXVXVXVXVXVXVXVXVXVXVXVXVXVXVXVXVXVXVXVXVXVXVXVXVXVXVXVXVXVXVXVXVXVXVXVXVXVXVXVXVXVXVXVXVXVXVXVXVXVXVXVXVXVXVXVX",
"VXVXVXVXVXVXVXVXVXVXVXVXVXVXVXVXVXmXkX^ O           o Y @X1X3X4X3X3X3X3X3X3X3X3X3X3X3X3X3X2X:X&X X}.}.|.|.|.|.|.|.|.|.|.|.|.|.|.W U 2             % Y %X1X3X3X3X3X3X3X3X3X3X3X3X3X3X3X3X3X3X3X3X3X3X3X3X3X3X3X3X3X3X3X3X3X3X3X3X3X3X3X3X3X3X3X3X2X:X&X@X@X@X@X@X@X@X&X:X2X3X3X3X3X4X3X:XXX5             o 4 R {.|.|.|.|. X|.W H 2 o o o o o o o o               O ^ lXMXVXVXVXVXVXVXVXVXVXVXVXVXVXVXVXVXVXVXVXVXVXVXVXVXVXVXVXVXVXVXVXVXVXVXVXVXVXVXVXVXVXVXVXVXVXVXVXVXVXVXVXVXVXVXVXVXVXVXVXVXVXVXVXVXVXVXVXVXVXVXVXVXVXVXVXVXVXVXVXVXVXVXVXVXVXVXVXVXVXVXVXVXVXVXVXVXVXVXVXVXVXVXVXVXVXVXVXVXVXVXVXVXVXVXVXVXVXVXVXVX",
"VXVXVXVXVXVXVXVXVXVXVXVXVXVXVXVXVXmXkX^ O           o J $X1X3X4X3X3X3X3X3X3X3X3X3X3X3X3X3X2X:X&X X}.}.|.|.|.|.|.|.|.|.|.|.|.|.|.[.U 2             % Y %X1X3X3X3X3X3X3X3X3X3X3X3X3X3X3X3X3X3X3X3X3X3X3X3X3X3X3X3X3X3X3X3X3X3X3X3X3X3X3X3X3X3X3X3X3X,X;X=X&X&X&X&X&X&X-X,X2X3X3X3X3X4X3X:XXX5             o 4 R {.|.|.|.|.|.|.[.R H 4 4 4 4 4 4 4 2 o             O ^ lXMXVXVXVXVXVXVXVXVXVXVXVXVXVXVXVXVXVXVXVXVXVXVXVXVXVXVXVXVXVXVXVXVXVXVXVXVXVXVXVXVXVXVXVXVXVXVXVXVXVXVXVXVXVXVXVXVXVXVXVXVXVXVXVXVXVXVXVXVXVXVXVXVXVXVXVXVXVXVXVXVXVXVXVXVXVXVXVXVXVXVXVXVXVXVXVXVXVXVXVXVXVXVXVXVXVXVXVXVXVXVXVXVXVXVXVXVXVXVXVXVX",
"VXVXVXVXVXVXVXVXVXVXVXVXVXVXVXVXVXmXkX9 O           o J $X,X3X3X3X3X3X3X3X3X3X3X3X3X3X3X3X2X:X&X X}.}.|.|.|.|.|.|.|.|.|.|.|. X|.W U 2             % Y %X1X3X3X3X3X3X3X3X3X3X3X3X3X3X3X3X3X3X3X3X3X3X3X3X3X3X3X3X3X3X3X3X3X3X3X3X3X3X3X3X3X3X3X3X3X2X,X>X:X>X>X>X:X>X,X2X3X3X3X3X3X3X3X:XXX5             o 4 R {.|.|.|.|.|.|.{.W W E E E E E E U 5 &             O ^ lXMXVXVXVXVXVXVXVXVXVXVXVXVXVXVXVXVXVXVXVXVXVXVXVXVXVXVXVXVXVXVXVXVXVXVXVXVXVXVXVXVXVXVXVXVXVXVXVXVXVXVXVXVXVXVXVXVXVXVXVXVXVXVXVXVXVXVXVXVXVXVXVXVXVXVXVXVXVXVXVXVXVXVXVXVXVXVXVXVXVXVXVXVXVXVXVXVXVXVXVXVXVXVXVXVXVXVXVXVXVXVXVXVXVXVXVXVXVXVXVXVX",
"VXVXVXVXVXVXVXVXVXVXVXVXVXVXVXVXVXmXkX^ O           o J $X,X3X3X3X3X3X3X3X3X3X3X3X3X3X3X3X2X:X&X X}.}.|.|.|.|.|.|.|.|.|.|.|. X|.W U 2             % Y %X1X3X3X3X3X3X3X3X3X3X3X3X3X3X3X3X3X3X3X3X3X3X3X3X3X3X3X3X3X3X3X3X3X3X3X3X3X3X3X3X3X3X3X3X3X3X3X3X3X3X3X3X3X3X3X3X3X3X3X3X3X3X3X:XXX5             o 4 R {.|.|.|.|.|.|.|.}.{.{.{.{.{.|.}.W U 2             O ^ lXMXVXVXVXVXVXVXVXVXVXVXVXVXVXVXVXVXVXVXVXVXVXVXVXVXVXVXVXVXVXVXVXVXVXVXVXVXVXVXVXVXVXVXVXVXVXVXVXVXVXVXVXVXVXVXVXVXVXVXVXVXVXVXVXVXVXVXVXVXVXVXVXVXVXVXVXVXVXVXVXVXVXVXVXVXVXVXVXVXVXVXVXVXVXVXVXVXVXVXVXVXVXVXVXVXVXVXVXVXVXVXVXVXVXVXVXVXVXVXVXVX",
"VXVXVXVXVXVXVXVXVXVXVXVXVXVXVXVXVXmXkX^ O           o J $X1X3X3X3X3X3X3X3X3X3X3X3X3X3X3X3X2X:X&X X}.}.|.|.|.|.|.|.|.|.|.|.|. X|.W U &             % Y %X1X3X3X3X3X3X3X3X3X3X3X3X3X3X3X3X3X3X3X3X3X3X3X3X3X3X3X3X3X3X3X3X3X3X3X3X3X3X3X3X3X3X3X3X3X3X3X3X3X3X3X3X3X3X3X3X3X3X3X3X3X4X3X:XXX5             o 4 R {.|.|.|.|.|.|.|.|.|.|.|.|. X@X@X{.U 3             O ^ lXMXVXVXVXVXVXVXVXVXVXVXVXVXVXVXVXVXVXVXVXVXVXVXVXVXVXVXVXVXVXVXVXVXVXVXVXVXVXVXVXVXVXVXVXVXVXVXVXVXVXVXVXVXVXVXVXVXVXVXVXVXVXVXVXVXVXVXVXVXVXVXVXVXVXVXVXVXVXVXVXVXVXVXVXVXVXVXVXVXVXVXVXVXVXVXVXVXVXVXVXVXVXVXVXVXVXVXVXVXVXVXVXVXVXVXVXVXVXVXVXVX",
"VXVXVXVXVXVXVXVXVXVXVXVXVXVXVXVXVXmXkX^ O           o J $X1X3X4X3X3X3X3X3X3X3X3X3X3X3X3X3X2X:X&X X}.}.|.|.|.|.|.|.|.|.|.|.|. X|.W U &             % Y %X1X3X3X3X3X3X3X3X3X3X3X3X3X3X3X3X3X3X3X3X3X3X3X3X3X3X3X3X3X3X3X3X3X3X3X3X3X3X3X3X3X3X3X3X3X3X3X3X3X3X3X3X3X3X3X3X3X3X3X3X3X4X3X:XXX5             o 4 R {.|.|.|.|.|.|.|.|.|.|.|.|.|.@X X[.U 3             O ^ lXMXVXVXVXVXVXVXVXVXVXVXVXVXVXVXVXVXVXVXVXVXVXVXVXVXVXVXVXVXVXVXVXVXVXVXVXVXVXVXVXVXVXVXVXVXVXVXVXVXVXVXVXVXVXVXVXVXVXVXVXVXVXVXVXVXVXVXVXVXVXVXVXVXVXVXVXVXVXVXVXVXVXVXVXVXVXVXVXVXVXVXVXVXVXVXVXVXVXVXVXVXVXVXVXVXVXVXVXVXVXVXVXVXVXVXVXVXVXVXVXVX",
"VXVXVXVXVXVXVXVXVXVXVXVXVXVXVXVXVXmXkX^ O           o J $X1X3X4X3X3X3X3X3X3X3X3X3X3X3X3X3X2X:X&X X}.}.|.|.|.|.|.|.|.|.|.|.|. X|.W U 2             % Y %X1X4X3X3X3X3X3X3X3X3X3X3X3X3X3X3X3X3X3X3X3X3X3X3X3X3X3X3X3X3X3X3X3X3X3X3X3X3X3X3X3X3X3X3X3X3X3X3X3X3X3X3X3X3X3X3X3X3X3X3X3X5X3X:XXX5             o 4 R {.|.|.|.|.|.|.|.|.|.|.|.|.|. X|.[.U 2             O ^ lXMXVXVXVXVXVXVXVXVXVXVXVXVXVXVXVXVXVXVXVXVXVXVXVXVXVXVXVXVXVXVXVXVXVXVXVXVXVXVXVXVXVXVXVXVXVXVXVXVXVXVXVXVXVXVXVXVXVXVXVXVXVXVXVXVXVXVXVXVXVXVXVXVXVXVXVXVXVXVXVXVXVXVXVXVXVXVXVXVXVXVXVXVXVXVXVXVXVXVXVXVXVXVXVXVXVXVXVXVXVXVXVXVXVXVXVXVXVXVXVXVX",
"VXVXVXVXVXVXVXVXVXVXVXVXVXVXVXVXVXmXkX^ O           o Y $X1X5X5X3X3X3X3X3X3X3X3X3X3X3X3X3X2X:X&X X}.|.|.|.|.|.|.|.|.|.|.|.|. X|.W U 2             % Y %X1X4X3X3X3X3X3X3X3X3X3X3X3X3X3X3X3X3X3X3X3X3X3X3X3X3X3X3X3X3X3X3X3X3X3X3X3X3X3X3X3X3X3X3X3X3X3X3X3X3X3X3X3X3X3X3X4X4X4X3X4X5X3X:XXX5             o 4 R {.|.|.|.|.|.|.|.|.|.|.|.|.|. X|.[.U 2             O ^ lXMXVXVXVXVXVXVXVXVXVXVXVXVXVXVXVXVXVXVXVXVXVXVXVXVXVXVXVXVXVXVXVXVXVXVXVXVXVXVXVXVXVXVXVXVXVXVXVXVXVXVXVXVXVXVXVXVXVXVXVXVXVXVXVXVXVXVXVXVXVXVXVXVXVXVXVXVXVXVXVXVXVXVXVXVXVXVXVXVXVXVXVXVXVXVXVXVXVXVXVXVXVXVXVXVXVXVXVXVXVXVXVXVXVXVXVXVXVXVXVXVX",
"VXVXVXVXVXVXVXVXVXVXVXVXVXVXVXVXVXmXkX^ .           o Y $X1X5X5X4X4X4X4X3X3X3X3X3X3X3X3X3X2X:X&X X}.|.|.|.|.|.|.|.|.|.|.|.|. X|.W U 2             % Y %X1X4X3X3X3X3X3X3X3X3X3X3X3X3X3X3X3X3X3X3X3X3X3X3X3X3X3X3X3X3X3X3X3X3X3X3X3X3X3X3X3X3X3X3X3X3X3X3X3X3X3X3X3X3X3X3X4X4X4X4X5X5X5X>XXX5               3 R {. X|.|.|.|.|.|.|.|.|.|.|.|. X|.[.U 2             O ^ lXMXVXVXVXVXVXVXVXVXVXVXVXVXVXVXVXVXVXVXVXVXVXVXVXVXVXVXVXVXVXVXVXVXVXVXVXVXVXVXVXVXVXVXVXVXVXVXVXVXVXVXVXVXVXVXVXVXVXVXVXVXVXVXVXVXVXVXVXVXVXVXVXVXVXVXVXVXVXVXVXVXVXVXVXVXVXVXVXVXVXVXVXVXVXVXVXVXVXVXVXVXVXVXVXVXVXVXVXVXVXVXVXVXVXVXVXVXVXVXVXVX",
"VXVXVXVXVXVXVXVXVXVXVXVXVXVXVXVXVXmXkX^             o J @X>X3X3X3X3X2X3X3X3X3X3X3X3X3X3X3X2X:X&X X}.|.|.|.|.|.|.|.|.|.|.|.|. X|.W U 2             % Y %X1X3X3X3X3X3X3X3X3X3X3X3X3X3X3X3X3X3X3X3X3X3X3X3X3X3X3X3X3X3X3X3X3X3X3X3X3X3X3X3X3X3X3X3X3X3X3X3X3X3X3X3X3X3X3X3X3X3X2X2X3X3X3X:XXX5 o           o 4 R {. X|.|.|.|.|.|.|.|.|.|.|.|. X|.[.U 2             O ^ lXMXVXVXVXVXVXVXVXVXVXVXVXVXVXVXVXVXVXVXVXVXVXVXVXVXVXVXVXVXVXVXVXVXVXVXVXVXVXVXVXVXVXVXVXVXVXVXVXVXVXVXVXVXVXVXVXVXVXVXVXVXVXVXVXVXVXVXVXVXVXVXVXVXVXVXVXVXVXVXVXVXVXVXVXVXVXVXVXVXVXVXVXVXVXVXVXVXVXVXVXVXVXVXVXVXVXVXVXVXVXVXVXVXVXVXVXVXVXVXVXVX",
"VXVXVXVXVXVXVXVXVXVXVXVXVXVXVXVXVXmXkX^ O           o 5 Q %X-X-X-X=X*X-X;X:X2X3X3X3X3X3X3X2X:X&X X}.|.|.|.|.|.|.|.|.|.|.|.|. X|.W U 2             % Y %X1X3X3X3X3X3X3X3X3X3X3X3X3X3X3X3X3X3X3X3X3X3X3X3X3X3X3X3X3X3X3X3X3X3X3X3X3X3X3X3X3X3X3X3X3X3X3X3X3X3X3X3X3X3X1X:X;X=X=X=X-X-X-X$XW J 3 2 2 2 2 2 4 H W {.|.|.|.|.|.|.|.|.|.|.|.|.|. X|.[.U 2             O ^ lXMXVXVXVXVXVXVXVXVXVXVXVXVXVXVXVXVXVXVXVXVXVXVXVXVXVXVXVXVXVXVXVXVXVXVXVXVXVXVXVXVXVXVXVXVXVXVXVXVXVXVXVXVXVXVXVXVXVXVXVXVXVXVXVXVXVXVXVXVXVXVXVXVXVXVXVXVXVXVXVXVXVXVXVXVXVXVXVXVXVXVXVXVXVXVXVXVXVXVXVXVXVXVXVXVXVXVXVXVXVXVXVXVXVXVXVXVXVXVXVXVX",
"VXVXVXVXVXVXVXVXVXVXVXVXVXVXVXVXVXmXkX^ O             & J R R R R R R R XX*X1X3X3X3X3X3X3X2X:X&X X}.|.|.|.|.|.|.|.|.|.|.|.|. X|.W U &             % Y %X1X3X3X3X3X3X3X3X3X3X3X3X3X3X3X3X3X3X3X3X3X3X3X3X3X3X3X3X3X3X3X3X3X3X3X3X3X3X3X3X3X3X3X3X3X3X3X3X3X3X3X3X4X3X:X$XQ R R R R R R R R U U U U U U U U E [.}.|.|.|.|.|.|.|.|.|.|.|.|.|. X|.[.U 2             O ^ lXMXVXVXVXVXVXVXVXVXVXVXVXVXVXVXVXVXVXVXVXVXVXVXVXVXVXVXVXVXVXVXVXVXVXVXVXVXVXVXVXVXVXVXVXVXVXVXVXVXVXVXVXVXVXVXVXVXVXVXVXVXVXVXVXVXVXVXVXVXVXVXVXVXVXVXVXVXVXVXVXVXVXVXVXVXVXVXVXVXVXVXVXVXVXVXVXVXVXVXVXVXVXVXVXVXVXVXVXVXVXVXVXVXVXVXVXVXVXVXVXVX",
"VXVXVXVXVXVXVXVXVXVXVXVXVXVXVXVXVXmXkX^ O             o & & & & & & & & J XX:X3X3X3X3X3X3X2X:X&X X}.}.|.|.|.|.|.|.|.|.|.|.|.|.|.W U &             % Y %X1X3X3X3X3X3X3X3X3X3X3X3X3X3X3X3X3X3X3X3X3X3X3X3X3X3X3X3X3X3X3X3X3X3X3X3X3X3X3X3X3X3X3X3X3X3X3X3X3X3X3X3X4X3X;XQ 5 & & & & & & 4 H E [.[.[.[.[.[.[.{.{.|.|.|.|.|.|.|.|.|.|.|.|.|.|. X|.[.U 2             O ^ lXMXVXVXVXVXVXVXVXVXVXVXVXVXVXVXVXVXVXVXVXVXVXVXVXVXVXVXVXVXVXVXVXVXVXVXVXVXVXVXVXVXVXVXVXVXVXVXVXVXVXVXVXVXVXVXVXVXVXVXVXVXVXVXVXVXVXVXVXVXVXVXVXVXVXVXVXVXVXVXVXVXVXVXVXVXVXVXVXVXVXVXVXVXVXVXVXVXVXVXVXVXVXVXVXVXVXVXVXVXVXVXVXVXVXVXVXVXVXVXVXVX",
"VXVXVXVXVXVXVXVXVXVXVXVXVXVXVXVXVXmXkX^ O                               4 Q :X3X5X3X3X3X3X2X:X&X X}.}.|.|.|.|.|.|.|.|.|.|.|.|.|.[.U 2             % Y %X1X3X3X3X3X3X3X3X3X3X3X3X3X3X3X3X3X3X3X3X3X3X3X3X3X3X3X3X3X3X3X3X3X3X3X3X3X3X3X3X3X3X3X3X3X3X3X3X3X3X3X3X4X2X=XR &             % H W |.@X X|.|.|.|.|.|.|.|.|.|.|.|.|.|.|.|.|.|.|.|. X|.[.U 2             O ^ lXMXVXVXVXVXVXVXVXVXVXVXVXVXVXVXVXVXVXVXVXVXVXVXVXVXVXVXVXVXVXVXVXVXVXVXVXVXVXVXVXVXVXVXVXVXVXVXVXVXVXVXVXVXVXVXVXVXVXVXVXVXVXVXVXVXVXVXVXVXVXVXVXVXVXVXVXVXVXVXVXVXVXVXVXVXVXVXVXVXVXVXVXVXVXVXVXVXVXVXVXVXVXVXVXVXVXVXVXVXVXVXVXVXVXVXVXVXVXVXVXVX",
"VXVXVXVXVXVXVXVXVXVXVXVXVXVXVXVXVXmXkX^ O                               3 Q :X3X5X3X3X3X3X2X:X&X X}.}.|.|.|.|.|.|.|.|.|.|.|. X|.W U 2             % Y %X1X3X3X3X3X3X3X3X3X3X3X3X3X3X3X3X3X3X3X3X3X3X3X3X3X3X3X3X3X3X3X3X3X3X3X3X3X3X3X3X3X3X3X3X3X3X3X3X3X3X3X3X4X3X=XR &             % H W |.@X X|.|.|. X|.|.|.|.|.|.|.|.|.|.|.|.|.|.|.|.|.|.[.U 2             O ^ lXMXVXVXVXVXVXVXVXVXVXVXVXVXVXVXVXVXVXVXVXVXVXVXVXVXVXVXVXVXVXVXVXVXVXVXVXVXVXVXVXVXVXVXVXVXVXVXVXVXVXVXVXVXVXVXVXVXVXVXVXVXVXVXVXVXVXVXVXVXVXVXVXVXVXVXVXVXVXVXVXVXVXVXVXVXVXVXVXVXVXVXVXVXVXVXVXVXVXVXVXVXVXVXVXVXVXVXVXVXVXVXVXVXVXVXVXVXVXVXVXVX",
"VXVXVXVXVXVXVXVXVXVXVXVXVXVXVXVXVXmXkX^ O                               4 Q :X3X4X3X3X3X3X2X:X&X X}.}.|.|.|.|.|.|.|.|.|.|.|. X|.W U 2             % Y %X1X3X3X3X3X3X3X3X3X3X3X3X3X3X3X3X3X3X3X3X3X3X3X3X3X3X3X3X3X3X3X3X3X3X3X3X3X3X3X3X3X3X3X3X3X3X3X3X3X3X3X3X4X3X=XR &             & H W |. X|.|.|.|.|.|.|.|.|.|.|.|.|.|.|.|.|.|.|.|.|.|.|.[.U 2             O ^ lXMXVXVXVXVXVXVXVXVXVXVXVXVXVXVXVXVXVXVXVXVXVXVXVXVXVXVXVXVXVXVXVXVXVXVXVXVXVXVXVXVXVXVXVXVXVXVXVXVXVXVXVXVXVXVXVXVXVXVXVXVXVXVXVXVXVXVXVXVXVXVXVXVXVXVXVXVXVXVXVXVXVXVXVXVXVXVXVXVXVXVXVXVXVXVXVXVXVXVXVXVXVXVXVXVXVXVXVXVXVXVXVXVXVXVXVXVXVXVXVXVX",
"VXVXVXVXVXVXVXVXVXVXVXVXVXVXVXVXVXmXkX9                                 4 XX:X3X4X3X3X3X3X2X:X&X X}.}.|.|.|.|.|.|.|.|.|.|.|. X|.W U &             o Y $X1X4X4X3X3X3X3X3X3X3X3X3X3X3X3X3X3X3X3X3X3X3X3X3X3X3X3X3X3X3X3X3X3X3X3X3X3X3X3X3X3X3X3X3X3X3X3X3X3X3X3X3X4X3X=XR &             & H W |. X|.|.|.|.|.|.|.|.|.|.|.|.|.|.|.|.|.|.|.|.|.|.|.[.U 2             O ^ lXMXVXVXVXVXVXVXVXVXVXVXVXVXVXVXVXVXVXVXVXVXVXVXVXVXVXVXVXVXVXVXVXVXVXVXVXVXVXVXVXVXVXVXVXVXVXVXVXVXVXVXVXVXVXVXVXVXVXVXVXVXVXVXVXVXVXVXVXVXVXVXVXVXVXVXVXVXVXVXVXVXVXVXVXVXVXVXVXVXVXVXVXVXVXVXVXVXVXVXVXVXVXVXVXVXVXVXVXVXVXVXVXVXVXVXVXVXVXVXVXVX",
"VXVXVXVXVXVXVXVXVXVXVXVXVXVXVXVXVXmXkX9                                 4 Q :X3X4X3X3X3X3X2X:X&X X}.}.|.|.|.|.|.|.|.|.|.|.|. X|.W H &             o Y $X1X4X4X3X3X3X3X3X3X3X3X3X3X3X3X3X3X3X3X3X3X3X3X3X3X3X3X3X3X3X3X3X3X3X3X3X3X3X3X3X3X3X3X3X3X3X3X3X3X3X3X3X4X3X=XR &             & H W |. X|.|.|.|.|.|.|.|.|.|.|.|.|.|.|.|.|.|.|.|.|.|.|.[.U 2             O ^ lXMXVXVXVXVXVXVXVXVXVXVXVXVXVXVXVXVXVXVXVXVXVXVXVXVXVXVXVXVXVXVXVXVXVXVXVXVXVXVXVXVXVXVXVXVXVXVXVXVXVXVXVXVXVXVXVXVXVXVXVXVXVXVXVXVXVXVXVXVXVXVXVXVXVXVXVXVXVXVXVXVXVXVXVXVXVXVXVXVXVXVXVXVXVXVXVXVXVXVXVXVXVXVXVXVXVXVXVXVXVXVXVXVXVXVXVXVXVXVXVXVX",
"VXVXVXVXVXVXVXVXVXVXVXVXVXVXVXVXVXmXkX9                                 4 Q :X3X4X3X3X3X3X2X:X&X X}.}.|.|.|.|.|.|.|.|.|.|.|.|.|.W Y &             o Y %X1X3X3X3X3X3X3X3X3X3X3X3X3X3X3X3X3X3X3X3X3X3X3X3X3X3X3X3X3X3X3X3X3X3X3X3X3X3X3X3X3X3X3X3X3X3X3X3X3X3X3X3X4X2X=XR &             & H W |. X|.|.|.|.|.|.|.|.|.|.|.|.|.|.|.|.|.|.|.|.|. X|.[.U 2             O ^ lXMXVXVXVXVXVXVXVXVXVXVXVXVXVXVXVXVXVXVXVXVXVXVXVXVXVXVXVXVXVXVXVXVXVXVXVXVXVXVXVXVXVXVXVXVXVXVXVXVXVXVXVXVXVXVXVXVXVXVXVXVXVXVXVXVXVXVXVXVXVXVXVXVXVXVXVXVXVXVXVXVXVXVXVXVXVXVXVXVXVXVXVXVXVXVXVXVXVXVXVXVXVXVXVXVXVXVXVXVXVXVXVXVXVXVXVXVXVXVXVXVX",
"VXVXVXVXVXVXVXVXVXVXVXVXVXVXVXVXVXmXlX( 7 = 6 6 6 6 6 = O               4 Q :X3X4X3X3X3X3X2X:X&X X}.}.|.|.|.|.|.|.|.|.|.|.|.|.|.[.R 5 3 2 2 2 & & 4 R *X2X3X3X3X3X3X3X3X3X3X3X3X3X3X3X3X3X3X3X3X3X3X3X3X3X3X3X3X3X3X3X3X3X3X3X3X3X3X3X3X3X3X3X3X3X3X3X3X3X3X3X3X4X2X-XR &             & H W }. X|.|.|.|.|.|.|.|.|.|.|.|.|.|.|.|.|.|.|.|.|. X|.[.U 2             O ^ lXMXVXVXVXVXVXVXVXVXVXVXVXVXVXVXVXVXVXVXVXVXVXVXVXVXVXVXVXVXVXVXVXVXVXVXVXVXVXVXVXVXVXVXVXVXVXVXVXVXVXVXVXVXVXVXVXVXVXVXVXVXVXVXVXVXVXVXVXVXVXVXVXVXVXVXVXVXVXVXVXVXVXVXVXVXVXVXVXVXVXVXVXVXVXVXVXVXVXVXVXVXVXVXVXVXVXVXVXVXVXVXVXVXVXVXVXVXVXVXVXVX",
"VXVXVXVXVXVXVXVXVXVXVXVXVXVXVXVXVXMXcXkX] ' ' ' ] ] _ ( 7 O             4 Q ;X3X4X3X3X3X3X2X:X&X X}.|.|.|.|.|.|.|.|.|.|.|.|.|.|.}.[.W Q Q Q Q Q Q Q $X:X2X3X3X3X3X3X3X3X3X3X3X3X3X3X3X3X3X3X3X3X3X3X3X3X3X3X3X3X3X3X3X3X3X3X3X3X3X3X3X3X3X3X3X3X3X3X3X3X3X3X3X3X4X2X=XR &             & H W |. X|.|.|.|.|.|.|.|.|.|.|.|.|.|.|.|.|.|.|.|.|. X|.[.U 2             O ^ lXMXVXVXVXVXVXVXVXVXVXVXVXVXVXVXVXVXVXVXVXVXVXVXVXVXVXVXVXVXVXVXVXVXVXVXVXVXVXVXVXVXVXVXVXVXVXVXVXVXVXVXVXVXVXVXVXVXVXVXVXVXVXVXVXVXVXVXVXVXVXVXVXVXVXVXVXVXVXVXVXVXVXVXVXVXVXVXVXVXVXVXVXVXVXVXVXVXVXVXVXVXVXVXVXVXVXVXVXVXVXVXVXVXVXVXVXVXVXVXVXVX",
"VXVXVXVXVXVXVXVXVXVXVXVXVXVXVXVXVXVXMXnXvXcXvXvXvXvXcXjX^ *             4 Q :X3X4X3X3X3X3X2X:X&X X}.|.|.|.|.|.|.|.|.|.|.|.|.}.|.@X&X*X;X;X-X-X;X;X;X:X1X3X3X3X3X3X3X3X3X3X3X3X3X3X3X3X3X3X3X3X3X3X3X3X3X3X3X3X3X3X3X3X3X3X3X3X3X3X3X3X3X3X3X3X3X3X3X3X3X3X3X3X3X4X2X=XR &             & H W |. X|.|.|.|.|.|.|.|.|.|.|.|.|.|.|.|.|.|.|.|.|. X|.[.U 2             O ^ lXMXVXVXVXVXVXVXVXVXVXVXVXVXVXVXVXVXVXVXVXVXVXVXVXVXVXVXVXVXVXVXVXVXVXVXVXVXVXVXVXVXVXVXVXVXVXVXVXVXVXVXVXVXVXVXVXVXVXVXVXVXVXVXVXVXVXVXVXVXVXVXVXVXVXVXVXVXVXVXVXVXVXVXVXVXVXVXVXVXVXVXVXVXVXVXVXVXVXVXVXVXVXVXVXVXVXVXVXVXVXVXVXVXVXVXVXVXVXVXVXVX",
"VXVXVXVXVXVXVXVXVXVXVXVXVXVXVXVXVXVXVXVXVXVXVXVXVXVXNXxX( *             4 XX:X3X3X3X3X3X3X2X:X&X X}.}.|.|.|.|.|.|.|.|.|.|.|.}.|.@X=X,X3X3X3X3X3X3X3X3X3X3X3X3X3X3X3X3X3X3X3X3X3X3X3X3X3X3X3X3X3X3X3X3X3X3X3X3X3X3X3X3X3X3X3X3X3X3X3X3X3X3X3X3X3X3X3X3X3X3X3X3X3X5X3X-XR &             & H W |. X|.|.|.|.|.|.|.|.|.|.|.|.|.|.|.|.|.|.|.|.|. X|.[.U 2             O ^ lXMXVXVXVXVXVXVXVXVXVXVXVXVXVXVXVXVXVXVXVXVXVXVXVXVXVXVXVXVXVXVXVXVXVXVXVXVXVXVXVXVXVXVXVXVXVXVXVXVXVXVXVXVXVXVXVXVXVXVXVXVXVXVXVXVXVXVXVXVXVXVXVXVXVXVXVXVXVXVXVXVXVXVXVXVXVXVXVXVXVXVXVXVXVXVXVXVXVXVXVXVXVXVXVXVXVXVXVXVXVXVXVXVXVXVXVXVXVXVXVXVX",
"VXVXVXVXVXVXVXVXVXVXVXVXVXVXVXVXVXVXVXVXVXVXVXVXVXVXVXxX_ =             4 XX:X3X3X3X3X3X3X2X:X&X X}.}.|.|.|.|.|.|.|.|.|.|.|.}.|.#X-X<X3X5X5X5X5X4X4X4X3X3X3X3X3X3X3X3X3X3X3X3X3X3X3X3X3X3X3X3X3X3X3X3X3X3X3X3X3X3X3X3X3X3X3X3X3X3X3X3X3X3X3X3X3X3X3X3X3X3X3X3X3X4X3X=XR &             & H W |. X|.|.|.|.|.|.|.|.|.|.|.|.|.|.|.|.|.|.|.|.|. X|.[.U 2             O ^ lXMXVXVXVXVXVXVXVXVXVXVXVXVXVXVXVXVXVXVXVXVXVXVXVXVXVXVXVXVXVXVXVXVXVXVXVXVXVXVXVXVXVXVXVXVXVXVXVXVXVXVXVXVXVXVXVXVXVXVXVXVXVXVXVXVXVXVXVXVXVXVXVXVXVXVXVXVXVXVXVXVXVXVXVXVXVXVXVXVXVXVXVXVXVXVXVXVXVXVXVXVXVXVXVXVXVXVXVXVXVXVXVXVXVXVXVXVXVXVXVXVX",
"VXVXVXVXVXVXVXVXVXVXVXVXVXVXVXVXVXVXVXVXVXVXVXVXVXVXNXxX_ =             4 XX:X3X4X3X3X3X3X2X:X&X X}.}.|.|.|.|.|.|.|.|.|.|.|.}.|.#X=X,X3X4X3X3X3X3X3X3X3X3X3X3X3X3X3X3X3X3X3X3X3X3X3X3X3X3X3X3X3X3X3X3X3X3X3X3X3X3X3X3X3X3X3X3X3X3X3X3X3X3X3X3X3X3X3X3X3X3X3X3X3X4X3X=XR &             & H W |. X|.|.|.|.|.|.|.|.|.|.|.|.|.|.|.|.|.|.|.|.|. X|.[.U 2             O ^ lXMXVXVXVXVXVXVXVXVXVXVXVXVXVXVXVXVXVXVXVXVXVXVXVXVXVXVXVXVXVXVXVXVXVXVXVXVXVXVXVXVXVXVXVXVXVXVXVXVXVXVXVXVXVXVXVXVXVXVXVXVXVXVXVXVXVXVXVXVXVXVXVXVXVXVXVXVXVXVXVXVXVXVXVXVXVXVXVXVXVXVXVXVXVXVXVXVXVXVXVXVXVXVXVXVXVXVXVXVXVXVXVXVXVXVXVXVXVXVXVXVX",
"VXVXVXVXVXVXVXVXVXVXVXVXVXVXVXVXVXVXVXVXVXVXVXVXVXVXNXxX( =             4 XX:X3X5X3X3X3X3X2X:X&X X}.}.|.|.|.|.|.|.|.|.|.|.|.}.|.#X=X,X3X3X3X3X3X3X3X3X3X3X3X3X3X3X3X3X3X3X3X3X3X3X3X3X3X3X3X3X3X3X3X3X3X3X3X3X3X3X3X3X3X3X3X3X3X3X3X3X3X3X3X3X3X3X3X3X3X3X3X3X3X4X3X=XR &             & H W |. X|.|.|.|.|.|.|.|.|.|.|.|.|.|.|.|.|.|.|.|.|. X|.[.U 2             O ^ lXMXVXVXVXVXVXVXVXVXVXVXVXVXVXVXVXVXVXVXVXVXVXVXVXVXVXVXVXVXVXVXVXVXVXVXVXVXVXVXVXVXVXVXVXVXVXVXVXVXVXVXVXVXVXVXVXVXVXVXVXVXVXVXVXVXVXVXVXVXVXVXVXVXVXVXVXVXVXVXVXVXVXVXVXVXVXVXVXVXVXVXVXVXVXVXVXVXVXVXVXVXVXVXVXVXVXVXVXVXVXVXVXVXVXVXVXVXVXVXVXVX",
"VXVXVXVXVXVXVXVXVXVXVXVXVXVXVXVXVXVXVXVXVXVXVXVXVXVXNXxX( =             4 XX:X3X4X3X3X3X3X2X:X&X X}.}.|.|.|.|.|.|.|.|.|.|.|.}.|.#X=X,X3X3X3X3X3X3X3X3X3X3X3X3X3X3X3X3X3X3X3X3X3X3X3X3X3X3X3X3X3X3X3X3X3X3X3X3X3X3X3X3X3X3X3X3X3X3X3X3X3X3X3X3X3X3X3X3X3X3X3X3X3X4X3X=XR &             & H W |. X|.|.|.|.|.|.|.|.|.|.|.|.|.|.|.|.|.|.|.|.|.|.|.[.U 2             O ^ lXMXVXVXVXVXVXVXVXVXVXVXVXVXVXVXVXVXVXVXVXVXVXVXVXVXVXVXVXVXVXVXVXVXVXVXVXVXVXVXVXVXVXVXVXVXVXVXVXVXVXVXVXVXVXVXVXVXVXVXVXVXVXVXVXVXVXVXVXVXVXVXVXVXVXVXVXVXVXVXVXVXVXVXVXVXVXVXVXVXVXVXVXVXVXVXVXVXVXVXVXVXVXVXVXVXVXVXVXVXVXVXVXVXVXVXVXVXVXVXVXVX",
"VXVXVXVXVXVXVXVXVXVXVXVXVXVXVXVXVXVXVXVXVXVXVXVXVXVXNXxX( =             4 XX:X3X5X3X3X3X3X2X:X&X X}.}.|.|.|.|.|.|.|.|.|.|.|.}.|.#X=X,X3X3X3X3X3X3X3X3X3X3X3X3X3X3X3X3X3X3X3X3X3X3X3X3X3X3X3X3X3X3X3X3X3X3X3X3X3X3X3X3X3X3X3X3X3X3X3X3X3X3X3X3X3X3X3X3X3X3X3X3X3X4X3X=XR &             & H W |. X|.|.|.|.|.|.|.|.|.|.|.|.|.|.|.|.|.|.|.|.|.|.|.[.U 2             O ^ lXMXVXVXVXVXVXVXVXVXVXVXVXVXVXVXVXVXVXVXVXVXVXVXVXVXVXVXVXVXVXVXVXVXVXVXVXVXVXVXVXVXVXVXVXVXVXVXVXVXVXVXVXVXVXVXVXVXVXVXVXVXVXVXVXVXVXVXVXVXVXVXVXVXVXVXVXVXVXVXVXVXVXVXVXVXVXVXVXVXVXVXVXVXVXVXVXVXVXVXVXVXVXVXVXVXVXVXVXVXVXVXVXVXVXVXVXVXVXVXVXVX",
"VXVXVXVXVXVXVXVXVXVXVXVXVXVXVXVXVXVXVXVXVXVXVXVXVXVXNXxX( =             4 Q :X3X5X3X3X3X3X2X:X&X X}.}.|.|.|.|.|.|.|.|.|.|.|.}.|.#X=X,X3X3X3X3X3X3X3X3X3X3X3X3X3X3X3X3X3X3X3X3X3X3X3X3X3X3X3X3X3X3X3X3X3X3X3X3X3X3X3X3X3X3X3X3X3X3X3X3X3X3X3X3X3X3X3X3X3X3X3X3X3X4X3X=XR &             & H W |. X|.|.|.|.|.|.|.|.|.|.|.|.|.|.|.|.|.|.|.|.|. X|.[.U 2             O ^ lXMXVXVXVXVXVXVXVXVXVXVXVXVXVXVXVXVXVXVXVXVXVXVXVXVXVXVXVXVXVXVXVXVXVXVXVXVXVXVXVXVXVXVXVXVXVXVXVXVXVXVXVXVXVXVXVXVXVXVXVXVXVXVXVXVXVXVXVXVXVXVXVXVXVXVXVXVXVXVXVXVXVXVXVXVXVXVXVXVXVXVXVXVXVXVXVXVXVXVXVXVXVXVXVXVXVXVXVXVXVXVXVXVXVXVXVXVXVXVXVXVX",
"VXVXVXVXVXVXVXVXVXVXVXVXVXVXVXVXVXVXVXVXVXVXVXVXVXVXNXxX( =             4 Q :X3X5X3X3X3X3X2X:X&X X}.}.|.|.|.|.|.|.|.|.|.|.|.}.|.#X=X,X3X3X3X3X3X3X3X3X3X3X3X3X3X3X3X3X3X3X3X3X3X3X3X3X3X3X3X3X3X3X3X3X3X3X3X3X3X3X3X3X3X3X3X3X3X3X3X3X3X3X3X3X3X3X3X3X3X3X3X3X3X4X2X=XR &             & H W |. X|.|.|.|.|.|.|.|.|.|.|.|.|.|.|.|.|.|.|.|.|.|.|.[.U 2             O ^ lXMXVXVXVXVXVXVXVXVXVXVXVXVXVXVXVXVXVXVXVXVXVXVXVXVXVXVXVXVXVXVXVXVXVXVXVXVXVXVXVXVXVXVXVXVXVXVXVXVXVXVXVXVXVXVXVXVXVXVXVXVXVXVXVXVXVXVXVXVXVXVXVXVXVXVXVXVXVXVXVXVXVXVXVXVXVXVXVXVXVXVXVXVXVXVXVXVXVXVXVXVXVXVXVXVXVXVXVXVXVXVXVXVXVXVXVXVXVXVXVXVX"
};
