/* XPM */
static char *result[] = {
/* columns rows colors chars-per-pixel */
"64 64 122 2 ",
"   c black",
".  c #010101",
"X  c #020202",
"o  c gray1",
"O  c #040404",
"+  c gray2",
"@  c #060606",
"#  c #070707",
"$  c gray3",
"%  c #090909",
"&  c #0E0E0E",
"*  c #111111",
"=  c gray7",
"-  c #131313",
";  c gray9",
":  c #1D1D1D",
">  c gray14",
",  c gray16",
"<  c #2F2F2F",
"1  c #393939",
"2  c gray26",
"3  c #434343",
"4  c #444444",
"5  c #464646",
"6  c #484848",
"7  c gray29",
"8  c #4B4B4B",
"9  c #4C4C4C",
"0  c gray30",
"q  c #4E4E4E",
"w  c gray31",
"e  c #505050",
"r  c #515151",
"t  c gray32",
"y  c #535353",
"u  c gray33",
"i  c #555555",
"p  c #565656",
"a  c gray34",
"s  c #585858",
"d  c gray35",
"f  c #5A5A5A",
"g  c #5B5B5B",
"h  c gray36",
"j  c #5D5D5D",
"k  c #606060",
"l  c gray38",
"z  c #646464",
"x  c #656565",
"c  c #6F6F6F",
"v  c gray44",
"b  c #717171",
"n  c #767676",
"m  c #777777",
"M  c #797979",
"N  c gray48",
"B  c #7B7B7B",
"V  c #7E7E7E",
"C  c gray50",
"Z  c #808080",
"A  c #838383",
"S  c #848484",
"D  c gray52",
"F  c gray53",
"G  c #888888",
"H  c #898989",
"J  c #8B8B8B",
"K  c gray57",
"L  c #929292",
"P  c gray58",
"I  c #959595",
"U  c #989898",
"Y  c gray60",
"T  c #9D9D9D",
"R  c gray62",
"E  c #A0A0A0",
"W  c gray63",
"Q  c #A2A2A2",
"!  c gray64",
"~  c #A5A5A5",
"^  c #A7A7A7",
"/  c gray67",
"(  c #AFAFAF",
")  c #B2B2B2",
"_  c gray71",
"`  c #B6B6B6",
"'  c #B7B7B7",
"]  c gray72",
"[  c #B9B9B9",
"{  c #BCBCBC",
"}  c gray74",
"|  c #C0C0C0",
" . c #C1C1C1",
".. c gray78",
"X. c #CACACA",
"o. c gray80",
"O. c gray81",
"+. c gray82",
"@. c gray83",
"#. c #D5D5D5",
"$. c gray84",
"%. c #D7D7D7",
"&. c #D8D8D8",
"*. c gray85",
"=. c #DADADA",
"-. c gray86",
";. c gainsboro",
":. c #DDDDDD",
">. c gray87",
",. c #DFDFDF",
"<. c #E2E2E2",
"1. c gray89",
"2. c #E4E4E4",
"3. c gray90",
"4. c #E6E6E6",
"5. c #E7E7E7",
"6. c gray91",
"7. c #ECECEC",
"8. c gray96",
"9. c gray97",
"0. c #F9F9F9",
"q. c gray98",
/* pixels */
"0.T s y u u u u u u u u u u u u u u u u u u u u u u u u u u u u u u u u u u u u u u u u u u u u u u u u u u u u u u u u u s R q.",
"Q 4 u u u u u u u u u u u u u u u u u u u u u u u u u u u u u u u u u u u u u u u u u u u u u u u u u u u u u u u u u u u u 4 ! ",
"j u i u u u a a a a a a a a a a a a a a a a a a a a a a a a a a a a a a a a a a a a a a a a a a a a a a a a a a a a p u u i y h ",
"u u u u i t 4 3 4 4 4 4 4 4 4 4 4 4 4 4 4 4 4 4 4 4 4 4 4 4 4 4 4 4 4 4 4 4 4 4 4 4 4 4 4 4 4 4 4 4 4 4 4 4 4 4 4 2 0 p u u u y ",
"i u u i e h ( [ _ ` ` ` ` ` ` ` ` ` ` ` ` ` ` ` ` ` ` ` ` ` ` ` ` ` ` ` ` ` ` ` ` ` ` ` ` ` ` ` ` ` ` ` ` ` ` ` _ } B 9 p u u i ",
"u u i y f +.Q c b b b b b b b b b b b b b b b b b b b b b b b b b b b b b b b b b b b b b b b b b b b b b b b b v C %.D 8 p u u ",
"u u a 4 / E   o                                                                                                 o   5 @.y y u u ",
"u u a 3 ] M   $ O O O O O O O O O O O O O O O O O O O O O O O O O O O O O O O O O O O O O O O O O O O O O O O O +   * 3.l r i u ",
"u u a 3 ` m   O                                                                                                 .   * 4.k r i u ",
"u u a 3 ' m   O                                                                                                 .   * 4.k r i u ",
"u u a 3 ' m   O                                                                                                 .   * 4.k r i u ",
"u u a 3 ' m   O                                                                                                 .   * 4.k r i u ",
"u u a 3 ' m   O                                                                                                 .   * 4.k r i u ",
"u u a 3 ' m   O                                                                                                 .   * 4.k r i u ",
"u u a 3 ' m   O                                                                                                 .   * 4.k r i u ",
"u u a 3 ' m   O                                                                                                 .   * 4.k r i u ",
"u u a 3 ' m   O                                                                                                 .   * 4.k r i u ",
"u u a 3 ' m   O                                                                                                 .   * 4.k r i u ",
"u u a 3 ' m   O                                                                                                 .   * 4.k r i u ",
"u u a 3 ' m   O                                                                                                 .   * 4.k r i u ",
"u u a 3 ' m   O                                                                                                 .   * 4.k r i u ",
"u u a 3 ' m   O                                                                                                 .   * 4.k r i u ",
"u u a 3 ' m   O                                                                                                 .   * 4.k r i u ",
"u u a 3 ' m   O                                                                                                 .   * 4.k r i u ",
"u u a 3 ' m   O                                                                                                 .   * 4.k r i u ",
"u u a 3 ' m   O                                                                                                 .   * 4.k r i u ",
"u u a 3 ' m   O                                                                                                 .   * 4.k r i u ",
"u u a 3 ' m   O                                                                                                 .   * 4.k r i u ",
"u u a 3 ' m   O                                                   .                                             .   * 4.k r i u ",
"u u a 3 ' m   O                                                     .                                           .   * 4.k r i u ",
"u u a 3 ' m   O                                                   ; O   .                                       .   * 4.k r i u ",
"u u a 3 ' m   O                                   X X X X X X O   V n   X .                                     .   * 4.k r i u ",
"u u a 3 ' m   O                                               o   M 8.N . . X                                   .   * 4.k r i u ",
"u u a 3 ' m   O                                 + N J F G G G H A _ :.4.L %   X                                 .   * 4.k r i u ",
"u u a 3 ' m   O                             .   % O.7.4.5.5.5.5.6.,.&.$.5.^ -   .                               .   * 4.k r i u ",
"u u a 3 ' m   O                             .   $ | -.#.$.$.$.$.$.%.*.*.$.1.{ ,   X                             .   * 4.k r i u ",
"u u a 3 ' m   O                             .   $  .;.$.%.%.%.%.%.&.*.*.$.;.;.3   X                             .   * 4.k r i u ",
"u u a 3 ' m   O                             .   % o.6.<.1.1.1.1.2.>.&.$.1...<   X                               .   * 4.k r i u ",
"u u a 3 ' m   O                             .   @ K ~ E W W W Q R | =.4.) :   X                                 .   * 4.k r i u ",
"u u a 3 ' m   O                                               o   M 9.U &   o                                   .   * 4.k r i u ",
"u u a 3 ' m   O                                               o   S P     X                                     .   * 4.k r i u ",
"u u a 3 ' m   O                                                   > $   X                                       .   * 4.k r i u ",
"u u a 3 ' m   O                                                     . .                                         .   * 4.k r i u ",
"u u a 3 ' m   O                                                   X .                                           .   * 4.k r i u ",
"u u a 3 ' m   O                                                                                                 .   * 4.k r i u ",
"u u a 3 ' m   O                                                                                                 .   * 4.k r i u ",
"u u a 3 ' m   O                                                                                                 .   * 4.k r i u ",
"u u a 3 ' m   O                                                                                                 .   * 4.k r i u ",
"u u a 3 ' m   O                                                                                                 .   * 4.k r i u ",
"u u a 3 ' m   O                                                                                                 .   * 4.k r i u ",
"u u a 3 ' m   O                                                                                                 .   * 4.k r i u ",
"u u a 3 ' m   O                                                                                                 .   * 4.k r i u ",
"u u a 3 ' m   O                                                                                                 .   * 4.k r i u ",
"u u a 3 ' m   O                                                                                                 .   * 4.k r i u ",
"u u a 3 ' m   O                                                                                                 .   * 4.k r i u ",
"u u a 3 ' m   O                                                                                                 .   * 4.k r i u ",
"u u a 3 ] m   # o o o o o o o o o o o o o o o o o o o o o o o o o o o o o o o o o o o o o o o o o o o o o o o o O   = 4.l e i u ",
"u u a 3 ) Y   O                                                                                                 X   1 %.p y u u ",
"u u i r z #.Z 7 q 0 0 0 0 0 0 0 0 0 0 0 0 0 0 0 0 0 0 0 0 0 0 0 0 0 0 0 0 0 0 0 0 0 0 0 0 0 0 0 0 0 0 0 0 0 0 0 0 d X.I 7 p u u ",
"i u u i w x U J J J J J J J J J J J J J J J J J J J J J J J J J J J J J J J J J J J J J J J J J J J J J J J J J H I V 0 i u u i ",
"y u u u i e 5 6 6 6 6 6 6 6 6 6 6 6 6 6 6 6 6 6 6 6 6 6 6 6 6 6 6 6 6 6 6 6 6 6 6 6 6 6 6 6 6 6 6 6 6 6 6 6 6 6 6 5 9 p u u u y ",
"g u i u u i p p p p p p p p p p p p p p p p p p p p p p p p p p p p p p p p p p p p p p p p p p p p p p p p p p p p i u u i u j ",
"Q 4 u u u u u u u u u u u u u u u u u u u u u u u u u u u u u u u u u u u u u u u u u u u u u u u u u u u u u u u u u u u u 4 ! ",
"0.R s y u u u u u u u u u u u u u u u u u u u u u u u u u u u u u u u u u u u u u u u u u u u u u u u u u u u u u u u u y s T 0."
};
