/* XPM */
static char *result[] = {
/* columns rows colors chars-per-pixel */
"64 64 121 2 ",
"   c black",
".  c #010101",
"X  c #020202",
"o  c gray1",
"O  c #040404",
"+  c gray2",
"@  c #070707",
"#  c gray3",
"$  c #0B0B0B",
"%  c #101010",
"&  c #111111",
"*  c gray7",
"=  c #131313",
"-  c #151515",
";  c #181818",
":  c #202020",
">  c #222222",
",  c gray18",
"<  c #373737",
"1  c #393939",
"2  c #3E3E3E",
"3  c gray25",
"4  c gray26",
"5  c #434343",
"6  c #444444",
"7  c #464646",
"8  c #484848",
"9  c #494949",
"0  c gray29",
"q  c #4B4B4B",
"w  c #4C4C4C",
"e  c gray30",
"r  c #4E4E4E",
"t  c gray31",
"y  c #505050",
"u  c #515151",
"i  c gray32",
"p  c #535353",
"a  c gray33",
"s  c #555555",
"d  c #565656",
"f  c gray34",
"g  c #585858",
"h  c gray35",
"j  c #5A5A5A",
"k  c #5B5B5B",
"l  c gray36",
"z  c #5D5D5D",
"x  c #606060",
"c  c gray38",
"v  c gray39",
"b  c #646464",
"n  c #656565",
"m  c #676767",
"M  c #686868",
"N  c #6F6F6F",
"B  c gray44",
"V  c #717171",
"C  c gray45",
"Z  c #777777",
"A  c #797979",
"S  c #7B7B7B",
"D  c #7E7E7E",
"F  c gray50",
"G  c #808080",
"H  c gray52",
"J  c #868686",
"K  c #888888",
"L  c #898989",
"P  c #8B8B8B",
"I  c gray57",
"U  c #929292",
"Y  c #959595",
"T  c #989898",
"R  c gray60",
"E  c #9D9D9D",
"W  c gray62",
"Q  c #9F9F9F",
"!  c #A0A0A0",
"~  c gray63",
"^  c #A2A2A2",
"/  c gray64",
"(  c gray66",
")  c gray67",
"_  c #ACACAC",
"`  c #AFAFAF",
"'  c #B2B2B2",
"]  c gray71",
"[  c #B6B6B6",
"{  c #B7B7B7",
"}  c gray72",
"|  c #B9B9B9",
" . c gray74",
".. c #C1C1C1",
"X. c #C8C8C8",
"o. c #CACACA",
"O. c gray82",
"+. c LightGray",
"@. c gray83",
"#. c #D5D5D5",
"$. c gray84",
"%. c #D7D7D7",
"&. c #D8D8D8",
"*. c gray85",
"=. c #DADADA",
"-. c gray86",
";. c gainsboro",
":. c #DDDDDD",
">. c gray88",
",. c #E1E1E1",
"<. c #E2E2E2",
"1. c gray89",
"2. c #E4E4E4",
"3. c gray90",
"4. c #E6E6E6",
"5. c #E7E7E7",
"6. c gray91",
"7. c gray95",
"8. c gray97",
"9. c #F9F9F9",
"0. c gray98",
/* pixels */
"9.E g p a a a a a a a a a a a a a a a a a a a a a a a a a a a a a a a a a a a a a a a a a a a a a a a a a a a a a a a a a g W 0.",
"^ 6 a a a a a a a a a a a a a a a a a a a a a a a a a a a a a a a a a a a a a a a a a a a a a a a a a a a a a a a a a a a a 6 / ",
"z a s a a a f f f f f f f f f f f f f f f f f f f f f f f f f f f f f f f f f f f f f f f f f f f f f f f f f f f f d a a s p l ",
"a a a a s i 6 5 6 6 6 6 6 6 6 6 6 6 6 6 6 6 6 6 6 6 6 6 6 6 6 6 6 6 6 6 6 6 6 6 6 6 6 6 6 6 6 6 6 6 6 6 6 6 6 6 6 4 e d a a a p ",
"s a a s y l ` | ] [ [ [ [ [ [ [ [ [ [ [ [ [ [ [ [ [ [ [ [ [ [ [ [ [ [ [ [ [ [ [ [ [ [ [ [ [ [ [ [ [ [ [ [ [ [ [ ]  .S w d a a s ",
"a a s p j O.^ N V V V V V V V V V V V V V V V V V V V V V V V V V V V V V V V V V V V V V V V V V V V V V V V V B F %.H q d a a ",
"a a f 6 ) !   o                                                                                                 o   7 @.p p a a ",
"a a f 5 } A   # O O O O O O O O O O O O O O O O O O O O O O O O O O O O O O O O O O O O O O O O O O O O O O O O +   & 3.c u s a ",
"a a f 5 [ Z   O                                                                                                 .   & 4.x u s a ",
"a a f 5 { Z   O                                                                                                 .   & 4.x u s a ",
"a a f 5 { Z   O                                                                                                 .   & 4.x u s a ",
"a a f 5 { Z   O                                                                                                 .   & 4.x u s a ",
"a a f 5 { Z   O                                                                                                 .   & 4.x u s a ",
"a a f 5 { Z   O                                                                                                 .   & 4.x u s a ",
"a a f 5 { Z   O                                                                                                 .   & 4.x u s a ",
"a a f 5 { Z   O                                                                                                 .   & 4.x u s a ",
"a a f 5 { Z   O                                                                                                 .   & 4.x u s a ",
"a a f 5 { Z   O                                                                                                 .   & 4.x u s a ",
"a a f 5 { Z   O                                                                                                 .   & 4.x u s a ",
"a a f 5 { Z   O                                                                                                 .   & 4.x u s a ",
"a a f 5 { Z   O                                             X .                                                 .   & 4.x u s a ",
"a a f 5 { Z   O                                           X                                                     .   & 4.x u s a ",
"a a f 5 { Z   O                                         o   : %                                                 .   & 4.x u s a ",
"a a f 5 { Z   O                                     . o   < ..:   .                                             .   & 4.x u s a ",
"a a f 5 { Z   O                                   . o   9 *.&.;   .                                             .   & 4.x u s a ",
"a a f 5 { Z   O                                 . X   v >.;.#.( ! ~ ~ ~ ~ Q _ 9   o                             .   & 4.x u s a ",
"a a f 5 { Z   O                                   . F 4.*.%.=.<.1.1.1.1.1.>.7.m   O                             .   & 4.x u s a ",
"a a f 5 { Z   O                             .   O W 6.#.&.*.*.%.%.%.%.%.%.@.3.c   O                             .   & 4.x u s a ",
"a a f 5 { Z   O                                   C ,.=.%.*.*.$.$.$.$.$.$.+.2.c   O                             .   & 4.x u s a ",
"a a f 5 { Z   O                                 .   s :.:.$.=.3.5.5.5.5.5.2.8.M   O                             .   & 4.x u s a ",
"a a f 5 { Z   O                                   o   3 +.,.+.U J K K K K J I 2   X                             .   & 4.x u s a ",
"a a f 5 { Z   O                                     o   , X.-.-   .                                             .   & 4.x u s a ",
"a a f 5 { Z   O                                       o   : _ >   o X X X X X .                                 .   & 4.x u s a ",
"a a f 5 { Z   O                                         X   = $                                                 .   & 4.x u s a ",
"a a f 5 { Z   O                                           . .                                                   .   & 4.x u s a ",
"a a f 5 { Z   O                                             .                                                   .   & 4.x u s a ",
"a a f 5 { Z   O                                                                                                 .   & 4.x u s a ",
"a a f 5 { Z   O                                                                                                 .   & 4.x u s a ",
"a a f 5 { Z   O                                                                                                 .   & 4.x u s a ",
"a a f 5 { Z   O                                                                                                 .   & 4.x u s a ",
"a a f 5 { Z   O                                                                                                 .   & 4.x u s a ",
"a a f 5 { Z   O                                                                                                 .   & 4.x u s a ",
"a a f 5 { Z   O                                                                                                 .   & 4.x u s a ",
"a a f 5 { Z   O                                                                                                 .   & 4.x u s a ",
"a a f 5 { Z   O                                                                                                 .   & 4.x u s a ",
"a a f 5 { Z   O                                                                                                 .   & 4.x u s a ",
"a a f 5 { Z   O                                                                                                 .   & 4.x u s a ",
"a a f 5 { Z   O                                                                                                 .   & 4.x u s a ",
"a a f 5 { Z   O                                                                                                 .   & 4.x u s a ",
"a a f 5 { Z   O                                                                                                 .   & 4.x u s a ",
"a a f 5 { Z   O                                                                                                 .   & 4.x u s a ",
"a a f 5 { Z   O                                                                                                 .   & 4.x u s a ",
"a a f 5 { Z   O                                                                                                 .   & 4.x u s a ",
"a a f 5 { Z   O                                                                                                 .   & 4.x u s a ",
"a a f 5 { Z   O                                                                                                 .   & 4.x u s a ",
"a a f 5 { Z   O                                                                                                 .   & 4.x u s a ",
"a a f 5 } Z   @ o o o o o o o o o o o o o o o o o o o o o o o o o o o o o o o o o o o o o o o o o o o o o o o o O   * 4.c y s a ",
"a a f 5 ' R   O                                                                                                 X   1 %.d p a a ",
"a a s u b #.G 0 r e e e e e e e e e e e e e e e e e e e e e e e e e e e e e e e e e e e e e e e e e e e e e e e e h o.Y 0 d a a ",
"s a a s t n T P P P P P P P P P P P P P P P P P P P P P P P P P P P P P P P P P P P P P P P P P P P P P P P P P L Y D e s a a s ",
"p a a a s y 7 8 8 8 8 8 8 8 8 8 8 8 8 8 8 8 8 8 8 8 8 8 8 8 8 8 8 8 8 8 8 8 8 8 8 8 8 8 8 8 8 8 8 8 8 8 8 8 8 8 8 7 w d a a a p ",
"k a s a a s d d d d d d d d d d d d d d d d d d d d d d d d d d d d d d d d d d d d d d d d d d d d d d d d d d d d s a a s a z ",
"^ 6 a a a a a a a a a a a a a a a a a a a a a a a a a a a a a a a a a a a a a a a a a a a a a a a a a a a a a a a a a a a a 6 / ",
"9.W g p a a a a a a a a a a a a a a a a a a a a a a a a a a a a a a a a a a a a a a a a a a a a a a a a a a a a a a a a p g E 9."
};
