/* XPM */
static char *result[] = {
/* columns rows colors chars-per-pixel */
"64 64 172 2 ",
"   c black",
".  c #010101",
"X  c gray1",
"o  c gray2",
"O  c #070707",
"+  c gray3",
"@  c #090909",
"#  c gray4",
"$  c #0B0B0B",
"%  c #0C0C0C",
"&  c gray5",
"*  c #0E0E0E",
"=  c gray6",
"-  c #111111",
";  c gray7",
":  c #131313",
">  c gray8",
",  c #151515",
"<  c #161616",
"1  c #191919",
"2  c #1D1D1D",
"3  c gray12",
"4  c gray13",
"5  c #222222",
"6  c #282828",
"7  c gray19",
"8  c #323232",
"9  c gray21",
"0  c #373737",
"q  c #3E3E3E",
"w  c gray25",
"e  c #444444",
"r  c gray27",
"t  c #464646",
"y  c gray28",
"u  c #484848",
"i  c #494949",
"p  c #4B4B4B",
"a  c #4C4C4C",
"s  c #4E4E4E",
"d  c gray31",
"f  c #505050",
"g  c #515151",
"h  c gray32",
"j  c #535353",
"k  c gray33",
"l  c #555555",
"z  c #565656",
"x  c gray34",
"c  c #585858",
"v  c #5A5A5A",
"b  c #5B5B5B",
"n  c gray36",
"m  c #5D5D5D",
"M  c gray37",
"N  c #626262",
"B  c #646464",
"V  c #656565",
"C  c gray40",
"Z  c #686868",
"A  c #6D6D6D",
"S  c #6F6F6F",
"D  c gray45",
"F  c #747474",
"G  c gray46",
"H  c #777777",
"J  c gray47",
"K  c gray48",
"L  c #7B7B7B",
"P  c gray49",
"I  c #808080",
"U  c #818181",
"Y  c gray51",
"T  c gray52",
"R  c #868686",
"E  c gray53",
"W  c #888888",
"Q  c #898989",
"!  c gray54",
"~  c #8E8E8E",
"^  c gray56",
"/  c #909090",
"(  c gray57",
")  c #929292",
"_  c #959595",
"`  c #9B9B9B",
"'  c gray61",
"]  c #9D9D9D",
"[  c gray62",
"{  c #A0A0A0",
"}  c gray63",
"|  c #A2A2A2",
" . c gray64",
".. c #A5A5A5",
"X. c gray65",
"o. c #A7A7A7",
"O. c gray66",
"+. c #A9A9A9",
"@. c gray67",
"#. c #ACACAC",
"$. c gray68",
"%. c #AEAEAE",
"&. c #AFAFAF",
"*. c gray69",
"=. c #B1B1B1",
"-. c gray70",
";. c gray71",
":. c #B6B6B6",
">. c #B7B7B7",
",. c gray72",
"<. c gray73",
"1. c #BBBBBB",
"2. c gray74",
"3. c gray",
"4. c gray75",
"5. c #C0C0C0",
"6. c #C1C1C1",
"7. c #C3C3C3",
"8. c #C5C5C5",
"9. c #C6C6C6",
"0. c gray78",
"q. c #C8C8C8",
"w. c #CACACA",
"e. c #CBCBCB",
"r. c gray80",
"t. c #CDCDCD",
"y. c #CECECE",
"u. c gray81",
"i. c #D0D0D0",
"p. c gray82",
"a. c #D2D2D2",
"s. c LightGray",
"d. c gray83",
"f. c #D5D5D5",
"g. c gray84",
"h. c #D7D7D7",
"j. c #D8D8D8",
"k. c gray85",
"l. c #DADADA",
"z. c gray86",
"x. c gainsboro",
"c. c #DDDDDD",
"v. c gray87",
"b. c #DFDFDF",
"n. c gray88",
"m. c #E1E1E1",
"M. c #E2E2E2",
"N. c gray89",
"B. c #E4E4E4",
"V. c gray90",
"C. c #E6E6E6",
"Z. c #E7E7E7",
"A. c #E9E9E9",
"S. c #EAEAEA",
"D. c gray92",
"F. c #ECECEC",
"G. c gray93",
"H. c #EEEEEE",
"J. c #EFEFEF",
"K. c gray94",
"L. c gray95",
"P. c #F3F3F3",
"I. c #F4F4F4",
"U. c gray96",
"Y. c #F6F6F6",
"T. c gray97",
"R. c #F8F8F8",
"E. c #F9F9F9",
"W. c gray98",
"Q. c #FBFBFB",
"!. c gray99",
"~. c white",
/* pixels */
"E.] c j k k k k k k k k k k k k k k k k k k k k k k k k k k k k k k k k k k k k k k k k k k k k k k k k k k k k k k k k k c [ W.",
"| e k k k k k k k k k k k k k k k k k k k k k k k k k k k k k k k k k k k k k k k k k k k k k k k k k k k k k k k k k k k k e  .",
"m k l k k l x x x x x x x x x x x x x x x x x x x x x x x x x x x x x x x x x x x x x x x x x x x x x x x x x x x x z k k l j n ",
"k k k k l f t t t t t t t t t t t t t t t t t t t t t t t t t t t t t t t t t t t t t t t t t t t t t t t t t t t r p l k k k j ",
"l k k l s Z @.%.$.$.$.$.$.$.$.$.$.$.$.$.$.$.$.$.$.$.$.$.$.$.$.$.$.$.$.$.$.$.$.$.$.$.$.$.$.$.$.$.$.$.$.$.$.$.$.$.#.=.R s l k k l ",
"k k l g B C.~.U.Y.Y.Y.Y.Y.Y.Y.Y.Y.Y.Y.Y.Y.Y.Y.Y.Y.Y.Y.Y.Y.Y.Y.Y.Y.Y.Y.Y.Y.Y.Y.Y.Y.Y.Y.Y.Y.Y.Y.Y.Y.Y.Y.Y.Y.Y.Y.Y.Y.T.~.) a z k k ",
"k k x t o.!.u.s.s.s.s.s.s.s.s.s.s.s.s.s.s.s.s.s.s.s.s.s.s.s.s.s.s.s.s.s.s.s.s.s.s.s.s.s.s.s.s.s.s.s.s.s.s.s.s.s.s.i.C.C.c j k k ",
"k k x t $.U.d.z.l.l.l.l.l.l.l.l.l.l.l.l.l.l.l.l.l.l.l.l.l.l.l.l.l.l.l.l.l.l.l.l.l.l.l.l.l.l.l.l.l.l.l.l.l.l.l.l.l.k.c.P.M g l k ",
"k k x t #.T.s.l.k.k.k.k.k.k.k.k.k.k.k.k.k.k.k.k.k.k.k.k.k.k.k.k.k.k.k.k.k.k.k.k.k.k.k.k.k.k.k.k.k.k.k.k.k.k.k.k.k.j.v.P.M g l k ",
"k k x t $.T.s.l.k.k.k.k.k.k.k.k.k.k.k.k.k.k.k.k.k.k.k.k.k.k.k.k.k.k.k.k.k.k.k.k.k.k.k.k.k.k.k.k.k.k.k.k.k.k.k.k.k.j.v.I.M g l k ",
"k k x t $.T.s.l.k.k.k.k.k.k.k.k.k.k.k.k.k.k.k.k.k.k.k.k.k.k.k.k.k.k.k.k.k.k.k.k.k.k.k.k.k.k.k.k.k.k.k.k.k.k.k.k.k.j.v.I.M g l k ",
"k k x t $.T.s.l.k.k.k.k.k.k.k.k.k.k.k.k.k.k.k.k.k.k.k.k.k.k.k.k.k.k.k.k.k.k.k.k.k.k.k.k.k.k.k.k.k.k.k.k.k.k.k.k.k.j.v.I.M g l k ",
"k k x t $.T.s.l.k.k.k.k.k.k.k.k.k.k.k.k.k.k.k.k.k.k.k.k.k.k.k.k.k.k.k.k.k.k.k.k.k.k.k.k.k.k.k.k.k.k.k.k.k.k.k.k.k.j.v.I.M g l k ",
"k k x t $.T.s.l.k.k.k.k.k.k.k.k.k.k.k.k.k.k.k.k.k.k.k.k.k.k.k.k.k.k.k.k.k.k.k.k.k.k.k.k.k.k.k.k.k.k.k.k.k.k.k.k.k.j.v.I.M g l k ",
"k k x t $.T.s.l.k.k.k.k.k.k.k.k.k.k.k.k.k.k.k.k.k.k.k.k.k.k.k.k.k.k.k.k.k.k.k.k.k.k.k.k.k.k.k.k.k.k.k.k.k.k.k.k.k.j.v.I.M g l k ",
"k k x t $.T.s.l.k.k.k.k.k.k.k.k.k.k.k.k.k.k.k.k.k.k.k.k.k.k.k.k.k.k.k.k.k.k.k.k.k.k.k.k.k.k.k.k.k.k.k.k.k.k.k.k.k.j.v.I.M g l k ",
"k k x t $.T.s.l.k.k.k.k.k.k.k.k.k.k.k.k.k.k.k.k.k.k.k.k.k.k.k.k.k.k.k.k.k.k.k.k.k.k.k.k.k.k.k.k.k.k.k.k.k.k.k.k.k.j.v.I.M g l k ",
"k k x t $.T.s.l.k.k.k.k.k.k.k.k.k.k.k.k.k.k.k.k.k.k.k.k.k.k.k.k.k.k.k.k.k.k.k.k.k.k.k.k.k.k.k.k.k.k.k.k.k.k.k.k.k.j.v.I.M g l k ",
"k k x t $.T.s.l.k.k.k.k.k.k.k.k.k.k.k.k.k.k.k.k.k.k.k.k.k.k.k.k.k.k.k.k.k.k.k.k.k.k.k.k.k.k.k.k.k.k.k.k.k.k.k.k.k.j.v.I.M g l k ",
"k k x t $.T.s.l.k.k.k.k.k.k.k.k.k.k.k.k.k.k.k.k.k.k.k.k.k.k.k.k.k.k.k.k.k.k.k.k.k.k.k.k.k.k.k.k.k.k.k.k.k.k.k.k.k.j.v.I.M g l k ",
"k k x t $.T.s.l.k.k.k.k.k.k.k.k.k.k.k.k.k.k.k.k.k.k.k.k.k.k.k.k.k.k.k.k.k.k.k.k.k.k.k.k.k.k.k.k.k.k.k.k.k.k.k.k.k.j.v.I.M g l k ",
"k k x t $.T.s.l.k.k.k.k.k.k.k.k.k.k.k.k.k.k.k.k.k.k.k.k.k.k.k.k.k.k.k.k.k.k.k.k.k.k.k.k.k.k.k.k.k.k.k.k.k.k.k.k.k.j.v.I.M g l k ",
"k k x t $.T.s.l.k.k.k.k.k.k.k.k.k.k.k.k.k.k.k.k.k.k.j.g.k.k.k.k.k.j.h.k.k.k.k.j.g.j.k.k.k.k.k.k.k.k.k.k.k.k.k.k.k.j.v.I.M g l k ",
"k k x t $.T.s.l.k.k.k.k.k.k.k.k.k.k.k.k.g.j.k.h.h.j.v.Z.l.k.k.k.k.l.B.z.k.k.h.c.A.M.h.k.k.k.k.k.k.k.k.k.k.k.k.k.k.j.v.I.M g l k ",
"k k x t $.T.s.l.k.k.k.k.k.k.k.k.k.k.k.j.C.N.v.C.B.c.4.Q f.l.k.k.l.f.| a.z.h.M.9.L  .B.k.k.k.k.k.k.k.k.k.k.k.k.k.k.j.v.I.M g l k ",
"k k x t $.T.s.l.k.k.k.k.k.k.k.k.k.k.k.v.! 0 7 q _ G.F @ s.l.h.g.V.~   ( M.b.] $ % P f.y.k.j.k.k.k.k.k.k.k.k.k.k.k.j.v.I.M g l k ",
"k k x t $.T.s.l.k.k.k.k.k.k.k.k.k.g.V.Y O A P r N K.J - h.B.x.g.c.9.G 9.m.u.; b Z.q.1 | C.j.k.k.k.k.k.k.k.k.k.k.k.j.v.I.M g l k ",
"k k x t $.T.s.l.k.k.k.k.k.k.k.k.k.j.M.9 u ~.D.V.l.S.P < u.-.w.N.j.z.c.j.b.} O 2.n.,.O ] v.d.k.k.k.k.k.k.k.k.k.k.k.j.v.I.M g l k ",
"k k x t $.T.s.l.k.k.k.k.k.k.k.k.k.h.V.C   I h.B.h.C.T O 8 + $ W C.,.< $.V , o 6 2 2 o 5 3 K V.g.k.k.k.k.k.k.k.k.k.j.v.I.M g l k ",
"k k x t $.T.s.l.k.k.k.k.k.k.k.k.k.j.x.i.x X > F f.A.E @ O.r.h # g.:.o +.e.P O { $.` @ U -.5.x.j.k.k.k.k.k.k.k.k.k.j.v.I.M g l k ",
"k k x t $.T.s.l.k.k.k.k.k.k.k.k.k.k.j.k.m.7.J $ w S.E < l.S.;.O 1.6.O O.P.o.@ y.F.d.# ..F.z.j.k.k.k.k.k.k.k.k.k.k.j.v.I.M g l k ",
"k k x t $.T.s.l.k.k.k.k.k.k.k.k.k.k.k.V.M.b.R.X.  9.( > p.m.,.# :.8.+ O.S.} $ 8.b.e.% ..Z.j.k.k.k.k.k.k.k.k.k.k.k.j.v.I.M g l k ",
"k k x t $.T.s.l.k.k.k.k.k.k.k.k.k.k.l.U ] r.s.H & f.~ : a.M.<.@ :.0.O O.F. .# 9.m.p.* C i.t.l.k.k.k.k.k.k.k.k.k.k.j.v.I.M g l k ",
"k k x t $.T.s.l.k.k.k.k.k.k.k.k.k.k.l.d o & @ = ! H.^ 4 s.m.3., >.w.> @.S.O.< 0.x.b.S . o T Z.g.k.k.k.k.k.k.k.k.k.j.v.I.M g l k ",
"k k x t $.T.s.l.k.k.k.k.k.k.k.k.k.k.l.b.9. .' w.M.k.f.y.k.k.h.y.h.j.y.g.l.g.y.j.k.l.b.3.*.y.z.k.k.k.k.k.k.k.k.k.k.j.v.I.M g l k ",
"k k x t $.T.s.l.k.k.k.k.k.k.k.k.k.k.k.k.v.N.B.x.h.k.l.x.k.k.k.x.l.k.x.l.k.l.x.k.k.k.j.b.m.x.k.k.k.k.k.k.k.k.k.k.k.j.v.I.M g l k ",
"k k x t $.T.s.l.k.k.k.k.k.k.k.k.k.k.k.k.j.h.h.j.k.k.k.j.k.k.k.j.k.k.j.k.k.k.j.k.k.k.k.j.h.j.k.k.k.k.k.k.k.k.k.k.k.j.v.I.M g l k ",
"k k x t $.T.s.l.k.k.k.k.k.k.k.k.k.k.k.k.k.k.k.k.k.k.k.k.k.k.k.k.k.k.k.k.k.k.k.k.k.k.k.k.k.k.k.k.k.k.k.k.k.k.k.k.k.j.v.I.M g l k ",
"k k x t $.T.s.l.k.k.k.k.k.k.k.k.k.k.k.k.k.k.k.k.k.k.k.k.k.k.k.k.k.k.k.k.k.k.k.k.k.k.k.k.k.k.k.k.k.k.k.k.k.k.k.k.k.j.v.I.M g l k ",
"k k x t $.T.s.l.k.k.k.k.k.k.k.k.k.k.k.k.k.k.k.k.k.k.k.k.k.k.k.k.k.k.k.k.k.k.k.k.k.k.k.k.k.k.k.k.k.k.k.k.k.k.k.k.k.j.v.I.M g l k ",
"k k x t $.T.s.l.k.k.k.k.k.k.k.k.k.k.k.k.k.k.k.k.k.k.k.k.k.k.k.k.k.k.k.k.k.k.k.k.k.k.k.k.k.k.k.k.k.k.k.k.k.k.k.k.k.j.v.I.M g l k ",
"k k x t $.T.s.l.k.k.k.k.k.k.k.k.k.k.k.k.k.k.k.k.k.k.k.k.k.k.k.k.k.k.k.k.k.k.k.k.k.k.k.k.k.k.k.k.k.k.k.k.k.k.k.k.k.j.v.I.M g l k ",
"k k x t $.T.s.l.k.k.k.k.k.k.k.k.k.k.k.k.k.k.k.k.k.k.k.k.k.k.k.k.k.k.k.k.k.k.k.k.k.k.k.k.k.k.k.k.k.k.k.k.k.k.k.k.k.j.v.I.M g l k ",
"k k x t $.T.s.l.k.k.k.k.k.k.k.k.k.k.k.k.k.k.k.k.k.k.k.k.k.k.k.k.k.k.k.k.k.k.k.k.k.k.k.k.k.k.k.k.k.k.k.k.k.k.k.k.k.j.v.I.M g l k ",
"k k x t $.T.s.l.k.k.k.k.k.k.k.k.k.k.k.k.k.k.k.k.k.k.k.k.k.k.k.k.k.k.k.k.k.k.k.k.k.k.k.k.k.k.k.k.k.k.k.k.k.k.k.k.k.j.v.I.M g l k ",
"k k x t $.T.s.l.k.k.k.k.k.k.k.k.k.k.k.k.k.k.k.k.k.k.k.k.k.k.k.k.k.k.k.k.k.k.k.k.k.k.k.k.k.k.k.k.k.k.k.k.k.k.k.k.k.j.v.I.M g l k ",
"k k x t $.T.s.l.k.k.k.k.k.k.k.k.k.k.k.k.k.k.k.k.k.k.k.k.k.k.k.k.k.k.k.k.k.k.k.k.k.k.k.k.k.k.k.k.k.k.k.k.k.k.k.k.k.j.v.I.M g l k ",
"k k x t $.T.s.l.k.k.k.k.k.k.k.k.k.k.k.k.k.k.k.k.k.k.k.k.k.k.k.k.k.k.k.k.k.k.k.k.k.k.k.k.k.k.k.k.k.k.k.k.k.k.k.k.k.j.v.I.M g l k ",
"k k x t $.T.s.l.k.k.k.k.k.k.k.k.k.k.k.k.k.k.k.k.k.k.k.k.k.k.k.k.k.k.k.k.k.k.k.k.k.k.k.k.k.k.k.k.k.k.k.k.k.k.k.k.k.j.v.I.M g l k ",
"k k x t $.T.s.l.k.k.k.k.k.k.k.k.k.k.k.k.k.k.k.k.k.k.k.k.k.k.k.k.k.k.k.k.k.k.k.k.k.k.k.k.k.k.k.k.k.k.k.k.k.k.k.k.k.j.v.I.M g l k ",
"k k x t $.T.s.l.k.k.k.k.k.k.k.k.k.k.k.k.k.k.k.k.k.k.k.k.k.k.k.k.k.k.k.k.k.k.k.k.k.k.k.k.k.k.k.k.k.k.k.k.k.k.k.k.k.j.v.I.M g l k ",
"k k x t $.T.s.l.k.k.k.k.k.k.k.k.k.k.k.k.k.k.k.k.k.k.k.k.k.k.k.k.k.k.k.k.k.k.k.k.k.k.k.k.k.k.k.k.k.k.k.k.k.k.k.k.k.j.v.I.M g l k ",
"k k x t $.T.s.l.k.k.k.k.k.k.k.k.k.k.k.k.k.k.k.k.k.k.k.k.k.k.k.k.k.k.k.k.k.k.k.k.k.k.k.k.k.k.k.k.k.k.k.k.k.k.k.k.k.j.v.I.M g l k ",
"k k x t $.T.s.l.k.k.k.k.k.k.k.k.k.k.k.k.k.k.k.k.k.k.k.k.k.k.k.k.k.k.k.k.k.k.k.k.k.k.k.k.k.k.k.k.k.k.k.k.k.k.k.k.k.j.v.I.M g l k ",
"k k x t $.T.s.l.k.k.k.k.k.k.k.k.k.k.k.k.k.k.k.k.k.k.k.k.k.k.k.k.k.k.k.k.k.k.k.k.k.k.k.k.k.k.k.k.k.k.k.k.k.k.k.k.k.j.v.I.M g l k ",
"k k x t $.T.s.l.k.k.k.k.k.k.k.k.k.k.k.k.k.k.k.k.k.k.k.k.k.k.k.k.k.k.k.k.k.k.k.k.k.k.k.k.k.k.k.k.k.k.k.k.k.k.k.k.k.j.v.P.M g l k ",
"k k x t #.Y.d.l.k.k.k.k.k.k.k.k.k.k.k.k.k.k.k.k.k.k.k.k.k.k.k.k.k.k.k.k.k.k.k.k.k.k.k.k.k.k.k.k.k.k.k.k.k.k.k.k.k.j.c.P.M g l k ",
"k k x r #.Q.u.f.f.f.f.f.f.f.f.f.f.f.f.f.f.f.f.f.f.f.f.f.f.f.f.f.f.f.f.f.f.f.f.f.f.f.f.f.f.f.f.f.f.f.f.f.f.f.f.f.f.p.M.D.v h l k ",
"k k l d S L.E.H.J.J.J.J.J.J.J.J.J.J.J.J.J.J.J.J.J.J.J.J.J.J.J.J.J.J.J.J.J.J.J.J.J.J.J.J.J.J.J.J.J.J.J.J.J.J.J.J.J.K.~.} a z k k ",
"l k k z a D &.&.&.&.&.&.&.&.&.&.&.&.&.&.&.&.&.&.&.&.&.&.&.&.&.&.&.&.&.&.&.&.&.&.&.&.&.&.&.&.&.&.&.&.&.&.&.&.&.&.%.=./ g k k k l ",
"j k k k z s y i i i i i i i i i i i i i i i i i i i i i i i i i i i i i i i i i i i i i i i i i i i i i i i i i i u i k k k k j ",
"b k l k k z x z z z z z z z z z z z z z z z z z z z z z z z z z z z z z z z z z z z z z z z z z z z z z z z z z z x z k k l k m ",
"| e k k k k k k k k k k k k k k k k k k k k k k k k k k k k k k k k k k k k k k k k k k k k k k k k k k k k k k k k k k k k e  .",
"E.[ c j k k k k k k k k k k k k k k k k k k k k k k k k k k k k k k k k k k k k k k k k k k k k k k k k k k k k k k k k j c ] E."
};
