/* XPM */
static char *result[] = {
/* columns rows colors chars-per-pixel */
"64 64 109 2 ",
"   c #060606",
".  c gray5",
"X  c #0E0E0E",
"o  c #131313",
"O  c #151515",
"+  c gray10",
"@  c #1D1D1D",
"#  c #202020",
"$  c gray15",
"%  c #323232",
"&  c gray21",
"*  c #373737",
"=  c #393939",
"-  c #3C3C3C",
";  c gray25",
":  c #444444",
">  c gray27",
",  c #464646",
"<  c gray28",
"1  c #484848",
"2  c #494949",
"3  c #4B4B4B",
"4  c #4C4C4C",
"5  c gray30",
"6  c #4E4E4E",
"7  c gray31",
"8  c #505050",
"9  c #515151",
"0  c gray32",
"q  c #535353",
"w  c gray33",
"e  c #555555",
"r  c #565656",
"t  c gray34",
"y  c #585858",
"u  c #5A5A5A",
"i  c #5B5B5B",
"p  c gray36",
"a  c #5D5D5D",
"s  c gray37",
"d  c #626262",
"f  c #646464",
"g  c #656565",
"h  c #686868",
"j  c #6F6F6F",
"k  c #727272",
"l  c gray45",
"z  c #747474",
"x  c #868686",
"c  c gray55",
"v  c #909090",
"b  c #929292",
"n  c gray60",
"m  c #9D9D9D",
"M  c gray62",
"N  c #A0A0A0",
"B  c gray63",
"V  c #A2A2A2",
"C  c gray64",
"Z  c gray65",
"A  c #A7A7A7",
"S  c gray66",
"D  c gray67",
"F  c #ACACAC",
"G  c gray68",
"H  c #AEAEAE",
"J  c #AFAFAF",
"K  c gray69",
"L  c #B1B1B1",
"P  c #B4B4B4",
"I  c gray73",
"U  c #BCBCBC",
"Y  c gray81",
"T  c #D0D0D0",
"R  c gray82",
"E  c LightGray",
"W  c gray83",
"Q  c #D5D5D5",
"!  c gray84",
"~  c #D7D7D7",
"^  c #D8D8D8",
"/  c gray85",
"(  c #DADADA",
")  c gray86",
"_  c gainsboro",
"`  c #DDDDDD",
"'  c gray87",
"]  c #DFDFDF",
"[  c gray88",
"{  c #E1E1E1",
"}  c #E2E2E2",
"|  c #E4E4E4",
" . c #E6E6E6",
".. c gray92",
"X. c #ECECEC",
"o. c #EEEEEE",
"O. c #EFEFEF",
"+. c gray94",
"@. c gray95",
"#. c #F3F3F3",
"$. c #F4F4F4",
"%. c gray96",
"&. c #F6F6F6",
"*. c gray97",
"=. c #F9F9F9",
"-. c gray98",
";. c #FBFBFB",
":. c gray99",
">. c white",
/* pixels */
"=.m y q w w w w w w w w w w w w w w w w w w w w w w w w w w w w w w w w w w w w w w w w w w w w w w w w w w w w w w w w w y M -.",
"V : w w w w w w w w w w w w w w w w w w w w w w w w w w w w w w w w w w w w w w w w w w w w w w w w w w w w w w w w w w w w : C ",
"a w e w w e t t t t t t t t t t t t t t t t t t t t t t t t t t t t t t t t t t t t t t t t t t t t t t t t t t t t r w w e q p ",
"w w w w e 8 , , , , , , , , , , , , , , , , , , , , , , , , , , , , , , , , , , , , , , , , , , , , , , , , , , , > 3 e w w w q ",
"e w w e 6 h D H G G G G G G G G G G G G G G G G G G G G G G G G G G G G G G G G G G G G G G G G G G G G G G G G F L x 6 e w w e ",
"w w e 9 f  .>.%.&.&.&.&.&.&.&.&.&.&.&.&.&.&.&.&.&.&.&.&.&.&.&.&.&.&.&.&.&.&.&.&.&.&.&.&.&.&.&.&.&.&.&.&.&.&.&.&.&.*.>.b 4 r w w ",
"w w t , A :.Y E E E E E E E E E E E E E E E E E E E E E E E E E E E E E E E E E E E E E E E E E E E E E E E E E E T  . .y q w w ",
"w w t , G %.W ) ( ( ( ( ( ( ( ( ( ( ( ( ( ( ( ( ( ( ( ( ( ( ( ( ( ( ( ( ( ( ( ( ( ( ( ( ( ( ( ( ( ( ( ( ( ( ( ( ( / ` #.s 9 e w ",
"w w t , F *.E ( / / / / / / / / / / / / / / / / / / / / / / / / / / / / / / / / / / / / / / / / / / / / / / / / / ^ ' #.s 9 e w ",
"w w t , G *.E ( / / / / / / / / / / / / / / / / / / / / / / / / / / / / / / / / / / / / / / / / / / / / / / / / / ^ ' $.s 9 e w ",
"w w t , G *.E ( / / / / / / / / / / / / / / / / / / / / / / / / / / / / / / / / / / / / / / / / / / / / / / / / / ^ ' $.s 9 e w ",
"w w t , G *.E ( / / / / / / / / / / / / / / / / / / / / / / / / / / / / / / / / / / / / / / / / / / / / / / / / / ^ ' $.s 9 e w ",
"w w t , G *.E ( / / / / / / / / / / / / / / / / / / / / / / / / / / / / / / / / / / / / / / / / / / / / / / / / / ^ ' $.s 9 e w ",
"w w t , G *.E ( / / / / / / / / / / / / / / / / / / / / / / / / / / / / / / / / / / / / / / / / / / / / / / / / / ^ ' $.s 9 e w ",
"w w t , G *.E ( / / / / / / / / / / / / / / / / / / / / / / / / / / / / / / / / / / / / / / / / / / / / / / / / / ^ ' $.s 9 e w ",
"w w t , G *.E ( / / / / / / / / / / / / / / / / / / / / / / / / / / / / / / / / / / / / / / / / / / / / / / / / / ^ ' $.s 9 e w ",
"w w t , G *.E ( / / / / / / / / / / / / / / / / / / / / / / / / / / / / / / / / / / / / / / / / / / / / / / / / / ^ ' $.s 9 e w ",
"w w t , G *.E ( / / / / / / / / / / / / / / / / / / / / / / / / / / / / / / / / / / / / / / / / / / / / / / / / / ^ ' $.s 9 e w ",
"w w t , G *.E ( / / / / / / / / / / / / / / / / / / / / / / / / / / / / / / / / / / / / / / / / / / / / / / / / / ^ ' $.s 9 e w ",
"w w t , G *.E ( / / / / / / / / / / / / / / / / / / / / / / / / / / / / / / / / / / / / / / / / / / / / / / / / / ^ ' $.s 9 e w ",
"w w t , G *.E ( / / / / / / / / / / / / / / / / / / / / / / / / / / / / / / / / / / / / / / / / / / / / / / / / / ^ ' $.s 9 e w ",
"w w t , G *.E ( / / / / / / / / / / / / / / / / / / / / / / / / / / / / / / / / / / / / / / / / / / / / / / / / / ^ ' $.s 9 e w ",
"w w t , G *.E ( / / / / / / / / / / / / / / / / / / / / / / / / / / / / / / / / / / / / / / / / / / / / / / / / / ^ ' $.s 9 e w ",
"w w t , G *.E ( / / / / / / / / / / / / / / / / / / / / / / / / / / / / / / / / / / / / / / / / / / / / / / / / / ^ ' $.s 9 e w ",
"w w t , G *.E ( / / / / / / / / / / / / / / / / / / / / / / / / / / / / / / / / / / / / / / / / / / / / / / / / / ^ ' $.s 9 e w ",
"w w t , G *.E ( / / / / / / / / / / / / / / / / / / / / / / / ~ ~ ^ / / / / / / / / / / / / / / / / / / / / / / / ^ ' $.s 9 e w ",
"w w t , G *.E ( / / / / / / / / / / / / / / / / / / / / / ^ ) { { ) ~ / / / / / / / / / / / / / / / / / / / / / / ^ ' $.s 9 e w ",
"w w t , G *.E ( / / / / / / / / / / / / / / / / / / / / ^ ' Q P P W [ ^ / / / / / / / / / / / / / / / / / / / / / ^ ' $.s 9 e w ",
"w w t , G *.E ( / / / / / / / / / / / / / / / / / / / ~ } Z + .   O S { ~ / / / / / / / / / / / / / / / / / / / / ^ ' $.s 9 e w ",
"w w t , G *.E ( / / / / / / / / / / / / / / / / / / / ^ ' I Z _ Y - = } ^ / / / / / / / / / / / / / / / / / / / / ^ ' $.s 9 e w ",
"w w t , G *.E ( / / / / / / / / / / / / / / / / / / / / ^ { m y d % $ ^ ( ^ / / / / / / / / / / / / / / / / / / / ^ ' $.s 9 e w ",
"w w t , G *.E ( / / / / / / / / / / / / / / / / / / / !  .c X k n 5 $ / ( ^ / / / / / / / / / / / / / / / / / / / ^ ' $.s 9 e w ",
"w w t , G *.E ( / / / / / / / / / / / / / / / / / / / Q X.g @ { &.z # / ( ^ / / / / / / / / / / / / / / / / / / / ^ ' $.s 9 e w ",
"w w t , G *.E ( / / / / / / / / / / / / / / / / / / / ^ ' U @ o ; * & ~ ( ^ / / / / / / / / / / / / / / / / / / / ^ ' $.s 9 e w ",
"w w t , G *.E ( / / / / / / / / / / / / / / / / / / / / ^ ] R N K / T / / / / / / / / / / / / / / / / / / / / / / ^ ' $.s 9 e w ",
"w w t , G *.E ( / / / / / / / / / / / / / / / / / / / / / ^ ) | { ( ) / / / / / / / / / / / / / / / / / / / / / / ^ ' $.s 9 e w ",
"w w t , G *.E ( / / / / / / / / / / / / / / / / / / / / / / ^ ~ ^ / ^ / / / / / / / / / / / / / / / / / / / / / / ^ ' $.s 9 e w ",
"w w t , G *.E ( / / / / / / / / / / / / / / / / / / / / / / / / / / / / / / / / / / / / / / / / / / / / / / / / / ^ ' $.s 9 e w ",
"w w t , G *.E ( / / / / / / / / / / / / / / / / / / / / / / / / / / / / / / / / / / / / / / / / / / / / / / / / / ^ ' $.s 9 e w ",
"w w t , G *.E ( / / / / / / / / / / / / / / / / / / / / / / / / / / / / / / / / / / / / / / / / / / / / / / / / / ^ ' $.s 9 e w ",
"w w t , G *.E ( / / / / / / / / / / / / / / / / / / / / / / / / / / / / / / / / / / / / / / / / / / / / / / / / / ^ ' $.s 9 e w ",
"w w t , G *.E ( / / / / / / / / / / / / / / / / / / / / / / / / / / / / / / / / / / / / / / / / / / / / / / / / / ^ ' $.s 9 e w ",
"w w t , G *.E ( / / / / / / / / / / / / / / / / / / / / / / / / / / / / / / / / / / / / / / / / / / / / / / / / / ^ ' $.s 9 e w ",
"w w t , G *.E ( / / / / / / / / / / / / / / / / / / / / / / / / / / / / / / / / / / / / / / / / / / / / / / / / / ^ ' $.s 9 e w ",
"w w t , G *.E ( / / / / / / / / / / / / / / / / / / / / / / / / / / / / / / / / / / / / / / / / / / / / / / / / / ^ ' $.s 9 e w ",
"w w t , G *.E ( / / / / / / / / / / / / / / / / / / / / / / / / / / / / / / / / / / / / / / / / / / / / / / / / / ^ ' $.s 9 e w ",
"w w t , G *.E ( / / / / / / / / / / / / / / / / / / / / / / / / / / / / / / / / / / / / / / / / / / / / / / / / / ^ ' $.s 9 e w ",
"w w t , G *.E ( / / / / / / / / / / / / / / / / / / / / / / / / / / / / / / / / / / / / / / / / / / / / / / / / / ^ ' $.s 9 e w ",
"w w t , G *.E ( / / / / / / / / / / / / / / / / / / / / / / / / / / / / / / / / / / / / / / / / / / / / / / / / / ^ ' $.s 9 e w ",
"w w t , G *.E ( / / / / / / / / / / / / / / / / / / / / / / / / / / / / / / / / / / / / / / / / / / / / / / / / / ^ ' $.s 9 e w ",
"w w t , G *.E ( / / / / / / / / / / / / / / / / / / / / / / / / / / / / / / / / / / / / / / / / / / / / / / / / / ^ ' $.s 9 e w ",
"w w t , G *.E ( / / / / / / / / / / / / / / / / / / / / / / / / / / / / / / / / / / / / / / / / / / / / / / / / / ^ ' $.s 9 e w ",
"w w t , G *.E ( / / / / / / / / / / / / / / / / / / / / / / / / / / / / / / / / / / / / / / / / / / / / / / / / / ^ ' $.s 9 e w ",
"w w t , G *.E ( / / / / / / / / / / / / / / / / / / / / / / / / / / / / / / / / / / / / / / / / / / / / / / / / / ^ ' $.s 9 e w ",
"w w t , G *.E ( / / / / / / / / / / / / / / / / / / / / / / / / / / / / / / / / / / / / / / / / / / / / / / / / / ^ ' $.s 9 e w ",
"w w t , G *.E ( / / / / / / / / / / / / / / / / / / / / / / / / / / / / / / / / / / / / / / / / / / / / / / / / / ^ ' #.s 9 e w ",
"w w t , F &.W ( / / / / / / / / / / / / / / / / / / / / / / / / / / / / / / / / / / / / / / / / / / / / / / / / / ^ ` #.s 9 e w ",
"w w t > F ;.Y Q Q Q Q Q Q Q Q Q Q Q Q Q Q Q Q Q Q Q Q Q Q Q Q Q Q Q Q Q Q Q Q Q Q Q Q Q Q Q Q Q Q Q Q Q Q Q Q Q Q R } ..u 0 e w ",
"w w e 7 j @.=.o.O.O.O.O.O.O.O.O.O.O.O.O.O.O.O.O.O.O.O.O.O.O.O.O.O.O.O.O.O.O.O.O.O.O.O.O.O.O.O.O.O.O.O.O.O.O.O.O.O.+.>.B 4 r w w ",
"e w w r 4 l J J J J J J J J J J J J J J J J J J J J J J J J J J J J J J J J J J J J J J J J J J J J J J J J J J H L v 9 w w w e ",
"q w w w r 6 < 2 2 2 2 2 2 2 2 2 2 2 2 2 2 2 2 2 2 2 2 2 2 2 2 2 2 2 2 2 2 2 2 2 2 2 2 2 2 2 2 2 2 2 2 2 2 2 2 2 2 1 2 w w w w q ",
"i w e w w r t r r r r r r r r r r r r r r r r r r r r r r r r r r r r r r r r r r r r r r r r r r r r r r r r r r t r w w e w a ",
"V : w w w w w w w w w w w w w w w w w w w w w w w w w w w w w w w w w w w w w w w w w w w w w w w w w w w w w w w w w w w w : C ",
"=.M y q w w w w w w w w w w w w w w w w w w w w w w w w w w w w w w w w w w w w w w w w w w w w w w w w w w w w w w w w q y m =."
};
