/* XPM */
static char *result[] = {
/* columns rows colors chars-per-pixel */
"64 64 112 2 ",
"   c black",
".  c gray1",
"X  c #040404",
"o  c gray2",
"O  c gray6",
"+  c #101010",
"@  c #111111",
"#  c #131313",
"$  c #161616",
"%  c #202020",
"&  c gray13",
"*  c #222222",
"=  c gray15",
"-  c #323232",
";  c #393939",
":  c #444444",
">  c gray27",
",  c #464646",
"<  c gray28",
"1  c #484848",
"2  c #494949",
"3  c #4B4B4B",
"4  c #4C4C4C",
"5  c #4E4E4E",
"6  c gray31",
"7  c #505050",
"8  c #515151",
"9  c gray32",
"0  c #535353",
"q  c gray33",
"w  c #555555",
"e  c #565656",
"r  c gray34",
"t  c #585858",
"y  c #5A5A5A",
"u  c #5B5B5B",
"i  c gray36",
"p  c #5D5D5D",
"a  c gray37",
"s  c gray38",
"d  c #646464",
"f  c #686868",
"g  c gray43",
"h  c #6F6F6F",
"j  c gray44",
"k  c gray45",
"l  c #747474",
"z  c gray48",
"x  c #7E7E7E",
"c  c #868686",
"v  c #888888",
"b  c #909090",
"n  c #929292",
"m  c gray58",
"M  c #979797",
"N  c gray60",
"B  c #9D9D9D",
"V  c gray62",
"C  c gray63",
"Z  c #A2A2A2",
"A  c gray64",
"S  c #A7A7A7",
"D  c gray67",
"F  c #ACACAC",
"G  c gray68",
"H  c #AEAEAE",
"J  c #AFAFAF",
"K  c gray69",
"L  c #B1B1B1",
"P  c gray71",
"I  c #BCBCBC",
"U  c gray76",
"Y  c #C3C3C3",
"T  c #CDCDCD",
"R  c gray81",
"E  c #D0D0D0",
"W  c gray82",
"Q  c #D2D2D2",
"!  c LightGray",
"~  c gray83",
"^  c #D5D5D5",
"/  c gray84",
"(  c #D7D7D7",
")  c #D8D8D8",
"_  c gray85",
"`  c #DADADA",
"'  c gray86",
"]  c gainsboro",
"[  c #DDDDDD",
"{  c gray87",
"}  c gray88",
"|  c #E1E1E1",
" . c #E2E2E2",
".. c gray90",
"X. c #E6E6E6",
"o. c #E7E7E7",
"O. c gray92",
"+. c #EEEEEE",
"@. c #EFEFEF",
"#. c gray94",
"$. c #F1F1F1",
"%. c gray95",
"&. c #F3F3F3",
"*. c #F4F4F4",
"=. c gray96",
"-. c #F6F6F6",
";. c gray97",
":. c #F9F9F9",
">. c gray98",
",. c #FBFBFB",
"<. c gray99",
"1. c white",
/* pixels */
":.B t 0 q q q q q q q q q q q q q q q q q q q q q q q q q q q q q q q q q q q q q q q q q q q q q q q q q q q q q q q q q t V >.",
"Z : q q q q q q q q q q q q q q q q q q q q q q q q q q q q q q q q q q q q q q q q q q q q q q q q q q q q q q q q q q q q : A ",
"p q w q q w r r r r r r r r r r r r r r r r r r r r r r r r r r r r r r r r r r r r r r r r r r r r r r r r r r r r e q q w 0 i ",
"q q q q w 7 , , , , , , , , , , , , , , , , , , , , , , , , , , , , , , , , , , , , , , , , , , , , , , , , , , , > 3 w q q q 0 ",
"w q q w 5 f D H G G G G G G G G G G G G G G G G G G G G G G G G G G G G G G G G G G G G G G G G G G G G G G G G F L c 5 w q q w ",
"q q w 8 d X.1.=.-.-.-.-.-.-.-.-.-.-.-.-.-.-.-.-.-.-.-.-.-.-.-.-.-.-.-.-.-.-.-.-.-.-.-.-.-.-.-.-.-.-.-.-.-.-.-.-.-.;.1.n 4 e q q ",
"q q r , S <.R ! ! ! ! ! ! ! ! ! ! ! ! ! ! ! ! ! ! ! ! ! ! ! ! ! ! ! ! ! ! ! ! ! ! ! ! ! ! ! ! ! ! ! ! ! ! ! ! ! ! E X.X.t 0 q q ",
"q q r , G =.~ ' ` ` ` ` ` ` ` ` ` ` ` ` ` ` ` ` ` ` ` ` ` ` ` ` ` ` ` ` ` ` ` ` ` ` ` ` ` ` ` ` ` ` ` ` ` ` ` ` ` _ [ &.a 8 w q ",
"q q r , F ;.! ` _ _ _ _ _ _ _ _ _ _ _ _ _ _ _ _ _ _ _ _ _ _ _ _ _ _ _ _ _ _ _ _ _ _ _ _ _ _ _ _ _ _ _ _ _ _ _ _ _ ) { &.a 8 w q ",
"q q r , G ;.! ` _ _ _ _ _ _ _ _ _ _ _ _ _ _ _ _ _ _ _ _ _ _ _ _ _ _ _ _ _ _ _ _ _ _ _ _ _ _ _ _ _ _ _ _ _ _ _ _ _ ) { *.a 8 w q ",
"q q r , G ;.! ` _ _ _ _ _ _ _ _ _ _ _ _ _ _ _ _ _ _ _ _ _ _ _ _ _ _ _ _ _ _ _ _ _ _ _ _ _ _ _ _ _ _ _ _ _ _ _ _ _ ) { *.a 8 w q ",
"q q r , G ;.! ` _ _ _ _ _ _ _ _ _ _ _ _ _ _ _ _ _ _ _ _ _ _ _ _ _ _ _ _ _ _ _ _ _ _ _ _ _ _ _ _ _ _ _ _ _ _ _ _ _ ) { *.a 8 w q ",
"q q r , G ;.! ` _ _ _ _ _ _ _ _ _ _ _ _ _ _ _ _ _ _ _ _ _ _ _ _ _ _ _ _ _ _ _ _ _ _ _ _ _ _ _ _ _ _ _ _ _ _ _ _ _ ) { *.a 8 w q ",
"q q r , G ;.! ` _ _ _ _ _ _ _ _ _ _ _ _ _ _ _ _ _ _ _ _ _ _ _ _ _ _ _ _ _ _ _ _ _ _ _ _ _ _ _ _ _ _ _ _ _ _ _ _ _ ) { *.a 8 w q ",
"q q r , G ;.! ` _ _ _ _ _ _ _ _ _ _ _ _ _ _ _ _ _ _ _ _ _ _ _ _ _ _ _ _ _ _ _ _ _ _ _ _ _ _ _ _ _ _ _ _ _ _ _ _ _ ) { *.a 8 w q ",
"q q r , G ;.! ` _ _ _ _ _ _ _ _ _ _ _ _ _ _ _ _ _ _ _ _ _ _ _ _ _ _ _ _ _ _ _ _ _ _ _ _ _ _ _ _ _ _ _ _ _ _ _ _ _ ) { *.a 8 w q ",
"q q r , G ;.! ` _ _ _ _ _ _ _ _ _ _ _ _ _ _ _ _ _ _ _ _ _ _ _ _ _ _ _ _ _ _ _ _ _ _ _ _ _ _ _ _ _ _ _ _ _ _ _ _ _ ) { *.a 8 w q ",
"q q r , G ;.! ` _ _ _ _ _ _ _ _ _ _ _ _ _ _ _ _ _ _ _ _ _ _ _ _ _ _ _ _ _ _ _ _ _ _ _ _ _ _ _ _ _ _ _ _ _ _ _ _ _ ) { *.a 8 w q ",
"q q r , G ;.! ` _ _ _ _ _ _ _ _ _ _ _ _ _ _ _ _ _ _ _ _ _ _ _ _ _ _ _ _ _ _ _ _ _ _ _ _ _ _ _ _ _ _ _ _ _ _ _ _ _ ) { *.a 8 w q ",
"q q r , G ;.! ` _ _ _ _ _ _ _ _ _ _ _ _ _ _ _ _ _ _ _ _ _ _ _ _ _ _ _ _ _ _ _ _ _ _ _ _ _ _ _ _ _ _ _ _ _ _ _ _ _ ) { *.a 8 w q ",
"q q r , G ;.! ` _ _ _ _ _ _ _ _ _ _ _ _ _ _ _ _ _ _ _ _ _ _ _ _ _ _ _ _ _ _ _ _ _ _ _ _ _ _ _ _ _ _ _ _ _ _ _ _ _ ) { *.a 8 w q ",
"q q r , G ;.! ` _ _ _ _ _ _ _ _ _ _ _ _ _ _ _ _ _ _ _ _ _ _ _ _ _ _ _ _ _ _ _ _ _ _ _ _ _ _ _ _ _ _ _ _ _ _ _ _ _ ) { *.a 8 w q ",
"q q r , G ;.! ` _ _ _ _ _ _ _ _ _ _ _ _ _ _ _ _ _ _ _ _ _ _ _ _ _ ) / _ _ _ _ _ _ _ _ _ _ _ _ _ _ _ _ _ _ _ _ _ _ ) { *.a 8 w q ",
"q q r , G ;.! ` _ _ _ _ _ _ _ _ _ _ _ _ _ _ _ _ _ _ _ _ _ _ _ _ ) [ X.` _ _ _ _ _ _ _ _ _ _ _ _ _ _ _ _ _ _ _ _ _ ) { *.a 8 w q ",
"q q r , G ;.! ` _ _ _ _ _ _ _ _ _ _ _ _ _ _ _ _ _ _ _ _ _ _ _ ) [ U v ! ' _ _ _ _ _ _ _ _ _ _ _ _ _ _ _ _ _ _ _ _ ) { *.a 8 w q ",
"q q r , G ;.! ` _ _ _ _ _ _ _ _ _ _ _ _ _ _ _ _ _ _ _ _ _ _ _ ^ X.x o W ] ) _ _ _ _ _ _ _ _ _ _ _ _ _ _ _ _ _ _ _ ) { *.a 8 w q ",
"q q r , G ;.! ` _ _ _ _ _ _ _ _ _ _ _ _ _ _ _ _ _ _ _ _ _ ) ( ' $.c O ! ] ) _ _ _ _ _ _ _ _ _ _ _ _ _ _ _ _ _ _ _ ) { *.a 8 w q ",
"q q r , G ;.! ` _ _ _ _ _ _ _ _ _ _ _ _ _ _ _ _ _ _ _ _ ) ' ..Y I l + Q ] ) _ _ _ _ _ _ _ _ _ _ _ _ _ _ _ _ _ _ _ ) { *.a 8 w q ",
"q q r , G ;.! ` _ _ _ _ _ _ _ _ _ _ _ _ _ _ _ _ _ _ _ ) ' ^ a O @ X $ W ] ) _ _ _ _ _ _ _ _ _ _ _ _ _ _ _ _ _ _ _ ) { *.a 8 w q ",
"q q r , G ;.! ` _ _ _ _ _ _ _ _ _ _ _ _ _ _ _ _ _ _ _ / o.d % K / z + Q ] ) _ _ _ _ _ _ _ _ _ _ _ _ _ _ _ _ _ _ _ ) { *.a 8 w q ",
"q q r , G ;.! ` _ _ _ _ _ _ _ _ _ _ _ _ _ _ _ _ _ _ _ _ [ * j #...m @ W ] ) _ _ _ _ _ _ _ _ _ _ _ _ _ _ _ _ _ _ _ ) { *.a 8 w q ",
"q q r , G ;.! ` _ _ _ _ _ _ _ _ _ _ _ _ _ _ _ _ _ _ _ ` ] & a #.o.N # W ] ) _ _ _ _ _ _ _ _ _ _ _ _ _ _ _ _ _ _ _ ) { *.a 8 w q ",
"q q r , G ;.! ` _ _ _ _ _ _ _ _ _ _ _ _ _ _ _ _ _ _ _ ( ..s . M W g O W ] ) _ _ _ _ _ _ _ _ _ _ _ _ _ _ _ _ _ _ _ ) { *.a 8 w q ",
"q q r , G ;.! ` _ _ _ _ _ _ _ _ _ _ _ _ _ _ _ _ _ _ _ ) [ T ;   + - = E ] ) _ _ _ _ _ _ _ _ _ _ _ _ _ _ _ _ _ _ _ ) { *.a 8 w q ",
"q q r , G ;.! ` _ _ _ _ _ _ _ _ _ _ _ _ _ _ _ _ _ _ _ _ ) [ { P H ` E ) _ _ _ _ _ _ _ _ _ _ _ _ _ _ _ _ _ _ _ _ _ ) { *.a 8 w q ",
"q q r , G ;.! ` _ _ _ _ _ _ _ _ _ _ _ _ _ _ _ _ _ _ _ _ _ ) _ } | _ ' _ _ _ _ _ _ _ _ _ _ _ _ _ _ _ _ _ _ _ _ _ _ ) { *.a 8 w q ",
"q q r , G ;.! ` _ _ _ _ _ _ _ _ _ _ _ _ _ _ _ _ _ _ _ _ _ _ _ ( ( _ ) _ _ _ _ _ _ _ _ _ _ _ _ _ _ _ _ _ _ _ _ _ _ ) { *.a 8 w q ",
"q q r , G ;.! ` _ _ _ _ _ _ _ _ _ _ _ _ _ _ _ _ _ _ _ _ _ _ _ _ _ _ _ _ _ _ _ _ _ _ _ _ _ _ _ _ _ _ _ _ _ _ _ _ _ ) { *.a 8 w q ",
"q q r , G ;.! ` _ _ _ _ _ _ _ _ _ _ _ _ _ _ _ _ _ _ _ _ _ _ _ _ _ _ _ _ _ _ _ _ _ _ _ _ _ _ _ _ _ _ _ _ _ _ _ _ _ ) { *.a 8 w q ",
"q q r , G ;.! ` _ _ _ _ _ _ _ _ _ _ _ _ _ _ _ _ _ _ _ _ _ _ _ _ _ _ _ _ _ _ _ _ _ _ _ _ _ _ _ _ _ _ _ _ _ _ _ _ _ ) { *.a 8 w q ",
"q q r , G ;.! ` _ _ _ _ _ _ _ _ _ _ _ _ _ _ _ _ _ _ _ _ _ _ _ _ _ _ _ _ _ _ _ _ _ _ _ _ _ _ _ _ _ _ _ _ _ _ _ _ _ ) { *.a 8 w q ",
"q q r , G ;.! ` _ _ _ _ _ _ _ _ _ _ _ _ _ _ _ _ _ _ _ _ _ _ _ _ _ _ _ _ _ _ _ _ _ _ _ _ _ _ _ _ _ _ _ _ _ _ _ _ _ ) { *.a 8 w q ",
"q q r , G ;.! ` _ _ _ _ _ _ _ _ _ _ _ _ _ _ _ _ _ _ _ _ _ _ _ _ _ _ _ _ _ _ _ _ _ _ _ _ _ _ _ _ _ _ _ _ _ _ _ _ _ ) { *.a 8 w q ",
"q q r , G ;.! ` _ _ _ _ _ _ _ _ _ _ _ _ _ _ _ _ _ _ _ _ _ _ _ _ _ _ _ _ _ _ _ _ _ _ _ _ _ _ _ _ _ _ _ _ _ _ _ _ _ ) { *.a 8 w q ",
"q q r , G ;.! ` _ _ _ _ _ _ _ _ _ _ _ _ _ _ _ _ _ _ _ _ _ _ _ _ _ _ _ _ _ _ _ _ _ _ _ _ _ _ _ _ _ _ _ _ _ _ _ _ _ ) { *.a 8 w q ",
"q q r , G ;.! ` _ _ _ _ _ _ _ _ _ _ _ _ _ _ _ _ _ _ _ _ _ _ _ _ _ _ _ _ _ _ _ _ _ _ _ _ _ _ _ _ _ _ _ _ _ _ _ _ _ ) { *.a 8 w q ",
"q q r , G ;.! ` _ _ _ _ _ _ _ _ _ _ _ _ _ _ _ _ _ _ _ _ _ _ _ _ _ _ _ _ _ _ _ _ _ _ _ _ _ _ _ _ _ _ _ _ _ _ _ _ _ ) { *.a 8 w q ",
"q q r , G ;.! ` _ _ _ _ _ _ _ _ _ _ _ _ _ _ _ _ _ _ _ _ _ _ _ _ _ _ _ _ _ _ _ _ _ _ _ _ _ _ _ _ _ _ _ _ _ _ _ _ _ ) { *.a 8 w q ",
"q q r , G ;.! ` _ _ _ _ _ _ _ _ _ _ _ _ _ _ _ _ _ _ _ _ _ _ _ _ _ _ _ _ _ _ _ _ _ _ _ _ _ _ _ _ _ _ _ _ _ _ _ _ _ ) { *.a 8 w q ",
"q q r , G ;.! ` _ _ _ _ _ _ _ _ _ _ _ _ _ _ _ _ _ _ _ _ _ _ _ _ _ _ _ _ _ _ _ _ _ _ _ _ _ _ _ _ _ _ _ _ _ _ _ _ _ ) { *.a 8 w q ",
"q q r , G ;.! ` _ _ _ _ _ _ _ _ _ _ _ _ _ _ _ _ _ _ _ _ _ _ _ _ _ _ _ _ _ _ _ _ _ _ _ _ _ _ _ _ _ _ _ _ _ _ _ _ _ ) { *.a 8 w q ",
"q q r , G ;.! ` _ _ _ _ _ _ _ _ _ _ _ _ _ _ _ _ _ _ _ _ _ _ _ _ _ _ _ _ _ _ _ _ _ _ _ _ _ _ _ _ _ _ _ _ _ _ _ _ _ ) { *.a 8 w q ",
"q q r , G ;.! ` _ _ _ _ _ _ _ _ _ _ _ _ _ _ _ _ _ _ _ _ _ _ _ _ _ _ _ _ _ _ _ _ _ _ _ _ _ _ _ _ _ _ _ _ _ _ _ _ _ ) { *.a 8 w q ",
"q q r , G ;.! ` _ _ _ _ _ _ _ _ _ _ _ _ _ _ _ _ _ _ _ _ _ _ _ _ _ _ _ _ _ _ _ _ _ _ _ _ _ _ _ _ _ _ _ _ _ _ _ _ _ ) { *.a 8 w q ",
"q q r , G ;.! ` _ _ _ _ _ _ _ _ _ _ _ _ _ _ _ _ _ _ _ _ _ _ _ _ _ _ _ _ _ _ _ _ _ _ _ _ _ _ _ _ _ _ _ _ _ _ _ _ _ ) { *.a 8 w q ",
"q q r , G ;.! ` _ _ _ _ _ _ _ _ _ _ _ _ _ _ _ _ _ _ _ _ _ _ _ _ _ _ _ _ _ _ _ _ _ _ _ _ _ _ _ _ _ _ _ _ _ _ _ _ _ ) { &.a 8 w q ",
"q q r , F -.~ ` _ _ _ _ _ _ _ _ _ _ _ _ _ _ _ _ _ _ _ _ _ _ _ _ _ _ _ _ _ _ _ _ _ _ _ _ _ _ _ _ _ _ _ _ _ _ _ _ _ ) [ &.a 8 w q ",
"q q r > F ,.R ^ ^ ^ ^ ^ ^ ^ ^ ^ ^ ^ ^ ^ ^ ^ ^ ^ ^ ^ ^ ^ ^ ^ ^ ^ ^ ^ ^ ^ ^ ^ ^ ^ ^ ^ ^ ^ ^ ^ ^ ^ ^ ^ ^ ^ ^ ^ ^ ^ ^ W  .O.y 9 w q ",
"q q w 6 h %.:.+.@.@.@.@.@.@.@.@.@.@.@.@.@.@.@.@.@.@.@.@.@.@.@.@.@.@.@.@.@.@.@.@.@.@.@.@.@.@.@.@.@.@.@.@.@.@.@.@.@.#.1.C 4 e q q ",
"w q q e 4 k J J J J J J J J J J J J J J J J J J J J J J J J J J J J J J J J J J J J J J J J J J J J J J J J J J H L b 8 q q q w ",
"0 q q q e 5 < 2 2 2 2 2 2 2 2 2 2 2 2 2 2 2 2 2 2 2 2 2 2 2 2 2 2 2 2 2 2 2 2 2 2 2 2 2 2 2 2 2 2 2 2 2 2 2 2 2 2 1 2 q q q q 0 ",
"u q w q q e r e e e e e e e e e e e e e e e e e e e e e e e e e e e e e e e e e e e e e e e e e e e e e e e e e e r e q q w q p ",
"Z : q q q q q q q q q q q q q q q q q q q q q q q q q q q q q q q q q q q q q q q q q q q q q q q q q q q q q q q q q q q q : A ",
":.V t 0 q q q q q q q q q q q q q q q q q q q q q q q q q q q q q q q q q q q q q q q q q q q q q q q q q q q q q q q q 0 t B :."
};
