/* XPM */
static char *result[] = {
/* columns rows colors chars-per-pixel */
"64 64 156 2 ",
"   c black",
".  c #010101",
"X  c #020202",
"o  c gray1",
"O  c #040404",
"+  c gray2",
"@  c #060606",
"#  c #070707",
"$  c gray3",
"%  c #090909",
"&  c #0B0B0B",
"*  c #0C0C0C",
"=  c gray5",
"-  c #0E0E0E",
";  c #101010",
":  c #111111",
">  c gray7",
",  c #131313",
"<  c gray8",
"1  c #151515",
"2  c #161616",
"3  c #181818",
"4  c gray10",
"5  c #1B1B1B",
"6  c #1D1D1D",
"7  c #222222",
"8  c #232323",
"9  c gray14",
"0  c #252525",
"q  c gray15",
"w  c #272727",
"e  c #282828",
"r  c gray16",
"t  c #2D2D2D",
"y  c gray18",
"u  c #2F2F2F",
"i  c gray19",
"p  c #323232",
"a  c #343434",
"s  c #353535",
"d  c gray21",
"f  c gray22",
"g  c #393939",
"h  c gray23",
"j  c #3C3C3C",
"k  c gray24",
"l  c #3E3E3E",
"z  c #3F3F3F",
"x  c #414141",
"c  c gray26",
"v  c #434343",
"b  c #444444",
"n  c #464646",
"m  c gray28",
"M  c #484848",
"N  c gray29",
"B  c #4B4B4B",
"V  c #4C4C4C",
"C  c gray30",
"Z  c #4E4E4E",
"A  c gray31",
"S  c #505050",
"D  c #515151",
"F  c gray32",
"G  c #535353",
"H  c gray33",
"J  c #555555",
"K  c #565656",
"L  c gray34",
"P  c #585858",
"I  c gray35",
"U  c #5A5A5A",
"Y  c #5B5B5B",
"T  c gray36",
"R  c #5D5D5D",
"E  c gray37",
"W  c #5F5F5F",
"Q  c #606060",
"!  c gray38",
"~  c #626262",
"^  c #646464",
"/  c #656565",
"(  c #686868",
")  c DimGray",
"_  c #6A6A6A",
"`  c #6F6F6F",
"'  c gray44",
"]  c #717171",
"[  c #777777",
"{  c gray47",
"}  c #797979",
"|  c #7B7B7B",
" . c #7E7E7E",
".. c gray50",
"X. c #808080",
"o. c #838383",
"O. c gray52",
"+. c #868686",
"@. c #898989",
"#. c #8B8B8B",
"$. c #8D8D8D",
"%. c gray57",
"&. c #959595",
"*. c #979797",
"=. c #989898",
"-. c gray60",
";. c #9D9D9D",
":. c gray62",
">. c #9F9F9F",
",. c #A0A0A0",
"<. c #A2A2A2",
"1. c gray64",
"2. c gray66",
"3. c gray67",
"4. c #ACACAC",
"5. c #AFAFAF",
"6. c gray69",
"7. c #B2B2B2",
"8. c gray71",
"9. c #B6B6B6",
"0. c #B7B7B7",
"q. c gray72",
"w. c #B9B9B9",
"e. c #BCBCBC",
"r. c gray74",
"t. c #C0C0C0",
"y. c #C1C1C1",
"u. c #C3C3C3",
"i. c #C5C5C5",
"p. c #C6C6C6",
"a. c gray78",
"s. c gray79",
"d. c #CACACA",
"f. c #CBCBCB",
"g. c gray80",
"h. c #CDCDCD",
"j. c #CECECE",
"k. c gray81",
"l. c #D0D0D0",
"z. c gray82",
"x. c #D2D2D2",
"c. c LightGray",
"v. c gray83",
"b. c #D5D5D5",
"n. c gray84",
"m. c #D7D7D7",
"M. c #D8D8D8",
"N. c gray85",
"B. c #DADADA",
"V. c gray86",
"C. c #E2E2E2",
"Z. c gray90",
"A. c #E6E6E6",
"S. c #E9E9E9",
"D. c #F9F9F9",
"F. c gray98",
/* pixels */
"D.;.P G H H H H H H H H H H H H H H H H H H H H H H H H H H H H H H H H H H H H H H H H H H H H H H H H H H H H H H H H H P :.F.",
"<.b H H H H H H H H H H H H H H H H H H H H H H H H H H H H H H H H H H H H H H H H H H H H H H H H H H H H H H H H H H H H b 1.",
"R H J H H H L L L L L L L L L L L L L L L L L L L L L L L L L L L L L L L L L L L L L L L L L L L L L L L L L L L L K H H J G T ",
"H H H H J F b v b b b b b b b b b b b b b b b b b b b b b b b b b b b b b b b b b b b b b b b b b b b b b b b b b c C K H H H G ",
"J H H J S T 5.w.8.9.9.9.9.9.9.9.9.9.9.9.9.9.9.9.9.9.9.9.9.9.9.9.9.9.9.9.9.9.9.9.9.9.9.9.9.9.9.9.9.9.9.9.9.9.9.9.8.r.| V K H H J ",
"H H J G U z.<.` ] ] ] ] ] ] ] ] ] ] ] ] ] ] ] ] ] ] ] ] ] ] ] ] ] ] ] ] ] ] ] ] ] ] ] ] ] ] ] ] ] ] ] ] ] ] ] ] ' ..m.O.B K H H ",
"H H L b 3.,.  o                                                                                                 o   n v.G G H H ",
"H H L v q.}   $ O O O O O O O O O O O O O O O O O O O O O O O O O O O O O O O O O O O O O O O O O O O O O O O O +   : Z.! D J H ",
"H H L v 9.[   O                                                                                                 .   : A.Q D J H ",
"H H L v 0.[   O                                                                                                 .   : A.Q D J H ",
"H H L v 0.[   O                                                                                                 .   : A.Q D J H ",
"H H L v 0.[   O                                                                                                 .   : A.Q D J H ",
"H H L v 0.[   O                                                                                                 .   : A.Q D J H ",
"H H L v 0.[   O                                                                                                 .   : A.Q D J H ",
"H H L v 0.[   O                                                                                                 .   : A.Q D J H ",
"H H L v 0.[   O                                                                                                 .   : A.Q D J H ",
"H H L v 0.[   O                                                                                                 .   : A.Q D J H ",
"H H L v 0.[   O                                                                                                 .   : A.Q D J H ",
"H H L v 0.[   O                                                                                                 .   : A.Q D J H ",
"H H L v 0.[   O                                                                                                 .   : A.Q D J H ",
"H H L v 0.[   O                                                                                                 .   : A.Q D J H ",
"H H L v 0.[   O                                                                                                 .   : A.Q D J H ",
"H H L v 0.[   O                                     . o           . X         . o .                             .   : A.Q D J H ",
"H H L v 0.[   O                         X .   X X                           X       . .                         .   : A.Q D J H ",
"H H L v 0.[   O                                 .   6 J +         + j %   X   3 ~ f   X                         .   : A.Q D J H ",
"H H L v 0.[   O                         F 2.6.>.m   ) B.@   X o   A D.Z     x x.x.! + =   .                     .   : A.Q D J H ",
"H H L v 0.[   O                   o   Y n.' W *. .  / f.O   . o   1 _ <   = k.o.  3 u.j   X                     .   : A.Q D J H ",
"H H L v 0.[   O                   .   4.-.  X   o   Q s.- e ,         X   l m.7   9 N.x   +                     .   : A.Q D J H ",
"H H L v 0.[   O                   X   } S.T O   +   P m.4.x.z.J   9 p.i | d.b.9.t.y.b.e.y.^   o                 .   : A.Q D J H ",
"H H L v 0.[   O                   .   = +.B.s.( &   K b.a - $.M.o w V.a ; ~ c.k u x x.E r 5   .                 .   : A.Q D J H ",
"H H L v 0.[   O                       X   3 / b.:.  J s.#   y n.7 4 b.s   j l.;   * k.j   X                     .   : A.Q D J H ",
"H H L v 0.[   O                           X   k C.3 V d.%   8 z.q 2 v.s   k l.2   - j.k   X                     .   : A.Q D J H ",
"H H L v 0.[   O                       T z = + ) n.O A g.$   7 b.w < m.d   h v.<   $ v.{ % =                     .   : A.Q D J H ",
"H H L v 0.[   O                       %.n.h.x.h.H   C r.#   6 p.0 : a.p   s i.,     ` B.m.L   o                 .   : A.Q D J H ",
"H H L v 0.[   O                         < h x >     O &     X * X . * o   o * .       6 t *                     .   : A.Q D J H ",
"H H L v 0.[   O                                 X                                   .                           .   : A.Q D J H ",
"H H L v 0.[   O                         . X X .     . .       .     .       .         . X .                     .   : A.Q D J H ",
"H H L v 0.[   O                                                                                                 .   : A.Q D J H ",
"H H L v 0.[   O                                                                                                 .   : A.Q D J H ",
"H H L v 0.[   O                                                                                                 .   : A.Q D J H ",
"H H L v 0.[   O                                                                                                 .   : A.Q D J H ",
"H H L v 0.[   O                                                                                                 .   : A.Q D J H ",
"H H L v 0.[   O                                                                                                 .   : A.Q D J H ",
"H H L v 0.[   O                                                                                                 .   : A.Q D J H ",
"H H L v 0.[   O                                                                                                 .   : A.Q D J H ",
"H H L v 0.[   O                                                                                                 .   : A.Q D J H ",
"H H L v 0.[   O                                                                                                 .   : A.Q D J H ",
"H H L v 0.[   O                                                                                                 .   : A.Q D J H ",
"H H L v 0.[   O                                                                                                 .   : A.Q D J H ",
"H H L v 0.[   O                                                                                                 .   : A.Q D J H ",
"H H L v 0.[   O                                                                                                 .   : A.Q D J H ",
"H H L v 0.[   O                                                                                                 .   : A.Q D J H ",
"H H L v 0.[   O                                                                                                 .   : A.Q D J H ",
"H H L v 0.[   O                                                                                                 .   : A.Q D J H ",
"H H L v 0.[   O                                                                                                 .   : A.Q D J H ",
"H H L v 0.[   O                                                                                                 .   : A.Q D J H ",
"H H L v q.[   # o o o o o o o o o o o o o o o o o o o o o o o o o o o o o o o o o o o o o o o o o o o o o o o o O   > A.! S J H ",
"H H L v 7.-.  O                                                                                                 X   g m.K G H H ",
"H H J D ^ b.X.N Z C C C C C C C C C C C C C C C C C C C C C C C C C C C C C C C C C C C C C C C C C C C C C C C C I d.&.N K H H ",
"J H H J A / =.#.#.#.#.#.#.#.#.#.#.#.#.#.#.#.#.#.#.#.#.#.#.#.#.#.#.#.#.#.#.#.#.#.#.#.#.#.#.#.#.#.#.#.#.#.#.#.#.#.@.&. .C J H H J ",
"G H H H J S n M M M M M M M M M M M M M M M M M M M M M M M M M M M M M M M M M M M M M M M M M M M M M M M M M M n V K H H H G ",
"Y H J H H J K K K K K K K K K K K K K K K K K K K K K K K K K K K K K K K K K K K K K K K K K K K K K K K K K K K K J H H J H R ",
"<.b H H H H H H H H H H H H H H H H H H H H H H H H H H H H H H H H H H H H H H H H H H H H H H H H H H H H H H H H H H H H b 1.",
"D.:.P G H H H H H H H H H H H H H H H H H H H H H H H H H H H H H H H H H H H H H H H H H H H H H H H H H H H H H H H H G P ;.D."
};
