/* XPM */
static char *result[] = {
/* columns rows colors chars-per-pixel */
"64 64 119 2 ",
"   c black",
".  c #010101",
"X  c #020202",
"o  c gray1",
"O  c #040404",
"+  c gray2",
"@  c #060606",
"#  c gray3",
"$  c gray6",
"%  c #161616",
"&  c gray11",
"*  c #313131",
"=  c gray20",
"-  c gray21",
";  c gray24",
":  c #3F3F3F",
">  c #414141",
",  c #444444",
"<  c gray27",
"1  c #464646",
"2  c gray28",
"3  c #484848",
"4  c #494949",
"5  c #4B4B4B",
"6  c #4C4C4C",
"7  c #4E4E4E",
"8  c gray31",
"9  c #505050",
"0  c #515151",
"q  c gray32",
"w  c #535353",
"e  c gray33",
"r  c #555555",
"t  c #565656",
"y  c gray34",
"u  c #585858",
"i  c #5A5A5A",
"p  c #5B5B5B",
"a  c gray36",
"s  c #5D5D5D",
"d  c gray37",
"f  c #646464",
"g  c #686868",
"h  c #6A6A6A",
"j  c #6F6F6F",
"k  c gray45",
"l  c gray46",
"z  c #777777",
"x  c #797979",
"c  c #7C7C7C",
"v  c #868686",
"b  c gray53",
"n  c #909090",
"m  c #929292",
"M  c gray58",
"N  c #959595",
"B  c #9D9D9D",
"V  c gray62",
"C  c #9F9F9F",
"Z  c gray63",
"A  c #A2A2A2",
"S  c gray64",
"D  c #A7A7A7",
"F  c gray67",
"G  c #ACACAC",
"H  c gray68",
"J  c #AEAEAE",
"K  c #AFAFAF",
"L  c gray69",
"P  c #B1B1B1",
"I  c #B9B9B9",
"U  c #BCBCBC",
"Y  c gray",
"T  c #C5C5C5",
"R  c #CBCBCB",
"E  c gray80",
"W  c #CDCDCD",
"Q  c #CECECE",
"!  c gray81",
"~  c #D0D0D0",
"^  c gray82",
"/  c LightGray",
"(  c gray83",
")  c #D5D5D5",
"_  c gray84",
"`  c #D7D7D7",
"'  c #D8D8D8",
"]  c gray85",
"[  c #DADADA",
"{  c gray86",
"}  c gainsboro",
"|  c #DDDDDD",
" . c gray87",
".. c #DFDFDF",
"X. c gray88",
"o. c #E1E1E1",
"O. c #E2E2E2",
"+. c gray89",
"@. c #E4E4E4",
"#. c gray90",
"$. c #E6E6E6",
"%. c #E7E7E7",
"&. c gray91",
"*. c #E9E9E9",
"=. c gray92",
"-. c #EEEEEE",
";. c #EFEFEF",
":. c gray94",
">. c gray95",
",. c #F3F3F3",
"<. c #F4F4F4",
"1. c gray96",
"2. c #F6F6F6",
"3. c gray97",
"4. c #F9F9F9",
"5. c gray98",
"6. c #FBFBFB",
"7. c gray99",
"8. c white",
/* pixels */
"4.B u w e e e e e e e e e e e e e e e e e e e e e e e e e e e e e e e e e e e e e e e e e e e e e e e e e e e e e e e e e u V 5.",
"A , e e e e e e e e e e e e e e e e e e e e e e e e e e e e e e e e e e e e e e e e e e e e e e e e e e e e e e e e e e e e , S ",
"s e r e e r y y y y y y y y y y y y y y y y y y y y y y y y y y y y y y y y y y y y y y y y y y y y y y y y y y y y t e e r w a ",
"e e e e r 9 1 1 1 1 1 1 1 1 1 1 1 1 1 1 1 1 1 1 1 1 1 1 1 1 1 1 1 1 1 1 1 1 1 1 1 1 1 1 1 1 1 1 1 1 1 1 1 1 1 1 1 < 5 r e e e w ",
"r e e r 7 g F J H H H H H H H H H H H H H H H H H H H H H H H H H H H H H H H H H H H H H H H H H H H H H H H H G P v 7 r e e r ",
"e e r 0 f $.8.1.2.2.2.2.2.2.2.2.2.2.2.2.2.2.2.2.2.2.2.2.2.2.2.2.2.2.2.2.2.2.2.2.2.2.2.2.2.2.2.2.2.2.2.2.2.2.2.2.2.3.8.m 6 t e e ",
"e e y 1 D 7.! / / / / / / / / / / / / / / / / / / / / / / / / / / / / / / / / / / / / / / / / / / / / / / / / / / ~ $.$.u w e e ",
"e e y 1 H 1.( { [ [ [ [ [ [ [ [ [ [ [ [ [ [ [ [ [ [ [ [ [ [ [ [ [ [ [ [ [ [ [ [ [ [ [ [ [ [ [ [ [ [ [ [ [ [ [ [ [ ] | ,.d 0 r e ",
"e e y 1 G 3./ [ ] ] ] ] ] ] ] ] ] ] ] ] ] ] ] ] ] ] ] ] ] ] ] ] ] ] ] ] ] ] ] ] ] ] ] ] ] ] ] ] ] ] ] ] ] ] ] ] ] '  .,.d 0 r e ",
"e e y 1 H 3./ [ ] ] ] ] ] ] ] ] ] ] ] ] ] ] ] ] ] ] ] ] ] ] ] ] ] ] ] ] ] ] ] ] ] ] ] ] ] ] ] ] ] ] ] ] ] ] ] ] ] '  .<.d 0 r e ",
"e e y 1 H 3./ [ ] ] ] ] ] ] ] ] ] ] ] ] ] ] ] ] ] ] ] ] ] ] ] ] ] ] ] ] ] ] ] ] ] ] ] ] ] ] ] ] ] ] ] ] ] ] ] ] ] '  .<.d 0 r e ",
"e e y 1 H 3./ [ ] ] ] ] ] ] ] ] ] ] ] ] ] ] ] ] ] ] ] ] ] ] ] ] ] ] ] ] ] ] ] ] ] ] ] ] ] ] ] ] ] ] ] ] ] ] ] ] ] '  .<.d 0 r e ",
"e e y 1 H 3./ [ ] ] ] ] ] ] ] ] ] ] ] ] ] ] ] ] ] ] ] ] ] ] ] ] ] ] ] ] ] ] ] ] ] ] ] ] ] ] ] ] ] ] ] ] ] ] ] ] ] '  .<.d 0 r e ",
"e e y 1 H 3./ [ ] ] ] ] ] ] ] ] ] ] ] ] ] ] ] ] ] ] ] ] ] ] ] ] ] ] ] ] ] ] ] ] ] ] ] ] ] ] ] ] ] ] ] ] ] ] ] ] ] '  .<.d 0 r e ",
"e e y 1 H 3./ [ ] ] ] ] ] ] ] ] ] ] ] ] ] ] ] ] ] ] ] ] ] ] ] ] ] ] ] ] ] ] ] ] ] ] ] ] ] ] ] ] ] ] ] ] ] ] ] ] ] '  .<.d 0 r e ",
"e e y 1 H 3./ [ ] ] ] ] ] ] ] ] ] ] ] ] ] ] ] ] ] ] ] ] ] ] ] ] ] ] ] ] ] ] ] ] ] ] ] ] ] ] ] ] ] ] ] ] ] ] ] ] ] '  .<.d 0 r e ",
"e e y 1 H 3./ [ ] ] ] ] ] ] ] ] ] ] ] ] ] ] ] ] ] ] ] ] ] ] ] ] ] ] ] ] ] ] ] ] ] ] ] ] ] ] ] ] ] ] ] ] ] ] ] ] ] '  .<.d 0 r e ",
"e e y 1 H 3./ [ ] ] ] ] ] ] ] ] ] ] ] ] ] ] ] ] ] ] ] ] ] ] ] ] ] ] ] ] ] ] ] ] ] ] ] ] ] ] ] ] ] ] ] ] ] ] ] ] ] '  .<.d 0 r e ",
"e e y 1 H 3./ [ ] ] ] ] ] ] ] ] ] ] ] ] ] ] ] ] ] ] ] ] ] ] ] ] ] ] ] ] ] ] ] ] ] ] ] ] ] ] ] ] ] ] ] ] ] ] ] ] ] '  .<.d 0 r e ",
"e e y 1 H 3./ [ ] ] ] ] ] ] ] ] ] ] ] ] ] ] ] ] ] ] ] ] ] ] ] ] ] ] ] ] ] ] ] ] ] ] ] ] ] ] ] ] ] ] ] ] ] ] ] ] ] '  .<.d 0 r e ",
"e e y 1 H 3./ [ ] ] ] ] ] ] ] ] ] ] ] ] ] ] ] ] ] ] ] ] ] ] ' ' ] ] ] ] ] ] ] ] ] ] ] ] ] ] ] ] ] ] ] ] ] ] ] ] ] '  .<.d 0 r e ",
"e e y 1 H 3./ [ ] ] ] ] ] ] ] ] ] ] ] ] ] ] ] ] ] ] ] ] ] `  .{ ] ] ] ] ] ] ] ] ] ] ] ] ] ] ] ] ] ] ] ] ] ] ] ] ] '  .<.d 0 r e ",
"e e y 1 H 3./ [ ] ] ] ] ] ] ] ] ] ] ] ] ] ] ] ] ] ] ] ] _ @.Y R } ] ] ] ] ] ] ] ] ] ] ] ] ] ] ] ] ] ] ] ] ] ] ] ] '  .<.d 0 r e ",
"e e y 1 H 3./ [ ] ] ] ] ] ] ] ] ] ] ] ] ] ] ] ] ] ] ] _ &.D & U X.' ] ] ] ] ] ] ] ] ] ] ] ] ] ] ] ] ] ] ] ] ] ] ] '  .<.d 0 r e ",
"e e y 1 H 3./ [ ] ] ] ] ] ] ] ] ] ] ] ] ] ] ] ] ] ' ` %.M # @ T o.{ } } } } } [ ] ] ] ] ] ] ] ] ] ] ] ] ] ] ] ] ] '  .<.d 0 r e ",
"e e y 1 H 3./ [ ] ] ] ] ] ] ] ] ] ] ] ] ] ] ] ] ' [ @.x .   O - : ; ; ; ; : = N @._ ] ] ] ] ] ] ] ] ] ] ] ] ] ] ] '  .<.d 0 r e ",
"e e y 1 H 3./ [ ] ] ] ] ] ] ] ] ] ] ] ] ] ] ] ' } ..d   o .               o   z *.) ] ] ] ] ] ] ] ] ] ] ] ] ] ] ] '  .<.d 0 r e ",
"e e y 1 H 3./ [ ] ] ] ] ] ] ] ] ] ] ] ] ] ] ' [ _ >   O .     X X X X X X +   c &.) ] ] ] ] ] ] ] ] ] ] ] ] ] ] ] '  .<.d 0 r e ",
"e e y 1 H 3./ [ ] ] ] ] ] ] ] ] ] ] ] ] ] ] ] ] { h   X X     o o o o o o @   c &._ ] ] ] ] ] ] ] ] ] ] ] ] ] ] ] '  .<.d 0 r e ",
"e e y 1 H 3./ [ ] ] ] ] ] ] ] ] ] ] ] ] ] ] ] ' ] &.b +   X               o   l *.) ] ] ] ] ] ] ] ] ] ] ] ] ] ] ] '  .<.d 0 r e ",
"e e y 1 H 3./ [ ] ] ] ] ] ] ] ] ] ] ] ] ] ] ] ] ] _ %.B $   @ 5 t e e e e t 6 C +.` ] ] ] ] ] ] ] ] ] ] ] ] ] ] ] '  .<.d 0 r e ",
"e e y 1 H 3./ [ ] ] ] ] ] ] ] ] ] ] ] ] ] ] ] ] ] ] ) $.L % O E &.O.+.+.+.+.@. .' ] ] ] ] ] ] ] ] ] ] ] ] ] ] ] ] '  .<.d 0 r e ",
"e e y 1 H 3./ [ ] ] ] ] ] ] ] ] ] ] ] ] ] ] ] ] ] ] ] ) #.Y * I  ._ ` ` ` ` ` ' ] ] ] ] ] ] ] ] ] ] ] ] ] ] ] ] ] '  .<.d 0 r e ",
"e e y 1 H 3./ [ ] ] ] ] ] ] ] ] ] ] ] ] ] ] ] ] ] ] ] ] _ o.W Q { ] ] ] ] ] ] ] ] ] ] ] ] ] ] ] ] ] ] ] ] ] ] ] ] '  .<.d 0 r e ",
"e e y 1 H 3./ [ ] ] ] ] ] ] ] ] ] ] ] ] ] ] ] ] ] ] ] ] ] ` { { ] ] ] ] ] ] ] ] ] ] ] ] ] ] ] ] ] ] ] ] ] ] ] ] ] '  .<.d 0 r e ",
"e e y 1 H 3./ [ ] ] ] ] ] ] ] ] ] ] ] ] ] ] ] ] ] ] ] ] ] ] ' ] ] ] ] ] ] ] ] ] ] ] ] ] ] ] ] ] ] ] ] ] ] ] ] ] ] '  .<.d 0 r e ",
"e e y 1 H 3./ [ ] ] ] ] ] ] ] ] ] ] ] ] ] ] ] ] ] ] ] ] ] ] ] ] ] ] ] ] ] ] ] ] ] ] ] ] ] ] ] ] ] ] ] ] ] ] ] ] ] '  .<.d 0 r e ",
"e e y 1 H 3./ [ ] ] ] ] ] ] ] ] ] ] ] ] ] ] ] ] ] ] ] ] ] ] ] ] ] ] ] ] ] ] ] ] ] ] ] ] ] ] ] ] ] ] ] ] ] ] ] ] ] '  .<.d 0 r e ",
"e e y 1 H 3./ [ ] ] ] ] ] ] ] ] ] ] ] ] ] ] ] ] ] ] ] ] ] ] ] ] ] ] ] ] ] ] ] ] ] ] ] ] ] ] ] ] ] ] ] ] ] ] ] ] ] '  .<.d 0 r e ",
"e e y 1 H 3./ [ ] ] ] ] ] ] ] ] ] ] ] ] ] ] ] ] ] ] ] ] ] ] ] ] ] ] ] ] ] ] ] ] ] ] ] ] ] ] ] ] ] ] ] ] ] ] ] ] ] '  .<.d 0 r e ",
"e e y 1 H 3./ [ ] ] ] ] ] ] ] ] ] ] ] ] ] ] ] ] ] ] ] ] ] ] ] ] ] ] ] ] ] ] ] ] ] ] ] ] ] ] ] ] ] ] ] ] ] ] ] ] ] '  .<.d 0 r e ",
"e e y 1 H 3./ [ ] ] ] ] ] ] ] ] ] ] ] ] ] ] ] ] ] ] ] ] ] ] ] ] ] ] ] ] ] ] ] ] ] ] ] ] ] ] ] ] ] ] ] ] ] ] ] ] ] '  .<.d 0 r e ",
"e e y 1 H 3./ [ ] ] ] ] ] ] ] ] ] ] ] ] ] ] ] ] ] ] ] ] ] ] ] ] ] ] ] ] ] ] ] ] ] ] ] ] ] ] ] ] ] ] ] ] ] ] ] ] ] '  .<.d 0 r e ",
"e e y 1 H 3./ [ ] ] ] ] ] ] ] ] ] ] ] ] ] ] ] ] ] ] ] ] ] ] ] ] ] ] ] ] ] ] ] ] ] ] ] ] ] ] ] ] ] ] ] ] ] ] ] ] ] '  .<.d 0 r e ",
"e e y 1 H 3./ [ ] ] ] ] ] ] ] ] ] ] ] ] ] ] ] ] ] ] ] ] ] ] ] ] ] ] ] ] ] ] ] ] ] ] ] ] ] ] ] ] ] ] ] ] ] ] ] ] ] '  .<.d 0 r e ",
"e e y 1 H 3./ [ ] ] ] ] ] ] ] ] ] ] ] ] ] ] ] ] ] ] ] ] ] ] ] ] ] ] ] ] ] ] ] ] ] ] ] ] ] ] ] ] ] ] ] ] ] ] ] ] ] '  .<.d 0 r e ",
"e e y 1 H 3./ [ ] ] ] ] ] ] ] ] ] ] ] ] ] ] ] ] ] ] ] ] ] ] ] ] ] ] ] ] ] ] ] ] ] ] ] ] ] ] ] ] ] ] ] ] ] ] ] ] ] '  .<.d 0 r e ",
"e e y 1 H 3./ [ ] ] ] ] ] ] ] ] ] ] ] ] ] ] ] ] ] ] ] ] ] ] ] ] ] ] ] ] ] ] ] ] ] ] ] ] ] ] ] ] ] ] ] ] ] ] ] ] ] '  .<.d 0 r e ",
"e e y 1 H 3./ [ ] ] ] ] ] ] ] ] ] ] ] ] ] ] ] ] ] ] ] ] ] ] ] ] ] ] ] ] ] ] ] ] ] ] ] ] ] ] ] ] ] ] ] ] ] ] ] ] ] '  .<.d 0 r e ",
"e e y 1 H 3./ [ ] ] ] ] ] ] ] ] ] ] ] ] ] ] ] ] ] ] ] ] ] ] ] ] ] ] ] ] ] ] ] ] ] ] ] ] ] ] ] ] ] ] ] ] ] ] ] ] ] '  .<.d 0 r e ",
"e e y 1 H 3./ [ ] ] ] ] ] ] ] ] ] ] ] ] ] ] ] ] ] ] ] ] ] ] ] ] ] ] ] ] ] ] ] ] ] ] ] ] ] ] ] ] ] ] ] ] ] ] ] ] ] '  .<.d 0 r e ",
"e e y 1 H 3./ [ ] ] ] ] ] ] ] ] ] ] ] ] ] ] ] ] ] ] ] ] ] ] ] ] ] ] ] ] ] ] ] ] ] ] ] ] ] ] ] ] ] ] ] ] ] ] ] ] ] '  .<.d 0 r e ",
"e e y 1 H 3./ [ ] ] ] ] ] ] ] ] ] ] ] ] ] ] ] ] ] ] ] ] ] ] ] ] ] ] ] ] ] ] ] ] ] ] ] ] ] ] ] ] ] ] ] ] ] ] ] ] ] '  .<.d 0 r e ",
"e e y 1 H 3./ [ ] ] ] ] ] ] ] ] ] ] ] ] ] ] ] ] ] ] ] ] ] ] ] ] ] ] ] ] ] ] ] ] ] ] ] ] ] ] ] ] ] ] ] ] ] ] ] ] ] '  .<.d 0 r e ",
"e e y 1 H 3./ [ ] ] ] ] ] ] ] ] ] ] ] ] ] ] ] ] ] ] ] ] ] ] ] ] ] ] ] ] ] ] ] ] ] ] ] ] ] ] ] ] ] ] ] ] ] ] ] ] ] '  .<.d 0 r e ",
"e e y 1 H 3./ [ ] ] ] ] ] ] ] ] ] ] ] ] ] ] ] ] ] ] ] ] ] ] ] ] ] ] ] ] ] ] ] ] ] ] ] ] ] ] ] ] ] ] ] ] ] ] ] ] ] '  .,.d 0 r e ",
"e e y 1 G 2.( [ ] ] ] ] ] ] ] ] ] ] ] ] ] ] ] ] ] ] ] ] ] ] ] ] ] ] ] ] ] ] ] ] ] ] ] ] ] ] ] ] ] ] ] ] ] ] ] ] ] ' | ,.d 0 r e ",
"e e y < G 6.! ) ) ) ) ) ) ) ) ) ) ) ) ) ) ) ) ) ) ) ) ) ) ) ) ) ) ) ) ) ) ) ) ) ) ) ) ) ) ) ) ) ) ) ) ) ) ) ) ) ) ^ O.=.i q r e ",
"e e r 8 j >.4.-.;.;.;.;.;.;.;.;.;.;.;.;.;.;.;.;.;.;.;.;.;.;.;.;.;.;.;.;.;.;.;.;.;.;.;.;.;.;.;.;.;.;.;.;.;.;.;.;.;.:.8.Z 6 t e e ",
"r e e t 6 k K K K K K K K K K K K K K K K K K K K K K K K K K K K K K K K K K K K K K K K K K K K K K K K K K K J P n 0 e e e r ",
"w e e e t 7 2 4 4 4 4 4 4 4 4 4 4 4 4 4 4 4 4 4 4 4 4 4 4 4 4 4 4 4 4 4 4 4 4 4 4 4 4 4 4 4 4 4 4 4 4 4 4 4 4 4 4 3 4 e e e e w ",
"p e r e e t y t t t t t t t t t t t t t t t t t t t t t t t t t t t t t t t t t t t t t t t t t t t t t t t t t t y t e e r e s ",
"A , e e e e e e e e e e e e e e e e e e e e e e e e e e e e e e e e e e e e e e e e e e e e e e e e e e e e e e e e e e e e , S ",
"4.V u w e e e e e e e e e e e e e e e e e e e e e e e e e e e e e e e e e e e e e e e e e e e e e e e e e e e e e e e e w u B 4."
};
