/* XPM */
static char *result[] = {
/* columns rows colors chars-per-pixel */
"64 64 115 2 ",
"   c black",
".  c #010101",
"X  c #040404",
"o  c gray4",
"O  c #101010",
"+  c gray8",
"@  c #161616",
"#  c #181818",
"$  c #191919",
"%  c #1B1B1B",
"&  c gray13",
"*  c gray17",
"=  c #2C2C2C",
"-  c #323232",
";  c #343434",
":  c gray21",
">  c #3A3A3A",
",  c #414141",
"<  c #434343",
"1  c #444444",
"2  c gray27",
"3  c #464646",
"4  c gray28",
"5  c #484848",
"6  c #494949",
"7  c #4B4B4B",
"8  c #4C4C4C",
"9  c #4E4E4E",
"0  c gray31",
"q  c #505050",
"w  c #515151",
"e  c gray32",
"r  c #535353",
"t  c gray33",
"y  c #555555",
"u  c #565656",
"i  c gray34",
"p  c #585858",
"a  c #5A5A5A",
"s  c #5B5B5B",
"d  c gray36",
"f  c #5D5D5D",
"g  c gray37",
"h  c gray39",
"j  c #646464",
"k  c #686868",
"l  c gray42",
"z  c #6F6F6F",
"x  c gray44",
"c  c #727272",
"v  c gray45",
"b  c #767676",
"n  c gray48",
"m  c #868686",
"M  c #8E8E8E",
"N  c #909090",
"B  c #929292",
"V  c #9B9B9B",
"C  c #9D9D9D",
"Z  c gray62",
"A  c gray63",
"S  c #A2A2A2",
"D  c gray64",
"F  c #A7A7A7",
"G  c gray67",
"H  c #ACACAC",
"J  c gray68",
"K  c #AEAEAE",
"L  c #AFAFAF",
"P  c #B1B1B1",
"I  c gray72",
"U  c #B9B9B9",
"Y  c #BCBCBC",
"T  c #C0C0C0",
"R  c #C1C1C1",
"E  c gray80",
"W  c gray81",
"Q  c #D0D0D0",
"!  c gray82",
"~  c LightGray",
"^  c gray83",
"/  c #D5D5D5",
"(  c gray84",
")  c #D7D7D7",
"_  c #D8D8D8",
"`  c gray85",
"'  c #DADADA",
"]  c gray86",
"[  c gainsboro",
"{  c #DDDDDD",
"}  c gray87",
"|  c #DFDFDF",
" . c gray88",
".. c #E1E1E1",
"X. c #E2E2E2",
"o. c gray89",
"O. c #E4E4E4",
"+. c #E6E6E6",
"@. c gray91",
"#. c #E9E9E9",
"$. c gray92",
"%. c #EEEEEE",
"&. c #EFEFEF",
"*. c gray94",
"=. c gray95",
"-. c #F3F3F3",
";. c #F4F4F4",
":. c gray96",
">. c #F6F6F6",
",. c gray97",
"<. c #F9F9F9",
"1. c gray98",
"2. c #FBFBFB",
"3. c gray99",
"4. c white",
/* pixels */
"<.C p r t t t t t t t t t t t t t t t t t t t t t t t t t t t t t t t t t t t t t t t t t t t t t t t t t t t t t t t t t p Z 1.",
"S 1 t t t t t t t t t t t t t t t t t t t t t t t t t t t t t t t t t t t t t t t t t t t t t t t t t t t t t t t t t t t t 1 D ",
"f t y t t y i i i i i i i i i i i i i i i i i i i i i i i i i i i i i i i i i i i i i i i i i i i i i i i i i i i i u t t y r d ",
"t t t t y q 3 3 3 3 3 3 3 3 3 3 3 3 3 3 3 3 3 3 3 3 3 3 3 3 3 3 3 3 3 3 3 3 3 3 3 3 3 3 3 3 3 3 3 3 3 3 3 3 3 3 3 2 7 y t t t r ",
"y t t y 9 k G K J J J J J J J J J J J J J J J J J J J J J J J J J J J J J J J J J J J J J J J J J J J J J J J J H P m 9 y t t y ",
"t t y w j +.4.:.>.>.>.>.>.>.>.>.>.>.>.>.>.>.>.>.>.>.>.>.>.>.>.>.>.>.>.>.>.>.>.>.>.>.>.>.>.>.>.>.>.>.>.>.>.>.>.>.>.,.4.B 8 u t t ",
"t t i 3 F 3.W ~ ~ ~ ~ ~ ~ ~ ~ ~ ~ ~ ~ ~ ~ ~ ~ ~ ~ ~ ~ ~ ~ ~ ~ ~ ~ ~ ~ ~ ~ ~ ~ ~ ~ ~ ~ ~ ~ ~ ~ ~ ~ ~ ~ ~ ~ ~ ~ ~ ~ Q +.+.p r t t ",
"t t i 3 J :.^ ] ' ' ' ' ' ' ' ' ' ' ' ' ' ' ' ' ' ' ' ' ' ' ' ' ' ' ' ' ' ' ' ' ' ' ' ' ' ' ' ' ' ' ' ' ' ' ' ' ' ` { -.g w y t ",
"t t i 3 H ,.~ ' ` ` ` ` ` ` ` ` ` ` ` ` ` ` ` ` ` ` ` ` ` ` ` ` ` ` ` ` ` ` ` ` ` ` ` ` ` ` ` ` ` ` ` ` ` ` ` ` ` _ } -.g w y t ",
"t t i 3 J ,.~ ' ` ` ` ` ` ` ` ` ` ` ` ` ` ` ` ` ` ` ` ` ` ` ` ` ` ` ` ` ` ` ` ` ` ` ` ` ` ` ` ` ` ` ` ` ` ` ` ` ` _ } ;.g w y t ",
"t t i 3 J ,.~ ' ` ` ` ` ` ` ` ` ` ` ` ` ` ` ` ` ` ` ` ` ` ` ` ` ` ` ` ` ` ` ` ` ` ` ` ` ` ` ` ` ` ` ` ` ` ` ` ` ` _ } ;.g w y t ",
"t t i 3 J ,.~ ' ` ` ` ` ` ` ` ` ` ` ` ` ` ` ` ` ` ` ` ` ` ` ` ` ` ` ` ` ` ` ` ` ` ` ` ` ` ` ` ` ` ` ` ` ` ` ` ` ` _ } ;.g w y t ",
"t t i 3 J ,.~ ' ` ` ` ` ` ` ` ` ` ` ` ` ` ` ` ` ` ` ` ` ` ` ` ` ` ` ` ` ` ` ` ` ` ` ` ` ` ` ` ` ` ` ` ` ` ` ` ` ` _ } ;.g w y t ",
"t t i 3 J ,.~ ' ` ` ` ` ` ` ` ` ` ` ` ` ` ` ` ` ` ` ` ` ` ` ` ` ` ` ` ` ` ` ` ` ` ` ` ` ` ` ` ` ` ` ` ` ` ` ` ` ` _ } ;.g w y t ",
"t t i 3 J ,.~ ' ` ` ` ` ` ` ` ` ` ` ` ` ` ` ` ` ` ` ` ` ` ` ` ` ` ` ` ` ` ` ` ` ` ` ` ` ` ` ` ` ` ` ` ` ` ` ` ` ` _ } ;.g w y t ",
"t t i 3 J ,.~ ' ` ` ` ` ` ` ` ` ` ` ` ` ` ` ` ` ` ` ` ` ` ` ` ` ` ` ` ` ` ` ` ` ` ` ` ` ` ` ` ` ` ` ` ` ` ` ` ` ` _ } ;.g w y t ",
"t t i 3 J ,.~ ' ` ` ` ` ` ` ` ` ` ` ` ` ` ` ` ` ` ` ` ` ` ` ` ` ` ` ` ` ` ` ` ` ` ` ` ` ` ` ` ` ` ` ` ` ` ` ` ` ` _ } ;.g w y t ",
"t t i 3 J ,.~ ' ` ` ` ` ` ` ` ` ` ` ` ` ` ` ` ` ` ` ` ` ` ` ` ` ` ` ` ` ` ` ` ` ` ` ` ` ` ` ` ` ` ` ` ` ` ` ` ` ` _ } ;.g w y t ",
"t t i 3 J ,.~ ' ` ` ` ` ` ` ` ` ` ` ` ` ` ` ` ` ` ` ` ` ` ` ` ` ` ` ` ` ` ` ` ` ` ` ` ` ` ` ` ` ` ` ` ` ` ` ` ` ` _ } ;.g w y t ",
"t t i 3 J ,.~ ' ` ` ` ` ` ` ` ` ` ` ` ` ` ` ` ` ` ` ` ` ` ` ` ` ` ` ` ` ` ` ` ` ` ` ` ` ` ` ` ` ` ` ` ` ` ` ` ` ` _ } ;.g w y t ",
"t t i 3 J ,.~ ' ` ` ` ` ` ` ` ` ` ` ` ` ` ` ` ` ` ` ` ` ` ` ` ` ` ` ` ` ` ` ` ` ` ` ` ` ` ` ` ` ` ` ` ` ` ` ` ` ` _ } ;.g w y t ",
"t t i 3 J ,.~ ' ` ` ` ` ` ` ` ` ` ` ` ` ` ` ` ` ` ` ` ` ` ` ` ` ` ` ` ` ` ` ` ` ` ` ` ` ` ` ` ` ` ` ` ` ` ` ` ` ` _ } ;.g w y t ",
"t t i 3 J ,.~ ' ` ` ` ` ` ` ` ` ` ` ` ` ` ` ` ` ` ` ` ` ` ` ` ` ` ` ` ` ` ` ` ` ` ` ` ` ` ` ` ` ` ` ` ` ` ` ` ` ` _ } ;.g w y t ",
"t t i 3 J ,.~ ' ` ` ` ` ` ` ` ` ` ` ` ` ` ` ` ` ` ` ` ` ` ` ` ` ` ` ` ` ` ` ` ` ` ` ` ` ` ` ` ` ` ` ` ` ` ` ` ` ` _ } ;.g w y t ",
"t t i 3 J ,.~ ' ` ` ` ` ` ` ` ` ` ` ` ` ` ` ` ` ` ` ` ` ` ` ` ` ` ` ` ` ` ` ` ` ` ` ` ` ` ` ` ` ` ` ` ` ` ` ` ` ` _ } ;.g w y t ",
"t t i 3 J ,.~ ' ` ` ` ` ` ` ` ` ` ` ` ` ` ` ` ` ` ` ` _ _ ` ` _ _ ` ` _ _ ` ` ` ` ` ` ` ` ` ` ` ` ` ` ` ` ` ` ` ` _ } ;.g w y t ",
"t t i 3 J ,.~ ' ` ` ` ` ` ` ` ` ` ` ` ` ` ` ` ` ` ` ` ' ] ` ` ` ] ` ` ' ' ` ` ` ` ` ` ` ` ` ` ` ` ` ` ` ` ` ` ` ` _ } ;.g w y t ",
"t t i 3 J ,.~ ' ` ` ` ` ` ` ` ` ` ` ` ` ` ` ` ` ` ` ' / ! ' ' _ ~ ` ' ) / ` ` ` ` ` ` ` ` ` ` ` ` ` ` ` ` ` ` ` ` _ } ;.g w y t ",
"t t i 3 J ,.~ ' ` ` ` ` ` ` ` ` ` ` ` ` ` ` ` ` ` ( +.M $ E @.x # ! @.s i O.) ` ` ` ` ` ` ` ` ` ` ` ` ` ` ` ` ` ` _ } ;.g w y t ",
"t t i 3 J ,.~ ' ` ` ` ` ` ` ` ` ` ` ` ` ` ` ` ` ` _  .U . C O.=   F o.@ b #.( ` ` ` ` ` ` ` ` ` ` ` ` ` ` ` ` ` ` _ } ;.g w y t ",
"t t i 3 J ,.~ ' ` ` ` ` ` ` ` ` ` ` ` ` ` ` ` ` ` ` _ X.* h Y : < k T o T | _ ` ` ` ` ` ` ` ` ` ` ` ` ` ` ` ` ` ` _ } ;.g w y t ",
"t t i 3 J ,.~ ' ` ` ` ` ` ` ` ` ` ` ` ` ` ` ` ` ` ` ( #.x ; l h V , c - .._ ` ` ` ` ` ` ` ` ` ` ` ` ` ` ` ` ` ` ` _ } ;.g w y t ",
"t t i 3 J ,.~ ' ` ` ` ` ` ` ` ` ` ` ` ` ` ` ` ` ` ` _ | I O % C ( & # n #.( ` ` ` ` ` ` ` ` ` ` ` ` ` ` ` ` ` ` ` _ } ;.g w y t ",
"t t i 3 J ,.~ ' ` ` ` ` ` ` ` ` ` ` ` ` ` ` ` ` ` ` ` ` { > + Q O.0 X R } _ ` ` ` ` ` ` ` ` ` ` ` ` ` ` ` ` ` ` ` _ } ;.g w y t ",
"t t i 3 J ,.~ ' ` ` ` ` ` ` ` ` ` ` ` ` ` ` ` ` ` ` ` ` ' ^ ! ' ' / W ] ` ` ` ` ` ` ` ` ` ` ` ` ` ` ` ` ` ` ` ` ` _ } ;.g w y t ",
"t t i 3 J ,.~ ' ` ` ` ` ` ` ` ` ` ` ` ` ` ` ` ` ` ` ` ` ` ] ] ` ` ' [ ` ` ` ` ` ` ` ` ` ` ` ` ` ` ` ` ` ` ` ` ` ` _ } ;.g w y t ",
"t t i 3 J ,.~ ' ` ` ` ` ` ` ` ` ` ` ` ` ` ` ` ` ` ` ` ` ` _ _ ` ` _ _ ` ` ` ` ` ` ` ` ` ` ` ` ` ` ` ` ` ` ` ` ` ` _ } ;.g w y t ",
"t t i 3 J ,.~ ' ` ` ` ` ` ` ` ` ` ` ` ` ` ` ` ` ` ` ` ` ` ` ` ` ` ` ` ` ` ` ` ` ` ` ` ` ` ` ` ` ` ` ` ` ` ` ` ` ` _ } ;.g w y t ",
"t t i 3 J ,.~ ' ` ` ` ` ` ` ` ` ` ` ` ` ` ` ` ` ` ` ` ` ` ` ` ` ` ` ` ` ` ` ` ` ` ` ` ` ` ` ` ` ` ` ` ` ` ` ` ` ` _ } ;.g w y t ",
"t t i 3 J ,.~ ' ` ` ` ` ` ` ` ` ` ` ` ` ` ` ` ` ` ` ` ` ` ` ` ` ` ` ` ` ` ` ` ` ` ` ` ` ` ` ` ` ` ` ` ` ` ` ` ` ` _ } ;.g w y t ",
"t t i 3 J ,.~ ' ` ` ` ` ` ` ` ` ` ` ` ` ` ` ` ` ` ` ` ` ` ` ` ` ` ` ` ` ` ` ` ` ` ` ` ` ` ` ` ` ` ` ` ` ` ` ` ` ` _ } ;.g w y t ",
"t t i 3 J ,.~ ' ` ` ` ` ` ` ` ` ` ` ` ` ` ` ` ` ` ` ` ` ` ` ` ` ` ` ` ` ` ` ` ` ` ` ` ` ` ` ` ` ` ` ` ` ` ` ` ` ` _ } ;.g w y t ",
"t t i 3 J ,.~ ' ` ` ` ` ` ` ` ` ` ` ` ` ` ` ` ` ` ` ` ` ` ` ` ` ` ` ` ` ` ` ` ` ` ` ` ` ` ` ` ` ` ` ` ` ` ` ` ` ` _ } ;.g w y t ",
"t t i 3 J ,.~ ' ` ` ` ` ` ` ` ` ` ` ` ` ` ` ` ` ` ` ` ` ` ` ` ` ` ` ` ` ` ` ` ` ` ` ` ` ` ` ` ` ` ` ` ` ` ` ` ` ` _ } ;.g w y t ",
"t t i 3 J ,.~ ' ` ` ` ` ` ` ` ` ` ` ` ` ` ` ` ` ` ` ` ` ` ` ` ` ` ` ` ` ` ` ` ` ` ` ` ` ` ` ` ` ` ` ` ` ` ` ` ` ` _ } ;.g w y t ",
"t t i 3 J ,.~ ' ` ` ` ` ` ` ` ` ` ` ` ` ` ` ` ` ` ` ` ` ` ` ` ` ` ` ` ` ` ` ` ` ` ` ` ` ` ` ` ` ` ` ` ` ` ` ` ` ` _ } ;.g w y t ",
"t t i 3 J ,.~ ' ` ` ` ` ` ` ` ` ` ` ` ` ` ` ` ` ` ` ` ` ` ` ` ` ` ` ` ` ` ` ` ` ` ` ` ` ` ` ` ` ` ` ` ` ` ` ` ` ` _ } ;.g w y t ",
"t t i 3 J ,.~ ' ` ` ` ` ` ` ` ` ` ` ` ` ` ` ` ` ` ` ` ` ` ` ` ` ` ` ` ` ` ` ` ` ` ` ` ` ` ` ` ` ` ` ` ` ` ` ` ` ` _ } ;.g w y t ",
"t t i 3 J ,.~ ' ` ` ` ` ` ` ` ` ` ` ` ` ` ` ` ` ` ` ` ` ` ` ` ` ` ` ` ` ` ` ` ` ` ` ` ` ` ` ` ` ` ` ` ` ` ` ` ` ` _ } ;.g w y t ",
"t t i 3 J ,.~ ' ` ` ` ` ` ` ` ` ` ` ` ` ` ` ` ` ` ` ` ` ` ` ` ` ` ` ` ` ` ` ` ` ` ` ` ` ` ` ` ` ` ` ` ` ` ` ` ` ` _ } ;.g w y t ",
"t t i 3 J ,.~ ' ` ` ` ` ` ` ` ` ` ` ` ` ` ` ` ` ` ` ` ` ` ` ` ` ` ` ` ` ` ` ` ` ` ` ` ` ` ` ` ` ` ` ` ` ` ` ` ` ` _ } ;.g w y t ",
"t t i 3 J ,.~ ' ` ` ` ` ` ` ` ` ` ` ` ` ` ` ` ` ` ` ` ` ` ` ` ` ` ` ` ` ` ` ` ` ` ` ` ` ` ` ` ` ` ` ` ` ` ` ` ` ` _ } ;.g w y t ",
"t t i 3 J ,.~ ' ` ` ` ` ` ` ` ` ` ` ` ` ` ` ` ` ` ` ` ` ` ` ` ` ` ` ` ` ` ` ` ` ` ` ` ` ` ` ` ` ` ` ` ` ` ` ` ` ` _ } ;.g w y t ",
"t t i 3 J ,.~ ' ` ` ` ` ` ` ` ` ` ` ` ` ` ` ` ` ` ` ` ` ` ` ` ` ` ` ` ` ` ` ` ` ` ` ` ` ` ` ` ` ` ` ` ` ` ` ` ` ` _ } ;.g w y t ",
"t t i 3 J ,.~ ' ` ` ` ` ` ` ` ` ` ` ` ` ` ` ` ` ` ` ` ` ` ` ` ` ` ` ` ` ` ` ` ` ` ` ` ` ` ` ` ` ` ` ` ` ` ` ` ` ` _ } ;.g w y t ",
"t t i 3 J ,.~ ' ` ` ` ` ` ` ` ` ` ` ` ` ` ` ` ` ` ` ` ` ` ` ` ` ` ` ` ` ` ` ` ` ` ` ` ` ` ` ` ` ` ` ` ` ` ` ` ` ` _ } -.g w y t ",
"t t i 3 H >.^ ' ` ` ` ` ` ` ` ` ` ` ` ` ` ` ` ` ` ` ` ` ` ` ` ` ` ` ` ` ` ` ` ` ` ` ` ` ` ` ` ` ` ` ` ` ` ` ` ` ` _ { -.g w y t ",
"t t i 2 H 2.W / / / / / / / / / / / / / / / / / / / / / / / / / / / / / / / / / / / / / / / / / / / / / / / / / / ! X.$.a e y t ",
"t t y 0 z =.<.%.&.&.&.&.&.&.&.&.&.&.&.&.&.&.&.&.&.&.&.&.&.&.&.&.&.&.&.&.&.&.&.&.&.&.&.&.&.&.&.&.&.&.&.&.&.&.&.&.&.*.4.A 8 u t t ",
"y t t u 8 v L L L L L L L L L L L L L L L L L L L L L L L L L L L L L L L L L L L L L L L L L L L L L L L L L L K P N w t t t y ",
"r t t t u 9 4 6 6 6 6 6 6 6 6 6 6 6 6 6 6 6 6 6 6 6 6 6 6 6 6 6 6 6 6 6 6 6 6 6 6 6 6 6 6 6 6 6 6 6 6 6 6 6 6 6 6 5 6 t t t t r ",
"s t y t t u i u u u u u u u u u u u u u u u u u u u u u u u u u u u u u u u u u u u u u u u u u u u u u u u u u u i u t t y t f ",
"S 1 t t t t t t t t t t t t t t t t t t t t t t t t t t t t t t t t t t t t t t t t t t t t t t t t t t t t t t t t t t t t 1 D ",
"<.Z p r t t t t t t t t t t t t t t t t t t t t t t t t t t t t t t t t t t t t t t t t t t t t t t t t t t t t t t t t r p C <."
};
