/* XPM */
static char *result[] = {
/* columns rows colors chars-per-pixel */
"64 64 111 2 ",
"   c black",
".  c #010101",
"X  c #020202",
"o  c gray1",
"O  c #040404",
"+  c gray2",
"@  c #070707",
"#  c gray3",
"$  c gray5",
"%  c gray6",
"&  c #101010",
"*  c #111111",
"=  c gray7",
"-  c #181818",
";  c #191919",
":  c gray10",
">  c #232323",
",  c #252525",
"<  c #272727",
"1  c #353535",
"2  c #393939",
"3  c gray23",
"4  c #3F3F3F",
"5  c gray26",
"6  c #434343",
"7  c #444444",
"8  c #464646",
"9  c #484848",
"0  c gray29",
"q  c #4B4B4B",
"w  c #4C4C4C",
"e  c gray30",
"r  c #4E4E4E",
"t  c gray31",
"y  c #505050",
"u  c #515151",
"i  c gray32",
"p  c #535353",
"a  c gray33",
"s  c #555555",
"d  c #565656",
"f  c gray34",
"g  c #585858",
"h  c gray35",
"j  c #5A5A5A",
"k  c #5B5B5B",
"l  c gray36",
"z  c #5D5D5D",
"x  c gray37",
"c  c #606060",
"v  c gray38",
"b  c gray39",
"n  c #646464",
"m  c #656565",
"M  c #676767",
"N  c #686868",
"B  c gray42",
"V  c #6C6C6C",
"C  c #6F6F6F",
"Z  c gray44",
"A  c #717171",
"S  c #777777",
"D  c #797979",
"F  c #7B7B7B",
"G  c #7E7E7E",
"H  c gray50",
"J  c #808080",
"K  c gray52",
"L  c #898989",
"P  c #8B8B8B",
"I  c #959595",
"U  c #989898",
"Y  c gray60",
"T  c gray61",
"R  c #9D9D9D",
"E  c gray62",
"W  c #A0A0A0",
"Q  c #A2A2A2",
"!  c gray64",
"~  c gray65",
"^  c gray67",
"/  c #AFAFAF",
"(  c #B2B2B2",
")  c gray70",
"_  c gray71",
"`  c #B6B6B6",
"'  c #B7B7B7",
"]  c gray72",
"[  c #B9B9B9",
"{  c #BBBBBB",
"}  c #BCBCBC",
"|  c gray74",
" . c #C0C0C0",
".. c #C1C1C1",
"X. c #C3C3C3",
"o. c gray77",
"O. c gray79",
"+. c #CACACA",
"@. c #CDCDCD",
"#. c #D0D0D0",
"$. c gray82",
"%. c #D2D2D2",
"&. c gray83",
"*. c #D5D5D5",
"=. c gray84",
"-. c #D7D7D7",
";. c gray90",
":. c #E6E6E6",
">. c #E7E7E7",
",. c #F9F9F9",
"<. c gray98",
/* pixels */
",.R g p a a a a a a a a a a a a a a a a a a a a a a a a a a a a a a a a a a a a a a a a a a a a a a a a a a a a a a a a a g E <.",
"Q 7 a a a a a a a a a a a a a a a a a a a a a a a a a a a a a a a a a a a a a a a a a a a a a a a a a a a a a a a a a a a a 7 ! ",
"z a s a a a f f f f f f f f f f f f f f f f f f f f f f f f f f f f f f f f f f f f f f f f f f f f f f f f f f f f d a a s p l ",
"a a a a s i 7 6 7 7 7 7 7 7 7 7 7 7 7 7 7 7 7 7 7 7 7 7 7 7 7 7 7 7 7 7 7 7 7 7 7 7 7 7 7 7 7 7 7 7 7 7 7 7 7 7 7 5 e d a a a p ",
"s a a s y l / [ _ ` ` ` ` ` ` ` ` ` ` ` ` ` ` ` ` ` ` ` ` ` ` ` ` ` ` ` ` ` ` ` ` ` ` ` ` ` ` ` ` ` ` ` ` ` ` ` _ | F w d a a s ",
"a a s p j $.Q C A A A A A A A A A A A A A A A A A A A A A A A A A A A A A A A A A A A A A A A A A A A A A A A A Z H -.K q d a a ",
"a a f 7 ^ W   o                                                                                                 o   8 &.p p a a ",
"a a f 6 ] D   # O O O O O O O O O O O O O O O O O O O O O O O O O O O O O O O O O O O O O O O O O O O O O O O O +   * ;.v u s a ",
"a a f 6 ` S   O                                                                                                 .   * :.c u s a ",
"a a f 6 ' S   O                                                                                                 .   * :.c u s a ",
"a a f 6 ' S   O                                                                                                 .   * :.c u s a ",
"a a f 6 ' S   O                                                                                                 .   * :.c u s a ",
"a a f 6 ' S   O                                                                                                 .   * :.c u s a ",
"a a f 6 ' S   O                                                                                                 .   * :.c u s a ",
"a a f 6 ' S   O                                                                                                 .   * :.c u s a ",
"a a f 6 ' S   O                                                                                                 .   * :.c u s a ",
"a a f 6 ' S   O                                                                                                 .   * :.c u s a ",
"a a f 6 ' S   O                                                                                                 .   * :.c u s a ",
"a a f 6 ' S   O                                                                                                 .   * :.c u s a ",
"a a f 6 ' S   O                                                                                                 .   * :.c u s a ",
"a a f 6 ' S   O                                                                                                 .   * :.c u s a ",
"a a f 6 ' S   O                                                                                                 .   * :.c u s a ",
"a a f 6 ' S   O                                                                                                 .   * :.c u s a ",
"a a f 6 ' S   O                                                                                                 .   * :.c u s a ",
"a a f 6 ' S   O                                                                                                 .   * :.c u s a ",
"a a f 6 ' S   O                                           .     X .                                             .   * :.c u s a ",
"a a f 6 ' S   O                                                     X                                           .   * :.c u s a ",
"a a f 6 ' S   O                                           X X # < #   .                                         .   * :.c u s a ",
"a a f 6 ' S   O                                       o   x ) ~ =.o.3   X                                       .   * :.c u s a ",
"a a f 6 ' S   O                                       O   S %.> ; T #.%   .                                     .   * :.c u s a ",
"a a f 6 ' S   O                                       O   A '     - -.0   o                                     .   * :.c u s a ",
"a a f 6 ' S   O                                       O   C [     # @.y   o                                     .   * :.c u s a ",
"a a f 6 ' S   O                                       O   V ..$   e =.:   .                                     .   * :.c u s a ",
"a a f 6 ' S   O                                       O   b >.O.}  .w   .                                       .   * :.c u s a ",
"a a f 6 ' S   O                                       O   N X.4 7 &   .                                         .   * :.c u s a ",
"a a f 6 ' S   O                                       O   M {     . X                                           .   * :.c u s a ",
"a a f 6 ' S   O                                       O   B X.X . .                                             .   * :.c u s a ",
"a a f 6 ' S   O                                       .   , 1                                                   .   * :.c u s a ",
"a a f 6 ' S   O                                                                                                 .   * :.c u s a ",
"a a f 6 ' S   O                                           X X                                                   .   * :.c u s a ",
"a a f 6 ' S   O                                                                                                 .   * :.c u s a ",
"a a f 6 ' S   O                                                                                                 .   * :.c u s a ",
"a a f 6 ' S   O                                                                                                 .   * :.c u s a ",
"a a f 6 ' S   O                                                                                                 .   * :.c u s a ",
"a a f 6 ' S   O                                                                                                 .   * :.c u s a ",
"a a f 6 ' S   O                                                                                                 .   * :.c u s a ",
"a a f 6 ' S   O                                                                                                 .   * :.c u s a ",
"a a f 6 ' S   O                                                                                                 .   * :.c u s a ",
"a a f 6 ' S   O                                                                                                 .   * :.c u s a ",
"a a f 6 ' S   O                                                                                                 .   * :.c u s a ",
"a a f 6 ' S   O                                                                                                 .   * :.c u s a ",
"a a f 6 ' S   O                                                                                                 .   * :.c u s a ",
"a a f 6 ' S   O                                                                                                 .   * :.c u s a ",
"a a f 6 ' S   O                                                                                                 .   * :.c u s a ",
"a a f 6 ' S   O                                                                                                 .   * :.c u s a ",
"a a f 6 ' S   O                                                                                                 .   * :.c u s a ",
"a a f 6 ] S   @ o o o o o o o o o o o o o o o o o o o o o o o o o o o o o o o o o o o o o o o o o o o o o o o o O   = :.v y s a ",
"a a f 6 ( Y   O                                                                                                 X   2 -.d p a a ",
"a a s u n *.J 0 r e e e e e e e e e e e e e e e e e e e e e e e e e e e e e e e e e e e e e e e e e e e e e e e e h +.I 0 d a a ",
"s a a s t m U P P P P P P P P P P P P P P P P P P P P P P P P P P P P P P P P P P P P P P P P P P P P P P P P P L I G e s a a s ",
"p a a a s y 8 9 9 9 9 9 9 9 9 9 9 9 9 9 9 9 9 9 9 9 9 9 9 9 9 9 9 9 9 9 9 9 9 9 9 9 9 9 9 9 9 9 9 9 9 9 9 9 9 9 9 8 w d a a a p ",
"k a s a a s d d d d d d d d d d d d d d d d d d d d d d d d d d d d d d d d d d d d d d d d d d d d d d d d d d d d s a a s a z ",
"Q 7 a a a a a a a a a a a a a a a a a a a a a a a a a a a a a a a a a a a a a a a a a a a a a a a a a a a a a a a a a a a a 7 ! ",
",.E g p a a a a a a a a a a a a a a a a a a a a a a a a a a a a a a a a a a a a a a a a a a a a a a a a a a a a a a a a p g R ,."
};
