/* XPM */
static char *result[] = {
/* columns rows colors chars-per-pixel */
"64 64 104 2 ",
"   c black",
".  c #010101",
"X  c #020202",
"o  c gray1",
"O  c #040404",
"+  c gray2",
"@  c #070707",
"#  c gray3",
"$  c #090909",
"%  c #0C0C0C",
"&  c #0E0E0E",
"*  c #101010",
"=  c #111111",
"-  c gray7",
";  c gray8",
":  c #161616",
">  c gray12",
",  c #232323",
"<  c gray16",
"1  c #2C2C2C",
"2  c gray18",
"3  c #2F2F2F",
"4  c gray20",
"5  c #393939",
"6  c #3A3A3A",
"7  c #3C3C3C",
"8  c gray26",
"9  c #434343",
"0  c #444444",
"q  c #464646",
"w  c #484848",
"e  c gray29",
"r  c #4B4B4B",
"t  c #4C4C4C",
"y  c gray30",
"u  c #4E4E4E",
"i  c gray31",
"p  c #505050",
"a  c #515151",
"s  c gray32",
"d  c #535353",
"f  c gray33",
"g  c #555555",
"h  c #565656",
"j  c gray34",
"k  c #585858",
"l  c gray35",
"z  c #5A5A5A",
"x  c #5B5B5B",
"c  c gray36",
"v  c #5D5D5D",
"b  c #606060",
"n  c gray38",
"m  c #646464",
"M  c #656565",
"N  c #676767",
"B  c #6F6F6F",
"V  c gray44",
"C  c #717171",
"Z  c #777777",
"A  c #797979",
"S  c #7B7B7B",
"D  c #7E7E7E",
"F  c gray50",
"G  c #808080",
"H  c #838383",
"J  c gray52",
"K  c #898989",
"L  c #8B8B8B",
"P  c #959595",
"I  c #989898",
"U  c gray60",
"Y  c #9D9D9D",
"T  c gray62",
"R  c #A0A0A0",
"E  c #A2A2A2",
"W  c gray64",
"Q  c gray67",
"!  c #AFAFAF",
"~  c #B2B2B2",
"^  c gray70",
"/  c gray71",
"(  c #B6B6B6",
")  c #B7B7B7",
"_  c gray72",
"`  c #B9B9B9",
"'  c gray74",
"]  c #C1C1C1",
"[  c #C3C3C3",
"{  c #C5C5C5",
"}  c gray78",
"|  c #CACACA",
" . c gray80",
".. c gray81",
"X. c gray82",
"o. c #D2D2D2",
"O. c gray83",
"+. c #D5D5D5",
"@. c #D7D7D7",
"#. c #DFDFDF",
"$. c gray90",
"%. c #E6E6E6",
"&. c #F9F9F9",
"*. c gray98",
/* pixels */
"&.Y k d f f f f f f f f f f f f f f f f f f f f f f f f f f f f f f f f f f f f f f f f f f f f f f f f f f f f f f f f f k T *.",
"E 0 f f f f f f f f f f f f f f f f f f f f f f f f f f f f f f f f f f f f f f f f f f f f f f f f f f f f f f f f f f f f 0 W ",
"v f g f f f j j j j j j j j j j j j j j j j j j j j j j j j j j j j j j j j j j j j j j j j j j j j j j j j j j j j h f f g d c ",
"f f f f g s 0 9 0 0 0 0 0 0 0 0 0 0 0 0 0 0 0 0 0 0 0 0 0 0 0 0 0 0 0 0 0 0 0 0 0 0 0 0 0 0 0 0 0 0 0 0 0 0 0 0 0 8 y h f f f d ",
"g f f g p c ! ` / ( ( ( ( ( ( ( ( ( ( ( ( ( ( ( ( ( ( ( ( ( ( ( ( ( ( ( ( ( ( ( ( ( ( ( ( ( ( ( ( ( ( ( ( ( ( ( / ' S t h f f g ",
"f f g d z X.E B C C C C C C C C C C C C C C C C C C C C C C C C C C C C C C C C C C C C C C C C C C C C C C C C V F @.J r h f f ",
"f f j 0 Q R   o                                                                                                 o   q O.d d f f ",
"f f j 9 _ A   # O O O O O O O O O O O O O O O O O O O O O O O O O O O O O O O O O O O O O O O O O O O O O O O O +   = $.n a g f ",
"f f j 9 ( Z   O                                                                                                 .   = %.b a g f ",
"f f j 9 ) Z   O                                                                                                 .   = %.b a g f ",
"f f j 9 ) Z   O                                                                                                 .   = %.b a g f ",
"f f j 9 ) Z   O                                                                                                 .   = %.b a g f ",
"f f j 9 ) Z   O                                                                                                 .   = %.b a g f ",
"f f j 9 ) Z   O                                                                                                 .   = %.b a g f ",
"f f j 9 ) Z   O                                                                                                 .   = %.b a g f ",
"f f j 9 ) Z   O                                                                                                 .   = %.b a g f ",
"f f j 9 ) Z   O                                                                                                 .   = %.b a g f ",
"f f j 9 ) Z   O                                                                                                 .   = %.b a g f ",
"f f j 9 ) Z   O                                                                                                 .   = %.b a g f ",
"f f j 9 ) Z   O                                                                                                 .   = %.b a g f ",
"f f j 9 ) Z   O                                                                                                 .   = %.b a g f ",
"f f j 9 ) Z   O                                                                                                 .   = %.b a g f ",
"f f j 9 ) Z   O                                                                                                 .   = %.b a g f ",
"f f j 9 ) Z   O                                                                                                 .   = %.b a g f ",
"f f j 9 ) Z   O                                                                                                 .   = %.b a g f ",
"f f j 9 ) Z   O                                               . X .                                             .   = %.b a g f ",
"f f j 9 ) Z   O                                             X                                                   .   = %.b a g f ",
"f f j 9 ) Z   O                                               * < ;                                             .   = %.b a g f ",
"f f j 9 ) Z   O                                         .   N [ .. .2   X                                       .   = %.b a g f ",
"f f j 9 ) Z   O                                       .   * #.e   1 &                                           .   = %.b a g f ",
"f f j 9 ) Z   O                                           . I { G >   .                                         .   = %.b a g f ",
"f f j 9 ) Z   O                                               6 U o.8   X                                       .   = %.b a g f ",
"f f j 9 ) Z   O                                           $ 3 .   ^ H   O                                       .   = %.b a g f ",
"f f j 9 ) Z   O                                       .   : ` ] } ) ,   X                                       .   = %.b a g f ",
"f f j 9 ) Z   O                                             # 4 7 %   .                                         .   = %.b a g f ",
"f f j 9 ) Z   O                                                     .                                           .   = %.b a g f ",
"f f j 9 ) Z   O                                             . X X .                                             .   = %.b a g f ",
"f f j 9 ) Z   O                                                                                                 .   = %.b a g f ",
"f f j 9 ) Z   O                                                                                                 .   = %.b a g f ",
"f f j 9 ) Z   O                                                                                                 .   = %.b a g f ",
"f f j 9 ) Z   O                                                                                                 .   = %.b a g f ",
"f f j 9 ) Z   O                                                                                                 .   = %.b a g f ",
"f f j 9 ) Z   O                                                                                                 .   = %.b a g f ",
"f f j 9 ) Z   O                                                                                                 .   = %.b a g f ",
"f f j 9 ) Z   O                                                                                                 .   = %.b a g f ",
"f f j 9 ) Z   O                                                                                                 .   = %.b a g f ",
"f f j 9 ) Z   O                                                                                                 .   = %.b a g f ",
"f f j 9 ) Z   O                                                                                                 .   = %.b a g f ",
"f f j 9 ) Z   O                                                                                                 .   = %.b a g f ",
"f f j 9 ) Z   O                                                                                                 .   = %.b a g f ",
"f f j 9 ) Z   O                                                                                                 .   = %.b a g f ",
"f f j 9 ) Z   O                                                                                                 .   = %.b a g f ",
"f f j 9 ) Z   O                                                                                                 .   = %.b a g f ",
"f f j 9 ) Z   O                                                                                                 .   = %.b a g f ",
"f f j 9 ) Z   O                                                                                                 .   = %.b a g f ",
"f f j 9 ) Z   O                                                                                                 .   = %.b a g f ",
"f f j 9 _ Z   @ o o o o o o o o o o o o o o o o o o o o o o o o o o o o o o o o o o o o o o o o o o o o o o o o O   - %.n p g f ",
"f f j 9 ~ U   O                                                                                                 X   5 @.h d f f ",
"f f g a m +.G e u y y y y y y y y y y y y y y y y y y y y y y y y y y y y y y y y y y y y y y y y y y y y y y y y l | P e h f f ",
"g f f g i M I L L L L L L L L L L L L L L L L L L L L L L L L L L L L L L L L L L L L L L L L L L L L L L L L L K P D y g f f g ",
"d f f f g p q w w w w w w w w w w w w w w w w w w w w w w w w w w w w w w w w w w w w w w w w w w w w w w w w w w q t h f f f d ",
"x f g f f g h h h h h h h h h h h h h h h h h h h h h h h h h h h h h h h h h h h h h h h h h h h h h h h h h h h h g f f g f v ",
"E 0 f f f f f f f f f f f f f f f f f f f f f f f f f f f f f f f f f f f f f f f f f f f f f f f f f f f f f f f f f f f f 0 W ",
"&.T k d f f f f f f f f f f f f f f f f f f f f f f f f f f f f f f f f f f f f f f f f f f f f f f f f f f f f f f f f d k Y &."
};
