/* XPM */
static char *result[] = {
/* columns rows colors chars-per-pixel */
"64 64 132 2 ",
"   c black",
".  c #010101",
"X  c #020202",
"o  c gray1",
"O  c #040404",
"+  c gray2",
"@  c #060606",
"#  c #070707",
"$  c gray3",
"%  c #090909",
"&  c gray4",
"*  c #0B0B0B",
"=  c #0C0C0C",
"-  c #0E0E0E",
";  c gray6",
":  c #101010",
">  c #111111",
",  c gray7",
"<  c gray8",
"1  c #181818",
"2  c #1B1B1B",
"3  c #1D1D1D",
"4  c #202020",
"5  c #252525",
"6  c gray15",
"7  c #282828",
"8  c #2D2D2D",
"9  c #353535",
"0  c gray22",
"q  c #393939",
"w  c #3A3A3A",
"e  c gray24",
"r  c gray26",
"t  c #434343",
"y  c #444444",
"u  c #464646",
"i  c gray28",
"p  c #484848",
"a  c gray29",
"s  c #4B4B4B",
"d  c #4C4C4C",
"f  c gray30",
"g  c #4E4E4E",
"h  c gray31",
"j  c #505050",
"k  c #515151",
"l  c gray32",
"z  c #535353",
"x  c gray33",
"c  c #555555",
"v  c #565656",
"b  c gray34",
"n  c #585858",
"m  c gray35",
"M  c #5A5A5A",
"N  c #5B5B5B",
"B  c gray36",
"V  c #5D5D5D",
"C  c #606060",
"Z  c gray38",
"A  c #626262",
"S  c #646464",
"D  c #656565",
"F  c gray42",
"G  c #6C6C6C",
"H  c gray43",
"J  c #6F6F6F",
"K  c gray44",
"L  c #717171",
"P  c #777777",
"I  c gray47",
"U  c #797979",
"Y  c gray48",
"T  c #7B7B7B",
"R  c #7E7E7E",
"E  c gray50",
"W  c #808080",
"Q  c #838383",
"!  c gray52",
"~  c #898989",
"^  c #8B8B8B",
"/  c #8D8D8D",
"(  c #959595",
")  c #989898",
"_  c gray60",
"`  c #9B9B9B",
"'  c gray61",
"]  c #9D9D9D",
"[  c gray62",
"{  c #A0A0A0",
"}  c #A2A2A2",
"|  c gray64",
" . c #A7A7A7",
".. c gray66",
"X. c #A9A9A9",
"o. c gray67",
"O. c #ACACAC",
"+. c #AFAFAF",
"@. c #B1B1B1",
"#. c #B2B2B2",
"$. c gray71",
"%. c #B6B6B6",
"&. c #B7B7B7",
"*. c gray72",
"=. c #B9B9B9",
"-. c gray73",
";. c #BBBBBB",
":. c gray74",
">. c gray75",
",. c gray76",
"<. c gray77",
"1. c #C8C8C8",
"2. c #CACACA",
"3. c #CBCBCB",
"4. c gray80",
"5. c #CDCDCD",
"6. c gray81",
"7. c #D0D0D0",
"8. c gray82",
"9. c LightGray",
"0. c gray83",
"q. c #D5D5D5",
"w. c #D7D7D7",
"e. c #DADADA",
"r. c #DDDDDD",
"t. c gray87",
"y. c #E1E1E1",
"u. c gray90",
"i. c #E6E6E6",
"p. c #E9E9E9",
"a. c #F9F9F9",
"s. c gray98",
/* pixels */
"a.] n z x x x x x x x x x x x x x x x x x x x x x x x x x x x x x x x x x x x x x x x x x x x x x x x x x x x x x x x x x n [ s.",
"} y x x x x x x x x x x x x x x x x x x x x x x x x x x x x x x x x x x x x x x x x x x x x x x x x x x x x x x x x x x x x y | ",
"V x c x x x b b b b b b b b b b b b b b b b b b b b b b b b b b b b b b b b b b b b b b b b b b b b b b b b b b b b v x x c z B ",
"x x x x c l y t y y y y y y y y y y y y y y y y y y y y y y y y y y y y y y y y y y y y y y y y y y y y y y y y y r f v x x x z ",
"c x x c j B +.=.$.%.%.%.%.%.%.%.%.%.%.%.%.%.%.%.%.%.%.%.%.%.%.%.%.%.%.%.%.%.%.%.%.%.%.%.%.%.%.%.%.%.%.%.%.%.%.%.$.:.T d v x x c ",
"x x c z M 8.} J L L L L L L L L L L L L L L L L L L L L L L L L L L L L L L L L L L L L L L L L L L L L L L L L K E w.! s v x x ",
"x x b y o.{   o                                                                                                 o   u 0.z z x x ",
"x x b t *.U   $ O O O O O O O O O O O O O O O O O O O O O O O O O O O O O O O O O O O O O O O O O O O O O O O O +   > u.Z k c x ",
"x x b t %.P   O                                                                                                 .   > i.C k c x ",
"x x b t &.P   O                                                                                                 .   > i.C k c x ",
"x x b t &.P   O                                                                                                 .   > i.C k c x ",
"x x b t &.P   O                                                                                                 .   > i.C k c x ",
"x x b t &.P   O                                                                                                 .   > i.C k c x ",
"x x b t &.P   O                                                                                                 .   > i.C k c x ",
"x x b t &.P   O                                                                                                 .   > i.C k c x ",
"x x b t &.P   O                                                                                                 .   > i.C k c x ",
"x x b t &.P   O                                                                                                 .   > i.C k c x ",
"x x b t &.P   O                                                                                                 .   > i.C k c x ",
"x x b t &.P   O                                                                                                 .   > i.C k c x ",
"x x b t &.P   O                                                                                                 .   > i.C k c x ",
"x x b t &.P   O                                                                                                 .   > i.C k c x ",
"x x b t &.P   O                                                                                                 .   > i.C k c x ",
"x x b t &.P   O                                                   o .                                           .   > i.C k c x ",
"x x b t &.P   O                                     . X X                 .                                     .   > i.C k c x ",
"x x b t &.P   O                                           .     O h 5   .                                       .   > i.C k c x ",
"x x b t &.P   O                                 .   & Q G   .   1 y.k   O < O                                   .   > i.C k c x ",
"x x b t &.P   O                                 o   k p.r.6     < q.f   p <.%   .                               .   > i.C k c x ",
"x x b t &.P   O                                 .    .W @.I     - q.h   M 9.- o o                               .   > i.C k c x ",
"x x b t &.P   O                               .   4 e.5 H 1.o   * 9.d Y 3.0.$.-.e   X                           .   > i.C k c x ",
"x x b t &.P   O                               o   J %.  3 q.t   = 7.h * F 6.9 8 :   .                           .   > i.C k c x ",
"x x b t &.P   O                                 . ;.+.b C q./   * 6.j   u 4.%   .                               .   > i.C k c x ",
"x x b t &.P   O                             X   0 e.X.O...=.3.- O 5.h   p 4.&   .                               .   > i.C k c x ",
"x x b t &.P   O                             X   / *.  .   2 t.b   8.k   w y.i * #                               .   > i.C k c x ",
"x x b t &.P   O                           .   @ ,.A   O .   ' _   >.s   # ` r.1.8   X                           .   > i.C k c x ",
"x x b t &.P   O                               . , %         : ;   * O     + 6 7 @                               .   > i.C k c x ",
"x x b t &.P   O                                                         . .                                     .   > i.C k c x ",
"x x b t &.P   O                                 . .         . .   . .     . X X                                 .   > i.C k c x ",
"x x b t &.P   O                                                                                                 .   > i.C k c x ",
"x x b t &.P   O                                                                                                 .   > i.C k c x ",
"x x b t &.P   O                                                                                                 .   > i.C k c x ",
"x x b t &.P   O                                                                                                 .   > i.C k c x ",
"x x b t &.P   O                                                                                                 .   > i.C k c x ",
"x x b t &.P   O                                                                                                 .   > i.C k c x ",
"x x b t &.P   O                                                                                                 .   > i.C k c x ",
"x x b t &.P   O                                                                                                 .   > i.C k c x ",
"x x b t &.P   O                                                                                                 .   > i.C k c x ",
"x x b t &.P   O                                                                                                 .   > i.C k c x ",
"x x b t &.P   O                                                                                                 .   > i.C k c x ",
"x x b t &.P   O                                                                                                 .   > i.C k c x ",
"x x b t &.P   O                                                                                                 .   > i.C k c x ",
"x x b t &.P   O                                                                                                 .   > i.C k c x ",
"x x b t &.P   O                                                                                                 .   > i.C k c x ",
"x x b t &.P   O                                                                                                 .   > i.C k c x ",
"x x b t &.P   O                                                                                                 .   > i.C k c x ",
"x x b t &.P   O                                                                                                 .   > i.C k c x ",
"x x b t &.P   O                                                                                                 .   > i.C k c x ",
"x x b t *.P   # o o o o o o o o o o o o o o o o o o o o o o o o o o o o o o o o o o o o o o o o o o o o o o o o O   , i.Z j c x ",
"x x b t #._   O                                                                                                 X   q w.v z x x ",
"x x c k S q.W a g f f f f f f f f f f f f f f f f f f f f f f f f f f f f f f f f f f f f f f f f f f f f f f f f m 2.( a v x x ",
"c x x c h D ) ^ ^ ^ ^ ^ ^ ^ ^ ^ ^ ^ ^ ^ ^ ^ ^ ^ ^ ^ ^ ^ ^ ^ ^ ^ ^ ^ ^ ^ ^ ^ ^ ^ ^ ^ ^ ^ ^ ^ ^ ^ ^ ^ ^ ^ ^ ^ ^ ^ ~ ( R f c x x c ",
"z x x x c j u p p p p p p p p p p p p p p p p p p p p p p p p p p p p p p p p p p p p p p p p p p p p p p p p p p u d v x x x z ",
"N x c x x c v v v v v v v v v v v v v v v v v v v v v v v v v v v v v v v v v v v v v v v v v v v v v v v v v v v v c x x c x V ",
"} y x x x x x x x x x x x x x x x x x x x x x x x x x x x x x x x x x x x x x x x x x x x x x x x x x x x x x x x x x x x x y | ",
"a.[ n z x x x x x x x x x x x x x x x x x x x x x x x x x x x x x x x x x x x x x x x x x x x x x x x x x x x x x x x x z n ] a."
};
