/* XPM */
static char *result[] = {
/* columns rows colors chars-per-pixel */
"64 64 150 2 ",
"   c black",
".  c #010101",
"X  c #020202",
"o  c gray1",
"O  c #040404",
"+  c gray2",
"@  c #060606",
"#  c #070707",
"$  c gray3",
"%  c #090909",
"&  c gray4",
"*  c #0B0B0B",
"=  c #0C0C0C",
"-  c #0E0E0E",
";  c gray6",
":  c #101010",
">  c #111111",
",  c gray7",
"<  c #131313",
"1  c gray8",
"2  c #161616",
"3  c gray9",
"4  c #191919",
"5  c gray10",
"6  c #1D1D1D",
"7  c #1E1E1E",
"8  c gray13",
"9  c gray14",
"0  c #252525",
"q  c gray15",
"w  c gray16",
"e  c #2A2A2A",
"r  c gray17",
"t  c #2C2C2C",
"y  c #2D2D2D",
"u  c #343434",
"i  c #373737",
"p  c #393939",
"a  c #3A3A3A",
"s  c #3C3C3C",
"d  c gray24",
"f  c #3E3E3E",
"g  c gray25",
"h  c #414141",
"j  c gray26",
"k  c #434343",
"l  c #444444",
"z  c #464646",
"x  c gray28",
"c  c #484848",
"v  c gray29",
"b  c #4B4B4B",
"n  c #4C4C4C",
"m  c gray30",
"M  c #4E4E4E",
"N  c gray31",
"B  c #505050",
"V  c #515151",
"C  c gray32",
"Z  c #535353",
"A  c gray33",
"S  c #555555",
"D  c #565656",
"F  c gray34",
"G  c #585858",
"H  c gray35",
"J  c #5A5A5A",
"K  c #5B5B5B",
"L  c gray36",
"P  c #5D5D5D",
"I  c gray37",
"U  c #606060",
"Y  c gray38",
"T  c #626262",
"R  c #646464",
"E  c #656565",
"W  c gray42",
"Q  c #6D6D6D",
"!  c #6F6F6F",
"~  c gray44",
"^  c #717171",
"/  c #777777",
"(  c gray47",
")  c #797979",
"_  c #7B7B7B",
"`  c #7C7C7C",
"'  c #7E7E7E",
"]  c gray50",
"[  c #808080",
"{  c #848484",
"}  c gray52",
"|  c #868686",
" . c #898989",
".. c gray54",
"X. c #8B8B8B",
"o. c #8D8D8D",
"O. c #929292",
"+. c #959595",
"@. c #989898",
"#. c gray60",
"$. c gray61",
"%. c #9D9D9D",
"&. c gray62",
"*. c #A0A0A0",
"=. c gray63",
"-. c #A2A2A2",
";. c gray64",
":. c #A4A4A4",
">. c gray65",
",. c gray66",
"<. c gray67",
"1. c gray68",
"2. c #AFAFAF",
"3. c #B1B1B1",
"4. c #B2B2B2",
"5. c gray71",
"6. c #B6B6B6",
"7. c #B7B7B7",
"8. c gray72",
"9. c #B9B9B9",
"0. c gray73",
"q. c #BBBBBB",
"w. c #BCBCBC",
"e. c gray74",
"r. c #C3C3C3",
"t. c gray77",
"y. c #C5C5C5",
"u. c #C6C6C6",
"i. c gray79",
"p. c #CACACA",
"a. c #CDCDCD",
"s. c #CECECE",
"d. c gray81",
"f. c #D0D0D0",
"g. c gray82",
"h. c #D2D2D2",
"j. c LightGray",
"k. c gray83",
"l. c #D5D5D5",
"z. c #D7D7D7",
"x. c #D8D8D8",
"c. c gray85",
"v. c #DADADA",
"b. c gainsboro",
"n. c #DFDFDF",
"m. c #E4E4E4",
"M. c gray90",
"N. c #E6E6E6",
"B. c #F9F9F9",
"V. c gray98",
/* pixels */
"B.%.G Z A A A A A A A A A A A A A A A A A A A A A A A A A A A A A A A A A A A A A A A A A A A A A A A A A A A A A A A A A G &.V.",
"-.l A A A A A A A A A A A A A A A A A A A A A A A A A A A A A A A A A A A A A A A A A A A A A A A A A A A A A A A A A A A A l ;.",
"P A S A A A F F F F F F F F F F F F F F F F F F F F F F F F F F F F F F F F F F F F F F F F F F F F F F F F F F F F D A A S Z L ",
"A A A A S C l k l l l l l l l l l l l l l l l l l l l l l l l l l l l l l l l l l l l l l l l l l l l l l l l l l j m D A A A Z ",
"S A A S B L 2.9.5.6.6.6.6.6.6.6.6.6.6.6.6.6.6.6.6.6.6.6.6.6.6.6.6.6.6.6.6.6.6.6.6.6.6.6.6.6.6.6.6.6.6.6.6.6.6.6.5.e._ n D A A S ",
"A A S Z J g.-.! ^ ^ ^ ^ ^ ^ ^ ^ ^ ^ ^ ^ ^ ^ ^ ^ ^ ^ ^ ^ ^ ^ ^ ^ ^ ^ ^ ^ ^ ^ ^ ^ ^ ^ ^ ^ ^ ^ ^ ^ ^ ^ ^ ^ ^ ^ ^ ^ ~ ] z.} b D A A ",
"A A F l <.*.  o                                                                                                 o   z k.Z Z A A ",
"A A F k 8.)   $ O O O O O O O O O O O O O O O O O O O O O O O O O O O O O O O O O O O O O O O O O O O O O O O O +   > M.Y V S A ",
"A A F k 6./   O                                                                                                 .   > N.U V S A ",
"A A F k 7./   O                                                                                                 .   > N.U V S A ",
"A A F k 7./   O                                                                                                 .   > N.U V S A ",
"A A F k 7./   O                                                                                                 .   > N.U V S A ",
"A A F k 7./   O                                                                                                 .   > N.U V S A ",
"A A F k 7./   O                                                                                                 .   > N.U V S A ",
"A A F k 7./   O                                                                                                 .   > N.U V S A ",
"A A F k 7./   O                                                                                                 .   > N.U V S A ",
"A A F k 7./   O                                                                                                 .   > N.U V S A ",
"A A F k 7./   O                                                                                                 .   > N.U V S A ",
"A A F k 7./   O                                                                                                 .   > N.U V S A ",
"A A F k 7./   O                                                                                                 .   > N.U V S A ",
"A A F k 7./   O                                                                                                 .   > N.U V S A ",
"A A F k 7./   O                                                                                                 .   > N.U V S A ",
"A A F k 7./   O                                                                 X o                             .   > N.U V S A ",
"A A F k 7./   O                                 o o   . o .   . .                                               .   > N.U V S A ",
"A A F k 7./   O                               .                             .   u z                             .   > N.U V S A ",
"A A F k 7./   O                             .   z O.,.1.W &   ; *   .   . . o   >.,.  .                         .   > N.U V S A ",
"A A F k 7./   O                           X   ~ x.| T ` 3.: < t.s   X     . .   $.$.  .                         .   > N.U V S A ",
"A A F k 7./   O                         X   q n.x   o   .   8 c.h   +   O $ t O +.*.  .                         .   > N.U V S A ",
"A A F k 7./   O                         O   Q d.O . + @   I y.j.q.r.K e 6.>.b.n } ;.  .                         .   > N.U V S A ",
"A A F k 7./   O                         o   { 0.    . .   1 f h.P r ; g m.N -   o.=.  .                         .   > N.U V S A ",
"A A F k 7./   O                         o   ` u.X   . . o   = d.s     f f.:     o.=.  .                         .   > N.U V S A ",
"A A F k 7./   O                         o   V m.w   X   .   - s.d     a h.4     ..*.  .                         .   > N.U V S A ",
"A A F k 7./   O                         .   @ w.y.r $ 5 N & O k.( * o i l.3     X.;.  .                         .   > N.U V S A ",
"A A F k 7./   O                           .   6 :.l.a.d.4.5   ~ v.c.M 0 i.2     ] #.  .                         .   > N.U V S A ",
"A A F k 7./   O                             . .   7 g 9 o       6 y = . = .     # %                             .   > N.U V S A ",
"A A F k 7./   O                               . .             .                                                 .   > N.U V S A ",
"A A F k 7./   O                                   X X X         . X .   .       . .                             .   > N.U V S A ",
"A A F k 7./   O                                                                                                 .   > N.U V S A ",
"A A F k 7./   O                                                                                                 .   > N.U V S A ",
"A A F k 7./   O                                                                                                 .   > N.U V S A ",
"A A F k 7./   O                                                                                                 .   > N.U V S A ",
"A A F k 7./   O                                                                                                 .   > N.U V S A ",
"A A F k 7./   O                                                                                                 .   > N.U V S A ",
"A A F k 7./   O                                                                                                 .   > N.U V S A ",
"A A F k 7./   O                                                                                                 .   > N.U V S A ",
"A A F k 7./   O                                                                                                 .   > N.U V S A ",
"A A F k 7./   O                                                                                                 .   > N.U V S A ",
"A A F k 7./   O                                                                                                 .   > N.U V S A ",
"A A F k 7./   O                                                                                                 .   > N.U V S A ",
"A A F k 7./   O                                                                                                 .   > N.U V S A ",
"A A F k 7./   O                                                                                                 .   > N.U V S A ",
"A A F k 7./   O                                                                                                 .   > N.U V S A ",
"A A F k 7./   O                                                                                                 .   > N.U V S A ",
"A A F k 7./   O                                                                                                 .   > N.U V S A ",
"A A F k 7./   O                                                                                                 .   > N.U V S A ",
"A A F k 7./   O                                                                                                 .   > N.U V S A ",
"A A F k 8./   # o o o o o o o o o o o o o o o o o o o o o o o o o o o o o o o o o o o o o o o o o o o o o o o o O   , N.Y B S A ",
"A A F k 4.#.  O                                                                                                 X   p z.D Z A A ",
"A A S V R l.[ v M m m m m m m m m m m m m m m m m m m m m m m m m m m m m m m m m m m m m m m m m m m m m m m m m H p.+.v D A A ",
"S A A S N E @.X.X.X.X.X.X.X.X.X.X.X.X.X.X.X.X.X.X.X.X.X.X.X.X.X.X.X.X.X.X.X.X.X.X.X.X.X.X.X.X.X.X.X.X.X.X.X.X.X. .+.' m S A A S ",
"Z A A A S B z c c c c c c c c c c c c c c c c c c c c c c c c c c c c c c c c c c c c c c c c c c c c c c c c c c z n D A A A Z ",
"K A S A A S D D D D D D D D D D D D D D D D D D D D D D D D D D D D D D D D D D D D D D D D D D D D D D D D D D D D S A A S A P ",
"-.l A A A A A A A A A A A A A A A A A A A A A A A A A A A A A A A A A A A A A A A A A A A A A A A A A A A A A A A A A A A A l ;.",
"B.&.G Z A A A A A A A A A A A A A A A A A A A A A A A A A A A A A A A A A A A A A A A A A A A A A A A A A A A A A A A A Z G %.B."
};
