/* XPM */
static char *result[] = {
/* columns rows colors chars-per-pixel */
"64 64 153 2 ",
"   c black",
".  c #010101",
"X  c #020202",
"o  c gray1",
"O  c gray2",
"+  c #060606",
"@  c #070707",
"#  c gray3",
"$  c #090909",
"%  c #0B0B0B",
"&  c #0C0C0C",
"*  c gray5",
"=  c #0E0E0E",
"-  c gray6",
";  c #101010",
":  c #111111",
">  c gray7",
",  c #131313",
"<  c gray9",
"1  c gray10",
"2  c gray11",
"3  c #1E1E1E",
"4  c #252525",
"5  c gray15",
"6  c #272727",
"7  c #282828",
"8  c gray16",
"9  c #2D2D2D",
"0  c #313131",
"q  c gray20",
"w  c #353535",
"e  c #373737",
"r  c #393939",
"t  c #414141",
"y  c #434343",
"u  c #444444",
"i  c gray27",
"p  c #464646",
"a  c gray28",
"s  c #484848",
"d  c #494949",
"f  c #4B4B4B",
"g  c #4C4C4C",
"h  c #4E4E4E",
"j  c gray31",
"k  c #505050",
"l  c #515151",
"z  c gray32",
"x  c #535353",
"c  c gray33",
"v  c #555555",
"b  c #565656",
"n  c gray34",
"m  c #585858",
"M  c gray35",
"N  c #5A5A5A",
"B  c #5B5B5B",
"V  c gray36",
"C  c #5D5D5D",
"Z  c gray37",
"A  c #646464",
"S  c gray40",
"D  c #686868",
"F  c #6D6D6D",
"G  c #6F6F6F",
"H  c #727272",
"J  c gray45",
"K  c #747474",
"L  c gray48",
"P  c gray49",
"I  c gray52",
"U  c #868686",
"Y  c gray53",
"T  c #8D8D8D",
"R  c #8E8E8E",
"E  c gray56",
"W  c #909090",
"Q  c gray57",
"!  c #929292",
"~  c #939393",
"^  c #959595",
"/  c gray59",
"(  c gray61",
")  c #9D9D9D",
"_  c gray62",
"`  c gray63",
"'  c #A2A2A2",
"]  c gray64",
"[  c #A5A5A5",
"{  c #A7A7A7",
"}  c gray66",
"|  c gray67",
" . c #ACACAC",
".. c gray68",
"X. c #AEAEAE",
"o. c #AFAFAF",
"O. c #B1B1B1",
"+. c gray71",
"@. c #B6B6B6",
"#. c #B7B7B7",
"$. c #B9B9B9",
"%. c #BCBCBC",
"&. c gray76",
"*. c #C3C3C3",
"=. c #C6C6C6",
"-. c gray78",
";. c #C8C8C8",
":. c #CBCBCB",
">. c gray80",
",. c #CDCDCD",
"<. c #CECECE",
"1. c gray81",
"2. c #D0D0D0",
"3. c gray82",
"4. c #D2D2D2",
"5. c LightGray",
"6. c gray83",
"7. c #D5D5D5",
"8. c gray84",
"9. c #D7D7D7",
"0. c #D8D8D8",
"q. c gray85",
"w. c #DADADA",
"e. c gray86",
"r. c gainsboro",
"t. c #DDDDDD",
"y. c gray87",
"u. c #DFDFDF",
"i. c gray88",
"p. c #E1E1E1",
"a. c #E2E2E2",
"s. c gray89",
"d. c #E4E4E4",
"f. c gray90",
"g. c #E6E6E6",
"h. c #E7E7E7",
"j. c gray91",
"k. c #E9E9E9",
"l. c gray92",
"z. c #EEEEEE",
"x. c #EFEFEF",
"c. c gray94",
"v. c gray95",
"b. c #F3F3F3",
"n. c #F4F4F4",
"m. c gray96",
"M. c #F6F6F6",
"N. c gray97",
"B. c #F9F9F9",
"V. c gray98",
"C. c #FBFBFB",
"Z. c gray99",
"A. c white",
/* pixels */
"B.) m x c c c c c c c c c c c c c c c c c c c c c c c c c c c c c c c c c c c c c c c c c c c c c c c c c c c c c c c c c m _ V.",
"' u c c c c c c c c c c c c c c c c c c c c c c c c c c c c c c c c c c c c c c c c c c c c c c c c c c c c c c c c c c c c u ] ",
"C c v c c v n n n n n n n n n n n n n n n n n n n n n n n n n n n n n n n n n n n n n n n n n n n n n n n n n n n n b c c v x V ",
"c c c c v k p p p p p p p p p p p p p p p p p p p p p p p p p p p p p p p p p p p p p p p p p p p p p p p p p p p i f v c c c x ",
"v c c v h D | X................................................................................................. .O.U h v c c v ",
"c c v l A g.A.m.M.M.M.M.M.M.M.M.M.M.M.M.M.M.M.M.M.M.M.M.M.M.M.M.M.M.M.M.M.M.M.M.M.M.M.M.M.M.M.M.M.M.M.M.M.M.M.M.M.N.A.! g b c c ",
"c c n p { Z.1.5.5.5.5.5.5.5.5.5.5.5.5.5.5.5.5.5.5.5.5.5.5.5.5.5.5.5.5.5.5.5.5.5.5.5.5.5.5.5.5.5.5.5.5.5.5.5.5.5.5.2.g.g.m x c c ",
"c c n p ..m.6.e.w.w.w.w.w.w.w.w.w.w.w.w.w.w.w.w.w.w.w.w.w.w.w.w.w.w.w.w.w.w.w.w.w.w.w.w.w.w.w.w.w.w.w.w.w.w.w.w.w.q.t.b.Z l v c ",
"c c n p  .N.5.w.q.q.q.q.q.q.q.q.q.q.q.q.q.q.q.q.q.q.q.q.q.q.q.q.q.q.q.q.q.q.q.q.q.q.q.q.q.q.q.q.q.q.q.q.q.q.q.q.q.0.y.b.Z l v c ",
"c c n p ..N.5.w.q.q.q.q.q.q.q.q.q.q.q.q.q.q.q.q.q.q.q.q.q.q.q.q.q.q.q.q.q.q.q.q.q.q.q.q.q.q.q.q.q.q.q.q.q.q.q.q.q.0.y.n.Z l v c ",
"c c n p ..N.5.w.q.q.q.q.q.q.q.q.q.q.q.q.q.q.q.q.q.q.q.q.q.q.q.q.q.q.q.q.q.q.q.q.q.q.q.q.q.q.q.q.q.q.q.q.q.q.q.q.q.0.y.n.Z l v c ",
"c c n p ..N.5.w.q.q.q.q.q.q.q.q.q.q.q.q.q.q.q.q.q.q.q.q.q.q.q.q.q.q.q.q.q.q.q.q.q.q.q.q.q.q.q.q.q.q.q.q.q.q.q.q.q.0.y.n.Z l v c ",
"c c n p ..N.5.w.q.q.q.q.q.q.q.q.q.q.q.q.q.q.q.q.q.q.q.q.q.q.q.q.q.q.q.q.q.q.q.q.q.q.q.q.q.q.q.q.q.q.q.q.q.q.q.q.q.0.y.n.Z l v c ",
"c c n p ..N.5.w.q.q.q.q.q.q.q.q.q.q.q.q.q.q.q.q.q.q.q.q.q.q.q.q.q.q.q.q.q.q.q.q.q.q.q.q.q.q.q.q.q.q.q.q.q.q.q.q.q.0.y.n.Z l v c ",
"c c n p ..N.5.w.q.q.q.q.q.q.q.q.q.q.q.q.q.q.q.q.q.q.q.q.q.q.q.q.q.q.q.q.q.q.q.q.q.q.q.q.q.q.q.q.q.q.q.q.q.q.q.q.q.0.y.n.Z l v c ",
"c c n p ..N.5.w.q.q.q.q.q.q.q.q.q.q.q.q.q.q.q.q.q.q.q.q.q.q.q.q.q.q.q.q.q.q.q.q.q.q.q.q.q.q.q.q.q.q.q.q.q.q.q.q.q.0.y.n.Z l v c ",
"c c n p ..N.5.w.q.q.q.q.q.q.q.q.q.q.q.q.q.q.q.q.q.q.q.q.q.q.q.q.q.q.q.q.q.q.q.q.q.q.q.q.q.q.q.q.q.q.q.q.q.q.q.q.q.0.y.n.Z l v c ",
"c c n p ..N.5.w.q.q.q.q.q.q.q.q.q.q.q.q.q.q.q.q.q.q.q.q.q.q.q.q.q.q.q.q.q.q.q.q.q.q.q.q.q.q.q.q.q.q.q.q.q.q.q.q.q.0.y.n.Z l v c ",
"c c n p ..N.5.w.q.q.q.q.q.q.q.q.q.q.q.q.q.q.q.q.q.q.q.q.q.q.q.q.q.q.q.q.q.q.q.q.q.q.q.q.q.q.q.q.q.q.q.q.q.q.q.q.q.0.y.n.Z l v c ",
"c c n p ..N.5.w.q.q.q.q.q.q.q.q.q.q.q.q.q.q.q.q.q.q.q.q.q.q.q.q.q.q.q.q.q.q.q.q.q.q.q.q.q.q.q.q.q.q.q.q.q.q.q.q.q.0.y.n.Z l v c ",
"c c n p ..N.5.w.q.q.q.q.q.q.q.q.q.q.q.q.q.q.q.q.q.q.q.q.q.q.q.q.q.q.q.q.q.q.q.q.q.q.q.q.q.q.q.q.q.q.q.q.q.q.q.q.q.0.y.n.Z l v c ",
"c c n p ..N.5.w.q.q.q.q.q.q.q.q.q.q.q.q.q.q.q.q.q.q.q.q.q.q.q.q.q.q.q.q.q.q.q.q.q.q.q.q.q.q.q.q.q.q.q.q.q.q.q.q.q.0.y.n.Z l v c ",
"c c n p ..N.5.w.q.q.q.q.q.q.q.q.q.q.q.q.q.q.q.q.q.q.q.q.q.q.q.q.q.8.0.q.q.q.q.q.q.q.q.q.q.q.q.q.q.q.q.q.q.q.q.q.q.0.y.n.Z l v c ",
"c c n p ..N.5.w.q.q.q.q.q.q.q.q.q.q.q.q.q.q.q.q.q.q.0.9.9.q.q.q.w.f.u.0.q.0.q.q.q.q.q.q.q.q.q.q.q.q.q.q.q.q.q.q.q.0.y.n.Z l v c ",
"c c n p ..N.5.w.q.q.q.q.q.q.q.q.q.q.q.q.q.q.q.q.q.q.e.g.d.q.q.w.8.E @.u.0.t.w.q.q.q.q.q.q.q.q.q.q.q.q.q.q.q.q.q.q.0.y.n.Z l v c ",
"c c n p ..N.5.w.q.q.q.q.q.q.q.q.q.q.q.q.q.q.q.q.0.e.3.M H r.0.y.*.. R g.7.;.7.q.q.q.q.q.q.q.q.q.q.q.q.q.q.q.q.q.q.0.y.n.Z l v c ",
"c c n p ..N.5.w.q.q.q.q.q.q.q.q.q.q.q.q.q.q.q.q.8.g.W   # #.u.r.=.O Q v./ 1 4.y.q.q.q.q.q.q.q.q.q.q.q.q.q.q.q.q.q.0.y.n.Z l v c ",
"c c n p ..N.5.w.q.q.q.q.q.q.q.q.q.q.q.q.q.q.q.q.0.s.r Z 9 A j.w.:.O E x.I % >.9.9.q.q.q.q.q.q.q.q.q.q.q.q.q.q.q.q.0.y.n.Z l v c ",
"c c n p ..N.5.w.q.q.q.q.q.q.q.q.q.q.q.q.q.q.q.0.i.%.+ $.G < q.y.<.# ~ S , + 8 5 ` s.9.q.q.q.q.q.q.q.q.q.q.q.q.q.q.0.y.n.Z l v c ",
"c c n p ..N.5.w.q.q.q.q.q.q.q.q.q.q.q.q.q.q.q.8.k.F 7 m.-.@ _ j.<.& E 2.K * { o.:.e.0.q.q.q.q.q.q.q.q.q.q.q.q.q.q.0.y.n.Z l v c ",
"c c n p ..N.5.w.q.q.q.q.q.q.q.q.q.q.q.q.q.q.q.q.r.4 0 Y P $ l k.<.- R B.( : 8.f.e.q.q.q.q.q.q.q.q.q.q.q.q.q.q.q.q.0.y.n.Z l v c ",
"c c n p ..N.5.w.q.q.q.q.q.q.q.q.q.q.q.q.q.q.9.s.} o w q e 4 : ,.7.; R c.^ > 8.u.q.q.q.q.q.q.q.q.q.q.q.q.q.q.q.q.q.0.y.n.Z l v c ",
"c c n p ..N.5.w.q.q.q.q.q.q.q.q.q.q.q.q.q.q.8.h.k 6 p.t.s.&.  U i.= T x.[ X ^ <.5.w.q.q.q.q.q.q.q.q.q.q.q.q.q.q.q.0.y.n.Z l v c ",
"c c n p ..N.5.w.q.q.q.q.q.q.q.q.q.q.q.q.q.0.e.6.2 L k.8.9.f.t u r.3 ~ g.5.y   , O.i.9.q.q.q.q.q.q.q.q.q.q.q.q.q.q.0.y.n.Z l v c ",
"c c n p ..N.5.w.q.q.q.q.q.q.q.q.q.q.q.q.q.q.q.q.;.3.w.q.0.e.,.:.q.<.7.q.r.w.+.+.6.w.q.q.q.q.q.q.q.q.q.q.q.q.q.q.q.0.y.n.Z l v c ",
"c c n p ..N.5.w.q.q.q.q.q.q.q.q.q.q.q.q.q.q.q.q.t.w.q.q.q.0.r.t.q.r.w.q.q.q.p.i.w.q.q.q.q.q.q.q.q.q.q.q.q.q.q.q.q.0.y.n.Z l v c ",
"c c n p ..N.5.w.q.q.q.q.q.q.q.q.q.q.q.q.q.q.q.q.0.0.q.q.q.q.0.0.q.0.q.q.q.q.9.9.q.q.q.q.q.q.q.q.q.q.q.q.q.q.q.q.q.0.y.n.Z l v c ",
"c c n p ..N.5.w.q.q.q.q.q.q.q.q.q.q.q.q.q.q.q.q.q.q.q.q.q.q.q.q.q.q.q.q.q.q.q.q.q.q.q.q.q.q.q.q.q.q.q.q.q.q.q.q.q.0.y.n.Z l v c ",
"c c n p ..N.5.w.q.q.q.q.q.q.q.q.q.q.q.q.q.q.q.q.q.q.q.q.q.q.q.q.q.q.q.q.q.q.q.q.q.q.q.q.q.q.q.q.q.q.q.q.q.q.q.q.q.0.y.n.Z l v c ",
"c c n p ..N.5.w.q.q.q.q.q.q.q.q.q.q.q.q.q.q.q.q.q.q.q.q.q.q.q.q.q.q.q.q.q.q.q.q.q.q.q.q.q.q.q.q.q.q.q.q.q.q.q.q.q.0.y.n.Z l v c ",
"c c n p ..N.5.w.q.q.q.q.q.q.q.q.q.q.q.q.q.q.q.q.q.q.q.q.q.q.q.q.q.q.q.q.q.q.q.q.q.q.q.q.q.q.q.q.q.q.q.q.q.q.q.q.q.0.y.n.Z l v c ",
"c c n p ..N.5.w.q.q.q.q.q.q.q.q.q.q.q.q.q.q.q.q.q.q.q.q.q.q.q.q.q.q.q.q.q.q.q.q.q.q.q.q.q.q.q.q.q.q.q.q.q.q.q.q.q.0.y.n.Z l v c ",
"c c n p ..N.5.w.q.q.q.q.q.q.q.q.q.q.q.q.q.q.q.q.q.q.q.q.q.q.q.q.q.q.q.q.q.q.q.q.q.q.q.q.q.q.q.q.q.q.q.q.q.q.q.q.q.0.y.n.Z l v c ",
"c c n p ..N.5.w.q.q.q.q.q.q.q.q.q.q.q.q.q.q.q.q.q.q.q.q.q.q.q.q.q.q.q.q.q.q.q.q.q.q.q.q.q.q.q.q.q.q.q.q.q.q.q.q.q.0.y.n.Z l v c ",
"c c n p ..N.5.w.q.q.q.q.q.q.q.q.q.q.q.q.q.q.q.q.q.q.q.q.q.q.q.q.q.q.q.q.q.q.q.q.q.q.q.q.q.q.q.q.q.q.q.q.q.q.q.q.q.0.y.n.Z l v c ",
"c c n p ..N.5.w.q.q.q.q.q.q.q.q.q.q.q.q.q.q.q.q.q.q.q.q.q.q.q.q.q.q.q.q.q.q.q.q.q.q.q.q.q.q.q.q.q.q.q.q.q.q.q.q.q.0.y.n.Z l v c ",
"c c n p ..N.5.w.q.q.q.q.q.q.q.q.q.q.q.q.q.q.q.q.q.q.q.q.q.q.q.q.q.q.q.q.q.q.q.q.q.q.q.q.q.q.q.q.q.q.q.q.q.q.q.q.q.0.y.n.Z l v c ",
"c c n p ..N.5.w.q.q.q.q.q.q.q.q.q.q.q.q.q.q.q.q.q.q.q.q.q.q.q.q.q.q.q.q.q.q.q.q.q.q.q.q.q.q.q.q.q.q.q.q.q.q.q.q.q.0.y.n.Z l v c ",
"c c n p ..N.5.w.q.q.q.q.q.q.q.q.q.q.q.q.q.q.q.q.q.q.q.q.q.q.q.q.q.q.q.q.q.q.q.q.q.q.q.q.q.q.q.q.q.q.q.q.q.q.q.q.q.0.y.n.Z l v c ",
"c c n p ..N.5.w.q.q.q.q.q.q.q.q.q.q.q.q.q.q.q.q.q.q.q.q.q.q.q.q.q.q.q.q.q.q.q.q.q.q.q.q.q.q.q.q.q.q.q.q.q.q.q.q.q.0.y.n.Z l v c ",
"c c n p ..N.5.w.q.q.q.q.q.q.q.q.q.q.q.q.q.q.q.q.q.q.q.q.q.q.q.q.q.q.q.q.q.q.q.q.q.q.q.q.q.q.q.q.q.q.q.q.q.q.q.q.q.0.y.n.Z l v c ",
"c c n p ..N.5.w.q.q.q.q.q.q.q.q.q.q.q.q.q.q.q.q.q.q.q.q.q.q.q.q.q.q.q.q.q.q.q.q.q.q.q.q.q.q.q.q.q.q.q.q.q.q.q.q.q.0.y.n.Z l v c ",
"c c n p ..N.5.w.q.q.q.q.q.q.q.q.q.q.q.q.q.q.q.q.q.q.q.q.q.q.q.q.q.q.q.q.q.q.q.q.q.q.q.q.q.q.q.q.q.q.q.q.q.q.q.q.q.0.y.n.Z l v c ",
"c c n p ..N.5.w.q.q.q.q.q.q.q.q.q.q.q.q.q.q.q.q.q.q.q.q.q.q.q.q.q.q.q.q.q.q.q.q.q.q.q.q.q.q.q.q.q.q.q.q.q.q.q.q.q.0.y.n.Z l v c ",
"c c n p ..N.5.w.q.q.q.q.q.q.q.q.q.q.q.q.q.q.q.q.q.q.q.q.q.q.q.q.q.q.q.q.q.q.q.q.q.q.q.q.q.q.q.q.q.q.q.q.q.q.q.q.q.0.y.n.Z l v c ",
"c c n p ..N.5.w.q.q.q.q.q.q.q.q.q.q.q.q.q.q.q.q.q.q.q.q.q.q.q.q.q.q.q.q.q.q.q.q.q.q.q.q.q.q.q.q.q.q.q.q.q.q.q.q.q.0.y.b.Z l v c ",
"c c n p  .M.6.w.q.q.q.q.q.q.q.q.q.q.q.q.q.q.q.q.q.q.q.q.q.q.q.q.q.q.q.q.q.q.q.q.q.q.q.q.q.q.q.q.q.q.q.q.q.q.q.q.q.0.t.b.Z l v c ",
"c c n i  .C.1.7.7.7.7.7.7.7.7.7.7.7.7.7.7.7.7.7.7.7.7.7.7.7.7.7.7.7.7.7.7.7.7.7.7.7.7.7.7.7.7.7.7.7.7.7.7.7.7.7.7.3.a.l.N z v c ",
"c c v j G v.B.z.x.x.x.x.x.x.x.x.x.x.x.x.x.x.x.x.x.x.x.x.x.x.x.x.x.x.x.x.x.x.x.x.x.x.x.x.x.x.x.x.x.x.x.x.x.x.x.x.x.c.A.` g b c c ",
"v c c b g J o.o.o.o.o.o.o.o.o.o.o.o.o.o.o.o.o.o.o.o.o.o.o.o.o.o.o.o.o.o.o.o.o.o.o.o.o.o.o.o.o.o.o.o.o.o.o.o.o.o.X.O.W l c c c v ",
"x c c c b h a d d d d d d d d d d d d d d d d d d d d d d d d d d d d d d d d d d d d d d d d d d d d d d d d d d s d c c c c x ",
"B c v c c b n b b b b b b b b b b b b b b b b b b b b b b b b b b b b b b b b b b b b b b b b b b b b b b b b b b n b c c v c C ",
"' u c c c c c c c c c c c c c c c c c c c c c c c c c c c c c c c c c c c c c c c c c c c c c c c c c c c c c c c c c c c c u ] ",
"B._ m x c c c c c c c c c c c c c c c c c c c c c c c c c c c c c c c c c c c c c c c c c c c c c c c c c c c c c c c c x m ) B."
};
