/* XPM */
static char *result[] = {
/* columns rows colors chars-per-pixel */
"64 64 105 2 ",
"   c gray3",
".  c gray4",
"X  c #0C0C0C",
"o  c gray7",
"O  c #151515",
"+  c #181818",
"@  c #191919",
"#  c #1D1D1D",
"$  c #252525",
"%  c gray15",
"&  c gray19",
"*  c #444444",
"=  c gray27",
"-  c #464646",
";  c gray28",
":  c #484848",
">  c #494949",
",  c #4B4B4B",
"<  c #4C4C4C",
"1  c #4E4E4E",
"2  c gray31",
"3  c #505050",
"4  c #515151",
"5  c gray32",
"6  c #535353",
"7  c gray33",
"8  c #555555",
"9  c #565656",
"0  c gray34",
"q  c #585858",
"w  c #5A5A5A",
"e  c #5B5B5B",
"r  c gray36",
"t  c #5D5D5D",
"y  c gray37",
"u  c #646464",
"i  c #686868",
"p  c #6F6F6F",
"a  c gray45",
"s  c gray47",
"d  c #868686",
"f  c #909090",
"g  c #929292",
"h  c gray58",
"j  c #9A9A9A",
"k  c #9D9D9D",
"l  c gray62",
"z  c gray63",
"x  c #A2A2A2",
"c  c gray64",
"v  c #A7A7A7",
"b  c #A9A9A9",
"n  c gray67",
"m  c #ACACAC",
"M  c gray68",
"N  c #AEAEAE",
"B  c #AFAFAF",
"V  c gray69",
"C  c #B1B1B1",
"Z  c gray70",
"A  c gray73",
"S  c gray",
"D  c #C6C6C6",
"F  c gray78",
"G  c #CACACA",
"H  c gray80",
"J  c gray81",
"K  c #D0D0D0",
"L  c gray82",
"P  c LightGray",
"I  c gray83",
"U  c #D5D5D5",
"Y  c #D7D7D7",
"T  c #D8D8D8",
"R  c gray85",
"E  c #DADADA",
"W  c gray86",
"Q  c gainsboro",
"!  c #DDDDDD",
"~  c gray87",
"^  c #DFDFDF",
"/  c gray88",
"(  c #E1E1E1",
")  c #E2E2E2",
"_  c gray89",
"`  c #E4E4E4",
"'  c gray90",
"]  c #E6E6E6",
"[  c #E7E7E7",
"{  c gray92",
"}  c #ECECEC",
"|  c #EEEEEE",
" . c #EFEFEF",
".. c gray94",
"X. c gray95",
"o. c #F3F3F3",
"O. c #F4F4F4",
"+. c gray96",
"@. c #F6F6F6",
"#. c gray97",
"$. c #F9F9F9",
"%. c gray98",
"&. c #FBFBFB",
"*. c gray99",
"=. c white",
/* pixels */
"$.k q 6 7 7 7 7 7 7 7 7 7 7 7 7 7 7 7 7 7 7 7 7 7 7 7 7 7 7 7 7 7 7 7 7 7 7 7 7 7 7 7 7 7 7 7 7 7 7 7 7 7 7 7 7 7 7 7 7 7 q l %.",
"x * 7 7 7 7 7 7 7 7 7 7 7 7 7 7 7 7 7 7 7 7 7 7 7 7 7 7 7 7 7 7 7 7 7 7 7 7 7 7 7 7 7 7 7 7 7 7 7 7 7 7 7 7 7 7 7 7 7 7 7 7 * c ",
"t 7 8 7 7 8 0 0 0 0 0 0 0 0 0 0 0 0 0 0 0 0 0 0 0 0 0 0 0 0 0 0 0 0 0 0 0 0 0 0 0 0 0 0 0 0 0 0 0 0 0 0 0 0 0 0 0 0 9 7 7 8 6 r ",
"7 7 7 7 8 3 - - - - - - - - - - - - - - - - - - - - - - - - - - - - - - - - - - - - - - - - - - - - - - - - - - - = , 8 7 7 7 6 ",
"8 7 7 8 1 i n N M M M M M M M M M M M M M M M M M M M M M M M M M M M M M M M M M M M M M M M M M M M M M M M M m C d 1 8 7 7 8 ",
"7 7 8 4 u ] =.+.@.@.@.@.@.@.@.@.@.@.@.@.@.@.@.@.@.@.@.@.@.@.@.@.@.@.@.@.@.@.@.@.@.@.@.@.@.@.@.@.@.@.@.@.@.@.@.@.@.#.=.g < 9 7 7 ",
"7 7 0 - v *.J P P P P P P P P P P P P P P P P P P P P P P P P P P P P P P P P P P P P P P P P P P P P P P P P P P K ] ] q 6 7 7 ",
"7 7 0 - M +.I W E E E E E E E E E E E E E E E E E E E E E E E E E E E E E E E E E E E E E E E E E E E E E E E E E R ! o.y 4 8 7 ",
"7 7 0 - m #.P E R R R R R R R R R R R R R R R R R R R R R R R R R R R R R R R R R R R R R R R R R R R R R R R R R T ~ o.y 4 8 7 ",
"7 7 0 - M #.P E R R R R R R R R R R R R R R R R R R R R R R R R R R R R R R R R R R R R R R R R R R R R R R R R R T ~ O.y 4 8 7 ",
"7 7 0 - M #.P E R R R R R R R R R R R R R R R R R R R R R R R R R R R R R R R R R R R R R R R R R R R R R R R R R T ~ O.y 4 8 7 ",
"7 7 0 - M #.P E R R R R R R R R R R R R R R R R R R R R R R R R R R R R R R R R R R R R R R R R R R R R R R R R R T ~ O.y 4 8 7 ",
"7 7 0 - M #.P E R R R R R R R R R R R R R R R R R R R R R R R R R R R R R R R R R R R R R R R R R R R R R R R R R T ~ O.y 4 8 7 ",
"7 7 0 - M #.P E R R R R R R R R R R R R R R R R R R R R R R R R R R R R R R R R R R R R R R R R R R R R R R R R R T ~ O.y 4 8 7 ",
"7 7 0 - M #.P E R R R R R R R R R R R R R R R R R R R R R R R R R R R R R R R R R R R R R R R R R R R R R R R R R T ~ O.y 4 8 7 ",
"7 7 0 - M #.P E R R R R R R R R R R R R R R R R R R R R R R R R R R R R R R R R R R R R R R R R R R R R R R R R R T ~ O.y 4 8 7 ",
"7 7 0 - M #.P E R R R R R R R R R R R R R R R R R R R R R R R R R R R R R R R R R R R R R R R R R R R R R R R R R T ~ O.y 4 8 7 ",
"7 7 0 - M #.P E R R R R R R R R R R R R R R R R R R R R R R R R R R R R R R R R R R R R R R R R R R R R R R R R R T ~ O.y 4 8 7 ",
"7 7 0 - M #.P E R R R R R R R R R R R R R R R R R R R R R R R R R R R R R R R R R R R R R R R R R R R R R R R R R T ~ O.y 4 8 7 ",
"7 7 0 - M #.P E R R R R R R R R R R R R R R R R R R R R R R R R R R R R R R R R R R R R R R R R R R R R R R R R R T ~ O.y 4 8 7 ",
"7 7 0 - M #.P E R R R R R R R R R R R R R R R R R R R R R R R R R R R R R R R R R R R R R R R R R R R R R R R R R T ~ O.y 4 8 7 ",
"7 7 0 - M #.P E R R R R R R R R R R R R R R R R R R R R R R R R R R R R R R R R R R R R R R R R R R R R R R R R R T ~ O.y 4 8 7 ",
"7 7 0 - M #.P E R R R R R R R R R R R R R R R R R R R R R R R R R R R R R R R R R R R R R R R R R R R R R R R R R T ~ O.y 4 8 7 ",
"7 7 0 - M #.P E R R R R R R R R R R R R R R R R R R R R R R R R R R R R R R R R R R R R R R R R R R R R R R R R R T ~ O.y 4 8 7 ",
"7 7 0 - M #.P E R R R R R R R R R R R R R R R R R R R R R R R R R R R R R R R R R R R R R R R R R R R R R R R R R T ~ O.y 4 8 7 ",
"7 7 0 - M #.P E R R R R R R R R R R R R R R R R R R R R R R R T T T R R R R R R R R R R R R R R R R R R R R R R R T ~ O.y 4 8 7 ",
"7 7 0 - M #.P E R R R R R R R R R R R R R R R R R R R R R R T Q ( ~ R R R R R R R R R R R R R R R R R R R R R R R T ~ O.y 4 8 7 ",
"7 7 0 - M #.P E R R R R R R R R R R R R R R R R R R R R R E ) G Z F R R R R R R R R R R R R R R R R R R R R R R R T ~ O.y 4 8 7 ",
"7 7 0 - M #.P E R R R R R R R R R R R R R R R R R R R R T ! s @ . o V / Y R R R R R R R R R R R R R R R R R R R R T ~ O.y 4 8 7 ",
"7 7 0 - M #.P E R R R R R R R R R R R R R R R R R R R T ! G   h ( V H Q R R R R R R R R R R R R R R R R R R R R R T ~ O.y 4 8 7 ",
"7 7 0 - M #.P E R R R R R R R R R R R R R R R R R R R R E T - + r S ` Y R R R R R R R R R R R R R R R R R R R R R T ~ O.y 4 8 7 ",
"7 7 0 - M #.P E R R R R R R R R R R R R R R R R R R R R T Q ' z * X j _ Y R R R R R R R R R R R R R R R R R R R R T ~ O.y 4 8 7 ",
"7 7 0 - M #.P E R R R R R R R R R R R R R R R R R R R R W L m ~ [ & t } U R R R R R R R R R R R R R R R R R R R R T ~ O.y 4 8 7 ",
"7 7 0 - M #.P E R R R R R R R R R R R R R R R R R R R T ! D $ # O % A ^ Y R R R R R R R R R R R R R R R R R R R R T ~ O.y 4 8 7 ",
"7 7 0 - M #.P E R R R R R R R R R R R R R R R R R R R R R R L b z K / T R R R R R R R R R R R R R R R R R R R R R T ~ O.y 4 8 7 ",
"7 7 0 - M #.P E R R R R R R R R R R R R R R R R R R R R R R W _ ` W T R R R R R R R R R R R R R R R R R R R R R R T ~ O.y 4 8 7 ",
"7 7 0 - M #.P E R R R R R R R R R R R R R R R R R R R R R R T Y Y T R R R R R R R R R R R R R R R R R R R R R R R T ~ O.y 4 8 7 ",
"7 7 0 - M #.P E R R R R R R R R R R R R R R R R R R R R R R R R R R R R R R R R R R R R R R R R R R R R R R R R R T ~ O.y 4 8 7 ",
"7 7 0 - M #.P E R R R R R R R R R R R R R R R R R R R R R R R R R R R R R R R R R R R R R R R R R R R R R R R R R T ~ O.y 4 8 7 ",
"7 7 0 - M #.P E R R R R R R R R R R R R R R R R R R R R R R R R R R R R R R R R R R R R R R R R R R R R R R R R R T ~ O.y 4 8 7 ",
"7 7 0 - M #.P E R R R R R R R R R R R R R R R R R R R R R R R R R R R R R R R R R R R R R R R R R R R R R R R R R T ~ O.y 4 8 7 ",
"7 7 0 - M #.P E R R R R R R R R R R R R R R R R R R R R R R R R R R R R R R R R R R R R R R R R R R R R R R R R R T ~ O.y 4 8 7 ",
"7 7 0 - M #.P E R R R R R R R R R R R R R R R R R R R R R R R R R R R R R R R R R R R R R R R R R R R R R R R R R T ~ O.y 4 8 7 ",
"7 7 0 - M #.P E R R R R R R R R R R R R R R R R R R R R R R R R R R R R R R R R R R R R R R R R R R R R R R R R R T ~ O.y 4 8 7 ",
"7 7 0 - M #.P E R R R R R R R R R R R R R R R R R R R R R R R R R R R R R R R R R R R R R R R R R R R R R R R R R T ~ O.y 4 8 7 ",
"7 7 0 - M #.P E R R R R R R R R R R R R R R R R R R R R R R R R R R R R R R R R R R R R R R R R R R R R R R R R R T ~ O.y 4 8 7 ",
"7 7 0 - M #.P E R R R R R R R R R R R R R R R R R R R R R R R R R R R R R R R R R R R R R R R R R R R R R R R R R T ~ O.y 4 8 7 ",
"7 7 0 - M #.P E R R R R R R R R R R R R R R R R R R R R R R R R R R R R R R R R R R R R R R R R R R R R R R R R R T ~ O.y 4 8 7 ",
"7 7 0 - M #.P E R R R R R R R R R R R R R R R R R R R R R R R R R R R R R R R R R R R R R R R R R R R R R R R R R T ~ O.y 4 8 7 ",
"7 7 0 - M #.P E R R R R R R R R R R R R R R R R R R R R R R R R R R R R R R R R R R R R R R R R R R R R R R R R R T ~ O.y 4 8 7 ",
"7 7 0 - M #.P E R R R R R R R R R R R R R R R R R R R R R R R R R R R R R R R R R R R R R R R R R R R R R R R R R T ~ O.y 4 8 7 ",
"7 7 0 - M #.P E R R R R R R R R R R R R R R R R R R R R R R R R R R R R R R R R R R R R R R R R R R R R R R R R R T ~ O.y 4 8 7 ",
"7 7 0 - M #.P E R R R R R R R R R R R R R R R R R R R R R R R R R R R R R R R R R R R R R R R R R R R R R R R R R T ~ O.y 4 8 7 ",
"7 7 0 - M #.P E R R R R R R R R R R R R R R R R R R R R R R R R R R R R R R R R R R R R R R R R R R R R R R R R R T ~ O.y 4 8 7 ",
"7 7 0 - M #.P E R R R R R R R R R R R R R R R R R R R R R R R R R R R R R R R R R R R R R R R R R R R R R R R R R T ~ O.y 4 8 7 ",
"7 7 0 - M #.P E R R R R R R R R R R R R R R R R R R R R R R R R R R R R R R R R R R R R R R R R R R R R R R R R R T ~ o.y 4 8 7 ",
"7 7 0 - m @.I E R R R R R R R R R R R R R R R R R R R R R R R R R R R R R R R R R R R R R R R R R R R R R R R R R T ! o.y 4 8 7 ",
"7 7 0 = m &.J U U U U U U U U U U U U U U U U U U U U U U U U U U U U U U U U U U U U U U U U U U U U U U U U U U L ) { w 5 8 7 ",
"7 7 8 2 p X.$.|  . . . . . . . . . . . . . . . . . . . . . . . . . . . . . . . . . . . . . . . . . . . . . . . . ...=.z < 9 7 7 ",
"8 7 7 9 < a B B B B B B B B B B B B B B B B B B B B B B B B B B B B B B B B B B B B B B B B B B B B B B B B B B N C f 4 7 7 7 8 ",
"6 7 7 7 9 1 ; > > > > > > > > > > > > > > > > > > > > > > > > > > > > > > > > > > > > > > > > > > > > > > > > > > : > 7 7 7 7 6 ",
"e 7 8 7 7 9 0 9 9 9 9 9 9 9 9 9 9 9 9 9 9 9 9 9 9 9 9 9 9 9 9 9 9 9 9 9 9 9 9 9 9 9 9 9 9 9 9 9 9 9 9 9 9 9 9 9 9 0 9 7 7 8 7 t ",
"x * 7 7 7 7 7 7 7 7 7 7 7 7 7 7 7 7 7 7 7 7 7 7 7 7 7 7 7 7 7 7 7 7 7 7 7 7 7 7 7 7 7 7 7 7 7 7 7 7 7 7 7 7 7 7 7 7 7 7 7 7 * c ",
"$.l q 6 7 7 7 7 7 7 7 7 7 7 7 7 7 7 7 7 7 7 7 7 7 7 7 7 7 7 7 7 7 7 7 7 7 7 7 7 7 7 7 7 7 7 7 7 7 7 7 7 7 7 7 7 7 7 7 7 6 q k $."
};
