/* XPM */
static char *result[] = {
/* columns rows colors chars-per-pixel */
"64 64 122 2 ",
"   c black",
".  c #040404",
"X  c #070707",
"o  c gray5",
"O  c gray6",
"+  c gray7",
"@  c #131313",
"#  c #181818",
"$  c gray11",
"%  c #1E1E1E",
"&  c gray14",
"*  c gray15",
"=  c #282828",
"-  c #2C2C2C",
";  c gray22",
":  c gray26",
">  c #444444",
",  c gray27",
"<  c #464646",
"1  c gray28",
"2  c #484848",
"3  c #494949",
"4  c #4B4B4B",
"5  c #4C4C4C",
"6  c #4E4E4E",
"7  c gray31",
"8  c #505050",
"9  c #515151",
"0  c gray32",
"q  c #535353",
"w  c gray33",
"e  c #555555",
"r  c #565656",
"t  c gray34",
"y  c #585858",
"u  c #5A5A5A",
"i  c #5B5B5B",
"p  c gray36",
"a  c #5D5D5D",
"s  c gray37",
"d  c #646464",
"f  c gray40",
"g  c #686868",
"h  c gray42",
"j  c #6F6F6F",
"k  c gray44",
"l  c gray45",
"z  c #747474",
"x  c gray46",
"c  c gray48",
"v  c gray49",
"b  c #868686",
"n  c #8D8D8D",
"m  c #909090",
"M  c gray57",
"N  c #929292",
"B  c gray58",
"V  c gray60",
"C  c #9D9D9D",
"Z  c gray62",
"A  c #9F9F9F",
"S  c gray63",
"D  c #A2A2A2",
"F  c gray64",
"G  c #A7A7A7",
"H  c #A9A9A9",
"J  c gray67",
"K  c #ACACAC",
"L  c gray68",
"P  c #AEAEAE",
"I  c #AFAFAF",
"U  c #B1B1B1",
"Y  c #B4B4B4",
"T  c #B6B6B6",
"R  c gray72",
"E  c #C1C1C1",
"W  c gray76",
"Q  c #CACACA",
"!  c #CBCBCB",
"~  c gray80",
"^  c #CECECE",
"/  c gray81",
"(  c #D0D0D0",
")  c gray82",
"_  c LightGray",
"`  c gray83",
"'  c #D5D5D5",
"]  c gray84",
"[  c #D7D7D7",
"{  c #D8D8D8",
"}  c gray85",
"|  c #DADADA",
" . c gray86",
".. c gainsboro",
"X. c #DDDDDD",
"o. c gray87",
"O. c #DFDFDF",
"+. c gray88",
"@. c #E1E1E1",
"#. c #E2E2E2",
"$. c gray89",
"%. c gray90",
"&. c #E6E6E6",
"*. c #E7E7E7",
"=. c #E9E9E9",
"-. c #EAEAEA",
";. c gray92",
":. c #ECECEC",
">. c #EEEEEE",
",. c #EFEFEF",
"<. c gray94",
"1. c gray95",
"2. c #F3F3F3",
"3. c #F4F4F4",
"4. c gray96",
"5. c #F6F6F6",
"6. c gray97",
"7. c #F9F9F9",
"8. c gray98",
"9. c #FBFBFB",
"0. c gray99",
"q. c white",
/* pixels */
"7.C y q w w w w w w w w w w w w w w w w w w w w w w w w w w w w w w w w w w w w w w w w w w w w w w w w w w w w w w w w w y Z 8.",
"D > w w w w w w w w w w w w w w w w w w w w w w w w w w w w w w w w w w w w w w w w w w w w w w w w w w w w w w w w w w w w > F ",
"a w e w w e t t t t t t t t t t t t t t t t t t t t t t t t t t t t t t t t t t t t t t t t t t t t t t t t t t t t r w w e q p ",
"w w w w e 8 < < < < < < < < < < < < < < < < < < < < < < < < < < < < < < < < < < < < < < < < < < < < < < < < < < < , 4 e w w w q ",
"e w w e 6 g J P L L L L L L L L L L L L L L L L L L L L L L L L L L L L L L L L L L L L L L L L L L L L L L L L K U b 6 e w w e ",
"w w e 9 d &.q.4.5.5.5.5.5.5.5.5.5.5.5.5.5.5.5.5.5.5.5.5.5.5.5.5.5.5.5.5.5.5.5.5.5.5.5.5.5.5.5.5.5.5.5.5.5.5.5.5.5.6.q.N 5 r w w ",
"w w t < G 0./ _ _ _ _ _ _ _ _ _ _ _ _ _ _ _ _ _ _ _ _ _ _ _ _ _ _ _ _ _ _ _ _ _ _ _ _ _ _ _ _ _ _ _ _ _ _ _ _ _ _ ( &.&.y q w w ",
"w w t < L 4.`  .| | | | | | | | | | | | | | | | | | | | | | | | | | | | | | | | | | | | | | | | | | | | | | | | | } X.2.s 9 e w ",
"w w t < K 6._ | } } } } } } } } } } } } } } } } } } } } } } } } } } } } } } } } } } } } } } } } } } } } } } } } } { o.2.s 9 e w ",
"w w t < L 6._ | } } } } } } } } } } } } } } } } } } } } } } } } } } } } } } } } } } } } } } } } } } } } } } } } } { o.3.s 9 e w ",
"w w t < L 6._ | } } } } } } } } } } } } } } } } } } } } } } } } } } } } } } } } } } } } } } } } } } } } } } } } } { o.3.s 9 e w ",
"w w t < L 6._ | } } } } } } } } } } } } } } } } } } } } } } } } } } } } } } } } } } } } } } } } } } } } } } } } } { o.3.s 9 e w ",
"w w t < L 6._ | } } } } } } } } } } } } } } } } } } } } } } } } } } } } } } } } } } } } } } } } } } } } } } } } } { o.3.s 9 e w ",
"w w t < L 6._ | } } } } } } } } } } } } } } } } } } } } } } } } } } } } } } } } } } } } } } } } } } } } } } } } } { o.3.s 9 e w ",
"w w t < L 6._ | } } } } } } } } } } } } } } } } } } } } } } } } } } } } } } } } } } } } } } } } } } } } } } } } } { o.3.s 9 e w ",
"w w t < L 6._ | } } } } } } } } } } } } } } } } } } } } } } } } } } } } } } } } } } } } } } } } } } } } } } } } } { o.3.s 9 e w ",
"w w t < L 6._ | } } } } } } } } } } } } } } } } } } } } } } } } } } } } } } } } } } } } } } } } } } } } } } } } } { o.3.s 9 e w ",
"w w t < L 6._ | } } } } } } } } } } } } } } } } } } } } } } } } } } } } } } } } } } } } } } } } } } } } } } } } } { o.3.s 9 e w ",
"w w t < L 6._ | } } } } } } } } } } } } } } } } } } } } } } } } } } } } } } } } } } } } } } } } } } } } } } } } } { o.3.s 9 e w ",
"w w t < L 6._ | } } } } } } } } } } } } } } } } } } } } } } } } } } } } } } } } } } } } } } } } } } } } } } } } } { o.3.s 9 e w ",
"w w t < L 6._ | } } } } } } } } } } } } } } } } } } } } } } } } } } } } } } } } } } } } } } } } } } } } } } } } } { o.3.s 9 e w ",
"w w t < L 6._ | } } } } } } } } } } } } } } } } } } } } } } } } } } } } } } } } } } } } } } } } } } } } } } } } } { o.3.s 9 e w ",
"w w t < L 6._ | } } } } } } } } } } } } } } } } } } } } } } } } } } } } } } } } } } } } } } } } } } } } } } } } } { o.3.s 9 e w ",
"w w t < L 6._ | } } } } } } } } } } } } } } } } } } } } } } } } } } } } } } } } } } } } } } } } } } } } } } } } } { o.3.s 9 e w ",
"w w t < L 6._ | } } } } } } } } } } } } } } } } } } } } } } } } } } } } } } } } } } } } } } } } } } } } } } } } } { o.3.s 9 e w ",
"w w t < L 6._ | } } } } } } } } } } } } } } } } } } } } } } } } [ { } } } } } } } } } } } } } } } } } } } } } } } { o.3.s 9 e w ",
"w w t < L 6._ | } } } } } } } } } } } } } } } } } } } } } } }  .+. .[ } } } } } } } } } } } } } } } } } } } } } } { o.3.s 9 e w ",
"w w t < L 6._ | } } } } } } } } } } } } } } } } } } } } } {  ._ Y ' @.{ } } } } } } } } } } } } } } } } } } } } } { o.3.s 9 e w ",
"w w t < L 6._ | } } } } } } } } } } } } } } } } } } } ] *.v - ; . # D #.[ } } } } } } } } } } } } } } } } } } } } { o.3.s 9 e w ",
"w w t < L 6._ | } } } } } } } } } } } } } } } } } } } ' :.f O R W : + ! ..{ } } } } } } } } } } } } } } } } } } } { o.3.s 9 e w ",
"w w t < L 6._ | } } } } } } } } } } } } } } } } } } } ' :.g = $.&.Q X B %.] } } } } } } } } } } } } } } } } } } } { o.3.s 9 e w ",
"w w t < L 6._ | } } } } } } } } } } } } } } } } } } } ' :.h * O...{ + n &.] } } } } } } } } } } } } } } } } } } } { o.3.s 9 e w ",
"w w t < L 6._ | } } } } } } } } } } } } } } } } } } } ' ;.k % ^ +.M o E o.{ } } } } } } } } } } } } } } } } } } } { o.3.s 9 e w ",
"w w t < L 6._ | } } } } } } } } } } } } } } } } } } } ' =.c   @ & % N @.[ } } } } } } } } } } } } } } } } } } } } { o.3.s 9 e w ",
"w w t < L 6._ | } } } } } } } } } } } } } } } } } } } ' -.z $ A V ~ $.{ } } } } } } } } } } } } } } } } } } } } } { o.3.s 9 e w ",
"w w t < L 6._ | } } } } } } } } } } } } } } } } } } } ] -.x & &.&...[ } } } } } } } } } } } } } } } } } } } } } } { o.3.s 9 e w ",
"w w t < L 6._ | } } } } } } } } } } } } } } } } } } } ' -.l % { { [ } } } } } } } } } } } } } } } } } } } } } } } { o.3.s 9 e w ",
"w w t < L 6._ | } } } } } } } } } } } } } } } } } } } { O.T H  .} } } } } } } } } } } } } } } } } } } } } } } } } { o.3.s 9 e w ",
"w w t < L 6._ | } } } } } } } } } } } } } } } } } } } } { O.#.} } } } } } } } } } } } } } } } } } } } } } } } } } { o.3.s 9 e w ",
"w w t < L 6._ | } } } } } } } } } } } } } } } } } } } } } { [ } } } } } } } } } } } } } } } } } } } } } } } } } } { o.3.s 9 e w ",
"w w t < L 6._ | } } } } } } } } } } } } } } } } } } } } } } } } } } } } } } } } } } } } } } } } } } } } } } } } } { o.3.s 9 e w ",
"w w t < L 6._ | } } } } } } } } } } } } } } } } } } } } } } } } } } } } } } } } } } } } } } } } } } } } } } } } } { o.3.s 9 e w ",
"w w t < L 6._ | } } } } } } } } } } } } } } } } } } } } } } } } } } } } } } } } } } } } } } } } } } } } } } } } } { o.3.s 9 e w ",
"w w t < L 6._ | } } } } } } } } } } } } } } } } } } } } } } } } } } } } } } } } } } } } } } } } } } } } } } } } } { o.3.s 9 e w ",
"w w t < L 6._ | } } } } } } } } } } } } } } } } } } } } } } } } } } } } } } } } } } } } } } } } } } } } } } } } } { o.3.s 9 e w ",
"w w t < L 6._ | } } } } } } } } } } } } } } } } } } } } } } } } } } } } } } } } } } } } } } } } } } } } } } } } } { o.3.s 9 e w ",
"w w t < L 6._ | } } } } } } } } } } } } } } } } } } } } } } } } } } } } } } } } } } } } } } } } } } } } } } } } } { o.3.s 9 e w ",
"w w t < L 6._ | } } } } } } } } } } } } } } } } } } } } } } } } } } } } } } } } } } } } } } } } } } } } } } } } } { o.3.s 9 e w ",
"w w t < L 6._ | } } } } } } } } } } } } } } } } } } } } } } } } } } } } } } } } } } } } } } } } } } } } } } } } } { o.3.s 9 e w ",
"w w t < L 6._ | } } } } } } } } } } } } } } } } } } } } } } } } } } } } } } } } } } } } } } } } } } } } } } } } } { o.3.s 9 e w ",
"w w t < L 6._ | } } } } } } } } } } } } } } } } } } } } } } } } } } } } } } } } } } } } } } } } } } } } } } } } } { o.3.s 9 e w ",
"w w t < L 6._ | } } } } } } } } } } } } } } } } } } } } } } } } } } } } } } } } } } } } } } } } } } } } } } } } } { o.3.s 9 e w ",
"w w t < L 6._ | } } } } } } } } } } } } } } } } } } } } } } } } } } } } } } } } } } } } } } } } } } } } } } } } } { o.3.s 9 e w ",
"w w t < L 6._ | } } } } } } } } } } } } } } } } } } } } } } } } } } } } } } } } } } } } } } } } } } } } } } } } } { o.3.s 9 e w ",
"w w t < L 6._ | } } } } } } } } } } } } } } } } } } } } } } } } } } } } } } } } } } } } } } } } } } } } } } } } } { o.3.s 9 e w ",
"w w t < L 6._ | } } } } } } } } } } } } } } } } } } } } } } } } } } } } } } } } } } } } } } } } } } } } } } } } } { o.2.s 9 e w ",
"w w t < K 5.` | } } } } } } } } } } } } } } } } } } } } } } } } } } } } } } } } } } } } } } } } } } } } } } } } } { X.2.s 9 e w ",
"w w t , K 9./ ' ' ' ' ' ' ' ' ' ' ' ' ' ' ' ' ' ' ' ' ' ' ' ' ' ' ' ' ' ' ' ' ' ' ' ' ' ' ' ' ' ' ' ' ' ' ' ' ' ' ) #.;.u 0 e w ",
"w w e 7 j 1.7.>.,.,.,.,.,.,.,.,.,.,.,.,.,.,.,.,.,.,.,.,.,.,.,.,.,.,.,.,.,.,.,.,.,.,.,.,.,.,.,.,.,.,.,.,.,.,.,.,.,.<.q.S 5 r w w ",
"e w w r 5 l I I I I I I I I I I I I I I I I I I I I I I I I I I I I I I I I I I I I I I I I I I I I I I I I I I P U m 9 w w w e ",
"q w w w r 6 1 3 3 3 3 3 3 3 3 3 3 3 3 3 3 3 3 3 3 3 3 3 3 3 3 3 3 3 3 3 3 3 3 3 3 3 3 3 3 3 3 3 3 3 3 3 3 3 3 3 3 2 3 w w w w q ",
"i w e w w r t r r r r r r r r r r r r r r r r r r r r r r r r r r r r r r r r r r r r r r r r r r r r r r r r r r t r w w e w a ",
"D > w w w w w w w w w w w w w w w w w w w w w w w w w w w w w w w w w w w w w w w w w w w w w w w w w w w w w w w w w w w w > F ",
"7.Z y q w w w w w w w w w w w w w w w w w w w w w w w w w w w w w w w w w w w w w w w w w w w w w w w w w w w w w w w w q y C 7."
};
