/* XPM */
static char *result[] = {
/* columns rows colors chars-per-pixel */
"64 64 104 2 ",
"   c black",
".  c #010101",
"X  c #020202",
"o  c gray1",
"O  c #040404",
"+  c gray2",
"@  c #070707",
"#  c gray3",
"$  c #090909",
"%  c #0B0B0B",
"&  c gray5",
"*  c #111111",
"=  c gray7",
"-  c gray13",
";  c #272727",
":  c #282828",
">  c #2C2C2C",
",  c #343434",
"<  c #373737",
"1  c #393939",
"2  c #3C3C3C",
"3  c gray26",
"4  c #434343",
"5  c #444444",
"6  c #464646",
"7  c #484848",
"8  c gray29",
"9  c #4B4B4B",
"0  c #4C4C4C",
"q  c gray30",
"w  c #4E4E4E",
"e  c gray31",
"r  c #505050",
"t  c #515151",
"y  c gray32",
"u  c #535353",
"i  c gray33",
"p  c #555555",
"a  c #565656",
"s  c gray34",
"d  c #585858",
"f  c gray35",
"g  c #5A5A5A",
"h  c #5B5B5B",
"j  c gray36",
"k  c #5D5D5D",
"l  c #606060",
"z  c gray38",
"x  c #646464",
"c  c #656565",
"v  c DimGray",
"b  c gray42",
"n  c #6F6F6F",
"m  c gray44",
"M  c #717171",
"N  c #767676",
"B  c #777777",
"V  c #797979",
"C  c #7B7B7B",
"Z  c #7E7E7E",
"A  c gray50",
"S  c #808080",
"D  c gray51",
"F  c gray52",
"G  c #898989",
"H  c #8B8B8B",
"J  c gray57",
"K  c #959595",
"L  c #989898",
"P  c gray60",
"I  c #9D9D9D",
"U  c gray62",
"Y  c #A0A0A0",
"T  c gray63",
"R  c #A2A2A2",
"E  c gray64",
"W  c #A7A7A7",
"Q  c gray66",
"!  c #A9A9A9",
"~  c gray67",
"^  c #AFAFAF",
"/  c #B2B2B2",
"(  c gray71",
")  c #B6B6B6",
"_  c #B7B7B7",
"`  c gray72",
"'  c #B9B9B9",
"]  c gray74",
"[  c #C0C0C0",
"{  c #C1C1C1",
"}  c gray77",
"|  c #C5C5C5",
" . c #C8C8C8",
".. c #CACACA",
"X. c #CDCDCD",
"o. c gray82",
"O. c #D2D2D2",
"+. c gray83",
"@. c #D5D5D5",
"#. c #D7D7D7",
"$. c gray90",
"%. c #E6E6E6",
"&. c #F9F9F9",
"*. c gray98",
/* pixels */
"&.I d u i i i i i i i i i i i i i i i i i i i i i i i i i i i i i i i i i i i i i i i i i i i i i i i i i i i i i i i i i d U *.",
"R 5 i i i i i i i i i i i i i i i i i i i i i i i i i i i i i i i i i i i i i i i i i i i i i i i i i i i i i i i i i i i i 5 E ",
"k i p i i i s s s s s s s s s s s s s s s s s s s s s s s s s s s s s s s s s s s s s s s s s s s s s s s s s s s s a i i p u j ",
"i i i i p y 5 4 5 5 5 5 5 5 5 5 5 5 5 5 5 5 5 5 5 5 5 5 5 5 5 5 5 5 5 5 5 5 5 5 5 5 5 5 5 5 5 5 5 5 5 5 5 5 5 5 5 3 q a i i i u ",
"p i i p r j ^ ' ( ) ) ) ) ) ) ) ) ) ) ) ) ) ) ) ) ) ) ) ) ) ) ) ) ) ) ) ) ) ) ) ) ) ) ) ) ) ) ) ) ) ) ) ) ) ) ) ( ] C 0 a i i p ",
"i i p u g o.R n M M M M M M M M M M M M M M M M M M M M M M M M M M M M M M M M M M M M M M M M M M M M M M M M m A #.F 9 a i i ",
"i i s 5 ~ Y   o                                                                                                 o   6 +.u u i i ",
"i i s 4 ` V   # O O O O O O O O O O O O O O O O O O O O O O O O O O O O O O O O O O O O O O O O O O O O O O O O +   * $.z t p i ",
"i i s 4 ) B   O                                                                                                 .   * %.l t p i ",
"i i s 4 _ B   O                                                                                                 .   * %.l t p i ",
"i i s 4 _ B   O                                                                                                 .   * %.l t p i ",
"i i s 4 _ B   O                                                                                                 .   * %.l t p i ",
"i i s 4 _ B   O                                                                                                 .   * %.l t p i ",
"i i s 4 _ B   O                                                                                                 .   * %.l t p i ",
"i i s 4 _ B   O                                                                                                 .   * %.l t p i ",
"i i s 4 _ B   O                                                                                                 .   * %.l t p i ",
"i i s 4 _ B   O                                                                                                 .   * %.l t p i ",
"i i s 4 _ B   O                                                                                                 .   * %.l t p i ",
"i i s 4 _ B   O                                                                                                 .   * %.l t p i ",
"i i s 4 _ B   O                                                                                                 .   * %.l t p i ",
"i i s 4 _ B   O                                                                                                 .   * %.l t p i ",
"i i s 4 _ B   O                                                                                                 .   * %.l t p i ",
"i i s 4 _ B   O                                                                                                 .   * %.l t p i ",
"i i s 4 _ B   O                                                                                                 .   * %.l t p i ",
"i i s 4 _ B   O                                                                                                 .   * %.l t p i ",
"i i s 4 _ B   O                                             . X X .                                             .   * %.l t p i ",
"i i s 4 _ B   O                                                     .                                           .   * %.l t p i ",
"i i s 4 _ B   O                                             @ ; : #                                             .   * %.l t p i ",
"i i s 4 _ B   O                                       X   < | X.+. .,   X                                       .   * %.l t p i ",
"i i s 4 _ B   O                                       .   - <   & R !   .                                       .   * %.l t p i ",
"i i s 4 _ B   O                                             3 D C ! ` o   .                                     .   * %.l t p i ",
"i i s 4 _ B   O                                       o   t O.b 5 J ` X   .                                     .   * %.l t p i ",
"i i s 4 _ B   O                                       O   N } .   v { .   .                                     .   * %.l t p i ",
"i i s 4 _ B   O                                       X   - [ ..T W Q O   .                                     .   * %.l t p i ",
"i i s 4 _ B   O                                             % 2 > . $                                           .   * %.l t p i ",
"i i s 4 _ B   O                                           .                                                     .   * %.l t p i ",
"i i s 4 _ B   O                                             . X .   .                                           .   * %.l t p i ",
"i i s 4 _ B   O                                                                                                 .   * %.l t p i ",
"i i s 4 _ B   O                                                                                                 .   * %.l t p i ",
"i i s 4 _ B   O                                                                                                 .   * %.l t p i ",
"i i s 4 _ B   O                                                                                                 .   * %.l t p i ",
"i i s 4 _ B   O                                                                                                 .   * %.l t p i ",
"i i s 4 _ B   O                                                                                                 .   * %.l t p i ",
"i i s 4 _ B   O                                                                                                 .   * %.l t p i ",
"i i s 4 _ B   O                                                                                                 .   * %.l t p i ",
"i i s 4 _ B   O                                                                                                 .   * %.l t p i ",
"i i s 4 _ B   O                                                                                                 .   * %.l t p i ",
"i i s 4 _ B   O                                                                                                 .   * %.l t p i ",
"i i s 4 _ B   O                                                                                                 .   * %.l t p i ",
"i i s 4 _ B   O                                                                                                 .   * %.l t p i ",
"i i s 4 _ B   O                                                                                                 .   * %.l t p i ",
"i i s 4 _ B   O                                                                                                 .   * %.l t p i ",
"i i s 4 _ B   O                                                                                                 .   * %.l t p i ",
"i i s 4 _ B   O                                                                                                 .   * %.l t p i ",
"i i s 4 _ B   O                                                                                                 .   * %.l t p i ",
"i i s 4 _ B   O                                                                                                 .   * %.l t p i ",
"i i s 4 ` B   @ o o o o o o o o o o o o o o o o o o o o o o o o o o o o o o o o o o o o o o o o o o o o o o o o O   = %.z r p i ",
"i i s 4 / P   O                                                                                                 X   1 #.a u i i ",
"i i p t x @.S 8 w q q q q q q q q q q q q q q q q q q q q q q q q q q q q q q q q q q q q q q q q q q q q q q q q f ..K 8 a i i ",
"p i i p e c L H H H H H H H H H H H H H H H H H H H H H H H H H H H H H H H H H H H H H H H H H H H H H H H H H G K Z q p i i p ",
"u i i i p r 6 7 7 7 7 7 7 7 7 7 7 7 7 7 7 7 7 7 7 7 7 7 7 7 7 7 7 7 7 7 7 7 7 7 7 7 7 7 7 7 7 7 7 7 7 7 7 7 7 7 7 6 0 a i i i u ",
"h i p i i p a a a a a a a a a a a a a a a a a a a a a a a a a a a a a a a a a a a a a a a a a a a a a a a a a a a a p i i p i k ",
"R 5 i i i i i i i i i i i i i i i i i i i i i i i i i i i i i i i i i i i i i i i i i i i i i i i i i i i i i i i i i i i i 5 E ",
"&.U d u i i i i i i i i i i i i i i i i i i i i i i i i i i i i i i i i i i i i i i i i i i i i i i i i i i i i i i i i u d I &."
};
