/* XPM */
static char *result[] = {
/* columns rows colors chars-per-pixel */
"64 64 107 2 ",
"   c black",
".  c #010101",
"X  c #020202",
"o  c gray1",
"O  c #040404",
"+  c gray6",
"@  c #151515",
"#  c #1D1D1D",
"$  c gray20",
"%  c #393939",
"&  c gray24",
"*  c #3F3F3F",
"=  c #434343",
"-  c #444444",
";  c gray27",
":  c #464646",
">  c gray28",
",  c #484848",
"<  c #494949",
"1  c #4B4B4B",
"2  c #4C4C4C",
"3  c #4E4E4E",
"4  c gray31",
"5  c #505050",
"6  c #515151",
"7  c gray32",
"8  c #535353",
"9  c gray33",
"0  c #555555",
"q  c #565656",
"w  c gray34",
"e  c #585858",
"r  c #5A5A5A",
"t  c #5B5B5B",
"y  c gray36",
"u  c #5D5D5D",
"i  c gray37",
"p  c #646464",
"a  c #686868",
"s  c #6A6A6A",
"d  c #6F6F6F",
"f  c gray45",
"g  c #7C7C7C",
"h  c #868686",
"j  c gray55",
"k  c #909090",
"l  c #929292",
"z  c #979797",
"x  c #9D9D9D",
"c  c gray62",
"v  c gray63",
"b  c #A2A2A2",
"n  c gray64",
"m  c #A7A7A7",
"M  c #AAAAAA",
"N  c gray67",
"B  c #ACACAC",
"V  c gray68",
"C  c #AEAEAE",
"Z  c #AFAFAF",
"A  c #B1B1B1",
"S  c #B6B6B6",
"D  c gray72",
"F  c #BCBCBC",
"G  c gray",
"H  c #C6C6C6",
"J  c #CDCDCD",
"K  c gray81",
"L  c #D0D0D0",
"P  c gray82",
"I  c LightGray",
"U  c gray83",
"Y  c #D5D5D5",
"T  c gray84",
"R  c #D7D7D7",
"E  c #D8D8D8",
"W  c gray85",
"Q  c #DADADA",
"!  c gray86",
"~  c gainsboro",
"^  c #DDDDDD",
"/  c gray87",
"(  c #DFDFDF",
")  c gray88",
"_  c #E1E1E1",
"`  c #E2E2E2",
"'  c gray89",
"]  c #E4E4E4",
"[  c #E6E6E6",
"{  c #E7E7E7",
"}  c gray91",
"|  c #E9E9E9",
" . c gray92",
".. c #EEEEEE",
"X. c #EFEFEF",
"o. c gray94",
"O. c gray95",
"+. c #F3F3F3",
"@. c #F4F4F4",
"#. c gray96",
"$. c #F6F6F6",
"%. c gray97",
"&. c #F9F9F9",
"*. c gray98",
"=. c #FBFBFB",
"-. c gray99",
";. c white",
/* pixels */
"&.x e 8 9 9 9 9 9 9 9 9 9 9 9 9 9 9 9 9 9 9 9 9 9 9 9 9 9 9 9 9 9 9 9 9 9 9 9 9 9 9 9 9 9 9 9 9 9 9 9 9 9 9 9 9 9 9 9 9 9 e c *.",
"b - 9 9 9 9 9 9 9 9 9 9 9 9 9 9 9 9 9 9 9 9 9 9 9 9 9 9 9 9 9 9 9 9 9 9 9 9 9 9 9 9 9 9 9 9 9 9 9 9 9 9 9 9 9 9 9 9 9 9 9 9 - n ",
"u 9 0 9 9 0 w w w w w w w w w w w w w w w w w w w w w w w w w w w w w w w w w w w w w w w w w w w w w w w w w w w w q 9 9 0 8 y ",
"9 9 9 9 0 5 : : : : : : : : : : : : : : : : : : : : : : : : : : : : : : : : : : : : : : : : : : : : : : : : : : : ; 1 0 9 9 9 8 ",
"0 9 9 0 3 a N C V V V V V V V V V V V V V V V V V V V V V V V V V V V V V V V V V V V V V V V V V V V V V V V V B A h 3 0 9 9 0 ",
"9 9 0 6 p [ ;.#.$.$.$.$.$.$.$.$.$.$.$.$.$.$.$.$.$.$.$.$.$.$.$.$.$.$.$.$.$.$.$.$.$.$.$.$.$.$.$.$.$.$.$.$.$.$.$.$.$.%.;.l 2 q 9 9 ",
"9 9 w : m -.K I I I I I I I I I I I I I I I I I I I I I I I I I I I I I I I I I I I I I I I I I I I I I I I I I I L [ [ e 8 9 9 ",
"9 9 w : V #.U ! Q Q Q Q Q Q Q Q Q Q Q Q Q Q Q Q Q Q Q Q Q Q Q Q Q Q Q Q Q Q Q Q Q Q Q Q Q Q Q Q Q Q Q Q Q Q Q Q Q W ^ +.i 6 0 9 ",
"9 9 w : B %.I Q W W W W W W W W W W W W W W W W W W W W W W W W W W W W W W W W W W W W W W W W W W W W W W W W W E / +.i 6 0 9 ",
"9 9 w : V %.I Q W W W W W W W W W W W W W W W W W W W W W W W W W W W W W W W W W W W W W W W W W W W W W W W W W E / @.i 6 0 9 ",
"9 9 w : V %.I Q W W W W W W W W W W W W W W W W W W W W W W W W W W W W W W W W W W W W W W W W W W W W W W W W W E / @.i 6 0 9 ",
"9 9 w : V %.I Q W W W W W W W W W W W W W W W W W W W W W W W W W W W W W W W W W W W W W W W W W W W W W W W W W E / @.i 6 0 9 ",
"9 9 w : V %.I Q W W W W W W W W W W W W W W W W W W W W W W W W W W W W W W W W W W W W W W W W W W W W W W W W W E / @.i 6 0 9 ",
"9 9 w : V %.I Q W W W W W W W W W W W W W W W W W W W W W W W W W W W W W W W W W W W W W W W W W W W W W W W W W E / @.i 6 0 9 ",
"9 9 w : V %.I Q W W W W W W W W W W W W W W W W W W W W W W W W W W W W W W W W W W W W W W W W W W W W W W W W W E / @.i 6 0 9 ",
"9 9 w : V %.I Q W W W W W W W W W W W W W W W W W W W W W W W W W W W W W W W W W W W W W W W W W W W W W W W W W E / @.i 6 0 9 ",
"9 9 w : V %.I Q W W W W W W W W W W W W W W W W W W W W W W W W W W W W W W W W W W W W W W W W W W W W W W W W W E / @.i 6 0 9 ",
"9 9 w : V %.I Q W W W W W W W W W W W W W W W W W W W W W W W W W W W W W W W W W W W W W W W W W W W W W W W W W E / @.i 6 0 9 ",
"9 9 w : V %.I Q W W W W W W W W W W W W W W W W W W W W W W W W W W W W W W W W W W W W W W W W W W W W W W W W W E / @.i 6 0 9 ",
"9 9 w : V %.I Q W W W W W W W W W W W W W W W W W W W W W W W W W W W W W W W W W W W W W W W W W W W W W W W W W E / @.i 6 0 9 ",
"9 9 w : V %.I Q W W W W W W W W W W W W W W W W W W W W W W W W W W W W W W W W W W W W W W W W W W W W W W W W W E / @.i 6 0 9 ",
"9 9 w : V %.I Q W W W W W W W W W W W W W W W W W W W W W W W W W W W W W W W W W W W W W W W W W W W W W W W W W E / @.i 6 0 9 ",
"9 9 w : V %.I Q W W W W W W W W W W W W W W W W W W W W W W W W W W W W W W W W W W W W W W W W W W W W W W W W W E / @.i 6 0 9 ",
"9 9 w : V %.I Q W W W W W W W W W W W W W W W W W W W W W W W W W W W W W W W W W W W W W W W W W W W W W W W W W E / @.i 6 0 9 ",
"9 9 w : V %.I Q W W W W W W W W W W W W W W W W W W W W W W W W W W W W W W W W W W W W W W W W W W W W W W W W W E / @.i 6 0 9 ",
"9 9 w : V %.I Q W W W W W W W W W W W W W W W W W W W W W W W W W W W W W W W W W W W W W W W W W W W W W W W W W E / @.i 6 0 9 ",
"9 9 w : V %.I Q W W W W W W W W W W W W W W W W W W W W W W W W W W W W W W W W W W W W W W W W W W W W W W W W W E / @.i 6 0 9 ",
"9 9 w : V %.I Q W W W W W W W W W W W W W W W W W W W W W W W W W W W W W W W W W W W W W W W W W W W W W W W W W E / @.i 6 0 9 ",
"9 9 w : V %.I Q W W W W W W W W W W W W W W W W W W W W W W W W W E W W W W W W W W W W W W W W W W W W W W W W W E / @.i 6 0 9 ",
"9 9 w : V %.I Q W W W W W W W W W W W W W W W W W W W W W W W W Q ^ R W W W W W W W W W W W W W W W W W W W W W W E / @.i 6 0 9 ",
"9 9 w : V %.I Q W W W W W W W W W W W W W W W W W W W W W W W Q U H ` R W W W W W W W W W W W W W W W W W W W W W E / @.i 6 0 9 ",
"9 9 w : V %.I Q W W W W W W W W W W W W W W W W E R R R R R R W U * z | T W W W W W W W W W W W W W W W W W W W W E / @.i 6 0 9 ",
"9 9 w : V %.I Q W W W W W W W W W W W W W W W W ! ' ' ' ' ' ` ' ] $   j { R E W W W W W W W W W W W W W W W W W W E / @.i 6 0 9 ",
"9 9 w : V %.I Q W W W W W W W W W W W W W W E / F 9 9 9 9 9 9 9 9 @     f ] W R W W W W W W W W W W W W W W W W W E / @.i 6 0 9 ",
"9 9 w : V %.I Q W W W W W W W W W W W W W W R ` m                   . o   y ) / E W W W W W W W W W W W W W W W W E / @.i 6 0 9 ",
"9 9 w : V %.I Q W W W W W W W W W W W W W W R ` M O X o o o o o o .   . o   = J ! E W W W W W W W W W W W W W W W E / @.i 6 0 9 ",
"9 9 w : V %.I Q W W W W W W W W W W W W W W R ` M o . X X X X X X .     O   # G / E W W W W W W W W W W W W W W W E / @.i 6 0 9 ",
"9 9 w : V %.I Q W W W W W W W W W W W W W W R ` m                   . o   % J _ R W W W W W W W W W W W W W W W W E / @.i 6 0 9 ",
"9 9 w : V %.I Q W W W W W W W W W W W W W W E ( S & & & & & & & & +     4 W / T W W W W W W W W W W W W W W W W W E / @.i 6 0 9 ",
"9 9 w : V %.I Q W W W W W W W W W W W W W W W W Q ~ ~ ~ ~ ~ ~ ~ ~ $   s ` ! R W W W W W W W W W W W W W W W W W W E / @.i 6 0 9 ",
"9 9 w : V %.I Q W W W W W W W W W W W W W W W W W W W W W W E Q R $ g } E E W W W W W W W W W W W W W W W W W W W E / @.i 6 0 9 ",
"9 9 w : V %.I Q W W W W W W W W W W W W W W W W W W W W W W W ! I D ` R E W W W W W W W W W W W W W W W W W W W W E / @.i 6 0 9 ",
"9 9 w : V %.I Q W W W W W W W W W W W W W W W W W W W W W W W W Q ( R W W W W W W W W W W W W W W W W W W W W W W E / @.i 6 0 9 ",
"9 9 w : V %.I Q W W W W W W W W W W W W W W W W W W W W W W W W W E W W W W W W W W W W W W W W W W W W W W W W W E / @.i 6 0 9 ",
"9 9 w : V %.I Q W W W W W W W W W W W W W W W W W W W W W W W W W W W W W W W W W W W W W W W W W W W W W W W W W E / @.i 6 0 9 ",
"9 9 w : V %.I Q W W W W W W W W W W W W W W W W W W W W W W W W W W W W W W W W W W W W W W W W W W W W W W W W W E / @.i 6 0 9 ",
"9 9 w : V %.I Q W W W W W W W W W W W W W W W W W W W W W W W W W W W W W W W W W W W W W W W W W W W W W W W W W E / @.i 6 0 9 ",
"9 9 w : V %.I Q W W W W W W W W W W W W W W W W W W W W W W W W W W W W W W W W W W W W W W W W W W W W W W W W W E / @.i 6 0 9 ",
"9 9 w : V %.I Q W W W W W W W W W W W W W W W W W W W W W W W W W W W W W W W W W W W W W W W W W W W W W W W W W E / @.i 6 0 9 ",
"9 9 w : V %.I Q W W W W W W W W W W W W W W W W W W W W W W W W W W W W W W W W W W W W W W W W W W W W W W W W W E / @.i 6 0 9 ",
"9 9 w : V %.I Q W W W W W W W W W W W W W W W W W W W W W W W W W W W W W W W W W W W W W W W W W W W W W W W W W E / @.i 6 0 9 ",
"9 9 w : V %.I Q W W W W W W W W W W W W W W W W W W W W W W W W W W W W W W W W W W W W W W W W W W W W W W W W W E / @.i 6 0 9 ",
"9 9 w : V %.I Q W W W W W W W W W W W W W W W W W W W W W W W W W W W W W W W W W W W W W W W W W W W W W W W W W E / @.i 6 0 9 ",
"9 9 w : V %.I Q W W W W W W W W W W W W W W W W W W W W W W W W W W W W W W W W W W W W W W W W W W W W W W W W W E / @.i 6 0 9 ",
"9 9 w : V %.I Q W W W W W W W W W W W W W W W W W W W W W W W W W W W W W W W W W W W W W W W W W W W W W W W W W E / @.i 6 0 9 ",
"9 9 w : V %.I Q W W W W W W W W W W W W W W W W W W W W W W W W W W W W W W W W W W W W W W W W W W W W W W W W W E / +.i 6 0 9 ",
"9 9 w : B $.U Q W W W W W W W W W W W W W W W W W W W W W W W W W W W W W W W W W W W W W W W W W W W W W W W W W E ^ +.i 6 0 9 ",
"9 9 w ; B =.K Y Y Y Y Y Y Y Y Y Y Y Y Y Y Y Y Y Y Y Y Y Y Y Y Y Y Y Y Y Y Y Y Y Y Y Y Y Y Y Y Y Y Y Y Y Y Y Y Y Y P `  .r 7 0 9 ",
"9 9 0 4 d O.&...X.X.X.X.X.X.X.X.X.X.X.X.X.X.X.X.X.X.X.X.X.X.X.X.X.X.X.X.X.X.X.X.X.X.X.X.X.X.X.X.X.X.X.X.X.X.X.X.X.o.;.v 2 q 9 9 ",
"0 9 9 q 2 f Z Z Z Z Z Z Z Z Z Z Z Z Z Z Z Z Z Z Z Z Z Z Z Z Z Z Z Z Z Z Z Z Z Z Z Z Z Z Z Z Z Z Z Z Z Z Z Z Z Z C A k 6 9 9 9 0 ",
"8 9 9 9 q 3 > < < < < < < < < < < < < < < < < < < < < < < < < < < < < < < < < < < < < < < < < < < < < < < < < < < , < 9 9 9 9 8 ",
"t 9 0 9 9 q w q q q q q q q q q q q q q q q q q q q q q q q q q q q q q q q q q q q q q q q q q q q q q q q q q q w q 9 9 0 9 u ",
"b - 9 9 9 9 9 9 9 9 9 9 9 9 9 9 9 9 9 9 9 9 9 9 9 9 9 9 9 9 9 9 9 9 9 9 9 9 9 9 9 9 9 9 9 9 9 9 9 9 9 9 9 9 9 9 9 9 9 9 9 9 - n ",
"&.c e 8 9 9 9 9 9 9 9 9 9 9 9 9 9 9 9 9 9 9 9 9 9 9 9 9 9 9 9 9 9 9 9 9 9 9 9 9 9 9 9 9 9 9 9 9 9 9 9 9 9 9 9 9 9 9 9 9 8 e x &."
};
