/* XPM */
static char *result[] = {
/* columns rows colors chars-per-pixel */
"64 64 150 2 ",
"   c black",
".  c #010101",
"X  c gray1",
"o  c #060606",
"O  c #070707",
"+  c gray3",
"@  c #090909",
"#  c gray4",
"$  c #0B0B0B",
"%  c #0C0C0C",
"&  c gray5",
"*  c #101010",
"=  c gray7",
"-  c #191919",
";  c #1D1D1D",
":  c gray12",
">  c #232323",
",  c gray14",
"<  c #2A2A2A",
"1  c #2D2D2D",
"2  c #313131",
"3  c #373737",
"4  c gray22",
"5  c #3A3A3A",
"6  c gray23",
"7  c #3C3C3C",
"8  c gray24",
"9  c gray25",
"0  c #414141",
"q  c #444444",
"w  c gray27",
"e  c #464646",
"r  c gray28",
"t  c #484848",
"y  c #494949",
"u  c #4B4B4B",
"i  c #4C4C4C",
"p  c #4E4E4E",
"a  c gray31",
"s  c #505050",
"d  c #515151",
"f  c gray32",
"g  c #535353",
"h  c gray33",
"j  c #555555",
"k  c #565656",
"l  c gray34",
"z  c #585858",
"x  c #5A5A5A",
"c  c #5B5B5B",
"v  c gray36",
"b  c #5D5D5D",
"n  c gray37",
"m  c #606060",
"M  c #646464",
"N  c gray40",
"B  c #686868",
"V  c gray43",
"C  c #6F6F6F",
"Z  c #717171",
"A  c gray45",
"S  c gray48",
"D  c gray50",
"F  c #818181",
"G  c gray51",
"H  c #868686",
"J  c #8E8E8E",
"K  c #909090",
"L  c #929292",
"P  c #959595",
"I  c #979797",
"U  c #9D9D9D",
"Y  c gray62",
"T  c #9F9F9F",
"R  c #A0A0A0",
"E  c gray63",
"W  c #A2A2A2",
"Q  c gray64",
"!  c #A4A4A4",
"~  c #A5A5A5",
"^  c gray65",
"/  c #A7A7A7",
"(  c #A9A9A9",
")  c gray67",
"_  c #ACACAC",
"`  c gray68",
"'  c #AEAEAE",
"]  c #AFAFAF",
"[  c gray69",
"{  c #B1B1B1",
"}  c #B4B4B4",
"|  c #B6B6B6",
" . c #B7B7B7",
".. c gray72",
"X. c #BBBBBB",
"o. c #BCBCBC",
"O. c gray",
"+. c #C1C1C1",
"@. c gray76",
"#. c #C3C3C3",
"$. c gray77",
"%. c #C6C6C6",
"&. c #CACACA",
"*. c #CBCBCB",
"=. c gray80",
"-. c #CDCDCD",
";. c #CECECE",
":. c gray81",
">. c #D0D0D0",
",. c gray82",
"<. c #D2D2D2",
"1. c LightGray",
"2. c gray83",
"3. c #D5D5D5",
"4. c gray84",
"5. c #D7D7D7",
"6. c #D8D8D8",
"7. c gray85",
"8. c #DADADA",
"9. c gray86",
"0. c gainsboro",
"q. c #DDDDDD",
"w. c gray87",
"e. c #DFDFDF",
"r. c gray88",
"t. c #E1E1E1",
"y. c #E2E2E2",
"u. c gray89",
"i. c #E4E4E4",
"p. c gray90",
"a. c #E6E6E6",
"s. c #E7E7E7",
"d. c gray91",
"f. c #E9E9E9",
"g. c #EAEAEA",
"h. c gray92",
"j. c #EEEEEE",
"k. c #EFEFEF",
"l. c gray94",
"z. c gray95",
"x. c #F3F3F3",
"c. c #F4F4F4",
"v. c gray96",
"b. c #F6F6F6",
"n. c gray97",
"m. c #F9F9F9",
"M. c gray98",
"N. c #FBFBFB",
"B. c gray99",
"V. c white",
/* pixels */
"m.U z g h h h h h h h h h h h h h h h h h h h h h h h h h h h h h h h h h h h h h h h h h h h h h h h h h h h h h h h h h z Y M.",
"W q h h h h h h h h h h h h h h h h h h h h h h h h h h h h h h h h h h h h h h h h h h h h h h h h h h h h h h h h h h h h q Q ",
"b h j h h j l l l l l l l l l l l l l l l l l l l l l l l l l l l l l l l l l l l l l l l l l l l l l l l l l l l l k h h j g v ",
"h h h h j s e e e e e e e e e e e e e e e e e e e e e e e e e e e e e e e e e e e e e e e e e e e e e e e e e e e w u j h h h g ",
"j h h j p B ) ' ` ` ` ` ` ` ` ` ` ` ` ` ` ` ` ` ` ` ` ` ` ` ` ` ` ` ` ` ` ` ` ` ` ` ` ` ` ` ` ` ` ` ` ` ` ` ` ` _ { H p j h h j ",
"h h j d M a.V.v.b.b.b.b.b.b.b.b.b.b.b.b.b.b.b.b.b.b.b.b.b.b.b.b.b.b.b.b.b.b.b.b.b.b.b.b.b.b.b.b.b.b.b.b.b.b.b.b.b.n.V.L i k h h ",
"h h l e / B.:.1.1.1.1.1.1.1.1.1.1.1.1.1.1.1.1.1.1.1.1.1.1.1.1.1.1.1.1.1.1.1.1.1.1.1.1.1.1.1.1.1.1.1.1.1.1.1.1.1.1.>.a.a.z g h h ",
"h h l e ` v.2.9.8.8.8.8.8.8.8.8.8.8.8.8.8.8.8.8.8.8.8.8.8.8.8.8.8.8.8.8.8.8.8.8.8.8.8.8.8.8.8.8.8.8.8.8.8.8.8.8.8.7.q.x.n d j h ",
"h h l e _ n.1.8.7.7.7.7.7.7.7.7.7.7.7.7.7.7.7.7.7.7.7.7.7.7.7.7.7.7.7.7.7.7.7.7.7.7.7.7.7.7.7.7.7.7.7.7.7.7.7.7.7.6.w.x.n d j h ",
"h h l e ` n.1.8.7.7.7.7.7.7.7.7.7.7.7.7.7.7.7.7.7.7.7.7.7.7.7.7.7.7.7.7.7.7.7.7.7.7.7.7.7.7.7.7.7.7.7.7.7.7.7.7.7.6.w.c.n d j h ",
"h h l e ` n.1.8.7.7.7.7.7.7.7.7.7.7.7.7.7.7.7.7.7.7.7.7.7.7.7.7.7.7.7.7.7.7.7.7.7.7.7.7.7.7.7.7.7.7.7.7.7.7.7.7.7.6.w.c.n d j h ",
"h h l e ` n.1.8.7.7.7.7.7.7.7.7.7.7.7.7.7.7.7.7.7.7.7.7.7.7.7.7.7.7.7.7.7.7.7.7.7.7.7.7.7.7.7.7.7.7.7.7.7.7.7.7.7.6.w.c.n d j h ",
"h h l e ` n.1.8.7.7.7.7.7.7.7.7.7.7.7.7.7.7.7.7.7.7.7.7.7.7.7.7.7.7.7.7.7.7.7.7.7.7.7.7.7.7.7.7.7.7.7.7.7.7.7.7.7.6.w.c.n d j h ",
"h h l e ` n.1.8.7.7.7.7.7.7.7.7.7.7.7.7.7.7.7.7.7.7.7.7.7.7.7.7.7.7.7.7.7.7.7.7.7.7.7.7.7.7.7.7.7.7.7.7.7.7.7.7.7.6.w.c.n d j h ",
"h h l e ` n.1.8.7.7.7.7.7.7.7.7.7.7.7.7.7.7.7.7.7.7.7.7.7.7.7.7.7.7.7.7.7.7.7.7.7.7.7.7.7.7.7.7.7.7.7.7.7.7.7.7.7.6.w.c.n d j h ",
"h h l e ` n.1.8.7.7.7.7.7.7.7.7.7.7.7.7.7.7.7.7.7.7.7.7.7.7.7.7.7.7.7.7.7.7.7.7.7.7.7.7.7.7.7.7.7.7.7.7.7.7.7.7.7.6.w.c.n d j h ",
"h h l e ` n.1.8.7.7.7.7.7.7.7.7.7.7.7.7.7.7.7.7.7.7.7.7.7.7.7.7.7.7.7.7.7.7.7.7.7.7.7.7.7.7.7.7.7.7.7.7.7.7.7.7.7.6.w.c.n d j h ",
"h h l e ` n.1.8.7.7.7.7.7.7.7.7.7.7.7.7.7.7.7.7.7.7.7.7.7.7.7.7.7.7.7.7.7.7.7.7.7.7.7.7.7.7.7.7.7.7.7.7.7.7.7.7.7.6.w.c.n d j h ",
"h h l e ` n.1.8.7.7.7.7.7.7.7.7.7.7.7.7.7.7.7.7.7.7.7.7.7.7.7.7.7.7.7.7.7.7.7.7.7.7.7.7.7.7.7.7.7.7.7.7.7.7.7.7.7.6.w.c.n d j h ",
"h h l e ` n.1.8.7.7.7.7.7.7.7.7.7.7.7.7.7.7.7.7.7.7.7.7.7.7.7.7.7.7.7.7.7.7.7.7.7.7.7.7.7.7.7.7.7.7.7.7.7.7.7.7.7.6.w.c.n d j h ",
"h h l e ` n.1.8.7.7.7.7.7.7.7.7.7.7.7.7.7.7.7.7.7.7.7.7.7.7.7.7.7.7.7.7.7.7.7.7.7.7.7.7.7.7.7.7.7.7.7.7.7.7.7.7.7.6.w.c.n d j h ",
"h h l e ` n.1.8.7.7.7.7.7.7.7.7.7.7.7.7.7.7.7.7.7.7.7.7.7.7.7.7.7.7.7.7.7.7.7.7.7.7.7.7.7.7.7.7.7.7.7.7.7.7.7.7.7.6.w.c.n d j h ",
"h h l e ` n.1.8.7.7.7.7.7.7.7.7.7.7.7.7.7.7.7.7.7.7.7.7.7.7.7.7.7.7.7.7.7.7.7.7.5.5.7.7.7.7.7.7.7.7.7.7.7.7.7.7.7.6.w.c.n d j h ",
"h h l e ` n.1.8.7.7.7.7.7.7.7.7.7.7.7.7.7.7.7.7.5.4.7.6.4.6.7.6.6.7.7.7.7.7.7.6.t.i.6.7.7.7.7.7.7.7.7.7.7.7.7.7.7.6.w.c.n d j h ",
"h h l e ` n.1.8.7.7.7.7.7.7.7.7.7.7.7.7.7.7.7.6.a.g.r.t.f.9.6.0.9.7.7.7.7.7.6.w.( I 0.7.7.7.7.7.7.7.7.7.7.7.7.7.7.6.w.c.n d j h ",
"h h l e ` n.1.8.7.7.7.7.7.7.7.7.7.7.7.7.7.7.7.r.P y 3 2 Z >.9.=.>.7.6.7.6.6.4.y.7 7 u.6.7.7.7.7.7.7.7.7.7.7.7.7.7.6.w.c.n d j h ",
"h h l e ` n.1.8.7.7.7.7.7.7.7.7.7.7.7.7.7.5.p.C O k S m 1 *.&.- W a.6.7.8.8.e.a.9 0 i.5.7.7.7.7.7.7.7.7.7.7.7.7.7.6.w.c.n d j h ",
"h h l e ` n.1.8.7.7.7.7.7.7.7.7.7.7.7.7.5.r.| X I v.f.g.0.q.X.O U w.2.7.5.4.] 6.e 8 i.5.7.7.7.7.7.7.7.7.7.7.7.7.7.6.w.c.n d j h ",
"h h l e ` n.1.8.7.7.7.7.7.7.7.7.7.7.7.7.3.g.C * 7.6.3.1.a.D - o > ; G } < 4   L k 5 i.5.7.7.7.7.7.7.7.7.7.7.7.7.7.6.w.c.n d j h ",
"h h l e ` n.1.8.7.7.7.7.7.7.7.7.7.7.7.7.4.f.l , 9.7.7.6.9.%.Y + F { *.Y   J *.0.p 7 i.5.7.7.7.7.7.7.7.7.7.7.7.7.7.6.w.c.n d j h ",
"h h l e ` n.1.8.7.7.7.7.7.7.7.7.7.7.7.7.3.g.n - 0.6.6.6.3.t.3.# ~ g.a.R # ;.r.g.p 7 i.5.7.7.7.7.7.7.7.7.7.7.7.7.7.6.w.c.n d j h ",
"h h l e ` n.1.8.7.7.7.7.7.7.7.7.7.7.7.7.4.a.J    .g.9.e.p.w.*.% ~ p.y.! @ +.8.s.d 8 i.6.7.7.7.7.7.7.7.7.7.7.7.7.7.6.w.c.n d j h ",
"h h l e ` n.1.8.7.7.7.7.7.7.7.7.7.7.7.7.6.9.2., : [ >.+.J >.3.& N ;.5.^ @ #.9.d.f 6 i.6.7.7.7.7.7.7.7.7.7.7.7.7.7.6.w.c.n d j h ",
"h h l e ` n.1.8.7.7.7.7.7.7.7.7.7.7.7.7.7.5.e.+.5 O & $ 1 @.i.V . X J ..= $.9.d.c q i.6.7.7.7.7.7.7.7.7.7.7.7.7.7.6.w.c.n d j h ",
"h h l e ` n.1.8.7.7.7.7.7.7.7.7.7.7.7.7.7.7.5.w.t.o.T ..8.9.7.e.O.] ;.6.-.6.7.8.<.>.8.7.7.7.7.7.7.7.7.7.7.7.7.7.7.6.w.c.n d j h ",
"h h l e ` n.1.8.7.7.7.7.7.7.7.7.7.7.7.7.7.7.7.6.6.e.i.r.7.6.7.6.e.t.9.7.0.7.7.7.9.9.7.7.7.7.7.7.7.7.7.7.7.7.7.7.7.6.w.c.n d j h ",
"h h l e ` n.1.8.7.7.7.7.7.7.7.7.7.7.7.7.7.7.7.7.7.5.5.5.7.7.7.7.6.5.6.7.6.7.7.7.6.6.7.7.7.7.7.7.7.7.7.7.7.7.7.7.7.6.w.c.n d j h ",
"h h l e ` n.1.8.7.7.7.7.7.7.7.7.7.7.7.7.7.7.7.7.7.7.7.7.7.7.7.7.7.7.7.7.7.7.7.7.7.7.7.7.7.7.7.7.7.7.7.7.7.7.7.7.7.6.w.c.n d j h ",
"h h l e ` n.1.8.7.7.7.7.7.7.7.7.7.7.7.7.7.7.7.7.7.7.7.7.7.7.7.7.7.7.7.7.7.7.7.7.7.7.7.7.7.7.7.7.7.7.7.7.7.7.7.7.7.6.w.c.n d j h ",
"h h l e ` n.1.8.7.7.7.7.7.7.7.7.7.7.7.7.7.7.7.7.7.7.7.7.7.7.7.7.7.7.7.7.7.7.7.7.7.7.7.7.7.7.7.7.7.7.7.7.7.7.7.7.7.6.w.c.n d j h ",
"h h l e ` n.1.8.7.7.7.7.7.7.7.7.7.7.7.7.7.7.7.7.7.7.7.7.7.7.7.7.7.7.7.7.7.7.7.7.7.7.7.7.7.7.7.7.7.7.7.7.7.7.7.7.7.6.w.c.n d j h ",
"h h l e ` n.1.8.7.7.7.7.7.7.7.7.7.7.7.7.7.7.7.7.7.7.7.7.7.7.7.7.7.7.7.7.7.7.7.7.7.7.7.7.7.7.7.7.7.7.7.7.7.7.7.7.7.6.w.c.n d j h ",
"h h l e ` n.1.8.7.7.7.7.7.7.7.7.7.7.7.7.7.7.7.7.7.7.7.7.7.7.7.7.7.7.7.7.7.7.7.7.7.7.7.7.7.7.7.7.7.7.7.7.7.7.7.7.7.6.w.c.n d j h ",
"h h l e ` n.1.8.7.7.7.7.7.7.7.7.7.7.7.7.7.7.7.7.7.7.7.7.7.7.7.7.7.7.7.7.7.7.7.7.7.7.7.7.7.7.7.7.7.7.7.7.7.7.7.7.7.6.w.c.n d j h ",
"h h l e ` n.1.8.7.7.7.7.7.7.7.7.7.7.7.7.7.7.7.7.7.7.7.7.7.7.7.7.7.7.7.7.7.7.7.7.7.7.7.7.7.7.7.7.7.7.7.7.7.7.7.7.7.6.w.c.n d j h ",
"h h l e ` n.1.8.7.7.7.7.7.7.7.7.7.7.7.7.7.7.7.7.7.7.7.7.7.7.7.7.7.7.7.7.7.7.7.7.7.7.7.7.7.7.7.7.7.7.7.7.7.7.7.7.7.6.w.c.n d j h ",
"h h l e ` n.1.8.7.7.7.7.7.7.7.7.7.7.7.7.7.7.7.7.7.7.7.7.7.7.7.7.7.7.7.7.7.7.7.7.7.7.7.7.7.7.7.7.7.7.7.7.7.7.7.7.7.6.w.c.n d j h ",
"h h l e ` n.1.8.7.7.7.7.7.7.7.7.7.7.7.7.7.7.7.7.7.7.7.7.7.7.7.7.7.7.7.7.7.7.7.7.7.7.7.7.7.7.7.7.7.7.7.7.7.7.7.7.7.6.w.c.n d j h ",
"h h l e ` n.1.8.7.7.7.7.7.7.7.7.7.7.7.7.7.7.7.7.7.7.7.7.7.7.7.7.7.7.7.7.7.7.7.7.7.7.7.7.7.7.7.7.7.7.7.7.7.7.7.7.7.6.w.c.n d j h ",
"h h l e ` n.1.8.7.7.7.7.7.7.7.7.7.7.7.7.7.7.7.7.7.7.7.7.7.7.7.7.7.7.7.7.7.7.7.7.7.7.7.7.7.7.7.7.7.7.7.7.7.7.7.7.7.6.w.c.n d j h ",
"h h l e ` n.1.8.7.7.7.7.7.7.7.7.7.7.7.7.7.7.7.7.7.7.7.7.7.7.7.7.7.7.7.7.7.7.7.7.7.7.7.7.7.7.7.7.7.7.7.7.7.7.7.7.7.6.w.c.n d j h ",
"h h l e ` n.1.8.7.7.7.7.7.7.7.7.7.7.7.7.7.7.7.7.7.7.7.7.7.7.7.7.7.7.7.7.7.7.7.7.7.7.7.7.7.7.7.7.7.7.7.7.7.7.7.7.7.6.w.c.n d j h ",
"h h l e ` n.1.8.7.7.7.7.7.7.7.7.7.7.7.7.7.7.7.7.7.7.7.7.7.7.7.7.7.7.7.7.7.7.7.7.7.7.7.7.7.7.7.7.7.7.7.7.7.7.7.7.7.6.w.c.n d j h ",
"h h l e ` n.1.8.7.7.7.7.7.7.7.7.7.7.7.7.7.7.7.7.7.7.7.7.7.7.7.7.7.7.7.7.7.7.7.7.7.7.7.7.7.7.7.7.7.7.7.7.7.7.7.7.7.6.w.c.n d j h ",
"h h l e ` n.1.8.7.7.7.7.7.7.7.7.7.7.7.7.7.7.7.7.7.7.7.7.7.7.7.7.7.7.7.7.7.7.7.7.7.7.7.7.7.7.7.7.7.7.7.7.7.7.7.7.7.6.w.c.n d j h ",
"h h l e ` n.1.8.7.7.7.7.7.7.7.7.7.7.7.7.7.7.7.7.7.7.7.7.7.7.7.7.7.7.7.7.7.7.7.7.7.7.7.7.7.7.7.7.7.7.7.7.7.7.7.7.7.6.w.x.n d j h ",
"h h l e _ b.2.8.7.7.7.7.7.7.7.7.7.7.7.7.7.7.7.7.7.7.7.7.7.7.7.7.7.7.7.7.7.7.7.7.7.7.7.7.7.7.7.7.7.7.7.7.7.7.7.7.7.6.q.x.n d j h ",
"h h l w _ N.:.3.3.3.3.3.3.3.3.3.3.3.3.3.3.3.3.3.3.3.3.3.3.3.3.3.3.3.3.3.3.3.3.3.3.3.3.3.3.3.3.3.3.3.3.3.3.3.3.3.3.,.y.h.x f j h ",
"h h j a C z.m.j.k.k.k.k.k.k.k.k.k.k.k.k.k.k.k.k.k.k.k.k.k.k.k.k.k.k.k.k.k.k.k.k.k.k.k.k.k.k.k.k.k.k.k.k.k.k.k.k.k.l.V.E i k h h ",
"j h h k i A ] ] ] ] ] ] ] ] ] ] ] ] ] ] ] ] ] ] ] ] ] ] ] ] ] ] ] ] ] ] ] ] ] ] ] ] ] ] ] ] ] ] ] ] ] ] ] ] ] ] ' { K d h h h j ",
"g h h h k p r y y y y y y y y y y y y y y y y y y y y y y y y y y y y y y y y y y y y y y y y y y y y y y y y y y t y h h h h g ",
"c h j h h k l k k k k k k k k k k k k k k k k k k k k k k k k k k k k k k k k k k k k k k k k k k k k k k k k k k l k h h j h b ",
"W q h h h h h h h h h h h h h h h h h h h h h h h h h h h h h h h h h h h h h h h h h h h h h h h h h h h h h h h h h h h h q Q ",
"m.Y z g h h h h h h h h h h h h h h h h h h h h h h h h h h h h h h h h h h h h h h h h h h h h h h h h h h h h h h h h g z U m."
};
