/* XPM */
static char *result[] = {
/* columns rows colors chars-per-pixel */
"64 64 113 2 ",
"   c black",
".  c #010101",
"X  c #020202",
"o  c gray1",
"O  c #040404",
"+  c gray2",
"@  c #060606",
"#  c #070707",
"$  c gray3",
"%  c #090909",
"&  c #0B0B0B",
"*  c #0E0E0E",
"=  c #111111",
"-  c gray7",
";  c #1B1B1B",
":  c gray11",
">  c #1D1D1D",
",  c gray13",
"<  c #232323",
"1  c gray14",
"2  c #373737",
"3  c #393939",
"4  c gray26",
"5  c #434343",
"6  c #444444",
"7  c gray27",
"8  c #464646",
"9  c #484848",
"0  c gray29",
"q  c #4B4B4B",
"w  c #4C4C4C",
"e  c gray30",
"r  c #4E4E4E",
"t  c gray31",
"y  c #505050",
"u  c #515151",
"i  c gray32",
"p  c #535353",
"a  c gray33",
"s  c #555555",
"d  c #565656",
"f  c gray34",
"g  c #585858",
"h  c gray35",
"j  c #5A5A5A",
"k  c #5B5B5B",
"l  c gray36",
"z  c #5D5D5D",
"x  c #606060",
"c  c gray38",
"v  c gray39",
"b  c #646464",
"n  c #656565",
"m  c #676767",
"M  c gray42",
"N  c #6D6D6D",
"B  c #6F6F6F",
"V  c gray44",
"C  c #717171",
"Z  c gray45",
"A  c #777777",
"S  c gray47",
"D  c #797979",
"F  c gray48",
"G  c #7B7B7B",
"H  c #7E7E7E",
"J  c gray50",
"K  c #808080",
"L  c gray51",
"P  c gray52",
"I  c #888888",
"U  c #898989",
"Y  c #8B8B8B",
"T  c #8D8D8D",
"R  c #959595",
"E  c #989898",
"W  c gray60",
"Q  c #9B9B9B",
"!  c #9D9D9D",
"~  c gray62",
"^  c #A0A0A0",
"/  c #A2A2A2",
"(  c gray64",
")  c #AAAAAA",
"_  c gray67",
"`  c gray68",
"'  c #AFAFAF",
"]  c #B2B2B2",
"[  c #B4B4B4",
"{  c gray71",
"}  c #B6B6B6",
"|  c #B7B7B7",
" . c gray72",
".. c #B9B9B9",
"X. c gray74",
"o. c gray77",
"O. c #C6C6C6",
"+. c gray78",
"@. c gray79",
"#. c #CACACA",
"$. c #CBCBCB",
"%. c #CDCDCD",
"&. c gray82",
"*. c gray83",
"=. c #D5D5D5",
"-. c gray84",
";. c #D7D7D7",
":. c gray87",
">. c #E2E2E2",
",. c gray90",
"<. c #E6E6E6",
"1. c #F9F9F9",
"2. c gray98",
/* pixels */
"1.! g p a a a a a a a a a a a a a a a a a a a a a a a a a a a a a a a a a a a a a a a a a a a a a a a a a a a a a a a a a g ~ 2.",
"/ 6 a a a a a a a a a a a a a a a a a a a a a a a a a a a a a a a a a a a a a a a a a a a a a a a a a a a a a a a a a a a a 6 ( ",
"z a s a a a f f f f f f f f f f f f f f f f f f f f f f f f f f f f f f f f f f f f f f f f f f f f f f f f f f f f d a a s p l ",
"a a a a s i 6 5 6 6 6 6 6 6 6 6 6 6 6 6 6 6 6 6 6 6 6 6 6 6 6 6 6 6 6 6 6 6 6 6 6 6 6 6 6 6 6 6 6 6 6 6 6 6 6 6 6 4 e d a a a p ",
"s a a s y l ' ..{ } } } } } } } } } } } } } } } } } } } } } } } } } } } } } } } } } } } } } } } } } } } } } } } { X.G w d a a s ",
"a a s p j &./ B C C C C C C C C C C C C C C C C C C C C C C C C C C C C C C C C C C C C C C C C C C C C C C C C V J ;.P q d a a ",
"a a f 6 _ ^   o                                                                                                 o   8 *.p p a a ",
"a a f 5  .D   $ O O O O O O O O O O O O O O O O O O O O O O O O O O O O O O O O O O O O O O O O O O O O O O O O +   = ,.c u s a ",
"a a f 5 } A   O                                                                                                 .   = <.x u s a ",
"a a f 5 | A   O                                                                                                 .   = <.x u s a ",
"a a f 5 | A   O                                                                                                 .   = <.x u s a ",
"a a f 5 | A   O                                                                                                 .   = <.x u s a ",
"a a f 5 | A   O                                                                                                 .   = <.x u s a ",
"a a f 5 | A   O                                                                                                 .   = <.x u s a ",
"a a f 5 | A   O                                                                                                 .   = <.x u s a ",
"a a f 5 | A   O                                                                                                 .   = <.x u s a ",
"a a f 5 | A   O                                                                                                 .   = <.x u s a ",
"a a f 5 | A   O                                                                                                 .   = <.x u s a ",
"a a f 5 | A   O                                                                                                 .   = <.x u s a ",
"a a f 5 | A   O                                                                                                 .   = <.x u s a ",
"a a f 5 | A   O                                                                                                 .   = <.x u s a ",
"a a f 5 | A   O                                                                                                 .   = <.x u s a ",
"a a f 5 | A   O                                                                                                 .   = <.x u s a ",
"a a f 5 | A   O                                                                                                 .   = <.x u s a ",
"a a f 5 | A   O                                                                                                 .   = <.x u s a ",
"a a f 5 | A   O                                       . .     . .     . .                                       .   = <.x u s a ",
"a a f 5 | A   O                                                                                                 .   = <.x u s a ",
"a a f 5 | A   O                                       O %     o $     O +                                       .   = <.x u s a ",
"a a f 5 | A   O                                   o   t o.*   N o.%   L I   .                                   .   = <.x u s a ",
"a a f 5 | A   O                                   X   < :.4   | >.2   $.m   o                                   .   = <.x u s a ",
"a a f 5 | A   O                                         [ S , ) Q Z > *.:   .                                   .   = <.x u s a ",
"a a f 5 | A   O                                     o   N ) Z F 7 ^ M `                                         .   = <.x u s a ",
"a a f 5 | A   O                                     X   1 %.+.5 + X.@.v   o                                     .   = <.x u s a ",
"a a f 5 | A   O                                           ( O.&   T -.;   .                                     .   = <.x u s a ",
"a a f 5 | A   O                                           @ %     @ &                                           .   = <.x u s a ",
"a a f 5 | A   O                                                                                                 .   = <.x u s a ",
"a a f 5 | A   O                                           . .     . .                                           .   = <.x u s a ",
"a a f 5 | A   O                                                                                                 .   = <.x u s a ",
"a a f 5 | A   O                                                                                                 .   = <.x u s a ",
"a a f 5 | A   O                                                                                                 .   = <.x u s a ",
"a a f 5 | A   O                                                                                                 .   = <.x u s a ",
"a a f 5 | A   O                                                                                                 .   = <.x u s a ",
"a a f 5 | A   O                                                                                                 .   = <.x u s a ",
"a a f 5 | A   O                                                                                                 .   = <.x u s a ",
"a a f 5 | A   O                                                                                                 .   = <.x u s a ",
"a a f 5 | A   O                                                                                                 .   = <.x u s a ",
"a a f 5 | A   O                                                                                                 .   = <.x u s a ",
"a a f 5 | A   O                                                                                                 .   = <.x u s a ",
"a a f 5 | A   O                                                                                                 .   = <.x u s a ",
"a a f 5 | A   O                                                                                                 .   = <.x u s a ",
"a a f 5 | A   O                                                                                                 .   = <.x u s a ",
"a a f 5 | A   O                                                                                                 .   = <.x u s a ",
"a a f 5 | A   O                                                                                                 .   = <.x u s a ",
"a a f 5 | A   O                                                                                                 .   = <.x u s a ",
"a a f 5 | A   O                                                                                                 .   = <.x u s a ",
"a a f 5 | A   O                                                                                                 .   = <.x u s a ",
"a a f 5  .A   # o o o o o o o o o o o o o o o o o o o o o o o o o o o o o o o o o o o o o o o o o o o o o o o o O   - <.c y s a ",
"a a f 5 ] W   O                                                                                                 X   3 ;.d p a a ",
"a a s u b =.K 0 r e e e e e e e e e e e e e e e e e e e e e e e e e e e e e e e e e e e e e e e e e e e e e e e e h #.R 0 d a a ",
"s a a s t n E Y Y Y Y Y Y Y Y Y Y Y Y Y Y Y Y Y Y Y Y Y Y Y Y Y Y Y Y Y Y Y Y Y Y Y Y Y Y Y Y Y Y Y Y Y Y Y Y Y U R H e s a a s ",
"p a a a s y 8 9 9 9 9 9 9 9 9 9 9 9 9 9 9 9 9 9 9 9 9 9 9 9 9 9 9 9 9 9 9 9 9 9 9 9 9 9 9 9 9 9 9 9 9 9 9 9 9 9 9 8 w d a a a p ",
"k a s a a s d d d d d d d d d d d d d d d d d d d d d d d d d d d d d d d d d d d d d d d d d d d d d d d d d d d d s a a s a z ",
"/ 6 a a a a a a a a a a a a a a a a a a a a a a a a a a a a a a a a a a a a a a a a a a a a a a a a a a a a a a a a a a a a 6 ( ",
"1.~ g p a a a a a a a a a a a a a a a a a a a a a a a a a a a a a a a a a a a a a a a a a a a a a a a a a a a a a a a a p g ! 1."
};
