/* XPM */
static char *result[] = {
/* columns rows colors chars-per-pixel */
"64 64 111 2 ",
"   c black",
".  c #010101",
"X  c #020202",
"o  c gray1",
"O  c #040404",
"+  c gray2",
"@  c #060606",
"#  c #070707",
"$  c gray3",
"%  c #090909",
"&  c gray4",
"*  c gray5",
"=  c #101010",
"-  c #111111",
";  c gray7",
":  c #1B1B1B",
">  c gray11",
",  c #222222",
"<  c gray15",
"1  c #2F2F2F",
"2  c gray19",
"3  c #313131",
"4  c #343434",
"5  c gray21",
"6  c #393939",
"7  c #414141",
"8  c gray26",
"9  c #434343",
"0  c #444444",
"q  c gray27",
"w  c #464646",
"e  c #484848",
"r  c gray29",
"t  c #4B4B4B",
"y  c #4C4C4C",
"u  c gray30",
"i  c #4E4E4E",
"p  c gray31",
"a  c #505050",
"s  c #515151",
"d  c gray32",
"f  c #535353",
"g  c gray33",
"h  c #555555",
"j  c #565656",
"k  c gray34",
"l  c #585858",
"z  c gray35",
"x  c #5A5A5A",
"c  c #5B5B5B",
"v  c gray36",
"b  c #5D5D5D",
"n  c #606060",
"m  c gray38",
"M  c #646464",
"N  c #656565",
"B  c #676767",
"V  c #6F6F6F",
"C  c gray44",
"Z  c #717171",
"A  c #777777",
"S  c #797979",
"D  c #7B7B7B",
"F  c #7E7E7E",
"G  c gray50",
"H  c #808080",
"J  c gray51",
"K  c gray52",
"L  c #898989",
"P  c gray54",
"I  c #8B8B8B",
"U  c gray56",
"Y  c #959595",
"T  c #989898",
"R  c gray60",
"E  c #9B9B9B",
"W  c gray61",
"Q  c #9D9D9D",
"!  c gray62",
"~  c #9F9F9F",
"^  c #A0A0A0",
"/  c #A2A2A2",
"(  c gray64",
")  c #A4A4A4",
"_  c gray66",
"`  c gray67",
"'  c #AFAFAF",
"]  c #B1B1B1",
"[  c #B2B2B2",
"{  c gray71",
"}  c #B6B6B6",
"|  c #B7B7B7",
" . c gray72",
".. c #B9B9B9",
"X. c gray74",
"o. c gray76",
"O. c #C3C3C3",
"+. c gray77",
"@. c #C5C5C5",
"#. c #CACACA",
"$. c gray82",
"%. c #D2D2D2",
"&. c gray83",
"*. c #D5D5D5",
"=. c gray84",
"-. c #D7D7D7",
";. c #DADADA",
":. c gray90",
">. c #E6E6E6",
",. c #F9F9F9",
"<. c gray98",
/* pixels */
",.Q l f g g g g g g g g g g g g g g g g g g g g g g g g g g g g g g g g g g g g g g g g g g g g g g g g g g g g g g g g g l ! <.",
"/ 0 g g g g g g g g g g g g g g g g g g g g g g g g g g g g g g g g g g g g g g g g g g g g g g g g g g g g g g g g g g g g 0 ( ",
"b g h g g g k k k k k k k k k k k k k k k k k k k k k k k k k k k k k k k k k k k k k k k k k k k k k k k k k k k k j g g h f v ",
"g g g g h d 0 9 0 0 0 0 0 0 0 0 0 0 0 0 0 0 0 0 0 0 0 0 0 0 0 0 0 0 0 0 0 0 0 0 0 0 0 0 0 0 0 0 0 0 0 0 0 0 0 0 0 8 u j g g g f ",
"h g g h a v ' ..{ } } } } } } } } } } } } } } } } } } } } } } } } } } } } } } } } } } } } } } } } } } } } } } } { X.D y j g g h ",
"g g h f x $./ V Z Z Z Z Z Z Z Z Z Z Z Z Z Z Z Z Z Z Z Z Z Z Z Z Z Z Z Z Z Z Z Z Z Z Z Z Z Z Z Z Z Z Z Z Z Z Z Z C G -.K t j g g ",
"g g k 0 ` ^   o                                                                                                 o   w &.f f g g ",
"g g k 9  .S   $ O O O O O O O O O O O O O O O O O O O O O O O O O O O O O O O O O O O O O O O O O O O O O O O O +   - :.m s h g ",
"g g k 9 } A   O                                                                                                 .   - >.n s h g ",
"g g k 9 | A   O                                                                                                 .   - >.n s h g ",
"g g k 9 | A   O                                                                                                 .   - >.n s h g ",
"g g k 9 | A   O                                                                                                 .   - >.n s h g ",
"g g k 9 | A   O                                                                                                 .   - >.n s h g ",
"g g k 9 | A   O                                                                                                 .   - >.n s h g ",
"g g k 9 | A   O                                                                                                 .   - >.n s h g ",
"g g k 9 | A   O                                                                                                 .   - >.n s h g ",
"g g k 9 | A   O                                                                                                 .   - >.n s h g ",
"g g k 9 | A   O                                                                                                 .   - >.n s h g ",
"g g k 9 | A   O                                                                                                 .   - >.n s h g ",
"g g k 9 | A   O                                                                                                 .   - >.n s h g ",
"g g k 9 | A   O                                                                                                 .   - >.n s h g ",
"g g k 9 | A   O                                                                                                 .   - >.n s h g ",
"g g k 9 | A   O                                                                                                 .   - >.n s h g ",
"g g k 9 | A   O                                                                                                 .   - >.n s h g ",
"g g k 9 | A   O                                                                                                 .   - >.n s h g ",
"g g k 9 | A   O                                               . X .                                             .   - >.n s h g ",
"g g k 9 | A   O                                           . .       .                                           .   - >.n s h g ",
"g g k 9 | A   O                                           .   > 1 &                                             .   - >.n s h g ",
"g g k 9 | A   O                                           X J +.O.o.2   X                                       .   - >.n s h g ",
"g g k 9 | A   O                                       o   B } *   P |                                           .   - >.n s h g ",
"g g k 9 | A   O                                       .   W @.E ~ ] =.=   .                                     .   - >.n s h g ",
"g g k 9 | A   O                                       .   ^ ) 5 t q 4 +                                         .   - >.n s h g ",
"g g k 9 | A   O                                       o   M %.<   @ , o                                         .   - >.n s h g ",
"g g k 9 | A   O                                       .   X U ;.o.&._ O   .                                     .   - >.n s h g ",
"g g k 9 | A   O                                           .   : 7 3 %                                           .   - >.n s h g ",
"g g k 9 | A   O                                           . .                                                   .   - >.n s h g ",
"g g k 9 | A   O                                               X X X .                                           .   - >.n s h g ",
"g g k 9 | A   O                                                                                                 .   - >.n s h g ",
"g g k 9 | A   O                                                                                                 .   - >.n s h g ",
"g g k 9 | A   O                                                                                                 .   - >.n s h g ",
"g g k 9 | A   O                                                                                                 .   - >.n s h g ",
"g g k 9 | A   O                                                                                                 .   - >.n s h g ",
"g g k 9 | A   O                                                                                                 .   - >.n s h g ",
"g g k 9 | A   O                                                                                                 .   - >.n s h g ",
"g g k 9 | A   O                                                                                                 .   - >.n s h g ",
"g g k 9 | A   O                                                                                                 .   - >.n s h g ",
"g g k 9 | A   O                                                                                                 .   - >.n s h g ",
"g g k 9 | A   O                                                                                                 .   - >.n s h g ",
"g g k 9 | A   O                                                                                                 .   - >.n s h g ",
"g g k 9 | A   O                                                                                                 .   - >.n s h g ",
"g g k 9 | A   O                                                                                                 .   - >.n s h g ",
"g g k 9 | A   O                                                                                                 .   - >.n s h g ",
"g g k 9 | A   O                                                                                                 .   - >.n s h g ",
"g g k 9 | A   O                                                                                                 .   - >.n s h g ",
"g g k 9 | A   O                                                                                                 .   - >.n s h g ",
"g g k 9 | A   O                                                                                                 .   - >.n s h g ",
"g g k 9  .A   # o o o o o o o o o o o o o o o o o o o o o o o o o o o o o o o o o o o o o o o o o o o o o o o o O   ; >.m a h g ",
"g g k 9 [ R   O                                                                                                 X   6 -.j f g g ",
"g g h s M *.H r i u u u u u u u u u u u u u u u u u u u u u u u u u u u u u u u u u u u u u u u u u u u u u u u u z #.Y r j g g ",
"h g g h p N T I I I I I I I I I I I I I I I I I I I I I I I I I I I I I I I I I I I I I I I I I I I I I I I I I L Y F u h g g h ",
"f g g g h a w e e e e e e e e e e e e e e e e e e e e e e e e e e e e e e e e e e e e e e e e e e e e e e e e e e w y j g g g f ",
"c g h g g h j j j j j j j j j j j j j j j j j j j j j j j j j j j j j j j j j j j j j j j j j j j j j j j j j j j j h g g h g b ",
"/ 0 g g g g g g g g g g g g g g g g g g g g g g g g g g g g g g g g g g g g g g g g g g g g g g g g g g g g g g g g g g g g 0 ( ",
",.! l f g g g g g g g g g g g g g g g g g g g g g g g g g g g g g g g g g g g g g g g g g g g g g g g g g g g g g g g g f l Q ,."
};
