/* XPM */
static char *result[] = {
/* columns rows colors chars-per-pixel */
"64 64 103 2 ",
"   c black",
".  c #010101",
"X  c #020202",
"o  c gray1",
"O  c #040404",
"+  c gray2",
"@  c #060606",
"#  c #070707",
"$  c gray3",
"%  c #090909",
"&  c gray4",
"*  c #111111",
"=  c gray7",
"-  c #181818",
";  c #191919",
":  c #202020",
">  c gray15",
",  c #2C2C2C",
"<  c gray18",
"1  c #393939",
"2  c gray26",
"3  c #434343",
"4  c #444444",
"5  c gray27",
"6  c #464646",
"7  c #484848",
"8  c gray29",
"9  c #4B4B4B",
"0  c #4C4C4C",
"q  c gray30",
"w  c #4E4E4E",
"e  c gray31",
"r  c #505050",
"t  c #515151",
"y  c gray32",
"u  c #535353",
"i  c gray33",
"p  c #555555",
"a  c #565656",
"s  c gray34",
"d  c #585858",
"f  c gray35",
"g  c #5A5A5A",
"h  c #5B5B5B",
"j  c gray36",
"k  c #5D5D5D",
"l  c #606060",
"z  c gray38",
"x  c #646464",
"c  c #656565",
"v  c gray42",
"b  c #6F6F6F",
"n  c gray44",
"m  c #717171",
"M  c #777777",
"N  c #797979",
"B  c gray48",
"V  c #7B7B7B",
"C  c gray49",
"Z  c #7E7E7E",
"A  c gray50",
"S  c #808080",
"D  c gray52",
"F  c #898989",
"G  c #8B8B8B",
"H  c #959595",
"J  c #989898",
"K  c gray60",
"L  c #9D9D9D",
"P  c gray62",
"I  c #A0A0A0",
"U  c #A2A2A2",
"Y  c gray64",
"T  c #A4A4A4",
"R  c gray67",
"E  c #AFAFAF",
"W  c #B2B2B2",
"Q  c gray71",
"!  c #B6B6B6",
"~  c #B7B7B7",
"^  c gray72",
"/  c #B9B9B9",
"(  c gray74",
")  c gray",
"_  c #C3C3C3",
"`  c #C6C6C6",
"'  c gray79",
"]  c #CACACA",
"[  c #CBCBCB",
"{  c gray80",
"}  c #CDCDCD",
"|  c #CECECE",
" . c gray81",
".. c gray82",
"X. c gray83",
"o. c #D5D5D5",
"O. c #D7D7D7",
"+. c #DDDDDD",
"@. c #DFDFDF",
"#. c gray90",
"$. c #E6E6E6",
"%. c #F9F9F9",
"&. c gray98",
/* pixels */
"%.L d u i i i i i i i i i i i i i i i i i i i i i i i i i i i i i i i i i i i i i i i i i i i i i i i i i i i i i i i i i d P &.",
"U 4 i i i i i i i i i i i i i i i i i i i i i i i i i i i i i i i i i i i i i i i i i i i i i i i i i i i i i i i i i i i i 4 Y ",
"k i p i i i s s s s s s s s s s s s s s s s s s s s s s s s s s s s s s s s s s s s s s s s s s s s s s s s s s s s a i i p u j ",
"i i i i p y 4 3 4 4 4 4 4 4 4 4 4 4 4 4 4 4 4 4 4 4 4 4 4 4 4 4 4 4 4 4 4 4 4 4 4 4 4 4 4 4 4 4 4 4 4 4 4 4 4 4 4 2 q a i i i u ",
"p i i p r j E / Q ! ! ! ! ! ! ! ! ! ! ! ! ! ! ! ! ! ! ! ! ! ! ! ! ! ! ! ! ! ! ! ! ! ! ! ! ! ! ! ! ! ! ! ! ! ! ! Q ( V 0 a i i p ",
"i i p u g ..U b m m m m m m m m m m m m m m m m m m m m m m m m m m m m m m m m m m m m m m m m m m m m m m m m n A O.D 9 a i i ",
"i i s 4 R I   o                                                                                                 o   6 X.u u i i ",
"i i s 3 ^ N   $ O O O O O O O O O O O O O O O O O O O O O O O O O O O O O O O O O O O O O O O O O O O O O O O O +   * #.z t p i ",
"i i s 3 ! M   O                                                                                                 .   * $.l t p i ",
"i i s 3 ~ M   O                                                                                                 .   * $.l t p i ",
"i i s 3 ~ M   O                                                                                                 .   * $.l t p i ",
"i i s 3 ~ M   O                                                                                                 .   * $.l t p i ",
"i i s 3 ~ M   O                                                                                                 .   * $.l t p i ",
"i i s 3 ~ M   O                                                                                                 .   * $.l t p i ",
"i i s 3 ~ M   O                                                                                                 .   * $.l t p i ",
"i i s 3 ~ M   O                                                                                                 .   * $.l t p i ",
"i i s 3 ~ M   O                                                                                                 .   * $.l t p i ",
"i i s 3 ~ M   O                                                                                                 .   * $.l t p i ",
"i i s 3 ~ M   O                                                                                                 .   * $.l t p i ",
"i i s 3 ~ M   O                                                                                                 .   * $.l t p i ",
"i i s 3 ~ M   O                                                                                                 .   * $.l t p i ",
"i i s 3 ~ M   O                                                                                                 .   * $.l t p i ",
"i i s 3 ~ M   O                                                   . o                                           .   * $.l t p i ",
"i i s 3 ~ M   O                                                                                                 .   * $.l t p i ",
"i i s 3 ~ M   O                                               .   ; a @                                         .   * $.l t p i ",
"i i s 3 ~ M   O                                               +   l +.$   .                                     .   * $.l t p i ",
"i i s 3 ~ M   O                                           . . o   h | #   .                                     .   * $.l t p i ",
"i i s 3 ~ M   O                                           .   - : v } $   .                                     .   * $.l t p i ",
"i i s 3 ~ M   O                                       .   $ S | ' o.` %   .                                     .   * $.l t p i ",
"i i s 3 ~ M   O                                       o   B _ , o x | $   .                                     .   * $.l t p i ",
"i i s 3 ~ M   O                                     .     ) b     9 { $   .                                     .   * $.l t p i ",
"i i s 3 ~ M   O                                     .     ) Z     7 ] $   .                                     .   * $.l t p i ",
"i i s 3 ~ M   O                                       X   C @.5 % m  .$   .                                     .   * $.l t p i ",
"i i s 3 ~ M   O                                       .   * T @.[ R ! &   .                                     .   * $.l t p i ",
"i i s 3 ~ M   O                                           . . > < X & .                                         .   * $.l t p i ",
"i i s 3 ~ M   O                                           . .                                                   .   * $.l t p i ",
"i i s 3 ~ M   O                                               X X   .                                           .   * $.l t p i ",
"i i s 3 ~ M   O                                                                                                 .   * $.l t p i ",
"i i s 3 ~ M   O                                                                                                 .   * $.l t p i ",
"i i s 3 ~ M   O                                                                                                 .   * $.l t p i ",
"i i s 3 ~ M   O                                                                                                 .   * $.l t p i ",
"i i s 3 ~ M   O                                                                                                 .   * $.l t p i ",
"i i s 3 ~ M   O                                                                                                 .   * $.l t p i ",
"i i s 3 ~ M   O                                                                                                 .   * $.l t p i ",
"i i s 3 ~ M   O                                                                                                 .   * $.l t p i ",
"i i s 3 ~ M   O                                                                                                 .   * $.l t p i ",
"i i s 3 ~ M   O                                                                                                 .   * $.l t p i ",
"i i s 3 ~ M   O                                                                                                 .   * $.l t p i ",
"i i s 3 ~ M   O                                                                                                 .   * $.l t p i ",
"i i s 3 ~ M   O                                                                                                 .   * $.l t p i ",
"i i s 3 ~ M   O                                                                                                 .   * $.l t p i ",
"i i s 3 ~ M   O                                                                                                 .   * $.l t p i ",
"i i s 3 ~ M   O                                                                                                 .   * $.l t p i ",
"i i s 3 ~ M   O                                                                                                 .   * $.l t p i ",
"i i s 3 ~ M   O                                                                                                 .   * $.l t p i ",
"i i s 3 ~ M   O                                                                                                 .   * $.l t p i ",
"i i s 3 ^ M   # o o o o o o o o o o o o o o o o o o o o o o o o o o o o o o o o o o o o o o o o o o o o o o o o O   = $.z r p i ",
"i i s 3 W K   O                                                                                                 X   1 O.a u i i ",
"i i p t x o.S 8 w q q q q q q q q q q q q q q q q q q q q q q q q q q q q q q q q q q q q q q q q q q q q q q q q f ] H 8 a i i ",
"p i i p e c J G G G G G G G G G G G G G G G G G G G G G G G G G G G G G G G G G G G G G G G G G G G G G G G G G F H Z q p i i p ",
"u i i i p r 6 7 7 7 7 7 7 7 7 7 7 7 7 7 7 7 7 7 7 7 7 7 7 7 7 7 7 7 7 7 7 7 7 7 7 7 7 7 7 7 7 7 7 7 7 7 7 7 7 7 7 6 0 a i i i u ",
"h i p i i p a a a a a a a a a a a a a a a a a a a a a a a a a a a a a a a a a a a a a a a a a a a a a a a a a a a a p i i p i k ",
"U 4 i i i i i i i i i i i i i i i i i i i i i i i i i i i i i i i i i i i i i i i i i i i i i i i i i i i i i i i i i i i i 4 Y ",
"%.P d u i i i i i i i i i i i i i i i i i i i i i i i i i i i i i i i i i i i i i i i i i i i i i i i i i i i i i i i i u d L %."
};
