/* XPM */
static char *wall_anim_3[] = {
/* columns rows colors chars-per-pixel */
"128 128 220 2 ",
"   c #000000",
".  c #0C0B03",
"X  c #03020A",
"o  c #0B0A09",
"O  c #090504",
"+  c #100F0E",
"@  c #130E06",
"#  c #1F1B01",
"$  c #161306",
"%  c #090712",
"&  c #070518",
"*  c #161513",
"=  c #1C1916",
"-  c #221D07",
";  c #211E1B",
":  c #282409",
">  c #292509",
",  c #332E0B",
"<  c #3B3305",
"1  c #28221A",
"2  c #382A16",
"3  c #090526",
"4  c #0C0735",
"5  c #140F30",
"6  c #2C2A26",
"7  c #2D2A27",
"8  c #312D28",
"9  c #34302D",
"0  c #3B342A",
"q  c #3F3C38",
"w  c #3E3B37",
"e  c #463C03",
"r  c #413A0E",
"t  c #443219",
"y  c #49361C",
"u  c #4C381C",
"i  c #54351B",
"p  c #4B0C3A",
"a  c #542626",
"s  c #4B3A24",
"d  c #433C32",
"f  c #413E39",
"g  c #483F33",
"h  c #552D32",
"j  c #71312F",
"k  c #723B2D",
"l  c #78382F",
"z  c #6F3133",
"x  c #6D343F",
"c  c #703232",
"v  c #793B34",
"b  c #6A3134",
"n  c #6E3E0D",
"m  c #4D4203",
"M  c #5A4E03",
"N  c #4C4411",
"B  c #5A5012",
"V  c #645605",
"C  c #685C17",
"Z  c #695D18",
"A  c #7A5C19",
"S  c #79571C",
"D  c #7F6E0F",
"F  c #7F700D",
"G  c #786818",
"H  c #7D701C",
"J  c #4A4136",
"K  c #4D453B",
"L  c #4F483E",
"P  c #564A39",
"I  c #53432D",
"U  c #754527",
"Y  c #764925",
"T  c #785120",
"R  c #775020",
"E  c #110946",
"W  c #130B4D",
"Q  c #150B5C",
"!  c #150C57",
"~  c #120B48",
"^  c #241457",
"/  c #2D1A4D",
"(  c #170D61",
")  c #180E61",
"_  c #1C1264",
"`  c #1E1369",
"'  c #221868",
"]  c #251A72",
"[  c #302966",
"{  c #2E2474",
"}  c #352D71",
"|  c #2D2757",
" . c #502645",
".. c #4E366F",
"X. c #633D74",
"o. c #581F49",
"O. c #584E41",
"+. c #5D5243",
"@. c #615646",
"#. c #625748",
"$. c #64594A",
"%. c #685C4C",
"&. c #474363",
"*. c #514C73",
"=. c #925311",
"-. c #80710D",
";. c #867405",
":. c #84761D",
">. c #BF6C18",
",. c #B8671A",
"<. c #915128",
"1. c #8F7F20",
"2. c #986531",
"3. c #97642E",
"4. c #BD7B3F",
"5. c #B4733D",
"6. c #C26F19",
"7. c #C57017",
"8. c #C6711A",
"9. c #C67727",
"0. c #9B0F7E",
"q. c #BE7A4D",
"w. c #BD7053",
"e. c #AA4D5C",
"r. c #C27E43",
"t. c #A18B06",
"y. c #AB9306",
"u. c #968521",
"i. c #A99626",
"p. c #B19D27",
"a. c #A08F24",
"s. c #BAA529",
"d. c #8F831D",
"f. c #CA853D",
"g. c #C99F3B",
"h. c #C1AC2B",
"j. c #C7B12C",
"k. c #CCB52D",
"l. c #CFB82E",
"z. c #D2BB2E",
"x. c #D6BE30",
"c. c #CDAF33",
"v. c #DBC231",
"b. c #D6C22D",
"n. c #C78440",
"m. c #CA8741",
"M. c #CC8942",
"N. c #C38B45",
"B. c #C59142",
"V. c #342987",
"C. c #3E3486",
"Z. c #3B2F91",
"A. c #403689",
"S. c #433688",
"D. c #45399B",
"F. c #483CA3",
"G. c #5D418D",
"H. c #524A8B",
"J. c #564C8E",
"K. c #635B99",
"L. c #796793",
"P. c #4E41A8",
"I. c #5245AE",
"U. c #5847A4",
"Y. c #5446B3",
"T. c #5649B5",
"R. c #5549B8",
"E. c #584BBB",
"W. c #594DB5",
"Q. c #5B4FB3",
"!. c #6359B2",
"~. c #6459AA",
"^. c #6C63A5",
"/. c #756DAD",
"(. c #726AA5",
"). c #7C75AC",
"_. c #7F78AE",
"`. c #736AB2",
"'. c #A30D86",
"]. c #AB1388",
"[. c #8079B1",
"{. c #DED6CC",
"}. c #DED6CB",
"|. c #DDD5CC",
" X c #E0D7CE",
".X c #E1D9CE",
"XX c #E5DDD5",
"oX c #E8DFD6",
"OX c #E7DFD8",
"+X c #E8DFD8",
"@X c #E0D7D0",
"#X c #E7E0D6",
"$X c #E8E0D7",
"%X c #E7E0D8",
"&X c #E9E2D8",
"*X c #EAE3D9",
"=X c #EBE2D9",
"-X c #EAE1D9",
";X c #ECE3DA",
":X c #EBE4DA",
">X c #EBE4DB",
",X c #EAE5DA",
"<X c #ECE5DB",
"1X c #ECE4DB",
"2X c #ECE6DB",
"3X c #EBE5DC",
"4X c #EDE6DC",
"5X c #ECE7DD",
"6X c #EEE7DD",
"7X c #EDE6DE",
"8X c #EAE3DB",
"9X c #EFE8DE",
"0X c #EEE8DE",
"qX c #F0E9DF",
"wX c #EFE8E0",
"eX c #EFE7E0",
"rX c #F1EAE2",
"tX c #F2EBE5",
"yX c #F7F3ED",
"uX c #CCBBAF",
/* pixels */
"=XXXoXXXoX=X$X=X=X#XXX$X$X=X=XXXXX=XoXXXXXoXoXXXXXXXXXoX=X$X$X=X=X=X=X=X=X=X#X=X9XwX9X=X=X=X$X9X9X9X=X=X=X=X=X=X=X=X9X=X9X9X=X#X$X$XXX.XXXXXXX$XoXoXoXoXoXXXXXoXXXoXoXoXXXoX$X$X=X#X#X$X$X=X$X=X$X=X=X=X9X=X=X9X=X=X=X=X=X=X=X=X=X=X=X=X=X=X=X#X=X=X=X=X=X$X=X=X",
"=X$X$XXXXX$XoXoX=X=X$X$X#X#X=X=XXXXX=XXXXXoXXXXXXXXX$X$X$X$X=X#X#X=X=X=X=X=X=X=X9XrXrX9X=X$X#X=X=XqXrX=X9X=X=X=X=X=X9X=X9XqX9X=XoXoX=XXX XXXoX$XoX$X=X=X$XXXXXoX$X=X$X$XoXXXXX=X=X=X=X$X=X$XoX=X=X=X=X=X=X=X=XrX=X=X=X=X=X=X=X9X=X=X=X=X=X=X=X=X=X$X=X=X=X=X=X=X",
"=X=X=X$XXXXXoXoX=X#X=X=X=X=X=X=X=X=X=X=XXXoXXXXXXXXXoXoX$X$X$X$X$XXX#XXX$X9X=X+XXXXX$X=X$X=X=X=X=X$X=X9X9X=X=X=X=X=X9X=X=X=X9X=X=X=XXXXXXX$XoXoXoX$X=X=X$XXXoXoX=X=XoX$XXXXX{.XX=X=X=X=X=X$XXX=XXX#X=X=X=X=X=X=X=X=X#X#X#X$X$X=X=X=X=X9X=X=X=X=X=X=X=X=X=X=X=X=X",
"=X=X=X$X=X$XXXXXXX#X$X=X=X=X=X=X=XrX%X=XXXXX$XXXXXXXXX$XoXXXoX=X=XoXXXXX$X#X$X=X=X#XXX=X=X=X=X=X=X=X=X=X=X=X=X=X$X=X9X=X=X=X=X=X=X$XXXXXXXXXXXXXoXoX$XoXoXXXXXoX=XoXXXXX=XXXXXXX=X#X$X=X$X=X$X=XXX$X=X=X$X=X=X=X=XXX$X$XXX$X=X=X=XqX=X9X9X=X=X=X=X=X=X=X=X=X=X=X",
"9XwX=X=X=XoXXXXXXX#X#X=X=X=X=X=X=X%X=X=X=X%XoXXXXXXXXXXXXXoX=X$X$X$X=X=X=X=X=X9X=X$X=X=X=X%X=XrXqX=X=X=X=X=X=X=X=X#XXX=X=X=X=X=X=X=X=X=XXXoXXXoXoXoX$XoXXXXXXXoXoXoXoX$X=X$XXXXXXX#X$XXX=X=X=X=X=X=X#XXXXX=X=X=X=X$X=X=X$X=X=X=X=X=X9X=X=X=X=X=X=X=X=X=X=X=X=X9X",
"=X=X=X=X=X=X$XXXXX#X$X=X=X=X=X=X=XXX=XwX=X=XXXXXXXXX$XoX$X=X$X$X$X=XXX=X=X=X$X=X=X=X=X=X=X=X=X=X=X=X=X=X9X=X=X=X=X#X#X=X=X=X=X=X=X9X=X=X$XXXXXXXXXoX$X=XoXXXXX$X$XoXXX$X$X$X$XoX$X=X=X$X$X$X=X$X=X#XXX$XXX=X=X=X=X=X=X=X$XXX=X#X9X=X=X=X$X=X=X=X=X=X=X=X=X=X=X=X",
"=X=X=X=X$X#X$XXXXX$X=X#X=X=X=X=X=X=X=X=X=X=X=XXXXXXXXXXX$X=X=X=X#X=XoXoX=XoX=X$X=X=X=X#X=X=X=X=X=X=X=X=X=X=X9X9X$X#X=X#X=X=X=X=X=X=X=X=X=X$XoXoX=XXXoX$X=X$X$X$XXXoXXXoXoXoX$XoX$X=X=X=XoXoX=X$X=XXXXXoX=X=X=X=X=X=X=X=X=X#X=X$X9XqX9X=X=X=X=X=X=X9X=X9X=X=X=X=X",
"=X=X=X=X#XXX$XXXXXXXXX=X=X=X=X=X=X=X=X=X=X=X=XoXXXXXoXXX#X$X=X$XXX$XXX$X$X=X=X=XXXXX=X=X#X$X$X=X=X=X=X=X=X=X=X=X=X$X=X=X=X=X=X=X=X=X=X=X=X=XoXXXoX$X=X=XoX$X=X=XXXXXXXXXXXoXXXXX=X$XXX=X=X=XXX=X=XXXXXXXoX=X=X=X=X=X=X=X$X$X=X=X=X=X=X=X=X#X=X=X=X=X9X=X=X9X=X=X",
"wXrX9X=X=X=XoXXXXXXXXXXX=X=X=X=X=X=X=X=XXXXXwX=XXXXXXX$X#X#X=X=XXXXX$X$XXX=X=X=XXXXX=X=X=X=X$X=X=X=X=X=X=X=X=X=X9X9X=X=X=X=X$X#X=X=X=X=X$X=X=X$XXX$X$X=X$X=X=X$XXX$XXXXXXXoX$X=X$XoXoX$X$X$X=X=X=X=X=X$X=X=X$X=X=X=XXX$X=X=X=X=X=X=X=X=X$X$X=X=X=X=X=X=X=X=X=X=X",
"=X=X=X=X=X=XXXXXoXXXXXXXXX#X=X=X=X=X=X=X=X=X=X%XXXXXXX$X$X=X=X=X$XXXXXXX$X$X$XXXXXXX$X=X=X=X=X=X=X=X=X=X=X=X=X=X#X=X=X=X=X=X=X=X=XrX=X=X=X#X=X=X$X$X$X=X$X=XoXXXXX$X$XXXXXoX$X=XoXXXoX=X=XXX$X=XXXoX=X$XoX$X=X=X=X=XXX=X=X=X=X=X=X=X=X=X$X$X=X$X#X=X=X=X=X=X=X9X",
"eXrX=X=X=X=X=X=XXX{.XX$X#XXX#X$X#X=X=X=X=X=X=X%X#XXXXX=X=X=X=XXX$XXXXXXXoX=XoXXXoXXX#X=X=X=X=X=X=X=X=X=X=X%X=X=XoXXX=X=X=X=X=X=X=X=X%X=X=X=X#X=X=X=X=XXXXX$XoXXXXXXXoX$XoXXXXXXX=XXXoX$X=XoXXX=X$XoXXXXXXXXX=X=XXX$X=X=X=X$X=X9X=XXXXX#XXXXXXX$X$X=X=X9X=X=X=X9X",
"=X=X=XXXoXXX$X=XXXoXoXXX$XXXXXXX$X=X=X=X=X=X=XXXXXXXXXXXXX=X=X$XoXXXoXXX=X=X$XoXXXXX=X=X$X#X=X=X=X=X=X$X#X#X=X=X$XXX=X=X=X=X=X9X=X=X=X=X=X#XXX$X=X$X$X XXX$XXXXXoXoXoXXX$XoXXXXX$XXXXXXXXX$X=X=XoXoXXXoXoXXX$X$XXX=XXXXX=X$X$XrX=XXX=XXXXXXX$X$X=X=X=X=X=X=X$X=X",
"wX=X=X=X$XoXXXXXXX=XXXXXXXXXXXXXXXXX=X$XXXXXXXoXoXXXXXXX.XXX=X=X=XXXXXoX=X$X=X=XXXXXXXoX=X=X$X=X=X=X#X=XXX=X#X$X=X=X=X=X=X=X=X=X=X9X=X=X=X#X=X=X$X$XXX XXX$XXXoXXX=X=X$X$XoXXXoX=X$XoX$X$X=X=X$X$XXXoXoXXXoXXX$XoX=X=XoX=X=X=X=X=XXX#X=XXXXXoX$X=X=X=X=XXXXXXX=X",
"wX=X=XXXXXXXXXXX=X$X=XXX$XXXXX$XXXXXXXoXoXXXXXXX$X=XXXXXXXXXoXXX=XoX$XXXoXoX=X=X=XXXXXXXXXXXXXXX#X=X=X=X=X=X=X=X$X=X=X=X=X=X=X$X=X=X=X=X=X=X=X=X#X#XXX$X=XoXXXoXXX$X=XoX$XXXXX$XoX$X$X=X=X=X=XXX$X$X$X$XXXXX$X=XoXXXoX=X=X=X=X=X=X#XXX$X$XXXXX$X$X=X=X=XXX$X=X=X",
"%XXX=X+X=XXXXXXXXX$X=X#XXX=X.XXX=XXXXXXXXXoX#X$X#X$XXXXXXXXXXXXXXX$X$XoXXXoXoX=XXXXX$XXXXXXXXX$XXX=X=X=X=X=X=X$X$X$X=X=X=X=X=X=X=X#XXX#X=X=X$X#X=X=X$X$X=X$XXXXXXX=X=XXX#X#XoXoX=X$X$X=X=X=X$X=X$X=X=X#X$X$XXX$XoX$X$X=X$X=X=X=X=X=X$X#X=X$X#X#XXXXX=X=X=X=X#X=X",
"=X$X=X=X=X=XXXXXXXoXXX$X#X$XXX.XXX$XXXXXXXoXoXXXXXXX$XoXXX=X$XXXXXXXXXoXXX$X$XoXXXXXXX=X$XXXXXoXXX$X=XXXXX$X$X$X$X$X=X=X$X=X=X=X=X=X=X=X=X=X=X=X=X=X#XXXoXoXXXXXXXoX=XXX#X=X$XXX=X=X$X$XoXXX=X#X#X=X=X=X=X=XXXoXXXXXoX=XoXoX=X=X=X$X=X=X=X=X=X=XXXXX$X=X$X$X$X=X",
"%X=X=X=X=X=X$X$X=X=X=X=X=X#X=XXXXX=X$XXXXX.XXXXX.XXXoXXXXXXXoXXXXXXX=X=X=X=X=X=X$XXXXXXX=X=XoXXXXXoX=XXXXX$XoX$X=X=X=X=X=X=X=X=X=X=X=X=X=X=X=X=X=X=X=X$X=X$XXXoX=X$X$XXX=X#XXX$X=X=X=X$X$XXXXX$X#X$X=X=X=X#X#XoXoXXXXX=X=X=X$X=X$X$X=X=X=X#X=X=XXXXX$X=X$X=X=X$X",
"=XrXwX=X=X=X=X=X=X=X=X$X%X=X=X#X=X$XoXXX.X{.{.{..XXXXXXXoXXXXX$X#X=X=X=X=X=X=X=X=X=X=XXXXX=X=XXXXXoX$XoX$XXXXXoXoX$X=X=X=X=X=X=X=X$X$X=X=X=X=X$X#X=X=X=X#X#XoXoX=X=X=X=X=X=X=X=X=X=X=X=XoX$XXXXXXXoX$XoX$X=X=X#X=XXXoXoXoX=XoX=X=X$X=X=X=X=X=X$X=X=X$X=X=XXXXX=X",
"=X=X=X%X=X9X=X=X=X=X=X=X=X=X#XXXXX$X=X$X$XXXXXXXXXXXXXXX$XXXXX#XXX#XOX=X=X=X=X=X=X=X=X=X=XXX=X$X$XXXXXXXXXXXXXXXXXoXXX=X=X=X=X$X=X=X=X=X=X=X=X=X#X=X#XXX=X$X$XXXXX=X=X=X=X=X=X=X=X=X=X=XXXXX$X=XXXoXoXXX#X#X$X$X=X=X=XoXXX$X$X=X=X=X$X=X=X=X=X=X=X=X=X=X=X=XXX=X",
"=X=X=X=X=X9X9X=X=X=X=X=X=X=X$X#XXXXX=X                                                                                                                                                                                    =X$X$X=X=X=X=X=X9X=X=X=X=X=X=X=X=X=X=X",
"=X=X$X$X=X9X=X=X=X=X=X=X=X=X$X=XXX#X=X                                                                                                                                                                                    oX$XoXXX$X=X=X=X=X=X=X=X=X=X=X=X=X=X=X",
"=X=X#XXX=X=X=X#X=X=X=X=X=X=X=X=X=X=X=X          . - # # # # # # # # # # # # # # # # # # # # # # # # # # # # # # # # # # # # # # # # # # # # # # # # # # # # # # # # # # # # # # # # # # # # # # # # # # # # - .           oX$X$X=XXX#X=X=X=X=X=X=X=X=X=X=X=X=X=X",
"=X=X$X=X=X=X=X=X#X$X=X=X=X=X=X=X=X$X=X          < t.t.t.t.t.t.t.t.t.t.t.t.t.t.t.t.t.t.t.t.t.t.t.t.t.t.t.t.t.t.t.t.t.t.t.t.t.t.t.t.t.t.t.t.t.t.t.t.t.t.t.t.t.t.t.t.t.t.t.t.t.t.t.t.t.t.t.t.t.t.t.t.t.t.t.t.t.t.<           $X$X$X=XXX$X=X=X#X#X$X=X=X=X=X=X=X=X=X",
"=X=X=X=X=X=X=X=X=X=X=X=X=XXX=X=X=X=X=X          < y.t.t.t.t.t.t.t.t.t.t.t.t.t.t.t.t.t.t.t.t.t.t.t.t.t.t.t.t.t.t.t.t.t.t.t.t.t.t.t.t.t.t.t.t.t.t.t.t.t.t.t.t.t.t.t.t.t.t.t.t.t.t.t.t.t.t.t.t.t.t.t.t.t.t.t.t.y.<           =X=X=X$XoXXX$X=X=X=X=X=X=X=X=X=X=X=X=X",
"=X=X=X=X=X=X=X=X#X=X=X=X=X=X#X$X$X=X=X    . < < m V V ;.t.t.t.t.t.t.t.t.t.t.t.t.t.t.t.t.t.t.t.t.t.t.t.t.t.t.t.t.t.t.t.t.t.t.t.t.t.t.t.t.t.t.t.t.t.t.t.t.t.t.t.t.t.t.t.t.t.t.t.t.t.t.t.t.t.t.t.t.t.t.t.t.;.V V m < < .     =X=X=X$X$XXXoX=X=X=X=X=X=X=X=X=X=X=X=X",
"9X=X=X=X=XXX=X=X=X=X$X=XXX#X$X$X$X$X=X    - t.y.V     M t.t.t.t.t.t.t.t.t.t.t.t.t.t.t.t.t.t.t.t.t.t.t.t.t.t.t.t.t.t.t.t.t.t.t.t.t.t.t.t.t.t.t.t.t.t.t.t.t.t.t.t.t.t.t.t.t.t.t.t.t.t.t.t.t.t.t.t.t.t.t.t.M     V y.t.-     =X=X=X$X$X$XXX=X$X$X=X=X=X=X=X=X9X=X=X",
"=X=X=X=X=X=X=X=X$X=X=X=X=X=X=X#X=X=X=X    # t.t.V     M y.t.t.t.t.t.t.t.t.t.t.t.y.y.y.t.t.t.t.t.y.t.t.t.t.t.t.t.t.t.t.t.t.t.t.t.t.t.t.t.t.t.t.t.y.t.t.t.t.t.t.t.t.t.t.t.t.t.t.t.t.t.t.t.t.t.t.t.t.t.t.y.M     V t.t.#     =X=X=X=X=X=XoX=X=X$XXX#X=X=X=X=X=X=X=X",
"=X=X=X=X=X=X=X=X=X=X=X=X=X=X$XXX=X=X=X    # t.t.;.M M m e e e e e e e e e e e e e e e e e e e e e e e e e e e e e e e e e e e e e e e e e e e e e e e e e e e e e e e e e e e e e e e e e e e e e e e e m M M ;.t.t.#     =X=X$X=X$X=XXX=X$XXXXX#X=X=X=X=X=X=X=X",
"rX=X9XwX=X=X=X=X=X$X=X=X=X$X=X$X$X$X#X    # t.t.t.t.y.e                                                                                                                                                 e y.t.t.t.t.#     =X=XXX#X#X=XXX#X$XXX=X=X=X=X=X9XwX=X=X",
"rXrXwXwX=XrXwX=X=X$X=X=X=X=X=X=X#X=X$X    # t.t.t.t.t.e                                                                                                                                                 e t.t.t.t.t.#     =X$XXXXX#X#XXXXXXX=X=X=X=X=X=X9XwX=X=X",
"rXwXwXwX9XwXrX=X=X=X=X=X=X=X=X=X$X=X=X    # t.t.t.t.t.e     n =.=.=.=.=.=.=.=.=.=.<.2.2.2.2.2.2.2.2.2.2.2.2.2.2.2.2.2.2.2.=.=.=.=.=.=.=.=.=.=.=.=.=.=.=.=.=.=.=.=.2.2.2.2.2.2.2.2.2.2.2.2.2.3.=.=.n     e t.t.t.t.t.#     =XXXXXXX#X$XXXXX$X$X=X=X=X=X=X=X=X=X=X",
"qXwXwXrXwX=X=XrXrX9X=X=X=X=X=X=X$X$XXX    # t.t.t.t.t.e     =.8.7.7.7.7.7.7.7.7.7.9.M.M.M.M.M.M.M.M.M.M.M.M.M.M.M.M.M.M.M.9.7.7.7.7.7.7.7.7.7.7.7.7.7.7.7.7.7.7.8.M.M.M.M.M.M.M.M.M.M.M.M.M.f.8.8.=.    e t.t.t.t.t.#     $X$XoXoXoX$X$XoX#X#X$X=X=X=X=X9X=X=X=X",
"=X9XrXrXrX=X=XwXeX=X=X=X=X=X=X$X$XXXXX    # t.t.t.t.t.e     =.8.6.6.6.6.6.6.6.6.7.9.M.m.m.m.m.m.m.m.n.n.n.n.n.n.n.n.n.n.n.9.>.>.>.>.>.>.>.6.7.7.6.>.>.>.>.>.>.>.6.n.n.n.n.n.n.n.n.n.n.n.m.m.f.8.8.=.    e t.t.t.t.t.#     $X=X=X=X=X=XoX$X=X$X=X=X=X=X=X=XwX=X=X",
"=X=X=X=X=X=X=XwXeX=X=X=X=X=X=X%X=XXXXX    # t.t.t.t.t.e     3.f.f.f.f.f.f.f.f.f.f.f.m.m.m.m.m.m.m.r.v v v v v v v v v v v v l l l l l l c <.7.7.<.c l k l l l l v v v v v v v v v v v v 4.m.m.f.f.3.    e t.t.t.t.t.#     =X=X=X=X=X=XXXXX=X#X=X=XXX=X=X=X=XwXwX",
"=X=X=X=XeX=X=XwX=X=X=X=X=X=X=X=X=X=X=X    # t.t.t.t.t.e     2.M.M.M.M.M.M.M.M.M.M.M.M.M.M.M.M.M.M.r.c c c c c c c c c c c c c c c c c c z <.7.7.<.z c c c c c c c c c c c c c c c c c c 4.M.M.M.M.2.    e t.t.t.t.t.#     =X=X=X$X#XoXoXXX=X#X=X=X=XXX=X=X=X=XrX",
"=X=XeX%X=X=X=XwX=X=X=XeX=X=X=X=X=X=X=X    # t.t.t.t.t.e     3.r.4.4.4.4.4.4.4.4.4.4.4.4.4.4.4.4.4.5.k k k k k k k k k k k k k k c c c c z <.,.,.<.k k k k k k k k k k k k k k k k k k k 5.4.4.4.r.3.    e t.t.t.t.t.#     $X#X=X$XXXXXXX{.$X#X=X=X=X=XwX=X=X=X=X",
"=X=XwX=X=X=X=X=X=XwX=X%X=X=X=XrXrX=X=X    # t.t.t.t.t.e     a c c c c c c c c c c c c c c c c c c k D D D D D D D D D D D D D D c c c c c c c z S -.D D D D D D D D D D D D D D D D D D k c c c c a     e t.t.t.t.t.#     =X9X=X=X=XXX=X{.{.=X=X=X=XeX=XwXrX=X=X",
"=X=X=X=X=XwX=X=X=X=X=X%X=XwX=X=X=XrXwX    # t.t.t.t.t.e     a c c c c c c c c c c c c c c c c c c k D D D F F F F F F D D D F D c c c c c c c z S -.D D D F F F F F F F F F F F F F F D k z c c c a     e t.t.t.t.t.#     =X9X=XXX=X#X$X=XXX=X=X=X=X=X=XwX=X=X=X",
"=X=X=X=X=X=X=X=X=X=X=X=X=X=X=X=XwXwXeX    # t.t.t.t.t.e     i U U U U U U U U U U U U U U U U U U R D D D A A A A A A A A A A A c c c c c c c c R A A A A A A A A A A A A A A A A A A A R U U U U i     e t.t.t.t.t.#     =X=X=X=X=X=XXX#XXX=XXX=X=X=X=XwX=X=X=X",
"=X=X=X=X=X=X=X=XrXeX=X=XXXXXXX$XrXwX=X    # t.t.t.t.t.e     V -.F F F F F F F F F F F F F F F F F F D F A z c c c c c c c c c c c c c c c c c c c z z z c c c c c c c c c c c c c c c c G F F F -.V     e t.t.t.t.t.#     9X=X=X=X=X=X=X=X%X=X=X=XeXeXwX=X=X=X=X",
"=X=X=X=X=X=XwX=X=X=X=X=XXXXXXXXX=X=X=X    # t.t.t.t.y.e     V -.-.-.-.-.-.-.F D D F -.-.-.-.-.-.-.-.-.-.G c c c c c c c c c c c c c c c c c c c z z z c c c k k k k k k c c c c c c c c D -.F D -.V     e t.t.t.t.t.#     =X=X=X=X=X=X=X=X=XXX%X=XwX=XwX=X=X=X=X",
"=X=X=X=X=X=X=X=X=X=X=X=X=X=XXX=X#X=X=X    # t.t.t.t.t.e     i T T T T T T R A F F G R T T T T T R R T T R c c c c c c c c c c c c c c c c c c c z z c  . . .X.X.X.X.X.X.k z c c c c c c R T S D -.V     e t.t.t.t.t.#     =X=X9X=X=X=X=X=X=X=XXX=X=XwX=XeXrX=X=X",
"=X=X=X=X=X=X=X=X=X=X=XXX$X=X=X=X=X$X#X    # t.t.t.t.t.e     a c z z z z z z U F -.R z z z z z z z z z z z c c c c c c c c c c c c c c c c c c c z c c / ( ( I.R.R.R.R.G.k c c c c c c c c z k D -.V     e t.t.t.t.t.#     =X=X=XwX=X9X=X=X=X=X%X=X=X=X=XwX=X=X=X",
"=XwX=X=X=X=X=X=X=X=X=X{.XX9X=X=X=X#XXX    # t.t.t.t.t.e     a c c c c c c c U -.-.T z c c c c c c c k k k k k k k k k k k k k k k k k k k k k k c c c / Q ) P.T.T.T.R.S.k k c k c c c c c c k D -.V     e t.t.t.t.t.#     wX=X=XwX=XrX=X=X=X=XXX=X=X=XwX=X%X=X=X",
"=X=X=X=X=X=X=X%X%X%X=XXXXX=X=XwX=X=XXX    # t.t.t.t.t.e     a c c c c c c c k U U k c c c c z / / / G.G.G.G.G.G.G.G.G.G.G.G.G.G.G.G.G.G.G.G.G.G.../ / Q Q ) P.T.W.`.`.(.L.L.../ / h c c c c c U U i     e t.t.t.t.t.#     rX=X=XwX9X=X=X=X=X=X#X=X=X=X=X=XXX%X=X",
"=X=X=X=X%X=X=X=X=X=X%X%X%X=X=XeXwXrX=X    # t.t.t.t.t.e     a c c c c c c c c c c c c c c c z ^ Q _ T.R.R.R.R.R.R.R.R.R.R.R.R.R.R.R.R.R.R.R.R.E.V.Q Q Q Q ) P.T.W.).).).).[.H.Q Q  .c c c c c c c a     e t.t.t.t.t.#     =X=X=XrX=X=X=X=X=X=X$X=X=X=X=X=X=X%X=X",
"=X=X=X=X=X=XXX#XXXOXXXXX%X=X=X=X=X=X=X    # t.t.t.t.t.e     a c c c c c c c c z z z z z z c z ^ Q _ T.T.T.T.T.T.T.T.T.T.T.T.T.T.T.T.T.T.T.T.T.T.V.Q Q Q Q ) P.T.W.).).).)._.H.Q Q  .c c c c c c c a     e t.t.t.t.t.#     =X=X=XwX=X=X=X=X=X=X$X=X=X=X=X=X=X=X=X",
"=X=X=X=X=X#XXXXX#XXXXXXX=X=X=X=X=X=X=X    # t.t.t.t.t.e     a c c c c c c c h ^ ^ ^ ^ ^ S.U.U.^.^.^././././././././././././././.T.T.T.T.T.D._ ` ) Q Q Q Q ) P.T.T.W.W.!.).).(.^.^.(.L.L.U.U.G.z c a     e y.t.t.t.t.#     wXwXwXwX=X=X=X=X=X=X=XXX=X=X=X=X=X=X=X",
"=X%X=XXXoX=XXXXXXX=XXX=X=X=X=X%X=X=X=X    # t.t.t.t.t.e     a c c c c c c c h Q Q Q Q Q D.R.T./.).).).).).).).).).).).).).).).).W.T.T.T.R.Z.Q Q Q Q Q Q Q ) P.T.T.T.T.!.).).).).).).).).Q.T.U.z c a     e t.t.t.t.t.#     wXrX=X=X=X=X=X=X=X%X=X#X#X=X=X=X=X=X=X",
"=XXX%XXXXX=X{.XXXX=X=XXX=X=X=X=X=X=X=X    # t.t.t.t.t.e     h x x x x x x x  ._ ' ' ' _ D.T.T./.).).).)./.(.(.(.(.(./.).).).)./.I.P.P.P.P.V.! ! ! ! ! ! ! ! D.P.P.P.P.U.(.(./.).).).).).I.P.P.b z a     e t.t.t.t.t.#     =X=X=X=X=X=X=X=X#X=X=X=XXX=X=X=X=X=X=X",
"=XXX#X$XXXXXXXXXXXXX=X=X=X=X=X=X=X=X=X    # t.t.t.t.t.e     A.T.I.I.T.T.T.T.!.)./.).).).!.T.T./.).).W.T.F.Q _ _ _ Q D.W.T.T.T.I._ ) !                                 3 _ Q Z.W.T./.).).] ) ) Q Q E     e t.t.t.t.t.#     =X=X=X=X=X=X=X=X=X=X#X%X$X9X=X=X=X=X=X",
"=X=XoX$XXXXXXXoX=X#X$X=X=X=X=X=X=X=X=X    # t.t.t.t.t.e     A.R.T.T.T.T.T.T.!.).).).).).!.T.T.).).).W.T.D.Q Q Q Q Q Z.T.T.T.T.T._ ( W                                 & ( Q V.E.T.`.).).' Q Q Q Q E     e t.t.t.t.t.#     =XwX=X=X=X=X=X%X=X=X=X#XXX=X=X=X=X$X=X",
"=X=X$X=X$X$X$X=X=X=X=X=X=X=X=X=X=X=X=X    # t.t.t.t.t.e     } F.D.D.D.F.T.T.Q./././.).).!.Q.Q.K.K.K.T.T.F.] ] ] ] ] D.T.T.F.D.D.W E 5 , , , , , , , , , , , , , , , , 1 E E { F.D.^.).).} { { { { ^     e y.t.t.t.t.#     =XwXwX=X=X9XwX=X=X=X=XXXXX=X=X=X9X=X=X",
"=X$X$X=X=X=XXXXX=X=X=X=X=X=X=X=X=X$X#X    # t.t.t.t.t.e     E Q Q Q Q ` T.T.T.T.T.!.).).).).).' Q _ T.T.T.T.T.T.T.T.T.T.T.' Q !     : z.z.z.z.z.z.z.z.z.z.z.z.z.z.z.z.u.    4 Q Q K.).).).).).).[.J.    e y.t.t.t.t.#     =XeX=X=X=X=X=X9X=X=X=XXXXX=X=X=X=X9X=X",
"=X=X=X=X=X=X=X=X=X=X$X=X=X=X=X=X=X=X=X    # t.t.t.t.t.e     E Q Q Q Q _ T.T.T.R.R.`.[.[.[.[.).] Q ` T.T.T.E.E.E.E.E.E.E.E.] Q Q     : z.l.l.l.l.l.l.l.l.l.l.l.l.l.l.z.1.    4 ( Q K.[.[._._._.)._.J.    e y.t.t.t.t.#     rXrXwX=X=XXX=X=X=X=X#XoXXXXX=X=X=X=X=X",
"=X=X=XXX=X=X=X=X=X=X=X%X=X%X=X=X=X=X=X    # t.t.t.t.t.e     E Q Q { V.V.T.T.P.Z.Z...&.&.&.&.&.4 4 E T.T.P.[ [ [ [ [ [ [ [ 4 4 4     : z.l.l.l.l.l.l.l.l.l.l.l.l.l.l.z.1.    & 4 4 | &.&.H.H.J.!.`.H.    e y.t.t.t.t.#     =X=XwX=X%X=X=X=X#X=X#XXXXX$X=X=X=X9X=X",
"=X=X=X=X=X=X$X=X=X$X$X#X=X=X=X=X=X=X=X    # t.t.t.t.t.e     E Q ) I.R.R.T.T.D.Q Q 4               % I.R.C.                          : z.l.l.l.l.l.l.l.l.l.l.l.l.l.l.z.1.                W Q ) T.R.C.    e t.t.t.t.t.#     =XXX=X=X=X=X=X=X=X=X#XXX#XXX=X$X=X9X9X",
"$X=X=X=X=X=X$X$X=X=X#X$X=X$X$X=X=X$X=X    # t.t.t.t.t.e     E Q Q P.T.T.E.E.D.Q ( 4               X I.R.C.                          - z.l.l.l.l.l.l.l.l.l.l.l.l.l.l.z.:.                ! ( ` T.E.A.    e t.t.t.t.t.#     =X=X=X=X=X=XrXrX=X=X=X=X$XXX=X=X$X#X=X",
"XX$X=X=X$X=XXX#X=X$X=XXXXX=X=X$X#X%X=X    # t.t.t.t.t.e     { Z.Z.T.T.P./ / 5 3 3 X     / } } &.*.*.^.`.J.4 4 3               . G :.u.l.l.l.l.l.l.l.l.l.l.l.l.l.l.l.z.s.:.:.r     B :.:.= 3 4 { V.^     e t.t.t.t.t.#     =X=X=X=X=X=XwX9X=X=X=X=X=X#XXX=X$XXX$X",
"=X=XXXXX=XXXXX#X=X=X=X=X$X#X=X$X#XOX=X    # t.t.t.t.t.e     A.E.T.T.T.D.                C.E.E.).[._.)._.K.Q ( 4               . j.z.z.l.l.l.l.l.l.l.l.l.l.l.l.l.l.l.l.z.z.v.C     u.v.z.#     ! Q E     e t.t.t.t.t.#     =X$X=X=X=X=X=X=X=X=X=X=X=X=X=X=X$X$X$X",
"=X=X=XoX$X$X#X#XXX=X$X=X#X#X=X=X=X=X=X    # t.t.t.t.t.e     A.E.T.T.T.D.                } R.T./.).).).).K.Q ( 4               . h.l.l.l.l.l.z.z.l.l.l.l.l.l.z.z.z.l.l.l.l.x.Z     1.x.k.#   X Q Q E     e t.t.t.t.t.#     XX$X=X#X$X=X=X=X=X=X=X=X=X=X=X=XXX=X=X",
"$X=X=XXXXX$XXXXX$XXX=X$X$X$X=X=X#XXX$X    # t.t.t.t.t.e     & 5 5 5 5 &           / D.D.~././.).).).).).K.Q ( 4     Z i.i.-   . h.l.l.l.z.u.- - :.z.l.l.l.k., : r k.l.l.l.x.Z     1.z.k.#   X Q Q E     e t.t.t.t.t.#     XX=X=X=X$X=X#X=X9X=X=X=X=X=X=X=X=X=X=X",
"oX$X=XXXXX=X=XXX$X$X$X$X$X$X#X#XXX$X=X    # t.t.t.t.t.e                           | E.T./.).).).).).).).K.Q ( 4     :.x.z.:   . h.l.l.l.z.:.    G z.l.l.l.j.$   # k.l.l.l.x.Z     1.z.k.#   X Q Q E     e t.t.t.t.t.#     XXXX=X=X=X=X=X=X=X=X=X=X9X=X=X$X=X=X=X",
"XX=X=XoX$XXX=X$XXX#X$X$X=X$X#X#X$X$X#X    # t.t.t.t.t.e       O                   | I.P.^.(.(.).).).).).K.) _ 4     :.z.z.:   . h.l.k.h.j.G     G z.l.l.l.j.$   # s.h.j.l.x.Z     1.z.k.#   X Q Q E     e t.t.t.t.t.#     XXoX=X=X=X=X=X=X=X=X=X=X=X=X=X=XXX$X=X",
"OX=X=X=X$XXXoXoXXXoX$X=X=X$XoXXXoX.X=X    # t.t.t.t.t.e     d +.+.+.+.+.+.+.0       X X X o o P.W.W.).)./.I.T.[     :.z.z.:   . h.z.i.. . .     G z.l.l.l.j.$     . . N z.x.C     1.z.k.#   X Q Q E     e t.t.t.t.t.#     oXoX=X=XoX=X=X=X=X=X=X=XXX=X=X=XXX=X=X",
"XXXXXXXXXXoXXXXX=X$X=X=XoX=X=X$XXX$X$X    # t.t.t.t.t.e     J $.$.#.#.#.#.$.d                 D.T.W.).)./.T.R.[     :.z.z.:   . h.z.i.          G z.l.l.l.j.$         , z.x.C     1.z.k.#   X Q Q E     e t.t.t.t.t.#     XXoX=X=X=X=X=X=X=X=X=XoX$X=XoXoX$X=X=X",
"XX#X=XXXXXXXXXXX=X#X$X=X=X=X=X=X=X=X#X    # t.t.t.t.t.e     0 L L +.+.+.#.$.d                 C.F.P.).)./.Q.Q.[     :.z.z.:   . h.z.i.: : : : - :.z.l.l.l.k., : : : : B x.x.C     1.z.k.#   X ' ] !     e y.t.t.t.t.#     XXXXXXXXXXXXXX#X=X=X=XoX=X=X$XXXXX=X=X",
"XX+X=XXXXXXX=XoXXX=X=X=X=X+X=X=X+X=X=X    # t.t.t.t.t.e           d K L #.$.d                 W Q ' ).).).).[.&.    :.z.z.:   . h.l.l.z.z.z.z.z.l.l.l.l.l.l.z.z.z.z.z.l.l.x.C     1.z.k.#   % I.R.A.    e t.t.t.t.t.#     XXoXXXXXXXXXXXoXoX=X=X=X=X=X$XXXXX=X=X",
"XXXXXX.XXXoXXXXX#X=X=X=X=XXXXX+X=X=X=X    # t.t.t.t.t.e           d K L #.$.d                 ! ( ' )._.).).[.&.    :.z.z.:   . j.z.z.z.z.z.l.l.l.l.l.l.l.l.l.l.l.z.z.z.z.b.Z     1.z.k.#   % I.R.A.    e t.t.t.t.t.#     XXXXXXXXXXXXXXXXXX=XoXXX$X$XoXXXXX$X=X",
"XXXXoX#XXXXXoX=X=XXX#XXXoXXXXXXXXX$XXX    # t.t.t.t.t.e           d g J #.$.L ; 1 1 1 1 o     4 4 E J.J.K.`.`.}     :.z.z.:   . q.q.q.q.q.B.z.l.l.l.l.l.l.l.l.l.c.q.q.q.q.r.k     1.z.k.#   % I.R.A.    e t.t.t.t.t.#     XXXXXXXXXXXXXXXXXX=XXX.X$X$X$XoX$X=X=X",
"XXXX=X=XXXXXoXXX$XoXoX=XoXXXXXXXXXXXoX    # t.t.t.t.t.e           t y s #.#.$.$.$.$.$.%.=           ! Q ] T.R.[     :.z.z.:   O 0.'.'.'.'.e.z.l.l.l.l.l.l.l.l.l.g.'.'.'.'.'.p     1.z.k.#   % I.R.A.    e t.t.t.t.t.#     XXXXXXoXXXXXXXXXXX$XoX=XoXXXoX=XoX=X=X",
"XX%X=X=X=X$XXXXXoXoXXX=X=XXXXX$XoXXXXX    # t.t.t.t.t.e           t y s $.$.$.$.$.$.#.$.=         X Q Q ] E.E.[     :.x.z.-     0.].].'.'.e.l.l.l.l.l.l.l.l.l.l.g.'.'.'.].].p     1.z.k.#   % I.R.A.    e t.t.t.t.t.#     =XXXXXXXXX=X=XoXoXXXoXXXXXXXXXoXoXXX=X",
"XXXX=X=X9X=XXX=X=X#X#X=X$X=X=XoXXX+XoX    # t.t.t.t.t.e           $ $ - 1 1 8 P I P $.$.0 - -       3 3 4 V.V.W     :.x.l.:.G G p p h w.w.N.z.l.k.l.l.l.l.l.l.l.c.w.w.e.p p b G G p.z.k.#   % I.R.A.    e t.t.t.t.t.#     =X=XOXXXXXXXXXXXXX#X$XXXXXXXXXXX$X=X=X",
"XX%X=X=X$X=X=X=X=X=X$X=XoX$X$X$XXXXX+X    # t.t.t.t.t.e                     @ y t P $.$.I y y .         X Q Q 4     :.x.l.z.z.j..   : z.z.z.l.l.l.l.l.l.l.l.l.l.l.l.b.d.    Z v.z.z.l.k.#   % I.R.A.    e t.t.t.t.t.#     =X=X%X%X%X=XXXXXXX#X=X$X$X$XXXXX$X=X=X",
"XX%X=X=X=X=X=X=X=X=X#X=X$X$X$X=XXXXXXX    # t.t.t.t.t.e                     + y y P $.$.s t t O         X ( ( 4     :.x.l.l.l.h..   : l.l.z.z.z.z.l.l.l.l.l.z.z.z.l.z.1.    Z x.l.z.z.l.#   % I.R.A.    e t.t.t.t.t.#     =X=X=X=X%XXXXXXXXX=X$XXX=X=XXX$XXX$X=X",
"XX=X=X=X=X=X=X=X=X=X=X=X$X#X=X=X=X%XXX    # t.t.t.t.t.e     0 J J J J d 0 0 7 @ . 0 $.#.+.P P J J g 2 2 ; X & X     :.x.l.l.l.h..   : l.z.u., , :.z.l.l.l.k.r , N k.z.1.    Z x.z.C , ,     % I.R.A.    e t.t.t.t.t.#     =X=X=X=X=X%XXXXXXXXXXXXX#X=X$X=X$X#X=X",
"oXXX#X=X#X=X#X#X=X=X=XXXXXXX=X=X=X=X%X    # t.t.t.t.t.e     J $.$.$.$.#.K L 0     8 $.#.#.$.$.$.$.#.y y 2           :.z.l.l.l.h..   : z.z.:.    G z.l.l.l.j.$   # k.z.:.    Z x.z.,         % I.R.A.    e t.t.t.t.t.#     =XwX=X=X=X=X%X=X=X X{.$X#XXX=X=X=X=X#X",
"=X=X=X=X=X#XXX=X=X=X$X.X{.#XXX=X=X=X=X    # t.t.t.t.t.e     J #.#.#.#.+.K K 0     7 #.+.#.#.#.#.#.+.y y 2           H k.j.k.l.h..   : k.k.H     G z.l.l.l.j.$   # h.k.:.    C z.z.r         & I.R.A.    e t.t.t.t.t.#     =XwXwX=X=X=X=X=X#X=XXXXXXXXX=X=X=X=XXX",
"=X=X=X=X=X=X=X=XoX$XXXXXXX$XXXXX=X=X=X    # t.t.t.t.t.e     2 s s #.#.#.#.#.d       . . 2 s s +.#.+.y y 2           . $ $ i.z.h..     $ $ .     G z.l.l.l.j.$     $ @ N s.s.h.z.z.r     A.P.P.T.R.A.    e t.t.t.t.t.#     =X=X=X=X=X=X=X=XOXXXXXXXXXXXXX=X=XXXXX",
"XX$X$X#X=X=X=X#X=X=X$X=X=X=XXXXXXX=X=X    # t.t.t.t.t.e     2 y y #.#.#.#.$.d           2 y y #.$.#.y y 2                 i.z.h..               G x.z.z.z.k.$         r z.z.l.l.z.r     D.R.T.T.R.A.    e t.t.t.t.t.#     =X=X=X=X=X=X=X=X=XXXXXXXXX=X{.{.XXXXXX",
"$X=X$X#X=X=X=X=X=X=X$XXX=X$XXXXX XXX=X    # t.t.t.t.t.e     : 2 2 P +.#.#.$.d . o o o o : 2 2 L L L 2 2 2 o o o o o       i.z.h.: # $     . # $ G s.p.p.p.i., # $     r z.l.z.z.z.r     C.D.D.F.P.}     e t.t.t.t.t.#     %XXX=X=X=X=X=XeXeX=XXXXXXXXXXXXXXX|.@X",
"$X=X=X=X=X=X=X=X=X=X$XoXoX=XXXXXXXoX=X    # t.t.t.t.t.e           t y s #.#.+.K K K K K *               + q w w w f *     i.z.l.k.k.i.    N z.z.B         . s.k.i.    r z.l.z.l.z.r         X Q ( E     e t.t.t.t.t.#     XX$X$X=X=X=X=X=XwXwX=X=X%X%XOX=XXXXXXX",
"oX$X$X=X=X=X=X=X=X=X=X=XoXoXoXXX=X=X=X    # t.t.t.t.t.e           t y s #.#.+.K K K K K *               + f q q q f *     i.z.l.l.z.i.    N z.x.N           s.z.p.    r z.l.z.z.v.r         X Q Q E     e t.t.t.t.t.#     XXXX#X=X=X%X=X=X=X=X=X=X=X%X=X%XXXXX=X",
"oX=X=X=X=X=X=X=X#X=X=X$X$X$XXX$XXX=X=X    # t.t.t.t.t.e           : 2 2 #.#.+.L L L L O.7 = =           + f q q q f *     i.z.l.l.z.i.    N z.z.H , r r r r h.z.p.    r z.z.i.:.u.:         X Q Q E     e t.t.t.t.t.#     XXXXXX=X%X=X=X=X=X=X=X%XXXXX=XXXXXXXOX",
"=X=X=X=X=X=X=X=X=X=X#X=X=X=X=X=XXXXX+X    # t.t.t.t.t.e               o #.#.#.#.#.#.#.#.$.$.$.o         + f q q q f *     i.z.l.l.z.i.    N z.l.z.z.z.z.z.z.z.z.p.    r z.x.C               X Q Q E     e t.t.t.t.t.#     =X=X%X%X%X=X=X=X=X=X%X%X=X=X%XOXOXOXXX",
"=XOX=X$X=X=X=X=X=X=X$X=X=X=X=X#X$XXXXX    # t.t.t.t.t.e               o $.$.$.$.$.$.$.$.#.#.#.o         + f q q q f *     i.v.x.x.v.i.    N v.x.x.x.x.x.x.x.x.x.s.    r v.v.C               X Q Q E     e t.t.t.t.t.#     XX=XXX%X=X=X=X=X=X=X=X=X=XXX%X%X=X=X=X",
"+XXX=X=X=X#X=X=X=X=X=X=X=XXX=XXX=XXXXX    # t.t.t.t.t.e     $ - -       8 8 0 P P P P P +.#.#.0 8 6     + f q q q f *     N C C Z Z N     : C Z Z Z Z Z Z Z Z Z B     - C C ,     * ; =     X Q Q E     e t.t.t.t.t.#     %X=XXX=X=X=X=X=X=X=XeX=X=XXX=X=X=X=X=X",
"XXXXXX%XXXXX%X=X=X=X=X=XXXXXOXOX=XXX=X    # t.t.t.t.t.e     2 u y O         @ y t t t t P $.#.$.$.+.    + f q q q f *                                                             8 f f o   X Q Q E     e t.t.t.t.t.#     XX=XXX=X=X=X=X=X=XeX=X=X=X=X=X=X=X=XXX",
"=XXXXXXXXX%X=X=X%X=X%X=X=X=XXXXX=X=X%X    # t.t.t.t.t.e     2 y t           @ u y y y y P $.#.#.#.O.    + f q q q f *                                                             7 f w o   X Q Q E     e t.t.t.t.t.#     =X=XXX=XrX=X=X=X=X=XeX=X=X=X=X=X=X=X=X",
"XXXXXXOX=XXXXX=X=X=X=X=X=X=XOX+X=X=X+X    # t.t.t.t.t.e     d P P d d d d d 8 @ + + + @ J $.#.#.#.O.    + f f f q f *     1 7 7 7 7 1     , u.u.,           :.u.G     o 8 8 *     7 f w o   X Q Q E     e t.t.t.t.t.#     =X=X=X=X=X=X=X=XwXeX=X=X=X=X=X=X=X=X=X",
"%X%X%X=X=XXXXXXXXXXX%X=XOXXXXX=X+XXX+X    # t.t.t.t.t.e     J $.$.$.$.$.$.$.d           d $.#.#.#.O.    + f f q q f *     0 f f f f 0     N v.v.B         O s.z.s.    * f f ;     7 f w o   X Q Q E     e t.t.t.t.t.#     XX=X=X=X=X=X=X=X=X=XXX=X=X=X=X=X=X=X=X",
"=X=XXX%X=XXXOXXXXXXXXX=X=X%XXX+X+X+X+X    # t.t.t.t.t.e     J $.#.#.#.#.#.$.d           d $.#.#.#.O.    + f q q q f *     0 f q q f 0     N z.x.B         . s.z.p.    * f f ;     7 f w o   X Q Q E     e t.t.t.t.t.#     %X=X=X=X=X=X%X=X=X=X=X=X=X=X=X=X=X=X=X",
"+XXXXXXXXX+XXXXXXXXXXX%XXXXXXX=X=X=X+X    # t.t.t.t.t.e     J $.#.#.#.#.#.$.O.d d d d d = o o t s t     + f q q q f *     0 q q q f 0     N z.z.s.p.p.p.p.p.k.z.p.    * f f ;     7 f w o   X Q Q E     e t.t.t.t.t.#     =X%XXX=X=X%XXX%X%X=X=X=XeX=X=X=X=X+X=X",
"XXXX=X=XXXXXXXXXXXXXXXXXXX%X+XXX=X+X=X    # t.t.t.t.t.e     J $.#.#.#.#.#.#.+.K K K K K *     2 y t     + f q q q f *     0 q q q f 0     N x.l.z.z.z.z.z.z.z.z.p.    * f f ;     7 f w o   X Q Q E     e t.t.t.t.t.#     =XXX+X=X=X%XXXXX=X=X=X=X=X=X=X=X=X=X=X",
"+XXXOXOX=XXXXX=X=X%X%XXX=X=XXXXXXX=X=X    # t.t.t.t.t.e     d O.O.+.+.#.#.#.+.K K K K K *     2 t 2     + f q q q f *     0 f q q f 0     r h.s.j.z.l.l.z.l.s.s.u.    * f f ;     7 f w .   X _ ` W     e t.t.t.t.t.#     =XXX+X+X+X=X=X=X=X=X=X=X=X=X=X=X=X=X+X",
"+X+X+X=XOXXX=XXX=X%X%X=XXX+X%XXXXX=X%X    # t.t.t.t.t.e           t y s #.#.#.#.#.O.K K *               + f q q q f *     0 f q q q 0       O   G z.l.l.z.k.#         * f f ;     7 f w o   % P.T.C.    e t.t.t.t.t.#     =XXXOXXX+XOXXX+X=X=X=X=X=X=XOX%X%X=X=X",
"=X+X=X=X+XXX=X=X=XXXXX=X=X+X=XXXXXXXXX    # t.t.t.t.t.e           t y s $.$.$.$.$.O.K L *               + f f f f f *     0 f f q f 0           G v.z.z.z.k.$         * f f ;     7 f q o   % T.E.A.    e t.t.t.t.t.#     =X%XXXXX=XXXXXXXXXXX=X=XXXXXXX%X%X%X=X",
"=X=XXXXXXX=X=X=X=X=X=X=X=X=XXXOX=X%X%X    # t.t.t.t.t.e           2 2 2 J J J J J d 0 0 +               o 8 8 8 8 8 *     6 8 8 8 8 6           B a.u.u.u.u.@         o 8 8 *     ; 8 8     X C.A.[     e t.t.t.t.t.#     %XXX=XOXOX%XXXXXXX=X=XXX%XXXXX%X%XXX%X",
"=X=XXX=X=X=X=X=X=X=X=X%X=X=XOX%X%X=X=X    # t.t.t.t.t.e                                                                                                                                                 e t.t.t.t.t.#     =XXX=XXXXXXXXXXX%X=X%X=X=X=X=XOX=X=X=X",
"=X%X%X=X=X=X=X=X=XeX=X=XXXXX%X=X=X=X=X    # t.t.t.t.y.e                                                                                                                                                 e y.t.t.t.t.#     =X=X=XXXOXOXXX%X=X%X=X%X=X=X%X%X=X=X=X",
"%X=X=X=X=X=X=X=X=X=X=X=XXXXXXX=XXX=X%X    # t.t.;.M M m e e e e e e e e e e e e e e e e e e e e e e e e e e e e e e e e e e e e e e e e e e e e e e e e e e e e e e e e e e e e e e e e e e e e e e e e m M M ;.t.t.#     =X%X=XXXXX#X=X=X%X=XXXXX=X=X=X=X=X=XwX",
"=X=X%X%X=X=X=X=X%X=X%XXX%X=XoXXXXXXX=X    # t.t.V     M y.t.t.t.t.t.t.t.t.t.t.y.t.t.t.t.t.t.t.t.t.t.t.t.t.t.t.t.t.t.t.t.t.t.t.y.t.t.t.t.t.t.t.y.t.t.t.t.t.t.t.t.t.t.t.t.t.t.t.t.t.t.t.t.t.t.t.y.t.t.t.y.M     V t.t.#     =X=X=X=X=XXX#X=X%XXXXXOXXX=X%X=X=X=X=X",
"=X=XeX=X=X=X=X=X=X=XXXXXXX%XXXXXXX=X=X    - t.y.V     M t.t.t.t.t.t.t.t.t.t.t.t.t.t.t.t.t.t.t.t.t.t.t.t.t.t.t.t.t.t.t.t.t.t.t.t.t.t.t.t.t.t.t.t.t.t.t.t.t.t.t.t.t.t.t.t.t.t.t.t.t.t.t.t.t.t.t.t.t.t.t.t.M     V y.t.-     =X=X=X%X=X=XXXXX=XOXXXXXXXOX%X=X=X%X=X",
"+X+X=X=X%XXX=XXXXX=XXXXXXXXXXXOX=XXX%X    . < < m V V ;.t.t.t.t.t.t.t.t.t.t.t.t.t.t.t.t.t.t.t.t.t.t.t.t.t.t.t.t.t.t.t.t.t.t.t.t.t.t.t.t.t.t.t.t.t.t.t.t.t.t.t.t.t.t.t.t.t.t.t.t.t.t.t.t.t.t.t.t.t.t.t.t.;.V V m < < .     =X=X=X=X=X=X=XXX%X=XXX%X%X=X=XXXXXXX=X",
"=X=X=X=X%XXX=XXXXXXX=X%XXXXXXX+X+X=X%X          < y.t.t.t.t.t.t.t.t.t.t.t.t.t.t.t.t.t.t.t.t.t.t.t.t.t.t.t.t.t.t.t.t.t.t.t.t.t.t.t.t.t.t.t.t.t.t.t.t.t.t.t.t.t.t.t.t.t.t.t.t.t.t.t.t.t.t.t.t.t.t.t.t.t.t.t.t.y.<           =X=X=X=X=X=X=XOX=X=XOXXXOX=X=X=XXXXX=X",
"=X+XXX=X=XOX=X=X+XXXXX%XXXXXXX=XOXXXXX          < t.t.t.t.t.t.t.t.t.t.t.t.t.t.t.t.t.t.t.t.t.t.t.t.t.t.t.t.t.t.t.t.t.t.t.t.t.t.t.t.t.t.t.t.t.t.t.t.t.t.t.t.t.t.t.t.t.t.t.t.t.t.t.t.t.t.t.t.t.t.t.t.t.t.t.t.t.t.<           =X=X=XeX=X=X=X=XXXOX=X=X%X=X=X%XXXXX=X",
"=X=X=X=X=XOX=X=X=XXX=XXX%X=XXXXX=X=X=X          . - # # # # # # # # # # # # # # # # # # # # # # # # # # # # # # # # # # # # # # # # # # # # # # # # # # # # # # # # # # # # # # # # # # # # # # # # # # # # - .           =X=X=X=XwX=X=X=X%XXX=X=X%X%X=XXXXX%X=X",
"=X=X=X=X%X%X=X=X=X=X=X=X=X=X=X=XXX=X=X                                                                                                                                                                                    =X=X=X=XwX=X=X%X%X=X%X%X%X=X=XOX=XOX=X",
"=XXX=X=X%X=X=X=X=XrX=X@X=X=X=X=X%X=X=X                                                                                                                                                                                    eX=X=X=XXX%X=XXXXX=X=XOXOX%X%X%X=X%X=X",
"=XXX%X=X=X=X=X=X%X=X=X=X=X=X=X=X=X=X=X=X=X=X=X=X=X=X=XrXrX=X%X=X=X=X=X=X=X=X=X=X=X$XXXoX=XXXXXXX+XXXXXXX=X%XOXXX%X=X=X=X=X=XwX=X=X=X=X=X=X=X=X=X=X=X=X+X=X=X=X$XoX=X=XXXXXXXOX+X=X=X=X=X+X+X=X=X=X=XoX=X=X=XwXeX=X=X=X=X%X=X=X=X=X%X=X=X%XXX%X=XXXXX=X=XeX=XXX=X",
"%XOX=X=X=X=X=X=XwX=XOXXXXXXX=X=X=X=X=X=X=X=X=X=X=X=X=X=X=X=X%X=XeX=X=X=X=X=X=X=X$XXXXXoX$XXXXXXX=X=XXX%X%XXXXX%X=X=X=X=X=X=X=XeX=X=X=X=X%X=X=X%X=X=X=XOXXXXX$X=X=X=X=X+XXXXXOXXX=X=X=X=X=X+X=X=X=X=X=X=X=X=X=X=X=X=X%X=XXX=X=X=X=X%XwX=X%XXX%X=X%X%X=X=XwX=X=X=X",
"=X=X=X=X=X=X=X=X=X=X=XXXXXXXXX#X=XOX=X=X=X=X=X=X=X=X=X=X=X=XwXwXwX=X=X=XrX=X=X=XXXXXXXXXXX=XXXXX%XXXXX=XXX%XOXXXXXXX=X=X=X=X=X=X=X=X=X=X=X=X=XXX%X=X=XXXXX+X=X=XXX$X=XXXoXoX=XoXXXXX=X=X=X$X=X=X=X=X=X=X=X=X=X=X=XXX%X=X=X=X%X=X%XOX=X=X=XXX=X=XXX%X=X%XOX=X=X=X",
"=X=X=X=X=X=X=X=X=X=X%XXX XXXXX=X=X%XXXwXeX=XwX=X%X=X=X=XeXeX=X=X9XwXwX=X=X=X=X=X=XOXOXXX%X=X+XOX%XXXXX=X=X=X=XXXXXoX=X=X=X=X=X=X=X=X=X=X=X=X=X=X=X=X=X=X+X=X$XXXXXXXoXoX$XoXXXoXXX=X=X=XXX#X=XXX=X=X=X=X=X=X=X=X+X=XOX=X=X=X=X=X%XOX=X=X=X=X=X=XXXXX=X=XXXXXXXOX",
"%XXX=X=X=X=XwX=X=XrX=XXXXXXX=X=X=X=X=X=XeX=X=X%X=X=X=X=X=X=X=X=X=X=XwXwXXX=XeX=X=X=X=X%X=X=XOX%XXXXXXX=XXX=X%XXXXX$XOXOX%X=X=X=X=X=X=X=X=X=X=X=X=X=X%X=X=X=X=X=X$X=X=XXX=XXXXXoX$XoX+X=X#X=X=X%X=X%X=X=X=X=X=X=X=X=X=XXX%XeX=X=X=X=X=X=X%XXXXX=XXXXX%X%XXXXXXX=X",
"XXXX=X=X=X=X=X=X=X=X=XXX=XXX%X=X=X=X=X=X=X=X=X=X=X=X=XwX=X=XwX=X=X=X=XwXeX=X=X%X%X=X=X=X=X=X=XXXXXXXXX=XXXXX=X=XXXXXXXXXXX%X=X=X=X=X=X=XwX=X=X+X=X=X=X#X=X=X=X=X=X$X=XoXXXXX=X=X=X=XOX=X#X$X$X=X=X=X=XXX+X=X=X=X=X=X=X=X=X=X=X=X=X=X=XeX%XXXXXXXXX#X=XOXXXOX=X=X",
"=X=X=X=X=X=X=X=X=X=XOXXX=X=X=X=X=XwX=X=X=X=XXX=XeXrX=X=X=X=XwX=X=X=X=X=XwX=X=X=X=X=X=X=X=X=X=X+X+XXX%X=X@XXXOXXXXXXX=XXXXXXX=X=X=X=X=X=X=X=X=X=X%X=X=X=X=X=X=XXXXX$X=X=XXXXXXX=X=X%X%X%XXX=X=X$XXX=X%X=X=X=X=X=X=X=XOX=X=XeX=X=X=X=X=X=X=XXXXXXXXXXXXX=XXXXXXX=X",
"=XXX=X=X=X%X=X%X=X=XXX%XwXwX=X=XwXwX=X=X=X=X=XeX=XeXwX=X=X%X=X=X=X=X=X=X=X=X=XwX=X=X=X=X=XoXoX=X%XXXXXXXXX%X%XXXOXXX=X=X=X%X%X=X=XOXOX%X=X=XOX=X=X=X=X=X#X=X$XXX.XXX=X=XXX=XoXXXOX%XOX=X=X#X#X=X=X#X=X%XOX=X=XXXeX=X=X=X=X=X=X=X=X=X=X=X=X#XXXXXXXXXXXOXXX%X#X%X",
"XXXXOXXXXX=X=X=X=X=X=X=X=X=X=X=XwXwX=XwX%X=XrXtXwX=X=X=XwX=X=X=X=X=X=X=X=X=X=X=X=X=X=X=X=X%XXX=X%XXXXX=X=X=X%X=XXX=X=XXX=X=X=X=X%XXX%X%X=X=X=X=X=X=X=X=X=X=X$XoX$X$X$X=X=X=X=X+XXX%X=X=X=X=XXX=X=X=X=X=X=X#X#X=XwX=X=XwX=X=X=X=XwX=XOX%X=X=X%XXXXXXXoX{.XX%X%X=X",
"XX=X=XXXXXXX=X%X=X=XeX=XwX=X=X=X=XwXwXrX=X%XeXtXeX=X=X=X=XeXeXwXwX=X=X=X=X=X=XeX=X=X=X=X=XXX=X=X%X%XXX=XXXXXXXXX#X=XXX=X=X=X=X=X=X=X@X%X=X=X=X=X=X=X=X=X=X+X=X$XXXXX#X=X=X=X=X+X=X=X=X%X#X=X=X=X=X=X+XXX#X$X=X=X=X=X=XrX=X=X=X=X=X=X%X=X=X=X=X#XXXXXXX{.XXXX=X=X",
"XX=X=XXX+XOX=X=X=XwXwX=X=X=X=X=X=XrX=X=XrX=X=X=X=X=X=X=X=XrX=X=X=X=X=X=XrX=X=X=X=X=X=X=X=X#X#X=X%X%XXXXXXX=X@XXX=XXXXX%X%X=X=X=X=X=X%XOXXX=X=X=X=X=X=X=X=X=XXX=XoX=X=X=X=X+X=X=X=X=X=XXX=X=X=X=X=X=X=XXXXX$X=X=X=X=X%XrXwX=X=XOX=X=X%X=X=X=X=X=XXXXXXXXX=XXXXXXX",
"=X=X=X=XXX=X=X=X=X=X=X=X=X=X=X=X%X=XeX=XXX=X=X=X=X=X=X=X=X=XrX=X%X=X=X=X=X=X=XXX%X=X=XeX=X=X$XXX=XXXXXXXXX+XXXXXXXXX%X=X=X=X=X=X=X=XwX=X=X=X%X%X=X=X=X=X$X=X=X=X=X=X=X=X=X=X=X=X=X=X=X#X=X#X=X=X=X=X=X=X=X=XoX=X=X$XXX=X=XeX=X=X=X%X=X=X=XXXXX=X=X=X=X%X=XXX.X=X",
"XX%X=X+X=XeXeX=X=X=X=XeX%XXXrXeX=X=X=X=XOXXX=X=XwXwX=XwX=X=X=X=X=XeX=X=XXX=X=X=X=X=X=X=X$X$X$XoXXXXX@XXXXXXX+XXXXX=X=X=X=X=X=X=X=X=X=XeXrXeXeXeX=X=X=X=XXXXX#X%X=X=X=XXX=X=X=X=X%X#X=X#X=XXX%X=X=X=X=X=XoXXX=X=X=X=X%X=X=X=X=X=X=X=X=XOX=X=X%X=X%X%X=X=X=X=X#X#X",
"+X=X=X=X=X=X=XXX=X=XXXOX=XeXwX=XeX=X=X=X=X=X=X=X=X=XeXrX=X=X=X=X=X=X=X=X%X=X=X=X=X=XXX=XXXXXXXXXXXXXXXXXXXXX=X%X=X=X=X=X=X=X%X=X=X=X=X=X=X=X=X=X=XeX=X#X#XXXXXXX=X=X=XXX%X=X=X=X%X=X=X=X=X=XXX=X=X=X=X=X=X=X=X=X=X=X=X=X=XXX=XOX=X=X=X=X=XwXeX=X%XXXXXXXXX=X%XXX",
"OXXX=X=X=X=X%X=X=X=XeX=X=XwXrX=XeX=XwXrX=X=X=X=X=X=X=X=X=X=X=X=X%X=X=X=X=X=X=XXXXXXX=X=XXXXXXXXXXXXX.XXX$XXX%X=X=XXX=X=X=X=X=X=X=X=X=X=X=X=X=X=X=X=X=X=X$X%X%XXX%X$X$X=X=X=X=X=X=X=X=X=X=X=X=X=X=X%X#X=X+X=X=X=X=X=X=X=X=X=X=XXXXX=X=X=X=X=X=X=X=X=X=X=X%X=X=X=X",
"XXXX=X=X+XOXXXXX=X=X=X=XOXwXrXwXeXrXwXeXwX=XXX=X=X=X=X=X=X=X=X=X=X=X=X=X=X=XXX=XXXXXXX=XXXXXXXXXXXXXXXXXXX=X=XXX=X%X=X=X=X=X%X=X=X=X%X=X=XeX=X%XXX=X=X=X#X#X%X%XXX#X#X=X=X%X=X=X=X=X=X=X=XwX=XXX=X=X=X=X=X+X=X=X=X=X=X=X=XwX=X%X%X=XXXXX=X=X=X=X=X=X=X=XOXXXXXXX",
"XXXXXXXXXXXX=X=XwXrXrX%XOX=XtXwXrX=XwX=X=X=X=XXXXXXX=X=X=X=X=X=X=X=X%X9X=X%X=X=X=X=X%X#X=X=XXX{..XXXXX XXXXX=X=X%X%X=X%X=X=XXX%X=XwXwXwX=X=X=X=XOX=XrXwX=XXX+XXXXX+XXXXX=XXXXX%X=X#X=X=X=X=X=XXX=X=X=X=X=X=X=X=X=X=X=X=X=X=X=XXX#X=X%X=X=X=X=X=X=X=X=X=XXX=X=X@X",
"XXXXXX XXXXX=X=X%XOXrXwX=X=XwXtXrX=X=X=X=XXX%X=X=X=X=X=XXX%X%X=XwX=XXX=XXXXXXX=X+X=X=X=X=X+XXX}.uX XXX{.XXXX=X=X=X%X=X=X=X=X=XOX%X=XwXwX=X%XwXwX=X=XwX9X=X=XXXXX+X=XXXXX=X+XOX%XXX#X=X=X$X#X=X=X=X=X=X=X=X=X=X=X=X=XeX=X=X=X=X#X#X=X=X=X%X=X=X=X=X=X=X=XXX%X=XXX",
"oXXXXXXXoXXXXXXX=X=X9XwXrX=X=XwXeX=X=X=X=X=XXX%X=X%XwX=X=X=X=X%X=X=XXXXXXX=X%X=X=X=XXXXX=X=XXX.X|..XoX XXXXX=XXX%X=X%X%X=X=X=XOXXX%X=X=X=X=XrXwX=XeX=X=X=X=X=X=X+X=X=XXXXXXXOXXXXX#XXX=X=X$X=X%X=X=XXX+X+X=X+X%X%X=XrX=X=XwX=X=X#X=X=XXX%X=X=X=X=X=X=X=X=XOX%X%X"
};
