/* XPM */
static char *b8e0056c87de4fdb98742cd15a8ff542D834OoWSoK3Czbue[] = {
/* columns rows colors chars-per-pixel */
"316 632 218 2 ",
"   c #5E320F",
".  c #5E3612",
"X  c #5E3814",
"o  c #63340F",
"O  c #6A360F",
"+  c #65380E",
"@  c #69380F",
"#  c #7D390E",
"$  c #7C370D",
"%  c #623412",
"&  c #6C3614",
"*  c #623B15",
"=  c #6C3A15",
"-  c #603719",
";  c #643A1A",
":  c #6B3D19",
">  c #713B17",
",  c #7E3B14",
"<  c #733D19",
"1  c #673E20",
"2  c #6C3D21",
"3  c #64401E",
"4  c #69421B",
"5  c #76401C",
"6  c #7F4417",
"7  c #7F5115",
"8  c #694222",
"9  c #7E4D23",
"0  c #883E0B",
"q  c #813C15",
"w  c #833E19",
"e  c #864500",
"r  c #8B4500",
"t  c #864C01",
"y  c #8A4D03",
"u  c #8D420C",
"i  c #934404",
"p  c #964B01",
"a  c #994C01",
"s  c #93430B",
"d  c #934908",
"f  c #9A4A0D",
"g  c #9B470B",
"h  c #8B5202",
"j  c #854017",
"k  c #8A4516",
"l  c #864219",
"z  c #8B451C",
"x  c #8E4A1E",
"c  c #864A19",
"v  c #9D4D12",
"b  c #9C461C",
"n  c #914C1E",
"m  c #9B481A",
"M  c #85551E",
"N  c #8B541E",
"B  c #8C581F",
"V  c #87591E",
"C  c #93521E",
"Z  c #9B541E",
"A  c #A14C15",
"S  c #A04C1D",
"D  c #A95316",
"F  c #AB551A",
"G  c #A75519",
"H  c #834522",
"J  c #8C4721",
"K  c #854B25",
"L  c #8E4A21",
"P  c #8B4D2A",
"I  c #924D22",
"U  c #934D29",
"Y  c #994D29",
"T  c #9B4924",
"R  c #845521",
"E  c #8C5423",
"W  c #8E5A22",
"Q  c #85522A",
"!  c #8D532B",
"~  c #895A27",
"^  c #965224",
"/  c #995526",
"(  c #945923",
")  c #9C5926",
"_  c #94552C",
"`  c #9C5729",
"'  c #95592D",
"]  c #9C5829",
"[  c #8C4C33",
"{  c #874E30",
"}  c #8F5732",
"|  c #8F5732",
" . c #8E5834",
".. c #945433",
"X. c #975932",
"o. c #975932",
"O. c #9F5A30",
"+. c #9D5D31",
"@. c #9E5C31",
"#. c #995536",
"$. c #A54C20",
"%. c #A35222",
"&. c #A95023",
"*. c #A05A27",
"=. c #A1572A",
"-. c #A15D2B",
";. c #A15D2E",
":. c #A25D2D",
">. c #A25B2C",
",. c #A85529",
"<. c #A25E31",
"1. c #A35E31",
"2. c #A95C30",
"3. c #89672C",
"4. c #95632D",
"5. c #8E6D32",
"6. c #996936",
"7. c #9C7D3C",
"8. c #97743B",
"9. c #8E7032",
"0. c #A6632E",
"q. c #A4612E",
"w. c #A7642F",
"e. c #A6632E",
"r. c #A8622F",
"t. c #A66231",
"y. c #A76430",
"u. c #A66233",
"i. c #A86531",
"p. c #A96532",
"a. c #A86837",
"s. c #A27C3D",
"d. c #A5753C",
"f. c #B2602E",
"g. c #9B7B43",
"h. c #9A6440",
"j. c #A37C42",
"k. c #A87746",
"l. c #AC7846",
"z. c #9D823D",
"x. c #A4833E",
"c. c #9D8344",
"v. c #A38443",
"b. c #A58946",
"n. c #A58B4B",
"m. c #AB8C4C",
"M. c #A98747",
"N. c #B4844C",
"B. c #B28B4B",
"V. c #AD8E50",
"C. c #B78B53",
"Z. c #AD9353",
"A. c #B39454",
"S. c #B59A5A",
"D. c #BB9C5C",
"F. c #B89657",
"G. c #AE914E",
"H. c #BBA15D",
"J. c #BB8C64",
"K. c #B68669",
"L. c #BF8F6B",
"P. c #BF8F6B",
"I. c #B78764",
"U. c #B99B62",
"Y. c #B58676",
"T. c #BB8C74",
"R. c #B78779",
"E. c #B58A79",
"W. c #B88D7B",
"Q. c #BA8575",
"!. c #BD937B",
"~. c #BD937B",
"^. c #BE9B71",
"/. c #BDA462",
"(. c #BBA968",
"). c #C2995C",
"_. c #C18F6C",
"`. c #C0906C",
"'. c #C39964",
"]. c #C08D78",
"[. c #C99E7B",
"{. c #C2A464",
"}. c #C4AC6A",
"|. c #CAAC6B",
" X c #C5A866",
".X c #C7B16D",
"XX c #CBAD75",
"oX c #CBB576",
"OX c #D2B679",
"+X c #D1AE74",
"@X c #C0A25C",
"#X c #CAB887",
"$X c #D4B98C",
"%X c #E3C496",
"&X c #D6C6A3",
"*X c #E4CCA7",
"=X c #DAC191",
"-X c #EEF3DF",
";X c #EEF1EF",
":X c LightYellow",
">X c #F1F2EF",
",X c #FFFDEC",
"<X c #EEEFF1",
"1X c #FCE8F1",
"2X c #FDE9F3",
"3X c #F2EEFD",
"4X c #FFECF9",
"5X c #FBE7F0",
"6X c #EEF1F6",
"7X c #EEF1F6",
"8X c #EEF0FF",
"9X c #F2F4F4",
"0X c #F6FDF5",
"qX c #FFFFF6",
"wX c #FDFEF4",
"eX c #F3F3FE",
"rX c #FBFCFE",
"tX c #FCFDFE",
/* pixels */
"rX6XL.v } ' F X.] ] ] ` ` ` / / ( ] ` ' + * X ; ;.] / ] ] ` / ] ] ] ] ] ] ] ] ] ] ] ] ] ] ] ] ] ] ] ] ] ] ] ] ] ] ] ] ] ] ] ] ] ] ] ] ] ] ] ] ] ] ] ] ] ] ] ] ] ] ] ] ] ] ] ] ] ] ] ] ] ] ] ] ] ] ] ] ] ] ] ] ] ] ] ] ] ] ] ] ] ] ] ] ] ] ] ] ] ] ] ] ] ] ] ] ] ] ] ] ] ] ] ] ] ] ] ] ] ] ] ] ] ] ] ] ] ] ] ] ] ] ] ] ] ] ] ] ] ] ] ] ] ] ] ] ] ] ] ] ] ] ] ] ] ] ] ] ] ] ] ] ] ] ] ] ] ] ] ] ] ] ] ] ] ] ] ] ] ] ] ] ] ] ] ] ] ] ] ] ] ] ] ] ] ] ] ] ] ] ] ] ] ] ] ] ] ] ] ] ] ] ] ] ] ] ] ] ] ] ] ] ] ] ] ] ] ] ] ] ] ] ] ] ] ] ] ] ] ] ] ] ] ] ] ] ] ] ] ] ] ] ] ] ] ] ] ] ] ] ] ] ] ] ] ] ] ) ` +._ < % ; - / / ] ] ` ` ` ] ` ` ` ` ` ` ` ` h !.1XqX",
"rX6XL.v } ' F X.] ] ] ` ` ` / / ( ] ` ' + * X ; ;.] / ] ] ` / ] ] ] ] ] ] ] ] ] ] ] ] ] ] ] ] ] ] ] ] ] ] ] ] ] ] ] ] ] ] ] ] ] ] ] ] ] ] ] ] ] ] ] ] ] ] ] ] ] ] ] ] ] ] ] ] ] ] ] ] ] ] ] ] ] ] ] ] ] ] ] ] ] ] ] ] ] ] ] ] ] ] ] ] ] ] ] ] ] ] ] ] ] ] ] ] ] ] ] ] ] ] ] ] ] ] ] ] ] ] ] ] ] ] ] ] ] ] ] ] ] ] ] ] ] ] ] ] ] ] ] ] ] ] ] ] ] ] ] ] ] ] ] ] ] ] ] ] ] ] ] ] ] ] ] ] ] ] ] ] ] ] ] ] ] ] ] ] ] ] ] ] ] ] ] ] ] ] ] ] ] ] ] ] ] ] ] ] ] ] ] ] ] ] ] ] ] ] ] ] ] ] ] ] ] ] ] ] ] ] ] ] ] ] ] ] ] ] ] ] ] ] ] ] ] ] ] ] ] ] ] ] ] ] ] ] ] ] ] ] ] ] ] ] ] ] ] ] ] ] ] ] ] ] ] ] ] ) ` +._ < % ; - / / ] ] ` ` ` ] ` ` ` ` ` ` ` ` h !.1XqX",
"rX6XL.v } ' F X.] ] ] ` ` ` / / ( ] ` ' + * X ; ;.] / ] ] ` / ] ] ] ] ] ] ] ] ] ] ] ] ] ] ] ] ] ] ] ] ] ] ] ] ] ] ] ] ] ] ] ] ] ] ] ] ] ] ] ] ] ] ] ] ] ] ] ] ] ] ] ] ] ] ] ] ] ] ] ] ] ] ] ] ] ] ] ] ] ] ] ] ] ] ] ] ] ] ] ] ] ] ] ] ] ] ] ] ] ] ] ] ] ] ] ] ] ] ] ] ] ] ] ] ] ] ] ] ] ] ] ] ] ] ] ] ] ] ] ] ] ] ] ] ] ] ] ] ] ] ] ] ] ] ] ] ] ] ] ] ] ] ] ] ] ] ] ] ] ] ] ] ] ] ] ] ] ] ] ] ] ] ] ] ] ] ] ] ] ] ] ] ] ] ] ] ] ] ] ] ] ] ] ] ] ] ] ] ] ] ] ] ] ] ] ] ] ] ] ] ] ] ] ] ] ] ] ] ] ] ] ] ] ] ] ] ] ] ] ] ] ] ] ] ] ] ] ] ] ] ] ] ] ] ] ] ] ] ] ] ] ] ] ] ] ] ] ] ] ] ] ] ] ] ] ] ] ) ` +._ < % ; - / / ] ] ` ` ` ] ` ` ` ` ` ` ` ` h !.1XqX",
"rX6XL.v } ' F X.] ] ] ` ` ` / / ( ] ` ' + * X ; ;.] / ] ] ` / ] ] ] ] ] ] ] ] ] ] ] ] ] ] ] ] ] ] ] ] ] ] ] ] ] ] ] ] ] ] ] ] ] ] ] ] ] ] ] ] ] ] ] ] ] ] ] ] ] ] ] ] ] ] ] ] ] ] ] ] ] ] ] ] ] ] ] ] ] ] ] ] ] ] ] ] ] ] ] ] ] ] ] ] ] ] ] ] ] ] ] ] ] ] ] ] ] ] ] ] ] ] ] ] ] ] ] ] ] ] ] ] ] ] ] ] ] ] ] ] ] ] ] ] ] ] ] ] ] ] ] ] ] ] ] ] ] ] ] ] ] ] ] ] ] ] ] ] ] ] ] ] ] ] ] ] ] ] ] ] ] ] ] ] ] ] ] ] ] ] ] ] ] ] ] ] ] ] ] ] ] ] ] ] ] ] ] ] ] ] ] ] ] ] ] ] ] ] ] ] ] ] ] ] ] ] ] ] ] ] ] ] ] ] ] ] ] ] ] ] ] ] ] ] ] ] ] ] ] ] ] ] ] ] ] ] ] ] ] ] ] ] ] ] ] ] ] ] ] ] ] ] ] ] ] ] ] ) ` +._ < % ; X / / ] ] ` ` ` ] ` ` ` ` ` ` ` ` h !.1XqX",
"rX6XL.v } ' F X.] ] ] ` ` ` / / ( -.` ' + * X ; ;.] / ] ] ` / ] ] ] ] ] ] ] ] ] ] ] ] ] ] ] ] ] ] ] ] ] ] ] ] ] ] ] ] ] ] ] ] ] ] ] ] ] ] ] ] ] ] ] ] ] ] ] ] ] ] ] ] ] ] ] ] ] ] ] ] ] ] ] ] ] ] ] ] ] ] ] ] ] ] ] ] ] ] ] ] ] ] ] ] ] ] ] ] ] ] ] ] ] ] ] ] ] ] ] ] ] ] ] ] ] ] ] ] ] ] ] ] ] ] ] ] ] ] ] ] ] ] ] ] ] ] ] ] ] ] ] ] ] ] ] ] ] ] ] ] ] ] ] ] ] ] ] ] ] ] ] ] ] ] ] ] ] ] ] ] ] ] ] ] ] ] ] ] ] ] ] ] ] ] ] ] ] ] ] ] ] ] ] ] ] ] ] ] ] ] ] ] ] ] ] ] ] ] ] ] ] ] ] ] ] ] ] ] ] ] ] ] ] ] ] ] ] ] ] ] ] ] ] ] ] ] ] ] ] ] ] ] ] ] ] ] ] ] ] ] ] ] ] ] ] ] ] ] ] ] ] ] ] ] ] ] ] ) ` +._ < % ; - / / ] ] ` ` ` ] ` ` ` ` ` ` ` ` h !.1XqX",
"rX6XL.v ..' F X.] ] ] ` ` ` / / ( -.` ' + * X ; ;.] / ] ] ` / ] ] ] ] ] ] ] ] ] ] ] ] ] ] ] ] ] ] ] ] ] ] ] ] ] ] ] ] ] ] ] ] ] ] ] ] ] ] ] ] ] ] ] ] ] ] ] ] ] ] ] ] ] ] ] ] ] ] ] ] ] ] ] ] ] ] ] ] ] ] ] ] ] ] ] ] ] ] ] ] ] ] ] ] ] ] ] ] ] ] ] ] ] ] ] ] ] ] ] ] ] ] ] ] ] ] ] ] ] ] ] ] ] ] ] ] ] ] ] ] ] ] ] ] ] ] ] ] ] ] ] ] ] ] ] ] ] ] ] ] ] ] ] ] ] ] ] ] ] ] ] ] ] ] ] ] ] ] ] ] ] ] ] ] ] ] ] ] ] ] ] ] ] ] ] ] ] ] ] ] ] ] ] ] ] ] ] ] ] ] ] ] ] ] ] ] ] ] ] ] ] ] ] ] ] ] ] ] ] ] ] ] ] ] ] ] ] ] ] ] ] ] ] ] ] ] ] ] ] ] ] ] ] ] ] ] ] ] ] ] ] ] ] ] ] ] ] ] ] ] ] ] ] ] ] ] ] ) ` +._ < % ; - / / ] ] ` ` ` ] ` ` ` ` ` ` ` ` h !.1XqX",
"rX6X`.v } ' F X.] ] ] ` ` ` / / ( -.` ' + * X ; ;.] / ] ] ` / ] ] ] ] ] ] ] ] ] ] ] ] ] ] ] ] ] ] ] ] ] ] ] ] ] ] ] ] ] ] ] ] ] ] ] ] ] ] ] ] ] ] ] ] ] ] ] ] ] ] ] ] ] ] ] ] ] ] ] ] ] ] ] ] ] ] ] ] ] ] ] ] ] ] ] ] ] ] ] ] ] ] ] ] ] ] ] ] ] ] ] ] ] ] ] ] ] ] ] ] ] ] ] ] ] ] ] ] ] ] ] ] ] ] ] ] ] ] ] ] ] ] ] ] ] ] ] ] ] ] ] ] ] ] ] ] ] ] ] ] ] ] ] ] ] ] ] ] ] ] ] ] ] ] ] ] ] ] ] ] ] ] ] ] ] ] ] ] ] ] ] ] ] ] ] ] ] ] ] ] ] ] ] ] ] ] ] ] ] ] ] ] ] ] ] ] ] ] ] ] ] ] ] ] ] ] ] ] ] ] ] ] ] ] ] ] ] ] ] ] ] ] ] ] ] ] ] ] ] ] ] ] ] ] ] ] ] ] ] ] ] ] ] ] ] ] ] ] ] ] ] ] ] ] ] ] ] ) ` +._ < % ; - / / ] ] ` ` ` ] ` ` ` ` ` ` ` ` h !.1XqX",
"rX6XL.v } ' F X.] ] ] ` ` ` / / ( ] ` ' + * X ; ;.] / ] ] ` / ] ] ] ] ] ] ] ] ] ] ] ] ] ] ] ] ] ] ] ] ] ] ] ] ] ] ] ] ] ] ] ] ] ] ] ] ] ] ] ] ] ] ] ] ] ] ] ] ] ] ] ] ] ] ] ] ] ] ] ] ] ] ] ] ] ] ] ] ] ] ] ] ] ] ] ] ] ] ] ] ] ] ] ] ] ] ] ] ] ] ] ] ] ] ] ] ] ] ] ] ] ] ] ] ] ] ] ] ] ] ] ] ] ] ] ] ] ] ] ] ] ] ] ] ] ] ] ] ] ] ] ] ] ] ] ] ] ] ] ] ] ] ] ] ] ] ] ] ] ] ] ] ] ] ] ] ] ] ] ] ] ] ] ] ] ] ] ] ] ] ] ] ] ] ] ] ] ] ] ] ] ] ] ] ] ] ] ] ] ] ] ] ] ] ] ] ] ] ] ] ] ] ] ] ] ] ] ] ] ] ] ] ] ] ] ] ] ] ] ] ] ] ] ] ] ] ] ] ] ] ] ] ] ] ] ] ] ] ] ] ] ] ] ] ] ] ] ] ] ] ] ] ] ] ] ] ] ) ` +._ < % ; - / / ] ] ` ` ` ] ` ` ` ` ` ` ` ` h !.1XqX",
"rX6XL.v } ' F X.] ] ] ` ` ` / / ( ] ` ' + * X ; ;.] / ] ] ` / ] ] ] ] ] ] ] ] ] ] ] ] ] ] ] ] ] ] ] ] ] ] ] ] ] ] ] ] ] ] ] ] ] ] ] ] ] ] ] ] ] ] ] ] ] ] ] ] ] ] ] ] ] ] ] ] ] ] ] ] ] ] ] ] ] ] ] ] ] ] ] ] ] ] ] ] ] ] ] ] ] ] ] ] ] ] ] ] ] ] ] ] ] ] ] ] ] ] ] ] ] ] ] ] ] ] ] ] ] ] ] ] ] ] ] ] ] ] ] ] ] ] ] ] ] ] ] ] ] ] ] ] ] ] ] ] ] ] ] ] ] ] ] ] ] ] ] ] ] ] ] ] ] ] ] ] ] ] ] ] ] ] ] ] ] ] ] ] ] ] ] ] ] ] ] ] ] ] ] ] ] ] ] ] ] ] ] ] ] ] ] ] ] ] ] ] ] ] ] ] ] ] ] ] ] ] ] ] ] ] ] ] ] ] ] ] ] ] ] ] ] ] ] ] ] ] ] ] ] ] ] ] ] ] ] ] ] ] ] ] ] ] ] ] ] ] ] ] ] ] ] ] ] ] ] ] ] ) ` +._ < % ; - / / ] ] ` ` ` ] ` ` ` ` ` ` ` ` h !.1XqX",
"rX6XL.v } ' F X.] ] ] ` ` ` / / ( ] ` ' + * X ; ;.] / ] ] ` / ] ] ] ] ] ] ] ] ] ] ] ] ] ] ] ] ] ] ] ] ] ] ] ] ] ] ] ] ] ] ] ] ] ] ] ] ] ] ] ] ] ] ] ] ] ] ] ] ] ] ] ] ] ] ] ] ] ] ] ] ] ] ] ] ] ] ] ] ] ] ] ] ] ] ] ] ] ] ] ] ] ] ] ] ] ] ] ] ] ] ] ] ] ] ] ] ] ] ] ] ] ] ] ] ] ] ] ] ] ] ] ] ] ] ] ] ] ] ] ] ] ] ] ] ] ] ] ] ] ] ] ] ] ] ] ] ] ] ] ] ] ] ] ] ] ] ] ] ] ] ] ] ] ] ] ] ] ] ] ] ] ] ] ] ] ] ] ] ] ] ] ] ] ] ] ] ] ] ] ] ] ] ] ] ] ] ] ] ] ] ] ] ] ] ] ] ] ] ] ] ] ] ] ] ] ] ] ] ] ] ] ] ] ] ] ] ] ] ] ] ] ] ] ] ] ] ] ] ] ] ] ] ] ] ] ] ] ] ] ] ] ] ] ] ] ] ] ] ] ] ] ] ] ] ] ] ] ) ` +._ < % ; - / / ] ] ` ` ` ] ` ` ` ` ` ` ` ` h !.1XqX",
"rX6XL.v ..' F X.] ] ] ` ` ` / / ( ] ` ' + * X ; ;.] / ] ] ` / ] ] ] ] ] ] ] ] ] ] ] ] ] ] ] ] ] ] ] ] ] ] ] ] ] ] ] ] ] ] ] ] ] ] ] ] ] ] ] ] ] ] ] ] ] ] ] ] ] ] ] ] ] ] ] ] ] ] ] ] ] ] ] ] ] ] ] ] ] ] ] ] ] ] ] ] ] ] ] ] ] ] ] ] ] ] ] ] ] ] ] ] ] ] ] ] ] ] ] ] ] ] ] ] ] ] ] ] ] ] ] ] ] ] ] ] ] ] ] ] ] ] ] ] ] ] ] ] ] ] ] ] ] ] ] ] ] ] ] ] ] ] ] ] ] ] ] ] ] ] ] ] ] ] ] ] ] ] ] ] ] ] ] ] ] ] ] ] ] ] ] ] ] ] ] ] ] ] ] ] ] ] ] ] ] ] ] ] ] ] ] ] ] ] ] ] ] ] ] ] ] ] ] ] ] ] ] ] ] ] ] ] ] ] ] ] ] ] ] ] ] ] ] ] ] ] ] ] ] ] ] ] ] ] ] ] ] ] ] ] ] ] ] ] ] ] ] ] ] ] ] ] ] ] ] ] ] ) ` +._ < % ; - / / ] ] ` ` ` ] ` ` ` ` ` ` ` ` h !.1XqX",
"rX6XL.v ..' F X.] ] ] ` ` ` / / ( ] ` ' + * X ; ;.] / ] ] ` / ] ] ] ] ] ] ] ] ] ] ] ] ] ] ] ] ] ] ] ] ] ] ] ] ] ] ] ] ] ] ] ] ] ] ] ] ] ] ] ] ] ] ] ] ] ] ] ] ] ] ] ] ] ] ] ] ] ] ] ] ] ] ] ] ] ] ] ] ] ] ] ] ] ] ] ] ] ] ] ] ] ] ] ] ] ] ] ] ] ] ] ] ] ] ] ] ] ] ] ] ] ] ] ] ] ] ] ] ] ] ] ] ] ] ] ] ] ] ] ] ] ] ] ] ] ] ] ] ] ] ] ] ] ] ] ] ] ] ] ] ] ] ] ] ] ] ] ] ] ] ] ] ] ] ] ] ] ] ] ] ] ] ] ] ] ] ] ] ] ] ] ] ] ] ] ] ] ] ] ] ] ] ] ] ] ] ] ] ] ] ] ] ] ] ] ] ] ] ] ] ] ] ] ] ] ] ] ] ] ] ] ] ] ] ] ] ] ] ] ] ] ] ] ] ] ] ] ] ] ] ] ] ] ] ] ] ] ] ] ] ] ] ] ] ] ] ] ] ] ] ] ] ] ] ] ] ] ) ` +._ < % ; - / / ] ] ` ` ` ] ` ` ` ` ` ` ` ` h !.1XqX",
"rX6XL.v } ' F X.] ] ] ` ` ` / / ( -.` ' + * X ; ;.] / ] ] ` / ] ] ] ] ] ] ] ] ] ] ] ] ] ] ] ] ] ] ] ] ] ] ] ] ] ] ] ] ] ] ] ] ] ] ] ] ] ] ] ] ] ] ] ] ] ] ] ] ] ] ] ] ] ] ] ] ] ] ] ] ] ] ] ] ] ] ] ] ] ] ] ] ] ] ] ] ] ] ] ] ] ] ] ] ] ] ] ] ] ] ] ] ] ] ] ] ] ] ] ] ] ] ] ] ] ] ] ] ] ] ] ] ] ] ] ] ] ] ] ] ] ] ] ] ] ] ] ] ] ] ] ] ] ] ] ] ] ] ] ] ] ] ] ] ] ] ] ] ] ] ] ] ] ] ] ] ] ] ] ] ] ] ] ] ] ] ] ] ] ] ] ] ] ] ] ] ] ] ] ] ] ] ] ] ] ] ] ] ] ] ] ] ] ] ] ] ] ] ] ] ] ] ] ] ] ] ] ] ] ] ] ] ] ] ] ] ] ] ] ] ] ] ] ] ] ] ] ] ] ] ] ] ] ] ] ] ] ] ] ] ] ] ] ] ] ] ] ] ] ] ] ] ] ] ] ] ] ) ` +._ < % ; - / / ] ] ` ` ` ] ` ` ` ` ` ` ` ` h !.1XqX",
"rX6XL.v } ' F X.] ] ] ` ` ` / / ( ] ` ' + * X ; ;.] / ] ] ` / ] ] ] ] ] ] ] ] ] ] ] ] ] ] ] ] ] ] ] ] ] ] ] ] ] ] ] ] ] ] ] ] ] ] ] ] ] ] ] ] ] ] ] ] ] ] ] ] ] ] ] ] ] ] ] ] ] ] ] ] ] ] ] ] ] ] ] ] ] ] ] ] ] ] ] ] ] ] ] ] ] ] ] ] ] ] ] ] ] ] ] ] ] ] ] ] ] ] ] ] ] ] ] ] ] ] ] ] ] ] ] ] ] ] ] ] ] ] ] ] ] ] ] ] ] ] ] ] ] ] ] ] ] ] ] ] ] ] ] ] ] ] ] ] ] ] ] ] ] ] ] ] ] ] ] ] ] ] ] ] ] ] ] ] ] ] ] ] ] ] ] ] ] ] ] ] ] ] ] ] ] ] ] ] ] ] ] ] ] ] ] ] ] ] ] ] ] ] ] ] ] ] ] ] ] ] ] ] ] ] ] ] ] ] ] ] ] ] ] ] ] ] ] ] ] ] ] ] ] ] ] ] ] ] ] ] ] ] ] ] ] ] ] ] ] ] ] ] ] ] ] ] ] ] ] ] ] ) ` +._ < % ; - / / ] ] ` ` ` ] ` ` ` ` ` ` ` ` h !.1XqX",
"rX6XL.v } ' F X.] ] ] ` ` ` / / ( -.` ' + * X ; ;.] / ] ] ` / ] ] ] ] ] ] ] ] ] ] ] ] ] ] ] ] ] ] ] ] ] ] ] ] ] ] ] ] ] ] ] ] ] ] ] ] ] ] ] ] ] ] ] ] ] ] ] ] ] ] ] ] ] ] ] ] ] ] ] ] ] ] ] ] ] ] ] ] ] ] ] ] ] ] ] ] ] ] ] ] ] ] ] ] ] ] ] ] ] ] ] ] ] ] ] ] ] ] ] ] ] ] ] ] ] ] ] ] ] ] ] ] ] ] ] ] ] ] ] ] ] ] ] ] ] ] ] ] ] ] ] ] ] ] ] ] ] ] ] ] ] ] ] ] ] ] ] ] ] ] ] ] ] ] ] ] ] ] ] ] ] ] ] ] ] ] ] ] ] ] ] ] ] ] ] ] ] ] ] ] ] ] ] ] ] ] ] ] ] ] ] ] ] ] ] ] ] ] ] ] ] ] ] ] ] ] ] ] ] ] ] ] ] ] ] ] ] ] ] ] ] ] ] ] ] ] ] ] ] ] ] ] ] ] ] ] ] ] ] ] ] ] ] ] ] ] ] ] ] ] ] ] ] ] ] ] ] ) ` +._ < % ; - / / ] ] ` ` ` ] ` ` ` ` ` ` ` ` h !.1XqX",
"rX6XL.v } ' F X.] ] ] ` ` ` / / ( -.` ' + * X ; ;.] / ] ] ` / ] ] ] ] ] ] ] ] ] ] ] ] ] ] ] ] ] ] ] ] ] ] ] ] ] ] ] ] ] ] ] ] ] ] ] ] ] ] ] ] ] ] ] ] ] ] ] ] ] ] ] ] ] ] ] ] ] ] ] ] ] ] ] ] ] ] ] ] ] ] ] ] ] ] ] ] ] ] ] ] ] ] ] ] ] ] ] ] ] ] ] ] ] ] ] ] ] ] ] ] ] ] ] ] ] ] ] ] ] ] ] ] ] ] ] ] ] ] ] ] ] ] ] ] ] ] ] ] ] ] ] ] ] ] ] ] ] ] ] ] ] ] ] ] ] ] ] ] ] ] ] ] ] ] ] ] ] ] ] ] ] ] ] ] ] ] ] ] ] ] ] ] ] ] ] ] ] ] ] ] ] ] ] ] ] ] ] ] ] ] ] ] ] ] ] ] ] ] ] ] ] ] ] ] ] ] ] ] ] ] ] ] ] ] ] ] ] ] ] ] ] ] ] ] ] ] ] ] ] ] ] ] ] ] ] ] ] ] ] ] ] ] ] ] ] ] ] ] ] ] ] ] ] ] ] ] ] ) ` +._ < % ; - / / ] ] ` ` ` ] ` ` ` ` ` ` ` ` h !.1XqX",
"rX6X`.v } ' F X.] ] ] ` ` ` / / ( ] ` ' + * X ; ;.] / ] ] ` / ] ] ] ] ] ] ] ] ] ] ] ] ] ] ] ] ] ] ] ] ] ] ] ] ] ] ] ] ] ] ] ] ] ] ] ] ] ] ] ] ] ] ] ] ] ] ] ] ] ] ] ] ] ] ] ] ] ] ] ] ] ] ] ] ] ] ] ] ] ] ] ] ] ] ] ] ] ] ] ] ] ] ] ] ] ] ] ] ] ] ] ] ] ] ] ] ] ] ] ] ` ` / / / / ` ` ] ] ] ] ] ] ] ] ] ] ] ` ` ] ] ] ] ] ] ] ] / / ` ` ] ] ] ] ` ` / / / ` ] ] / / ` ] ] ] ` ` ] ] ] ] ] ] ] ] ] ] ] ] ] ] ] ] ] ] ] ] ] ] ] ] ] ] ] ] ] ] ] ] ] ] ] ] ] ] ] ] ] ] ] ] ] ] ] ] ] ] ] ] ] ] ] ] ] ] ] ] ] ] ] ] ] ] ] ] ] ] ] ] ] ] ] ] ] ] ] ] ] ] ] ] ] ] ] ] ] ] ] ] ] ] ] ] ] ] ] ] ] ] ] ] ) ` +._ < % ; - / / ] ] ` ` ` ] ` ` ` ` ` ` ` ` h !.1XqX",
"rX6X`.v } ' F X.] ] ] ` ` ` / / ( ] ` ' + * X ; ;.] / ] ] ` / ] ] ] ] ] ] ] ] ] ] ] ] ] ] ] ] ] ] ] ] ] ] ] ] ] ] ] ] ] ] ] ] ] ] ] ] ] ] ] ] ] ] ] ] ] ] ] ] ] ] ] ] ] ] ] ] ] ] ] ] ] ] ] ] ] ] ] ] ] ] ] ] ] ] ] ] ] ] ] ] ] ] ] ] ] ] ] ] ] ] ] ] ] ] ] ] ] / / ` ` ] ] ] ] ] ] ] ] ] ` ` ` ] ] ] ] ] ] ] ] / / / / / / / / ] ] ] ] ] ] ] ] ] ] ] ` / / / / ] ] ] ] ] ` ` ` ] ] ] ] ] ] ] ] ] ] ] ] ] ] ] ] ] ] ] ] ] ] ] ] ] ] ] ] ] ] ] ] ] ] ] ] ] ] ] ] ] ] ] ] ] ] ] ] ] ] ] ] ] ] ] ] ] ] ] ] ] ] ] ] ] ] ] ] ] ] ] ] ] ] ] ] ] ] ] ] ] ] ] ] ] ] ] ] ] ] ] ] ] ] ] ] ] ] ] ] ] ] ] ] ) ` +._ < % ; - / / ] ] ` ` ` ] ` ` ` ` ` ` ` ` h !.1XqX",
"rX6XL.v } ' F X.] ] ] ` ` ` / / ( -.` ' + * X ; ;.] / ] ] ` / ] ] ] ] ] ] ] ] ] ] ] ] ] ] ] ] ] ] ] ] ] ] ] ] ] ] ] ] ] ] ] ] ] ] ] ] ] ] ] ] ] ] ] ] ] ] ] ] ] ] ] ] ] ] ] ] ] ] ] ] ] ] ] ] ] ] ] ] ] ] ] ] ] ] ] ] ] ] ] ] ] ] ] ] ] ] ] ] ] ] ] ] ] ] ] ] ] ] ] ] ] ] ] ] ] ] ] ] ] ] ` ` ` ] ] ] ] ] ] ] ] ` ` ` ` ` ` ` ` ] ] ] ] ` ` ` ` / / / ` ] ] ] ] ] ] ` / / / ` ] ] ] ] ] ] ] ] ] ] ] ] ] ] ] ] ] ] ] ] ] ] ] ] ] ] ] ] ] ] ] ] ] ] ] ] ] ] ] ] ] ] ] ] ] ] ] ] ] ] ] ] ] ] ] ] ] ] ] ] ] ] ] ] ] ] ] ] ] ] ] ] ] ] ] ] ] ] ] ] ] ] ] ] ] ] ] ] ] ] ] ] ] ] ] ] ] ] ] ] ] ] ] ] ] ) ` +._ < % ; - / / ] ] ` ` ` ] ` ` ` ` ` ` ` ` h !.1XqX",
"rX6XL.v } ' F X.] ] ] ` ` ` / / ( -.` ' + * X ; ;.] / ] ] ` / ] ] ] ] ] ] ] ] ] ] ] ] ] ] ] ] ] ] ] ] ] ] ] ] ] ] ] ] ] ] ] ] ] ] ] ] ] ] ] ] ] ] ] ] ] ] ] ] ] ] ] ] ] ] ] ] ] ] ] ] ] ] ] ] ] ] ] ] ] ] ] ] ] ] ] ] ] ] ] ] ] ] ] ] ] ] ] ] ] ] ] ] ] ] ] ] ] ] ] ] ] ] ` ` / ` ` ` ` ] ] ] ] ;.] ] ] ] ] ] ] ` ` ` ` ` ` ` ` ` ` ] ] ] ] ] ] ` ` ` ] ] ] ] ` / ^ ^ ^ / / ] ] ] ] ] ] ] ] ] ] ] ] ] ] ] ] ] ] ] ] ] ] ] ] ] ] ] ] ] ] ] ] ] ] ] ] ] ] ] ] ] ] ] ] ] ] ] ] ] ] ] ] ] ] ] ] ] ] ] ] ] ] ] ] ] ] ] ] ] ] ] ] ] ] ] ] ] ] ] ] ] ] ] ] ] ] ] ] ] ] ] ] ] ] ] ] ] ] ] ] ] ] ] ] ] ] ) ` +._ < % ; - / / ] ] ` ` ` ] ` ` ` ` ` ` ` ` h !.1XqX",
"rX6XL.v } ' F X.] ] ] ` ` ` / / ( -.` ' + * X ; ;.] / ] ] ` / ] ] ] ] ] ] ] ] ] ] ] ] ] ] ] ] ] ] ] ] ] ] ] ] ] ] ] ] ] ] ] ] ] ] ] ] ] ] ] ] ] ] ] ] ] ] ] ] ] ] ] ] ] ] ] ] ] ] ] ] ] ] ] ] ] ] ] ] ] ] ] ] ] ] ] ] ] ] ] ] ] ] ] ] ] ] ] ] ] ] ] ] ] ] ] ] ] ] ] ] ] ] ] ] ] ` ] ] ] ] ] ] ] <.O.] ` ` / ^ ^ I I I I I I I I ^ ^ ^ ` ` ] ] ] <.<.<.O.] ` / ^ ` / / / / ` ` ] ] ] ] ] ] ] ] ] ] ] ] ] ] ] ] ] ] ] ] ] ] ] ] ] ] ] ] ] ] ] ] ] ] ] ] ] ] ] ] ] ] ] ] ] ] ] ] ] ] ] ] ] ] ] ] ] ] ] ] ] ] ] ] ] ] ] ] ] ] ] ] ] ] ] ] ] ] ] ] ] ] ] ] ] ] ] ] ] ] ] ] ] ] ] ] ] ] ] ] ] ] ] ] ] ) ` +._ < % ; - / / ] ] ` ` ` ] ` ` ` ` ` ` ` ` h !.1XqX",
"rX6XL.v } ' F X.] ] ] ` ` ` / / ( -.` ' + * X ; ;.] / ] ] ` / ] ] ] ] ] ] ] ] ] ] ] ] ] ] ] ] ] ] ] ] ] ] ] ] ] ] ] ] ] ] ] ] ] ] ] ] ] ] ] ] ] ] ] ] ] ] ] ] ] ] ] ] ] ] ] ] ] ] ] ] ] ] ] ] ] ] ] ] ] ] ] ] ] ] ] ] ] ] ] ] ] ] ] ] ] ] ] ] ] ] ] ] ] ] ] ] ] / / / / ] ] ] ] O.] ] ` / ^ ^ U I L L z z z l l j j j j j j j j j l l z z x x L ^ ^ / ` ] ] ] ] ;.;.;.;.] ] ` / ] ] ] ] ] ] ] ] ] ] ] ] ] ] ] ] ] ] ] ] ] ] ] ] ] ] ] ] ] ] ] ] ] ] ] ] ] ] ] ] ] ] ] ] ] ] ] ] ] ] ] ] ] ] ] ] ] ] ] ] ] ] ] ] ] ] ] ] ] ] ] ] ] ] ] ] ] ] ] ] ] ] ] ] ] ] ] ] ] ] ] ] ] ] ] ] ] ] ] ] ] ] ] ] ) ` +._ < % ; - / / ] ] ` ` ` ] ` ` ` ` ` ` ` ` h !.1XqX",
"rX6XL.v } ' F X.] ] ] ` ` ` / / ( ] ` ' + * X ; ;.] / ] ] ` / ] ] ] ] ] ] ] ] ] ] ] ] ] ] ] ] ] ] ] ] ] ] ] ] ] ] ] ] ] ] ] ] ] ] ] ] ] ] ] ] ] ] ] ] ] ] ] ] ] ] ] ] ] ] ] ] ] ] ] ] ] ] ] ] ] ] ] ] ] ] ] ] ] ] ] ] ] ] ] ] ] ] ] ] ] ] ] ] ] ] ] ] ] ] ] ] ] / / / / / / / / ^ U I L z z l l q q q q q q q q q q q q q q q q q q q q q q q q q l l z I ^ ` ] / ` ] ;.;.] ] / ] ] ] ] ] ] ] ] ] ] ] ] ] ] ] ] ] ] ] ] ] ] ] ] ] ] ] ] ] ] ] ] ] ] ] ] ] ] ] ] ] ] ] ] ] ] ] ] ] ] ] ] ] ] ] ] ] ] ] ] ] ] ] ] ] ] ] ] ] ] ] ] ] ] ] ] ] ] ] ] ] ] ] ] ] ] ] ] ] ] ] ] ] ] ] ] ] ] ] ] ] ] ] ] ) ` +._ < % ; - / / ] ] ` ` ` ] ` ` ` ` ` ` ` ` h !.1XqX",
"rX6XL.v } ' F X.] ] ] ` ` ` / / ( ] ` ' + * X ; ;.] / ] ] ` / ] ] ] ] ] ] ] ] ] ] ] ] ] ] ] ] ] ] ] ] ] ] ] ] ] ] ] ] ] ] ] ] ] ] ] ] ] ] ] ] ] ] ] ] ] ] ] ] ] ] ] ] ] ] ] ] ] ] ] ] ] ] ] ] ] ] ] ] ] ] ] ] ] ] ] ] ] ] ] ] ] ] ] ] ] ] ] ] ] ] ] ] ] ] ] ] ] ;.;.] / ^ ^ n n l l w q q , , , w j j l l l z z l l l l l l l l l l l l l w q q q q q q q q j l x n ^ ] ] ] ] ] ] ] ] ] ] ] ] ] ] ] ] ] ] ] ] ] ] ] ] ] ] ] ] ] ] ] ] ] ] ] ] ] ] ] ] ] ] ] ] ] ] ] ] ] ] ] ] ] ] ] ] ] ] ] ] ] ] ] ] ] ] ] ] ] ] ] ] ] ] ] ] ] ] ] ] ] ] ] ] ] ] ] ] ] ] ] ] ] ] ] ] ] ] ] ] ] ] ] ] ] ] ] ] ] ) ` +._ < % ; - / / ] ] ` ` ` ] ` ` ` ` ` ` ` ` h !.1XqX",
"rX6XL.v } ' F X.] ] ] ` ` ` / / ( ] ` ' + * X ; ;.] / ] ] ` / ] ] ] ] ] ] ] ] ] ] ] ] ] ] ] ] ] ] ] ] ] ] ] ] ] ] ] ] ] ] ] ] ] ] ] ] ] ] ] ] ] ] ] ] ] ] ] ] ] ] ] ] ] ] ] ] ] ] ] ] ] ] ] ] ] ] ] ] ] ] ] ] ] ] ] ] ] ] ] ] ] ^ / ] ] ] ] ] ] ` ` ` ] ] <.<.<.` ^ x j q q j l l l l l l l l l l l l l l l l l z z z k k k k z l l l l l l l l j j j w w w q q q q j k x ^ ` ] ` ] ] ] ] ] ] ` ] ] ] ] ] ] ` ` ] ] ] ] ] ] ] ] ] ] ] ] ] ] ] ] ] ] ] ] ] ] ] ] ] ] ] ] ] ] ] ] ] ] ] ] ] ] ] ] ] ] ] ] ] ] ] ] ] ] ] ] ] ] ] ] ] ] ] ] ] ] ] ] ] ] ] ] ] ] ] ] ] ] ] ] ] ] ] ] ] ] ] ] ] ] ] ] ) ` +._ < % ; - / / ] ] ` ` ` ] ` ` ` ` ` ` ` ` h !.1XqX",
"rX6XL.v } ' F X.] ] ] ` ` ` / / ( ] ` ' + * X ; ;.] / ] ] ` / ] ] ] ] ] ] ] ] ] ] ] ] ] ] ] ] ] ] ] ] ] ] ] ] ] ] ] ] ] ] ] ] ] ] ] ] ] ] ] ] ] ] ] ] ] ] ] ] ] ] ] ] ] ] ] ] ] ] ] ] ] ] ] ] ] ] ] ] ] ] ] ] ] ] ] ] ] ] ] ] ] ] ] ] ] ] ] ] ] ] ] ;.;.] ^ x z z z l w q w l l l l l z z z z z l l l l l l l l z z z z z z z z l l l l l l l l l l l l l l l j q q q q q j z z ^ ^ ` ` ] ] ] ] ] ` / / / ` ] ] ] ] ] ] ] ] ] ] ] ] ] ] ] ] ] ] ] ] ] ] ] ] ] ] ] ] ] ] ] ] ] ] ] ] ] ] ] ] ] ] ] ] ] ] ] ] ] ] ] ] ] ] ] ] ] ] ] ] ] ] ] ] ] ] ] ] ] ] ] ] ] ] ] ] ] ] ] ] ] ] ] ] ] ] ] ] ] ] ) ` +._ < % ; - / / ] ] ` ` ` ] ` ` ` ` ` ` ` ` h !.1XqX",
"rX6XL.v } ' F X.] ] ] ` ` ` / / ( ] ` ' + * X ; ;.] / ] ] ` / ] ] ] ] ] ] ] ] ] ] ] ] ] ] ] ] ] ] ] ] ] ] ] ] ] ] ] ] ] ] ] ] ] ] ] ] ] ] ] ] ] ] ] ] ] ] ] ] ] ] ] ] ] ] ] ] ] ] ] ] ] ] ] ] ] ] ] ] ] ] ] ] ] ] ] ] ] ] ] ] ] ] ] ] ` ` ] ] ] ] ] ] / I z q # q q w l l l l l z z z z z z z x z z z z z z z z z z z z z z z z z z z z z z l z z z z z z l l l l j w q q q q w w j z L ^ ] <.1.] ] / / / / ` ] ] ] ] ] ] ] ] ] ] ] ] ] ] ] ] ] ] ] ] ] ] ] ] ] ] ] ] ] ] ] ] ] ] ] ] ] ] ] ] ] ] ] ] ] ] ] ] ] ] ] ] ] ] ] ] ] ] ] ] ] ] ] ] ] ] ] ] ] ] ] ] ] ] ] ] ] ] ] ] ] ] ] ] ] ] ] ] ] ) ` +._ < % ; - / / ] ] ` ` ` ] ` ` ` ` ` ` ` ` h !.1XqX",
"rX6XL.v } ' F X.] ] ] ` ` ` / / ( ] ` ' + * X ; ;.] / ] ] ` / ] ] ] ] ] ] ] ] ] ] ] ] ] ] ] ] ] ] ] ] ] ] ] ] ] ] ] ] ] ] ] ] ] ] ] ] ] ] ] ] ] ] ] ] ] ] ] ] ] ] ] ] ] ] ] ] ] ] ] ] ] ] ] ] ] ] ] ] ] ] ] ] ] ] ] ] ] ] ] ] ] ` ] ] ] ] ] ] ] / U x l w w l l l l z z z z l l z z x x x L L L z z z z z x z z x x x x x x x x z z z z z z z z z z z z z z z z z l j j l l l l # , q j z I ^ ` ] ] ] ] ] ` ` ` ] ] ] ] ] ] ] ] ] ] ] ] ] ] ] ] ] ] ] ] ] ] ] ] ] ] ] ] ] ] ] ] ] ] ] ] ] ] ] ] ] ] ] ] ] ] ] ] ] ] ] ] ] ] ] ] ] ] ] ] ] ] ] ] ] ] ] ] ] ] ] ] ] ] ] ] ] ] ] ] ] ] ] ] ] ] ] ] ) ` +._ < % ; - / / ] ] ` ` ` ] ` ` ` ` ` ` ` ` h !.1XqX",
"rX6XL.v } ' F X.] ] ] ` ` ` / / ( -.` ' + * X ; ;.] / ] ] ` / ] ] ] ] ] ] ] ] ] ] ] ] ] ] ] ] ] ] ] ] ] ] ] ] ] ] ] ] ] ] ] ] ] ] ] ] ] ] ] ] ] ] ] ] ] ] ] ] ] ] ] ] ] ] ] ] ] ] ] ] ] ] ] ] ] ] ] ] ] ] ] ] ] ] ] ] ] ] ] ] ] ] ] O.O.] ` ^ I z z w q q l z I I L L L z z z z x x x L x L L L x x x x n n x x x x x x x x x x z z z z z z z z z z z z z z z z j j j j j l l l z l j q q q w j ^ / ` O.<.O.] ` ] ] ] ] ] ] ] ] ] ] ] ] ] ] ] ] ] ] ] ] ] ] ] ] ] ] ] ] ] ] ] ] ] ] ] ] ] ] ] ] ] ] ] ] ] ] ] ] ] ] ] ] ] ] ] ] ] ] ] ] ] ] ] ] ] ] ] ] ] ] ] ] ] ] ] ] ] ] ] ] ] ] ] ] ] ] ] ] ) ` +._ < % ; - / / ] ] ` ` ` ] ` ` ` ` ` ` ` ` h !.1XqX",
"rX6XL.v ..' F X.] ] ] ` ` ` / / ( ] ` ' + * X ; ;.] / ] ] ` / ] ] ] ] ] ] ] ] ] ] ] ] ] ] ] ] ] ] ] ] ] ] ] ] ] ] ] ] ] ] ] ] ] ] ] ] ] ] ] ] ] ] ] ] ] ] ] ] ] ] ] ] ] ] ] ] ] ] ] ] ] ] ] ] ] ] ] ] ] ] ] ] ] ] ] ] ] ] ] ] ] <.<.O.] ^ I z l q w l z z z z z L x z z z L I I L L L L I I I I n n n n n n n n n n n n n n n n x x x x x x x x x x z z z z z z z z z l l l j w z l l l j j l l l z I / ] O.O.O.] ] ] ] ] ] ] ] ] ] ] ] ] ] ] ] ] ] ] ] ] ] ] ] ] ] ] ] ] ] ] ] ] ] ] ] ] ] ] ] ] ] ] ] ] ] ] ] ] ] ] ] ] ] ] ] ] ] ] ] ] ] ] ] ] ] ] ] ] ] ] ] ] ] ] ] ] ] ] ] ] ] ] ] ] ] ] ] ) ` +._ < % ; - / / ] ] ` ` ` ] ` ` ` ` ` ` ` ` h !.1XqX",
"rX6X`.v } ' F X.] ] ] ` ` ` / / ( -.` ' + * X ; ;.] / ] ] ` / ] ] ] ] ] ] ] ] ] ] ] ] ] ] ] ] ] ] ] ] ] ] ] ] ] ] ] ] ] ] ] ] ] ] ] ] ] ] ] ] ] ] ] ] ] ] ] ] ] ] ] ] ] ] ] ] ] ] ] ] ] ] ] ] ] ] ] ] ] ] ] ] ] ] ] ] ] ] ] ] ] O.] ^ I z l l l l z J L I L L L x x L L L I I I I I I I I I I ^ n n I I I I I I I I I I I I I I L L L L L L L L L L L L L L x x L L L L z z l l w l l l z z z z q q l z I ^ ` ` ] ] ] ] ] ] ] ] ] ] ] ] ] ] ] ] ] ] ] ] ] ] ] ] ] ] ] ] ] ] ] ] ] ] ] ] ] ] ] ] ] ] ] ] ] ] ] ] ] ] ] ] ] ] ] ] ] ] ] ] ] ] ] ] ] ] ] ] ] ] ] ] ] ] ] ] ] ] ] ] ] ] ] ] ] ] ] ] ) ` +._ < % ; - / / ] ] ` ` ` ] ` ` ` ` ` ` ` ` h !.1XqX",
"rX6XL.v } ' F X.] ] ] ` ` ` / ` ( -.` ' + * X ; ;.] / ] ] ` / ] ] ] ] ] ] ] ] ] ] ] ] ] ] ] ] ] ] ] ] ] ] ] ] ] ] ] ] ] ] ] ] ] ] ] ] ] ] ] ] ] ] ] ] ] ] ] ] ] ] ] ] ] ] ] ] ] ] ] ] ] ] ] ] ] ] ] ] ] ] ] ] ] ] ] ] ] ] ] ] ] / U L l w j l z I L L z J L I ^ I I I I I I I I ^ ^ ^ ^ ^ ^ ^ ^ ^ ^ ^ ^ ^ ^ ^ ^ I I I I I I I I L L L L L L L L I I I I I I L L z z z J z z z z J J J z l q q , q q q q w z L I ] ] ] ] ] ] ] ] ] ] ] ] ] ] ] ] ] ] ] ] ] ] ] ] ] ] ] ] ] ] ] ] ] ] ] ] ] ] ] ] ] ] ] ] ] ] ] ] ] ] ] ] ] ] ] ] ] ] ] ] ] ] ] ] ] ] ] ] ] ] ] ] ] ] ] ] ] ] ] ] ] ] ] ] ] ] ] ] ) ` +._ < % ; - / / ] ] ` ` ` ] ` ` ` ` ` ` ` ` h !.1XqX",
"rX6XL.v } ' F X.] ] ] ` ` ` / / ( ] ` ' + * X ; ;.] / ] ] ` / ] ] ] ] ] ] ] ] ] ] ] ] ] ] ] ] ] ] ] ] ] ] ] ] ] ] ] ] ] ] ] ] ] ] ] ] ] ] ] ] ] ] ] ] ] ] ] ] ] / ` ] ] ] ] ] ] ] ] ] ] ] ` ` / ] ] ] ] ` / / / ` ] O.O.] / I I w w l l z z z x I I I I I I U U I ^ ^ ^ ^ ^ ^ ^ ^ ^ ^ ^ ^ ^ ^ ^ ^ ^ ^ ^ ^ ^ ^ ^ ^ ^ ^ ^ ^ ^ ^ ^ I I I n n n n n I I I I I I I L x x x x z z z z z z z z l l l l j l l j w w q q ^ ^ ^ ` ` ` ] ] ` ` ` ` ` ] ] ] ` ` ` ` ] ] ] ] ] ] ] ] ] ` ` ] ] ] ] ] ] ] ] ] ] ] ] ] ] ] ] ] ] ] ] ] ] ] ] ] ] ] ] ] ] ] ] ] ] ] ] ] ] ] ] ] ] ] ] ] ] ] ] ] ] ] ] ] ] ] ] ] ) ` +._ < % ; - / / ] ] ` ` ` ] ` ` ` ` ` ` ` ` h !.1XqX",
"rX6XL.v } ' F X.] ] ] ` ` ` / / ( -.` ' + * X ; ;.] / ] ] ` / ] ] ] ] ] ] ] ] ] ] ] ] ] ] ] ] ] ] ] ] ] ] ] ] ] ] ] ] ] ] ] ] ] ] ] ] ] ] ] ] ] ] ] ] ] ] ] ] ] ] ] ;.] ] ] ] ] ] ] ] ] ] ] ] ] ^ / / ` ] ] ;.<.] ` ^ I x l q q j l l z z z L L I I I I ^ ^ ^ ^ ^ ^ ^ ^ ^ ^ ^ ^ ^ ^ ^ ^ ^ / / / ^ ^ ^ ^ ^ ^ ^ ^ I I I I I I n n ^ ^ I n n n x x I I I I I I I I L L x x z z z z z z z z z l l l l l j j j w w w , q l z I / ] O.] ] ] ] ] ] ] ] ] ] ] ] ] ] ] ] ] ] ] ` ` ` ` ` ] ] ] ] ] ] ] ] ] ] ] ] ] ] ] ] ] ] ] ] ] ] ] ] ] ] ] ] ] ] ] ] ] ] ] ] ] ] ] ] ] ] ] ] ] ] ] ] ] ] ] ] ] ] ] ] ) ` +._ < % ; - / / ] ] ` ` ` ] ` ` ` ` ` ` ` ` h !.1XqX",
"rX6XL.v ..' F X.] ] ] ` ` ` / / ( -.` ' + * X ; ;.] / ] ] ` / ] ] ] ] ] ] ] ] ] ] ] ] ] ] ] ] ] ] ] ] ] ] ] ] ] ] ] ] ] ] ] ] ] ] ] ] ] ] ] ] ] ] ] ] ] ] ] ] ] ` ] ] ] ` / / ` ^ ^ ^ ^ / / / / <.;.;.] ] ` / / x z l w q q l l z z z z x L I I ^ ^ ^ ^ ^ ^ ^ ^ / / / / / / / / / / / / / ` ` ` / ` ` ` ` ` ] ] / / / / / / / / / / / ^ ^ ^ n n I I I I I n I I I I I L x x z z x z z z z z z l l l l l l j j j , , q j l z L L ` ` ` ] O.<.1.1.] ] ] ] ] ] ] ] ] ] ] ` ` ` ` ` ] ` ` ] ] ] ] ] ] ] ] ] ] ] ] ] ] ] ] ] ] ] ] ] ] ] ] ] ] ] ] ] ] ] ] ] ] ] ] ] ] ] ] ] ] ] ] ] ] ] ] ] ] ] ] ] ) ` +._ < % ; - / / ] ] ` ` ` ] ` ` ` ` ` ` ` ` h !.1XqX",
"rX6XL.v ..' F X.] ] ] ` ` ` / / ) -.` ' + * X ; ;.] / ] ] ` / ] ] ] ] ] ] ] ] ] ] ] ] ] ] ] ] ] ] ] ] ] ] ] ] ] ] ] ] ] ] ] ] ] ] ] ] ] ] ] ] ] ] ] ] ] ] ] ] ] ^ ` ] ] ` ` ] ] ;.;.;.<.<.<.<.<.<.] ` ^ I x z z q q q q w z L I x x x L I I I U ^ ^ ^ ^ ^ ^ / / / / / / ` ] ] ] / / / ) ] ] ] ] ;.;.;.;.;.q.q.q.q.q.q.q.q.q.q.q.;.;.;.-.] ] ] ) ^ ^ ^ ^ n n n x I I I I I I I I L L x z z z z z l l l l l l l l l l l j w q q q z z L I ^ ` ` ] ` ` ` ] ] ] ] ] ] ] ] ] ] ] ] ` ] ` ] ] ] ] ] ] ] ] ] ] ] ] ] ] ] ] ] ] ] ] ] ] ] ] ] ] ] ] ] ] ] ] ] ] ] ] ] ] ] ] ] ] ] ] ] ] ] ] ] ] ] ] ] ] ) ` +._ < % ; - / / ] ] ` ` ` ] ` ` ` ` ` ` ` ` h !.1XqX",
"rX6XL.v } ' F X.] ] ] ` ` ` / / ( ] ` ' + * X ; ;.] / ] ] ` / ] ] ] ] ] ] ] ] ] ] ] ] ] ] ] ] ] ] ] ] ] ] ] ] ] ] ] ] ] ] ] ] ] ] ] ] ] ] ] ] ] ] ] ] ] ] ] ] ] ` ] <.] ` / ` ] ` ` ` ` / / ^ ^ j j j j j j j j l l l l z z z z I I I ^ ^ ^ ^ ^ / / / / / / / / / / / ` ] ] ] ] ) ) ) -.-.-.q.q.q.q.q.q.y.y.p.p.p.p.p.p.p.p.p.p.q.q.q.q.q.q.q.q.;.] ] ` / ^ ^ I n n n n I I I I L L L L x z z z z z z z z l l l l l l l l l l l , q q q l l z z I U ^ ^ / ` ` ` ` ` ^ ` ] ] ] ` ] ] ] ] ] ] ] ] ] ] ] ] ] ] ] ] ] ] ] ] ] ] ] ] ] ] ] ] ] ] ] ] ] ] ] ] ] ] ] ] ] ] ] ] ] ] ] ] ] ] ] ] ] ] ] ] ) ` +._ < % ; - / / ] ] ` ` ` ] ` ` ` ` ` ` ` ` h !.1XqX",
"rX6XL.v } ' F X.] ] ] ` ` ` / / ( ] ` ' + * X ; ;.] / ] ] ` / ] ] ] ] ] ] ] ] ] ] ] ] ] ] ] ] ] ] ] ] ] ] ] ] ] ] ] ] ] ] ] ] ] ] ] ] ] ] ] ] ] ] ] ] ] ] ] ] ] ` ] O.` L z z x j w w q q q q q q q q q j l l l l z z L L L x z ^ ^ ^ ^ / / / / / / / / / / / ) / ` ` ] ] >.;.;.-.-.-.q.q.q.q.q.q.q.q.q.q.q.y.y.q.q.q.q.q.q.q.q.q.q.q.w.y.p.p.p.p.t.t.q.;.] ] ] n n n n n n n n I I I L L x x z z z z z z z z z l l l l l l j j j w w q q q q q w j j l z z z x x x x I ^ ] ` ` ] ] ] ] ] ] ] ] ] ] ] ] ] ] ] ] ] ] ] ] ] ] ] ] ] ] ] ] ] ] ] ] ] ] ] ] ] ] ] ] ] ] ] ] ] ] ] ] ] ] ] ] ] ] ] ] ) ` +._ < % ; - / / ] ] ` ` ` ] ` ` ` ` ` ` ` ` h !.1XqX",
"rX6XL.v } ' F X.] ] ] ` ` ` / / ( ] ` ' + * X ; ;.] / ] ] ` / ] ] ] ] ] ] ] ] ] ] ] ] ] ] ] ] ] ] ] ] ] ] ] ] ] ] ] ] ] ] ] ] ] ] ] ] ] ] ] ] ] ] ] ] ] ] ] ] ] / ` ` I l , , q l l l l l l l l z z z z z z z z l z L I I ^ ^ ^ / / / / ` ` ] ] / / / ) ) ) ] ] ] ] ] ] ;.;.<.t.q.q.q.q.q.q.q.w.w.w.w.w.w.q.q.q.q.q.q.q.q.q.q.q.q.q.q.w.w.w.w.p.p.p.p.t.t.t.t.t.] ] ` / ^ ^ n n I I I I L L L L z z z z z z z z L x z z l j q q z z z z l l l l q q q q q q q q j j j x ^ ` ] ` ] ] ] ] ] ] ] ] ] ] ] ] ] ] ] ] ] ] ] ] ] ] ] ] ] ] ] ] ] ] ] ] ] ] ] ] ] ] ] ] ] ] ] ] ] ] ] ] ] ] ] ] ] ] ] ] ) ` +._ < % ; - / / ] ] ` ` ` ] ` ` ` ` ` ` ` ` h !.1XqX",
"rX6XL.v } ' F X.] ] ] ` ` ` / / ( ] ` ' + * X ; ;.] / ] ] ` / ] ] ] ] ] ] ] ] ] ] ] ] ] ] ] ] ] ] ] ] ] ] ] ] ] ] ] ] ] ] ] ] ] ] ] ] ] ] ] ] ] ] ] ] ] ] ] ] ] ` O.O.^ z q q l w j j l l l l l l l l z z z z z I I I I ^ ^ ^ ` / ` ` ] ] ] ] ] ) ) ) ) ) ) ) ) ] ] ;.;.<.t.t.t.p.w.w.w.w.w.w.q.p.p.p.p.p.p.p.w.p.p.p.p.p.p.p.p.p.p.p.p.p.w.w.w.q.q.q.q.y.p.p.p.a.p.t.;.] / ^ ^ I I I I I L L L x x z z z z z z z z z z z z z z l l l l l l l z z z z z l l l j j q q z ^ ] ] ] ] ] ] ] ] ] ] ] ] ] ] ] ] ] ] ] ] ] ] ] ] ] ] ] ] ] ] ] ] ] ] ] ] ] ] ] ] ] ] ] ] ] ] ] ] ] ] ] ] ] ] ] ] ] ] ] ) ` +._ < % ; - / / ] ] ` ` ` ] ` ` ` ` ` ` ` ` h !.1XqX",
"rX6X`.v } ' F X.] ] ] ` ` ` / / ( ] ` ' + * X ; ;.] / ] ] ` / ] ] ] ] ] ] ] ] ] ] ] ] ] ] ] ] ] ] ] ] ] ] ] ] ] ] ] ] ] ] ] ] ] ] ] ] ] ] ] ] ] ] ] ] ] ] ] ] ] ` ] ] I l j l z l l l l z z z J z z z z x L L L n I I ^ ^ / ` ] / / ] ] ] ] ) / ] ) / / / / ] ] -.-.q.q.q.q.w.w.p.y.q.q.q.-.-.) ] ] ;.;.] ] ] ] ] ] ] ] ] ] ] ] q.q.q.q.q.p.p.p.q.q.q.q.w.q.q.q.q.t.p.p.t.;.] / / ^ n x x x n I I I I I x x L L J J z z z l l l z l l l l l l l j j l l l l l l l l q l I O.O.` ] ] ] ] ] ] ] ] ] ] ] ] ] ] ] ] ] ] ] ] ] ] ] ] ] ] ] ] ] ] ] ] ] ] ] ] ] ] ] ] ] ] ] ] ] ] ] ] ] ] ] ] ] ] ] ] ) ` +._ < % ; - / / ] ] ` ` ` ] ` ` ` ` ` ` ` ` h !.1XqX",
"rX6X`.v } ' F X.] ] ] ` ` ` / / ( -.` ' + * X ; ;.] / ] ] ` / ] ] ] ] ] ] ] ] ] ] ] ] ] ] ] ] ] ] ] ] ] ] ] ] ] ] ] ] ] ] ] ] ] ] ] ] ] ] ] ] ] ] ] ] ] ] ] ] ] ` ] ] I l l z z z z z z J J L L x x L L L I I I ^ ^ ^ / ` ` ] ] / / ) ] ] ] ) ) ) ] ] ] ] ;.;.q.p.p.w.w.w.q.q.q.;.;.-.] ] ] ] / ] ] ] ] ] ] ] ] ] ] ] ] ] ] ] ] ] ] ) ;.q.t.t.p.p.p.p.p.p.p.p.p.q.q.t.t.t.t.t.q.t.;.] ^ I n x x I I I n x x x x L L L J J z z z z z z z z l z z l l l z z l l l l l q l I O.O.` ] ] ] ] ] ] ] ] ] ] ] ] ] ] ] ] ] ] ] ] ] ] ] ] ] ] ] ] ] ] ] ] ] ] ] ] ] ] ] ] ] ] ] ] ] ] ] ] ] ] ] ] ] ] ] ] ) ` +._ < % ; - / / ] ] ` ` ` ] ` ` ` ` ` ` ` ` h !.1XqX",
"rX6XL.v } ' F X.] ] ] ` ` ` / / ( -.` ' + * X ; ;.] / ] ] ` / ] ] ] ] ] ] ] ] ] ] ] ] ] ] ] ] ] ] ] ] ] ] ] ] ] ] ] ] ] ] ] ] ] ] ] ] ] ] ] ] ] ] ] ] ] ] ] ] ] ` ] ` I z z z z z z x L L L I I I I I I I I U U / / / ` ] ] ] ] ) / / / / ) ] ] ] ] ;.;.t.t.p.p.p.p.y.q.q.q.-.-.] ] ) ) / / / / ] ] ] ] ] ] ] ] ] ] ] ] ] ] ] ] / / ) ] ] -.;.;.q.q.q.q.y.y.p.p.t.t.t.t.t.t.p.p.a.p.t.;.` ^ I n I n n x x x x x L L L L L L L L x x x z z z z z z z z z z z z z l l q l I ] O.` ] ] ] ] ] ] ] ] ] ] ] ] ] ] ] ] ] ] ] ] ] ] ] ] ] ] ] ] ] ] ] ] ] ] ] ] ] ] ] ] ] ] ] ] ] ] ] ] ] ] ] ] ] ] ] ] ) ` +._ < % ; - / / ] ] ` ` ` ] ` ` ` ` ` ` ` ` h !.1XqX",
"rX6XL.v } ' F X.] ] ] ` ` ` / / ) -.` ' + * X ; ;.] / ] ] ` / ] ] ] ] ] ] ] ] ] ] ] ] ] ] ] ] ] ] ] ] ] ] ] ] ] ] ] ] ] ] ] ] ] ] ] ] ] ] ] ] ] ] ] ] ] ] ] ] ] ` ] ` I z z L L L L L I I I I I I U U ^ ^ ^ ^ ^ ] ] ] ] ] ] ] ] ] ) ) / / ] ] -.] ;.q.t.p.p.p.p.q.-.-.-.) ) ) ( ] ] ] ] ] ] ] ] ] ] ] ] ] ] ] ] ] ] ] ] ] ] ] ] ] ] ] ] ` ` / / ) ) ) -.-.-.-.q.p.p.t.t.t.t.t.t.p.p.t.t.q.;.] ) n n n n n n n n L L L I I I I I L L L L x L L z z z x x x z z z l l q q J ` O.` ] ] ] ] ] ] ] ] ] ] ] ] ] ] ] ] ] ] ] ] ] ] ] ] ] ] ] ] ] ] ] ] ] ] ] ] ] ] ] ] ] ] ] ] ] ] ] ] ] ] ] ] ] ] ] ] ) ` +._ < % ; - / / ] ] ` ` ` ] ` ` ` ` ` ` ` ` h !.1XqX",
"rX6XL.v } ' F X.] ] ] ` ` ` / / ( ] ` ' + * X ; ;.] / ] ] ` / ] ] ] ] ] ] ] ] ] ] ] ] ] ] ] ] ] ] ] ] ] ] ] ] ] ] ] ] ] ] ] ] ] ] ] ] ] ] ] ] ] ] ] ] ] ] ] ] ] / ] / I x I I I I I I I I I I U ^ ^ ^ / ` ` ` ` ] ] ] ] ] ] ] ] ] ] ) ) ) ] ;.;.;.;.q.t.t.t.q.;.) ) ) / / / / / ] ] ] ] ] ] ] ] ] ] ] ] ] ] ] ] ] ] ] ] ] ] ] ] ] ] ] ] ` / / / / / / ) ] ] ] ] q.t.t.t.t.t.q.;.-.q.q.p.p.p.q.q./ / ^ ^ ^ I n n L I I I I I I I L L x x x x x x L L L L L x z z l l q q z ^ ] ` ] ] ] ] ] ] ] ] ] ] ] ] ] ] ] ] ] ] ] ] ] ] ] ] ] ] ] ] ] ] ] ] ] ] ] ] ] ] ] ] ] ] ] ] ] ] ] ] ] ] ] ] ] ] ] ] ) ` +._ < % ; - / / ] ] ` ` ` ] ` ` ` ` ` ` ` ` h !.1XqX",
"rX6XL.v } ' F X.] ] ] ` ` ` / / ( ] ` ' + * X ; ;.] / ] ] ` / ] ] ] ] ] ] ] ] ] ] ] ] ] ] ] ] ] ] ] ] ] ] ] ] ] ] ] ] ] ] ] ] ] ] ] ] ] ] ] ] ] ] ] ] ] ] ] ] ] ` ` / I L I U I I I I I U ^ ^ ^ / / / / ` ` ] ] ` ` ` ] ] ] ] ] ] ] ] ] -.;.;.q.;.;.;.;.;.-.] ] ` ` ` ` ] ] ] ] ` ` ` ` ] ] ] ] ] ] ] ] ] ] ] ] ] ] ] ] ] ] ] ] ` ` ] ] ] ] ] ] ` ` ] ] ] ] ] ] / ] -.;.t.t.t.t.q.q.q.p.p.p.y.q.t.q.;.] / ^ n n I I I I I I I I I I I L L x x x L L I L L x z z l l q q l I ` ] ] ] ] ] ] ] ] ] ] ] ] ] ] ] ] ] ] ] ] ] ] ] ] ] ] ] ] ] ] ] ] ] ] ] ] ] ] ] ] ] ] ] ] ] ] ] ] ] ] ] ] ] ] ] ] ] ) ` +._ < % ; - / / ] ] ` ` ` ] ` ` ` ` ` ` ` ` h !.1XqX",
"rX6XL.v } ' F X.] ] ] ` ` ` / / ( ] ` ' + * X ; ;.] / ] ] ` / ] ] ] ] ] ] ] ] ] ] ] ] ] ] ] ] ] ] ] ] ] ] ] ] ] ] ] ] ] ] ] ] ] ] ] ] ] ] ] ] ] ] ] ] ] ] ] ] ] / ` ^ I I ^ ^ I ^ ^ ^ ^ ^ / ` ` / / / ` ] ] ] ] ` ` ] ] ] ] ] ] ] -.-.;.q.q.t.t.;.;.-.] ] ] ] ] ] ] ] ] ] ] ] ] ` ` ` ` ` ` ` ` ] ] ] ] ] ] ] ] ] ] ] ] ] ] ] ] ` ` ` ] ] ] ] ] ] ] ] ] ] ] ] ] / / / ] ] ;.q.t.w.p.p.p.p.w.q.q.p.p.t.;.-.) / / ^ ^ ^ ^ I I I I I I I I I I I n L I I L L x z z l l q , j I ` ] ] ] ] ] ] ] ] ] ] ] ] ] ] ] ] ] ] ] ] ] ] ] ] ] ] ] ] ] ] ] ] ] ] ] ] ] ] ] ] ] ] ] ] ] ] ] ] ] ] ] ] ] ] ] ] ] ) ` +._ < % ; - / / ] ] ` ` ` ] ` ` ` ` ` ` ` ` h !.1XqX",
"rX6XL.v } ' F X.] ] ] ` ` ` / / ( ] ` ' + * X ; ;.] / ] ] ` / ] ] ] ] ] ] ] ] ] ] ] ] ] ] ] ] ] ] ] ] ] ] ] ] ] ] ] ] ] ] ] ] ] ] ] ] ] ] ] ] ] ] ] ] ] ] ] ] ] / / ^ I I ^ ^ U ^ / / ` ` ` ` ] / / / ` ] ] ] ] ` ] ] ] ] ] ] ] ] ] ;.t.t.t.t.t.;.-.] ) ) ) ] ] ] ] ] ` / / ` / ] ] ] ] ] ] ] ` / / / / / / / / / / / / / / / / ] ] ] ] ] ] ` ` ] ] ] ] ] ] ` ` ] ) / / / ) -.;.p.p.p.p.w.w.w.w.p.p.y.q.q.q.q.-.` / ^ ^ ^ I I I ^ ^ I ^ I I I I L I I L L x z z l l q , q I ` ] ] ] ] ] ] ] ] ] ] ] ] ] ] ] ] ] ] ] ] ] ] ] ] ] ] ] ] ] ] ] ] ] ] ] ] ] ] ] ] ] ] ] ] ] ] ] ] ] ] ] ] ] ] ] ] ] ) ` +._ < % ; - / / ] ] ` ` ` ] ` ` ` ` ` ` ` ` h !.1XqX",
"rX6XL.v } ' F X.] ] ] ` ` ` / / ( ] ` ' + * X ; ;.] / ] ] ` / ] ] ] ] ] ] ] ] ] ] ] ] ] ] ] ] ] ] ] ] ] ] ] ] ] ] ] ] ] ] ] ] ] ` ` ` ` ` ` ` ` ` ` ` ` ` ` ` ` / / ^ ^ ^ ^ / / / / / / / / ` ` ] ] ] ] ] ] ] ] ;.;.<.<.t.t.t.t.a.p.p.t.;.;.] ] ] ] ] ] ] ] ] ] ] ] ] ] ] ] ] ] ] ] ] ] ] ] ] ] ] ] ] ] ] ] ] ] ] ] ] ] ] ] ] ] ] ] ] ] ] ] ] ] ] ] ] ] ] ] ] ] ] ] ] ] ] ] ] ] ] ] ] ;.<.t.u.p.q.q.q.q.w.p.p.p.a.p.u.<.] ` ^ I ^ ^ ^ C n n n n n n n x x z z z z l l z w q z ` <.] ` ` ] ] ` ` ] ] ] ] ] ] ] ] ] ] ] ] ] ] ] ] ] ] ] ] ] ] ] ] ] ] ] ] ] ] ] ] ] ] ] ] ] ] ] ] ] ] ] ] ] ] ] ] ) ` +._ < % ; - / / ] ] ` ` ` ] ` ` ` ` ` ` ` ` h !.1XqX",
"rX6XL.v } ' F X.] ] ] ` ` ` / / ( ] ` ' + * X ; ;.] / ] ] ` / ] ] ] ] ] ] ] ] ] ] ] ] ] ] ] ] ] ] ] ] ] ] ] ] ] ] ] ] ] ] ] ] ] ` ` ` ` ` ` ` ` ` ` ` ` ` ` ` ` / / / / / / / / ` / / / / ` ` ] / / ] ] -.;.;.;.;.;.<.t.t.u.p.p.t.t.<.;.] ] ] ` ] ] ] ] ] ] ] ] ] ] ] ] ] ] ] ] ] ] ] ] ] ] ] ] ] ] ] ] ] ] ] ] ] ] ] ] ] ] ] ] ] ] ] ] ] ] ] ] ] ] ] ] ] ] ] ] ] ] ] ] ] ] ] ] ` ` ] ] ;.;.t.t.q.q.w.w.w.p.p.p.p.p.p.p.t.t.<.<./ / / / / ^ ^ ^ I I I I x z z z z l l l j q z I ] ] ` ` ` ] ` ` ] ] ] ] ] ] ] ] ] ] ] ] ] ] ] ] ] ] ] ] ] ] ] ] ] ] ] ] ] ] ] ] ] ] ] ] ] ] ] ] ] ] ] ] ] ] ] ] ) ` +._ < % ; - / / ] ] ` ` ` ] ` ` ` ` ` ` ` ` h !.1XqX",
"rX6XL.v } ' F X.] ] ] ` ` ` / / ( ] ` ' + * X ; ;.] / ] ] ` / ] ] ] ] ] ] ] ] ] ] ] ] ] ] ] ] ] ] ] ] ] ] ] ] ] ] ] ] ] ] ] ] ] ` ` ` ` ` ` ` ` ` ` ` ` ` ` ` ` ` ` / / / / ` ` ] ] ] ] ] ] ] ] ^ / ) -.q.t.t.q.t.t.t.t.t.t.u.u.;.] ] ] ] / / / ] ] ] ] ] ] ] ] ] ] ] ] ] ] ] ] ] ] ] ] ] ] ] ] ] ] ] ] ] ] ] ] ] ] ] ] ] ] ] ] ] ] ] ] ] ] ] ] ] ] ] ] ] ] ] ] ] ] ] ] ] ] ] ] / / ` ] ] ] ;.;.q.q.q.y.y.y.y.y.y.y.p.p.p.p.p.p.-.-.-.-.-.) ) ) / ^ ^ I L x x x z l l l l w l z / ` ` ` ` ` ] ] ] ] ] ] ] ] ] ] ] ] ] ] ] ] ] ] ] ] ] ] ] ] ] ] ] ] ] ] ] ] ] ] ] ] ] ] ] ] ] ] ] ] ] ] ] ] ] ] ) ` +._ < % ; - / / ] ] ` ` ` ] ` ` ` ` ` ` ` ` h !.1XqX",
"rX6XL.v } ' F X.] ] ] ` ` ` / / ( ] ` ' + * X ; ;.] / ] ] ` / ] ] ] ] ] ] ] ] ] ] ] ] ] ] ] ] ] ] ] ] ] ] ] ] ] ] ] ] ] ] ] ] ] ` ` ` ` ` ` ` ` ` ` ` ` ` ` ` ` ] ] ] ` ` ] ] ] ] ] ] ] ] ] ] ` ^ / ] q.t.p.t.t.p.p.u.t.<.;.;.] ] ` ` ` / / / / ] ] ] ] ] ] ] ] ] ] ] ] ] ] ] ] ] ] ] ] ] ] ] ] ] ] ] ] ] ] ] ] ] ] ] ] ] ] ] ] ] ] ] ] ] ] ] ] ] ] ] ] ] ] ] ] ] ] ] ] ] ] ] ] / / / ` ] ] ] ] -.-.q.q.q.q.q.q.q.q.w.w.y.q.q.q.y.q.q.q.q.q.q.q.] / ^ I L L L x x l j l l l w q n ^ ] ] ] ` ] ] ] ] ] ] ] ] ] ] ] ] ] ] ] ] ] ] ] ] ] ] ] ] ] ] ] ] ] ] ] ] ] ] ] ] ] ] ] ] ] ] ] ] ] ] ] ] ] ] ) ` +._ < % ; - / / ] ] ` ` ` ] ` ` ` ` ` ` ` ` h !.1XqX",
"rX6XL.v } ' F X.] ] ] ` ` ` / / ( ] ` ' + * X ; ;.] / ] ] ` / ] ] ] ] ] ] ] ] ] ] ] ] ] ] ] ] ] ] ] ] ] ] ] ] ] ] ] ] ] ` ` ` ` ] -.` ` ` ` -.-.` ` ` ` ` ` ` ` ] ] ] ] ] ] ] ] ] ] ] ] ] ] ` / / ] ;.t.p.t.t.q.t.t.<.;.] ] ] ` ` ` ` ` ` ` ` ` ] ] ] ] ] ] ] ] ] ] ] ] ] ] ] ] ] ] ] ] ] ] ] ] ] ] ] ] ] ] ] ] ] ] ] ] ] ] ] ] ] ] ] ] ] ] ] ] ] ] ] ] ] ] ] ] ] ] ] ] ] ] ] ] ` ` ] ] ] ] ] ] / ) ] ] ;.;.q.t.q.y.y.y.q.q.q.-.w.w.w.w.w.w.q.q.] / I x x x x z x z l j l l w , k n ` ] ] ] ] ] ] ] ] ] ] ] ] ] ] ] ] ] ] ] ] ] ] ] ] ] ] ] ] ] ] ] ] ] ] ] ] ] ] ] ] ] ] ] ] ] ] ] ] ] ] ] ] ] ) ` +._ < % ; - / / ] ] ` ` ` ] ` ` ` ` ` ` ` ` h !.1XqX",
"rX6XL.v ..' F X.] ] ] ` ` ` / / ( ] ` ' + * X ; ;.] / ] ] ` / ] ] ] ] ] ] ] ] ] ] ] ] ] ] ] ] ] ] ] ] ] ] ] ] ] ] ] ] ] ` ` ` ` -.-.` ` ` ` -.-.` ` ` ` ` ` ` ` ] ] ] ] ] ] ] ] ] ] ] ] ] ` / / ] -.;.t.t.q.;.-.] ] ] ] ] ] ] ] ] ] ] ] ] ] ] ] ] ] ] ] ] ] ] ] ] ] ] ] ] ] ] ] ] ] ] ] ] ] ] ] ] ] ] ] ] ] ] ] ] ] ] ] ] ] ] ] ] ] ] ] ] ] ] ] ] ] ] ] ] ] ] ] ] ] ] ] ] ] ] ] ] ] ] ] ] ] ] ] / / / ] ] ;.;.;.q.q.y.p.p.p.p.p.q.q.q.q.q.w.w.q.t.] I x x L L z x z z j l z l , j z I / ] ] ] ] ] ] ] ] ] ] ] ] ] ] ] ] ] ] ] ] ] ] ] ] ] ] ] ] ] ] ] ] ] ] ] ] ] ] ] ] ] ] ] ] ] ] ] ] ] ] ] ] ) ` +._ < % ; - / / ] ] ` ` ` ] ` ` ` ` ` ` ` ` h !.1XqX",
"rX6X`.v } ' F X.] ] ] ` ` ` / / ( ] ` ' + * X ; ;.] / ] ] ` / ] ] ] ] ] ] ] ] ] ] ] ] ] ] ] ] ] ] ] ] ] ] ] ] ] ] ] ] ] ` ` ` ` -.-.-.` ` ` ` -.` ` ` ` ` ` ` ` ] ] ] ] ] ] ] ] ` ] ] ] ] / ^ ^ ] ] ] -.-.] ] ] ` ` ` ` ] ] ] ] ] ] ] ] ] ] ] ] ] ] ] ] ] ] ] ] ] ] ] ] ] ] ] ] ] ] ] ] ] ] ] ] ] ] ] ] ] ] ] ] ] ] ] ] ] ] ] ] ] ] ] ] ] ] ] ] ] ] ] ] ] ] ] ] ] ] ] ] ] ] ] ] ] ] ] ] ] ] ` ` ` ` ` ] ] ] ] ] ] ;.;.t.t.u.u.u.e.e.e.e.e.e.e.e.p.] ^ x L I I L x L z j j z l q q j j x I / ` ] ] ] ] ] ] ] ] ] ] ] ] ] ] ] ] ] ] ] ] ] ] ] ] ] ] ] ] ] ] ] ] ] ] ] ] ] ] ] ] ] ] ] ] ] ] ] ] ] ) ` +._ < % ; - / / ] ] ` ` ` ] ` ` ` ` ` ` ` ` h !.1XqX",
"rX6XL.v } ' F X.] ] ] ` ` ` / / ( ] ` ' + * X ; ;.] / ] ] ` / ] ] ] ] ] ] ] ] ] ] ] ] ] ] ] ] ] ] ] ] ] ] ] ] ] ] ] ] ] ] ] ` ` -.-.-.-.` ` =.-.` ` ` ` ` ` ` ` ] ] ] ` ` ] ] ] / ` ] ] ] / ^ ^ / ) ) ) ) ) ) ) ] ] ] ] ] ` ` ` ] ] ] ] ] ] ] ] ] ] ] ] ] ] ] ] ] ] ] ] ] ] ] ] ] ] ] ] ] ] ] ] ] ] ] ] ] ] ] ] ] ] ] ] ] ] ] ] ] ] ] ] ] ] ] ] ] ] ] ] ] ] ] ] ] ] ] ] ] ] ] ] ] ] ] ` ` / / / ] ] ] ] ] ] ] ` ` ` ] ] ] ] ] ] q.q.e.e.e.e.e.e.a.;.^ n I I I L z I L l w z z j j q # q z ^ ` ] ] ] ] ] ] ] ] ] ] ] ] ] ] ] ] ] ] ] ] ] ] ] ] ] ] ] ] ] ] ] ] ] ] ] ] ] ] ] ] ] ] ] ] ] ] ] ] ] ) ` +._ < % ; - / / ] ] ` ` ` ] ` ` ` ` ` ` ` ` h !.1XqX",
"rX6XL.v } ' F X.] ] ] ` ` ` / / ( -.` ' + * X ; ;.] / ] ] ` / ] ] ] ] ] ] ] ] ] ] ] ] ] ] ] ] ] ] ] ] ] ] ] ] ] ` ` ` ` ` ` -.-.-.-.;.;.-.-.-.-.` ` ` ` ` ` ` ` ] ] ] ] ] ] ] ] ] ] / ^ ^ n n n / / / / / / / / ] ] ] ] ] ] ] ] ] ] ] ] ] ] ] ] ] ] ] ] ] ] ] ] ] ] ] ] ] ] ] ] ] ] ] ] ] ] ] ] ] ] ] ] ] ] ] ] ] ] ] ] ] ] ] ] ] ] ] ] ] ] ] ] ] ] ] ] ] ] ] ] ] ] ] ] ] ] ] ] ] ] ] ] ] ] ] ] ] ] ] ] ] ] ] ] ] ] ] ] ] ] ] ] ] ] -.-.;.q.t.t.p.u.<.` I L L I L L x z z l l j z l q q q l x I ] ] ] ] ] ] ] ] ` ` ] ] / / / ] ] ] ] ] ] ] ] ] ] ] ] ] ] ] ] ] ] ] ] ] ] ] ] ] ] ] ] ] ] ] ] ] ) ` +._ < % ; - / / ] ] ` ` ` ] ` ` ` ` ` ` ` ` h !.1XqX",
"rX6XL.v } ' F X.] ] ] ` ` ` / / ( ] ` ' + * X ; ;.] / ] ] ` / ] ] ] ] ] ] ] ] ] ] ] ] ] ] ] ] ] ] ] ] ] ] ] ] ] ` ` ` ` ` ` -.-.-.-.;.;.-.-.-.-.` ` ` ` ` ` ` ` ] ] ] ] ] ] ] ] / ] ] ^ n x I / ` ` ` ` ` ` ` ` ] ] ] ] ] ] ] ] ] ] ] ] ] ] ] ] ] ] ] ] ] ] ] ] ] ] ] ] ] ] ] ] ] ] ] ] ] ] ] ] ] ] ] ] ] ] ] ] ] ] ] ] ] ] ] ] ] ] ] ] ] ] ] ] ] ] ] ] ] ] ] ] ] ] ] ] ] ] ] ] ] ] ] ] ] ] ] ] ] ] ] ] ] ] ] ] ] ] ] ] ] ] ] ] ] ] ] -.;.q.t.p.u.u.t.] ^ I L I L L x z z l l l l l j j j l l z n n ^ ^ / ` ] ] ^ / ] ] ] / ] ] ] ] ] ] ] ] ] ] ] ] ] ] ] ] ] ] ] ] ] ] ] ] ] ] ] ] ] ] ] ] ] ] ) ` +._ < % ; - / / ] ] ` ` ` ] ` ` ` ` ` ` ` ` h !.1XqX",
"rX6XL.v ..' F X.] ] ] ` ` ` / / ( -.` ' + * X ; ;.] / ] ] ` / ] ] ] ] ] ] ] ] ] ] ] ] ] ] ] ] ] ] ] ] ] ] ] ] ] ` ` ` ` ` ` -.-.-.-.-.;.-.-.-.-.` ` ` ` ` ` ` ` ] ] ] ] ] ] ] ] / ] ] ^ x x ^ ;.] ] ] ] ] ] ] ] ] ] ] ] ] ] ] ] ] ] ] ] ] ] ] ] ] ] ] ] ] ] ] ] ] ] ] ] ] ] ] ] ] ] ] ] ] ] ] ] ] ] ] ] ] ] ] ] ] ] ] ] ] ] ] ] ] ] ] ] ] ] ] ] ] ] ] ] ] ] ] ] ] ] ] ] ] ] ] ] ] ] ] ] ] ] ] ] ] ] ] ] ] ] ] ] ] ] ] ] ] ] ] ] ] ) ) ) ] ;.u.p.t.t.t.<.` U I L L L x z z z l l l l z z l j q q q q w l z x L I n ^ ] ] ] ` ] ] ] ] ] ] ] ] ] ] ] ] ] ] ] ] ] ] ] ] ] ] ] ] ] ] ] ] ] ] ] ] ] ] ) ` +._ < % ; - / / ] ] ` ` ` ] ` ` ` ` ` ` ` ` h !.1XqX",
"rX6XL.v ..' F X.] ] ] ` ` ` / / ( -.` ' + * X ; ;.] / ] ] ` / ] ] ] ] ] ] ] ] ] ] ] ] ] ] ] ] ] ] ] ] ] ] ] ] ] ` ` ` ` ` ` -.-.-.-.-.-.-.-.-.-.` ` ` ` ` ` ` ` ] ] ] ] ` ` ` ` / ` / I x n / <.] ] ] ] ] ] ] ] ] ] ] ] ] ] ] ] ] ] ] ] ] ] ] ] ] ] ] ] ] ] ] ] ] ] ] ] ] ] ] ] ] ] ] ] ] ] ] ] ] ] ] ] ] ] ] ] ] ] ] ] ] ] ] ] ] ] ] ] ] ] ] ] ] ] ] ] ] ] ] ] ] ] ] ] ] ] ] ] ] ] ] ] ] ] ] ] ] ] ] ] ] ] ] ] ] ] ] ] ] ] ] ] ] ) / / ] ;.t.p.q.t.p.t.<.` I L L L L z z z z z l l z z z j q , q q q q q q q q k ^ ] ;.] ] ] ] ] ] ] ] ] ] ] ] ] ] ] ] ] ] ] ] ] ] ] ] ] ] ] ] ] ] ] ] ] ] ] ] ) ` +._ < % ; - / / ] ] ` ` ` ] ` ` ` ` ` ` ` ` h !.1XqX",
"rX6XL.v } ' F X.] ] ] ` ` ` / / ( -.` ' + * X ; ;.] / ] ] ` / ] ] ] ] ] ] ] ] ] ] ] ] ] ] ] ] ] ] ] ] ] ] ] ] ] ` ` ` ` ` ` -.-.-.-.>.>.-.-.-.-.` ` ` ` ` ` ` ` ] ] ] ` ` / / / ] / I n I / ] ;.] ] ] ] ] ] ] ] ] ] ] ] ] ] ] ] ] ] ] ] ] ] ] ] ] ] ] ] ] ] ] ] ] ] ] ] ] ] ] ] ] ] ] ] ] ] ] ] ] ] ] ] ] ] ] ] ] ] ] ] ] ] ] ] ] ] ] ] ] ] ] ] ] ] ] ] ] ] ] ] ] ] ] ] ] ] ] ] ] ] ] ] ] ] ] ] ] ] ] ] ] ] ] ] ] ] ] ] ] ] ] ] ] ) / / ) ;.t.p.q.q.p.p.t.] ^ I I L L L z z z z l l l l l l l j l l l l l w w w j I ;.;.] ] ] ] ] ] ] ] ] ] ] ] ] ] ] ] ] ] ] ] ] ] ] ] ] ] ] ] ] ] ] ] ] ] ] ] ) ` +._ < % ; - / / ] ] ` ` ` ] ` ` ` ` ` ` ` ` h !.1XqX",
"rX6XL.v } ' F X.] ] ] ` ` ` / / ( ] ` ' + * X ; ;.] / ] ] ` / ] ] ] ] ] ] ] ] ] ] ] ] ] ] ] ] ] ] ] ] ] ] ] ] ] ` ` ` ` ` ` -.-.-.-.;.>.-.-.-.-.` ` ` ` ` ` ` ` ] ] ] ` / / / / ] ^ n n / ] ] ] ] ] ] ] ] ] ] ] ] ] ] ] ] ] ] ] ] ] ] ] ] ] ] ] ] ] ] ] ] ] ] ] ] ] ] ] ] ] ] ] ] ] ] ] ] ] ] ] ] ] ] ] ] ] ] ] ] ] ] ] ] ] ] ] ] ] ] ] ] ] ] ] ] ] ] ] ] ] ] ] ] ] ] ] ] ] ] ] ] ] ] ] ] ] ] ] ] ] ] ] ] ] ] ] ] ] ] ] ] ] ] ] ] ) / / ) ] ;.t.q.q.q.p.t.t.] / I I L L z z z z z z z l l l z z z z z l l l l l q ^ ;.;.] ] ] ` ] ] ] ] ] ] ] ] ] ] ] ] ] ] ] ] ] ] ] ] ] ] ] ] ] ] ] ] ] ] ] ] ) ` +._ < % ; - / / ] ] ` ` ` ] ` ` ` ` ` ` ` ` h !.1XqX",
"rX6XL.v } ' F X.] ] ] ` ` ` / / ( -.` ' + * X ; ;.] / ] ] ` / ] ] ] ] ] ] ] ] ] ] ] ] ] ] ] ] ] ] ] ] ] ] ] ] ] ` ` ` ` ` ` -.-.-.-.;.;.-.-.-.-.` ` ` ` ` ` ` ` ] ] ` ` / / / / ^ ^ ^ ^ ` ] ] ` ] ] ] ] ] ] ] ] ] ] ] ] ] ] ] ] ] ] ] ] ] ] ] ] ] ] ] ] ] ] ] ] ] ] ] ] ] ] ] ] ] ] ] ] ] ] ] ] ] ] ] ] ] ] ] ] ] ] ] ] ] ] ] ] ] ] ] ] ] ] ] ] ] ] ] ] ] ] ] ] ] ] ] ] ] ] ] ] ] ] ] ] ] ] ] ] ] ] ] ] ] ] ] ] ] ] ] ] ] ] ] ] ] ) ) ) ] ] -.;.w.q.q.q.p.u.<.] I I I L L L x x z z z z z z z z l l l l l l l l q ^ <.] / ] ] ` ] ] ] ] ] ] ] ] ] ] ] ] ] ] ] ] ] ] ] ] ] ] ] ] ] ] ] ] ] ] ] ] ) ` +._ < % ; - / / ] ] ` ` ` ] ` ` ` ` ` ` ` ` h !.1XqX",
"rX6XL.v } ' F X.] ] ] ` ` ` / / ( -.` ' + * X ; ;.] / ] ] ` / ] ] ] ] ] ] ] ] ] ] ] ] ] ] ] ] ] ] ] ] ] ] ] ] ] ` ` ` ` ` ` -.-.-.-.;.;.-.-.-.-.` ` ` ` ` ` ` ` ] ] ` / / / / ^ n ^ / ] ] ` ` ] ] ] ] ] ] ] ] ] ] ] ] ] ] ] ] ] ] ] ] ] ] ] ] ] ] ] ] ] ] ] ] ] ] ] ] ] ] ] ] ] ] ] ] ] ] ] ] ] ] ] ] ] ] ] ] ] ] ] ] ] ] ] ] ] ] ] ] ] ] ] ] ] ] ] ] ] ] ] ] ] ] ] ] ] ] ] ] ] ] ] ] ] ] ] ] ] ] ] ] ] ] ] ] ] ] ] ] ] ] ] ] ] ) ) ] ] ] ] ] ] p.q.q.q.t.p.t.t.I I I L L L L L x x L L x z l l z z z z l l j j q ^ <.] / ] ] ` ] ] ] ] ] ] ] ] ] ] ] ] ] ] ] ] ] ] ] ] ] ] ] ] ] ] ] ] ] ] ] ] ) ` +._ < % ; - / / ] ] ` ` ` ] ` ` ` ` ` ` ` ` h !.1XqX",
"rX6X`.v } ' F X.] ] ] ` ` ` / / ( ] ` ' + * X ; ;.] / ] ] ` / ] ] ] ] ] ] ] ] ] ] ] ] ] ] ] ] ] ] ] ] ] ] ] ] ] ` ` ` ` ] >.>.>.>.>.>.>.-.-.-.-.*.) ) ` ` ` =.>.^ / / ` ` / ^ n ] ] ] ] ] ] ] ] ] ] ] ] ] ] ] ] ] ] ] ] ] ] ] ] ] ] ] ] ] ] ] ] ] ] ] ] ] ] ] ] ] ] ] ] ] ] ] ] ] ] ] ] ] ] ] ] ] ] ] ] ] ] ] ] ] ] ] ] ] ] ] ] ] ] ] ] ] ] ] ] ] ] ] ] ] ] ] ] ] ] ] ] ] ] ] ] ] ] ] ] ] ] ] ] ] ] ] ] ] ] ] ] ] ] ] ] ] ] ] ] ] ] ] ] ] ] ] ] t.t.q.;.;.t.p.p.u.] ^ I I I I I I L L L I I x z L x z z z l l l q ` ;./ ] ] ` ] ] ] ] ] ] ] ] ] ] ] ] ] ] ] ] ] ] ] ] ] ] ] ] ] ] ] ] ] ] ] ] ] ) ` +._ < % ; - / / ] ] ` ` ` ] ` ` ` ` ` ` ` ` h !.1XqX",
"rX6X`.v } ' F X.] ] ] ` ` ` / / ( ] ` ' + * X ; ;.] / ] ] ` / ] ] ] ] ] ] ] ] ] ] ] ] ] ] ] ] ] ] ] ] ] ] ] ] ] ` ` ` ` ` -.>.>.>.>.>.>.-.-.-.-.*.) ) ` ` =.=.>.] ` / / / / / / ] ] ] ] ] ] ] ] ] ] ] ] ] ] ] ] ] ] ] ] ] ] ] ] ] ] ] ] ] ] ] ] ] ] ] ] ] ] ] ] ] ] ] ] ] ] ] ] ] ] ] ] ] ] ] ] ] ] ] ] ] ] ] ] ] ] ] ] ] ] ] ] ] ] ] ] ] ] ] ] ] ] ] ] ] ] ] ] ] ] ] ] ] ] ] ] ] ] ] ] ] ] ] ] ] ] ] ] ] ] ] ] ] ] ] ] ] ] ] ] ] ] ] ] ] ] ] ] ;.;.q.t.t.t.t.t.t.<.] ^ I n x n I L L L I I x z L x z z z l l l q ` ;./ ] ] ` ] ] ] ] ] ] ] ] ] ] ] ] ] ] ] ] ] ] ] ] ] ] ] ] ] ] ] ] ] ] ] ] ] ) ` +.! < % ; - / / ] ] ` ` ` ] ` ` ` ` ` ` ` ` h !.1XqX",
"rX6XL.v } ' F X.] ] ] ` ` ` / / ( ] ` ' + * X ; ;.] / ] ] ` / ] ] ] ] ] ] ] ] ] ] ] ] ] ] ] ] ] ] ] ] ] ] ] ] ] ` ` ` ` ] >.>.>.>.>.>.>.-.-.-.-.) ) ) ` ] >.=.=.;.] ` / / / ] ] ] ] ] ] ] ] ] ] ] ] ] ] ] ] ] ] ] ] ] ] ] ] ] ] ] ] ] ] ] ] ] ] ] ] ] ] ] ] ] ] ] ] ] ] ] ] ] ] ] ] ] ] ] ] ] ] ] ] ] ] ] ] ] ] ] ] ] ] ] ] ] ] ] ] ] ] ] ] ] ] ] ] ] ] ] ] ] ] ] ] ] ] ] ] ] ] ] ] ] ] ] ] ] ] ] ] ] ] ] ] ] ] ] ] ] ] ] ] ] ] ] ] ] ] ] ] ] ] ) ] q.p.p.p.t.;.<.u.u.;.^ n x I I I x L I I L x L L x z z l l l q _ <.) ] ] ` ] ] ] ] ] ] ] ] ] ] ] ] ] ] ] ] ] ] ] ] ] ] ] ] ] ] ] ] ] ] ] ] ] ) ` +._ < % ; - / / ] ] ` ` ` ] ` ` ` ` ` ` ` ` h !.1XqX",
"rX6XL.v } ' F X.] ] ] ` ` ` / / ( ] ` ' + * X ; ;.] / ] ] ` / ] ] ] ] ] ] ] ] ] ] ] ] ] ] ] ] ] ] ] ] ] ] ] ] ] ` ` ` ` ] >.>.>.>.>.>.>.-.-.-.-.) ) -.` ] ` ` ] ] ] ] / / / ] ;.] ] ] ] ] ] ] ] ] ] ] ] ] ] ] ] ] ] ] ] ] ] ] ] ] ] ] ] ] ] ] ] ] ] ] ] ] ] ] ] ] ] ] ] ] ] ] ] ] ] ] ] ] ] ] ] ] ] ] ] ] ] ] ] ] ] ] ] ] ] ] ] ] ] ] ] ] ] ] ] ] ] ] ] ] ] ] ] ] ] ] ] ] ] ] ] ] ] ] ] ] ] ] ] ] ] ] ] ] ] ] ] ] ] ] ] ] ] ] ] ] ] ] ] ] ] ] ] / ] ;.t.t.t.t.;.t.u.p.t.;./ ^ ^ U I I I I I I x L L x z z l l j q _ <./ ] ] ` O.] ] ] ] ] ] ] ] ] ] ] ] ] ] ] ] ] ] ] ] ] ] ] ] ] ] ] ] ] ] ] ] *.` +._ < % ; - / / ] ] ` ` ` ] ` ` ` ` ` ` ` ` h !.1XqX",
"rX6XL.v } ' F X.] ] ] ` ` ` / / ( -.` ' + * X ; ;.] / ] ] ` / ] ] ] ] ] ] ] ] ] ] ] ] ] ] ] ] ] ] ] ] ] ] ] ] ] ` ` ` ` ] -.>.>.>.>.>.>.-.-.-.-.) ) -.` ` ` / / ^ / ] ] ` / ` ] ] ] ] ] ] ] ] ] ] ] ] ] ] ] ] ] ] ] ] ] ] ] ] ] ] ] ] ] ] ] ] ] ] ] ] ] ] ] ] ] ] ] ] ] ] ] ] ] ] ] ] ] ] ] ] ] ] ] ] ] ] ] ] ] ] ] ] ] ] ] ] ] ] ] ] ] ] ] ] ] ] ] ] ] ] ] ] ] ] ] ] ] ] ] ] ] ] ] ] ] ] ] ] ] ] ] ] ] ] ] ] ] ] ] ] ] ] ] ] ] ] ] ] ] ] ] ] ] ) ] ] -.;.q.t.t.u.u.u.p.p.t.;.` ` ^ I I I I I n I L x z z l l j q _ ;./ ] ] ` O.] ] ] ] ] ] ] ] ] ] ] ] ] ] ] ] ] ] ] ] ] ] ] ] ] ] ] ] ] ] ] ] ) ` +._ < % ; - / / ] ] ` ` ` ] ` ` ` ` ` ` ` ` h !.1XqX",
"rX6XL.v } ' F X.] ] ] ` ` ` / / ( ] ` ' + * X ; ;.] / ] ] ` / ] ] ] ] ] ] ] ] ] ] ] ] ] ] ] ] ] ] ] ] ] ] ] ] ] ` ` ` ` ] >.>.>.>.>.>.>.-.-.-.-.) ) ) ` / ^ I I n ^ ] ] ] / / ` ] ] ] ] ] ] ] ] ] ] ] ] ] ] ] ] ] ] ] ] ] ] ] ] ] ] ] ] ] ] ] ] ] ] ] ] ] ] ] ] ] ] ] ] ] ] ] ] ] ] ] ] ] ] ] ] ] ] ] ] ] ] ] ] ] ] ] ] ] ] ] ] ] ] ] ] ] ] ] ] ] ] ] ] ] ] ] ] ] ] ] ] ] ] ] ] ] ] ] ] ] ] ] ] ] ] ] ] ] ] ] ] ] ] ] ] ] ] ] ] ] ] ] ] ] ] ] ] ] ] ) ) ] ;.q.t.t.t.t.t.a.a.t.;.>.] ^ ^ ^ I n n I L L z z l j w q _ <./ ] ] ` O.] ] ] ] ] ] ] ] ] ] ] ] ] ] ] ] ] ] ] ] ] ] ] ] ] ] ] ] ] ] ] ] ) ` +._ < % ; - / / ] ] ` ` ` ] ` ` ` ` ` ` ` ` h !.1XqX",
"rX6XL.v } ' F X.] ] ] ` ` ` / / ( -.` ' + * X ; ;.] / ] ] ` / ] ] ] ] ] ] ] ] ] ] ] ] ] ] ] ] ] ] ] ] ] ] ] ] ] ` ` ` ` ` -.>.>.>.>.>.>.-.-.-.-.) ) ) ` ^ I n z x ^ ] ] ] / / ] ] ] ] ] ] ] ] ] ] ] ] ] ] ] ] ] ] ] ] ] ] ] ] ] ] ] ] ] ] ] ] ] ] ] ] ] ] ] ] ] ] ] ] ] ] ] ] ] ] ] ] ] ] ] ] ] ] ] ] ] ] ] ] ] ] ] ] ] ] ] ] ] ] ] ] ] ] ] ] ] ] ] ] ] ] ] ] ] ] ] ] ] ] ] ] ] ] ] ] ] ] ] ] ] ] ] ] ] ] ] ] ] ] ] ] ] ] ] ] ] ] ] ] ] ] ] ] ] ] ] ) / ) ] ;.q.t.q.t.t.t.p.p.t.t.;.` ^ ^ ^ I n I I L z z l j w q _ <./ ] ] ` ] ] ] ] ] ] ] ] ] ] ] ] ] ] ] ] ] ] ] ] ] ] ] ] ] ] ] ] ] ] ] ] ] ) ` +._ < % ; - / / ] ] ` ` ` ] ` ` ` ` ` ` ` ` h !.1XqX",
"rX6XL.v } ' F X.] ] ] ` ` ` / / ( -.` ' + * X ; ;.] / ] ] ` / ] ] ] ] ] ] ] ] ] ] ] ] ] ] ] ] ] ] ] ] ] ] ] ] ] ` ` ` ` ` -.>.>.>.>.>.>.-.-.-.-.) ) ) ) ^ I z z x ^ ] ] ` / ] ] ] ] ] ] ] ] ] ] ] ] ] ] ] ] ] ] ] ] ] ] ] ] ] ] ] ] ] ] ] ] ] ] ] ] ] ] ] ] ] ] ] ] ] ] ] ] ] ] ] ] ] ] ] ] ] ] ] ] ] ] ] ] ] ] ] ] ] ] ] ] ] ] ] ] ] ] ] ] ] ] ] ] ] ] ] ] ] ] ] ] ] ] ] ] ] ] ] ] ] ] ] ] ] ] ] ] ] ] ] ] ] ] ] ] ] ] ] ] ] ] ] ] ] ] ] ] ] ] ] ] ] ) ] ] -.;.q.q.q.q.-.-.q.p.p.t.] / ^ ^ n n I I L z z l w q q _ >./ ] ] ` ] ] ] ] ] ] ] ] ] ] ] ] ] ] ] ] ] ] ] ] ] ] ] ] ] ] ] ] ] ] ] ] ] ) ` +._ < % ; - / / ] ] ` ` ` ] ` ` ` ` ` ` ` ` h !.1XqX",
"rX6XL.v } ' F X.] ] ] ` ` ` / / ( -.` ' + * X ; ;.] / ] ] ` / ] ] ] ] ] ] ] ] ] ] ] ] ] ] ] ] ] ] ] ] ] ] ] ] ] ` ` ` ` -.-.>.>.>.>.-.-.-.-.-.-.-.` =.] / I z I x ^ ] ] ` ] ] ` ] ] ] ] ] ] ] ] ] ] ] ] ] ] ] ] ] ] ] ] ] ] ] ] ] ] ] ] ] ] ] ] ] ] ] ] ] ] ] ] ] ] ] ] ] ] ] ] ] ] ] ] ] ] ] ] ] ] ] ] ] ] ] ] ] ] ] ] ] ] ] ] ] ] ] ] ] ] ] ] ] ] ] ] ] ] ] ] ] ] ] ] ] ] ] ] ] ] ] ] ] ] ] ] ] ] ] ] ] ] ] ] ] ] ] ] ] ] ] ] ] ] ] ] ] ] ] ] ] ] ] ] ] ] ] ] ;.;.q.t.t.p.p.p.p.p.q.( ^ ^ ^ n L L x z z l l j q _ ;./ ] ] ` ] ] ] ] ] ] ] ] ] ] ] ] ] ] ] ] ] ] ] ] ] ] ] ] ] ] ] ] ] ] ] ] ] ) ` +._ < % ; - / / ] ] ` ` ` ] ` ` ` ` ` ` ` ` h !.1XqX",
"rX6XL.v } ' F X.] ] ] ` ` ` / / ( ] ` ' + * X ; ;.] / ] ] ` / ] ] ] ] ] ] ] ] ] ] ] ] ] ] ] ] ] ] ] ] ] ] ] ] ] ` ` ` ` -.-.>.>.>.>.>.-.-.-.-.-.-.` =.=./ I z I x ^ ] ] ` ] ] ` ] ] ] ] ] ] ] ] ] ] ] ] ] ] ] ] ] ] ] ] ] ] ] ] ] ] ] ] ] ] ] ] ] ] ] ] ] ] ] ] ] ] ] ] ] ] ] ] ] ] ] ] ] ] ] ] ] ] ] ] ] ] ] ] ] ] ] ] ] ] ] ] ] ] ] ] ] ] ] ] ] ] ] ] ] ] ] ] ] ] ] ] ] ] ] ] ] ] ] ] ] ] ] ] ] ] ] ] ] ] ] ] ] ] ] ] ] ] ] ] ] ] ] ] ] ] ] ] ] ] ] ] ] ] ] ] ] -.;.;.q.t.t.t.p.p.q.( ^ ^ ^ n L L x z z l l j q _ ;./ ] ] ` ] ] ] ] ] ] ] ] ] ] ] ] ] ] ] ] ] ] ] ] ] ] ] ] ] ] ] ] ] ] ] ] ] ) ` +.! < % ; - / / ] ] ` ` ` ] ` ` ` ` ` ` ` ` h !.1XqX",
"rX6XL.v } ' F X.] ] ] ` ` ` / / ( -.` ' + * X ; ;.] / ] ] ` / ] ] ] ] ] ] ] ] ] ] ] ] ] ] ] ] ] ] ] ] ] ] ] ] ] ` ` ` ` -.-.>.>.>.>.-.-.-.-.-.-.-.` =.=./ I z I x ^ ] ] ` ] ] ` ] ] ] ] ] ] ] ] ] ] ] ] ] ] ] ] ] ] ] ] ] ] ] ] ] ] ] ] ] ] ] ] ] ] ] ] ] ] ] ] ] ] ] ] ] ] ] ] ] ] ] ] ] ] ] ] ] ] ] ] ] ] ] ] ] ] ] ] ] ] ] ] ] ] ] ] ] ] ] ] ] ] ] ] ] ] ] ] ] ] ] ] ] ] ] ] ] ] ] ] ] ] ] ] ] ] ] ] ] ] ] ] ] ] ] ] ] ] ] ] ] ] ] ] ] ] ] ] ] ] ] ] ] ] ] ] ] ] ] ] -.;.;.;.w.w.q.( ^ ^ ^ n L L x z z l l j q _ ;./ ] ] ` ] ] ] ] ] ] ] ] ] ] ] ] ] ] ] ] ] ] ] ] ] ] ] ] ] ] ] ] ] ] ] ] ] ) ` +._ < % ; - / / ] ] ` ` ` ] ` ` ` ` ` ` ` ` h !.1XqX",
"rX6XL.v } ' F X.] ] ] ` ` ` / / ( ] ` ' + * X ; ;.] / ] ] ` / ] ] ] ] ] ] ] ] ] ] ] ] ] ] ] ] ] ] ] ] ] ] ] ] ] ` ` ` ` -.-.>.>.>.>.-.-.-.-.-.-.-.` =.=./ I z I x ^ ] ] ` ] ] ` ] ] ] ] ] ] ] ] ] ] ] ] ] ] ] ] ] ] ] ] ] ] ] ] ] ] ] ] ] ] ] ] ] ] ] ] ] ] ] ] ] ] ] ] ] ] ] ] ] ] ] ] ] ] ] ] ] ] ] ] ] ] ] ] ] ] ] ] ] ] ] ] ] ] ] ] ] ] ] ] ] ] ] ] ] ] ] ] ] ] ] ] ] ] ] ] ] ] ] ] ] ] ] ] ] ] ] ] ] ] ] ] ] ] ] ] ] ] ] ] ] ] ] ] ] ] ] ] ] ] ] ] ] ] ] ] ) ) ) ] ] -.;.;.w.w.q.) ^ ^ ^ n L L x z z l l j q _ ;./ ] ] ` ] ] ] ] ] ] ] ] ] ] ] ] ] ] ] ] ] ] ] ] ] ] ] ] ] ] ] ] ] ] ] ] ] *.` +._ < % ; - / / ] ] ` ` ` ] ` ` ` ` ` ` ` ` h !.1XqX",
"rX6XL.v } ' F X.] ] ] ` ] ] / / ( ] ` ' + * X ; ;.] / ] ] ` / ] ] ] ] ] ] ] ] ] ] ] ] ] ] ] ] ] ] ] ] ] ] ] ] ] ` ` ` ` ] >.>.>.>.>.>.>.-.-.-.-.-.` =.=./ I z L x ^ ] ] ` ] ] ` ] ] ] ] ] ] ] ] ] ] ] ] ] ] ] ] ] ] ] ] ] ] ] ] ] ] ] ] ] ] ] ] ] ] ] ] ] ] ] ] ] ] ] ] ] ] ] ] ] ] ] ] ] ] ] ] ] ] ] ] ] ] ] ] ] ] ] ] ] ] ] ] ] ] ] ] ] ] ] ] ] ] ] ] ] ] ] ] ] ] ] ] ] ] ] ] ] ] ] ] ] ] ] ] ] ] ] ] ] ] ] ] ] ] ] ] ] ] ] ] ] ] ] ] ] ] ] ] ] ] ] ] ] ] ] ] ] ) ) ) ] -.;.;.w.p.q.) ^ ^ ^ n L L x z z l l j q _ ;./ ] ] ` ] ] ] ] ] ] ] ] ] ] ] ] ] ] ] ] ] ] ] ] ] ] ] ] ] ] ] ] ] ] ] ] ] ) ` +._ < % ; - / / ] ] ` ` ` ] ` ` ` ` ` ` ` ` h !.1XqX",
"rX6XL.v ..' F X.] ] ] ` ] ] / / ( ] ` ' + * X ; ;.] / ] ] ` / ] ] ] ] ] ] ] ] ] ] ] ] ] ] ] ] ] ] ] ] ] ] ] ] ] ` ` ` ` ` -.>.>.>.>.>.>.-.-.-.-.-.` =.=./ I z L x ^ ] ] ` ] ] ` ] ] ] ] ] ] ] ] ] ] ] ] ] ] ] ] ] ] ] ] ] ] ] ] ] ] ] ] ] ] ] ] ] ] ] ] ] ] ] ] ] ] ] ] ] ] ] ] ] ] ] ] ] ] ] ] ] ] ] ] ] ] ] ] ] ] ] ] ] ] ] ] ] ] ] ] ] ] ] ] ] ] ] ] ] ] ] ] ] ] ] ] ] ] ] ] ] ] ] ] ] ] ] ] ] ] ] ] ] ] ] ] ] ] ] ] ] ] ] ] ] ] ] ] ] ] ] ] ] ] ] ] ] ] ] ] ] ] ) ) ] ] ;.q.p.p.q.) ^ ^ ^ n L L x z z l l j q ` ;./ ] ] ` ] ] ] ] ] ] ] ] ] ] ] ] ] ] ] ] ] ] ] ] ] ] ] ] ] ] ] ] ] ] ] ] ] ) ` +._ < % ; - / / ] ] ` ` ` ] ` ` ` ` ` ` ` ` h !.1XqX",
"rX6X`.v } ' F X.] ] ] ` ] ` / / ( ] ` ' + * X ; ;.] / ] ] ` / ] ] ] ] ] ] ] ] ] ] ] ] ] ] ] ] ] ] ] ] ] ] ] ] ] ` ` ` ` ] >.>.>.>.>.>.>.-.-.-.-.-.` ` =./ I z L x ^ ] ] ` ] ] ` ] ] ] ] ] ] ] ] ] ] ] ] ] ] ] ] ] ] ] ] ] ] ] ] ] ] ] ] ] ] ] ] ] ] ] ] ] ] ] ] ] ] ] ] ] ] ] ] ] ] ] ] ] ] ] ] ] ] ] ] ] ] ] ] ] ] ] ] ] ] ] ] ] ] ] ] ] ] ] ] ] ] ] ] ] ] ] ] ] ] ] ] ] ] ] ] ] ] ] ] ] ] ] ] ] ] ] ] ] ] ] ] ] ] ] ] ] ] ] ] ] ] ] ] ] ] ] ] ] ] ] ] ] ] ] ] ] ) / / / ] ;.;.p.p.q.( ^ ^ ^ n L L x z z l l j q _ <./ ] ] ` ] ] ] ] ] ] ] ] ] ] ] ] ] ] ] ] ] ] ] ] ] ] ] ] ] ] ] ] ] ] ] ] ] ) ` +._ < % ; - / / ] ] ` ` ` ] ` ` ` ` ` ` ` ` h !.1XqX",
"rX6XL.v } ' F X.] ] ] ` ` ` / / ( ] ` ' + * X ; ;.] / ] ] ` / ] ] ] ] ] ] ] ] ] ] ] ] ] ] ] ] ] ] ] ] ] ] ] ] ] ` ` ` ` ] >.>.>.>.>.>.>.-.-.-.-.>.` ` ] / I z L x ^ ] ] ` ] ] ` ] ] ] ] ] ] ] ] ] ] ] ] ] ] ] ] ] ] ] ] ] ] ] ] ] ] ] ] ] ] ] ] ] ] ] ] ] ] ] ] ] ] ] ] ] ] ] ] ] ] ] ] ] ] ] ] ] ] ] ] ] ] ] ] ] ] ] ] ] ] ] ] ] ] ] ] ] ] ] ] ] ] ] ] ] ] ] ] ] ] ] ] ] ] ] ] ] ] ] ] ] ] ] ] ] ] ] ] ] ] ] ] ] ] ] ] ] ] ] ] ] ] ] ] ] ] ] ] ] ] ] ] ] ] ] ] ) / / / / ] -.;.p.p.q.( ^ ^ ^ n L L x z z l l j q _ <./ ] ] ` O.] ] ] ] ] ] ] ] ] ] ] ] ] ] ] ] ] ] ] ] ] ] ] ] ] ] ] ] ] ] ] ] ) ` +._ < % ; - / / ] ] ` ` ` ] ` ` ` ` ` ` ` ` h !.1XqX",
"rX6XL.v } ' F X.] ] ] ` ` ` / / ( ] ` ' + * X ; ;.] / ] ] ` / ] ] ] ] ] ] ] ] ] ] ] ] ] ] ] ] ] ] ] ] ] ] ] ] ] ` ` ` ` ] -.>.>.>.>.>.>.-.-.-.-.*.) -.-.^ n z n x ^ ] ] ` ] ] ` ] ] ] ] ] ] ] ] ] ] ] ] ] ] ] ] ] ] ] ] ] ] ] ] ] ] ] ] ] ] ] ] ] ] ] ] ] ] ] ] ] ] ] ] ] ] ] ] ] ] ] ] ] ] ] ] ] ] ] ] ] ] ] ] ] ] ] ] ] ] ] ] ] ] ] ] ] ] ] ] ] ] ] ] ] ] ] ] ] ] ] ] ] ] ] ] ] ] ] ] ] ] ] ] ] ] ] ] ] ] ] ] ] ] ] ] ] ] ] ] ] ] ] ] ] ] ] ] ] ] ] ] ] ] ] ] ] ` ] ] ] ] ;.u.w.p.q.) ^ ^ ^ n L L x z z l l j q _ ;./ ] ] ` O.] ] ] ] ] ] ] ] ] ] ] ] ] ] ] ] ] ] ] ] ] ] ] ] ] ] ] ] ] ] ] ] ) ` +._ < % ; - / / ] ] ` ` ` ] ` ` ` ` ` ` ` ` h !.1XqX",
"rX6XL.v } ' F X.] ] ] ` ` ` / / ( -.` ' + * X ; ;.] / ] ] ` / ] ] ] ] ] ] ] ] ] ] ] ] ] ] ] ] ] ] ] ] ] ] ] ] ] ` ` ` ` ] >.>.>.>.>.>.>.-.-.-.-.*.) -.-.^ n z n x ^ ] ] ` ] ] ` ] ] ] ] ] ] ] ] ] ] ] ] ] ] ] ] ] ] ] ] ] ] ] ] ] ] ] ] ] ] ] ] ] ] ] ] ] ] ] ] ] ] ] ] ] ] ] ] ] ] ] ] ] ] ] ] ] ] ] ] ] ] ] ] ] ] ] ] ] ] ] ] ] ] ] ] ] ] ] ] ] ] ] ] ] ] ] ] ] ] ] ] ] ] ] ] ] ] ] ] ] ] ] ] ] ] ] ] ] ] ] ] ] ] ] ] ] ] ] ] ] ] ] ] ] ] ] ] ] ] ] ] ] ] ] ] ] ` ] ] ] ] ;.u.w.p.q.) ^ ^ ^ n L L x z z l l j q _ ;./ ] ] ` O.] ] ] ] ] ] ] ] ] ] ] ] ] ] ] ] ] ] ] ] ] ] ] ] ] ] ] ] ] ] ] ] ) ` +.! < % ; - / / ] ] ` ` ` ] ` ` ` ` ` ` ` ` h !.1XqX",
"rX6XL.v ..' F X.] ] ] ` ` ` / / ( -.` ' + * X ; ;.] / ] ] ` / ] ] ] ] ] ] ] ] ] ] ] ] ] ] ] ] ] ] ] ] ] ] ] ] ] ` ` ` ` ` -.>.>.>.>.>.>.-.-.-.-.*.) ] ` ^ n z n x ^ ] ] ` ] ] ` ] ] ] ] ] ] ] ] ] ] ] ] ] ] ] ] ] ] ] ] ] ] ] ] ] ] ] ] ] ] ] ] ] ] ] ] ] ] ] ] ] ] ] ] ] ] ] ] ] ] ] ] ] ] ] ] ] ] ] ] ] ] ] ] ] ] ] ] ] ] ] ] ] ] ] ] ] ] ] ] ] ] ] ] ] ] ] ] ] ] ] ] ] ] ] ] ] ] ] ] ] ] ] ] ] ] ] ] ] ] ] ] ] ] ] ] ] ] ] ] ] ] ] ] ] ] ] ] ] ] ] ] ] ] ] ] ] ` ] ] ] ] ;.u.w.p.q.) ^ ^ ^ n L L x z z l l j q _ ;./ ] ] ` ] ] ] ] ] ] ] ] ] ] ] ] ] ] ] ] ] ] ] ] ] ] ] ] ] ] ] ] ] ] ] ] ] ) ` +._ < % ; - / / ] ] ` ` ` ] ` ` ` ` ` ` ` ` h !.1XqX",
"rX6XL.v ..' F X.] ] ] ` ` ` / / ) -.` ' + * X ; ;.] / ] ] ` / ] ] ] ] ] ] ] ] ] ] ] ] ] ] ] ] ] ] ] ] ] ] ] ] ] ` ` ` ` ` -.>.>.>.>.>.>.-.-.-.-.*.) ] ` ^ n z n x ^ ] ] ` ] ] ` ] ] ] ] ] ] ] ] ] ] ] ] ] ] ] ] ] ] ] ] ] ] ] ] ] ] ] ] ] ] ] ] ] ] ] ] ] ] ] ] ] ] ] ] ] ] ] ] ] ] ] ] ] ] ] ] ] ] ] ] ] ] ] ] ] ] ] ] ] ] ] ] ] ] ] ] ] ] ] ] ] ] ] ] ] ] ] ] ] ] ] ] ] ] ] ] ] ] ] ] ] ] ] ] ] ] ] ] ] ] ] ] ] ] ] ] ] ] ] ] ] ] ] ] ] ] ] ] ] ] ] ] ] ] ] ] ] ` ] ] ] ] ;.u.w.p.q.) ^ ^ ^ n L L x z z l l j q _ ;./ ] ] ` ] ] ] ] ] ] ] ] ] ] ] ] ] ] ] ] ] ] ] ] ] ] ] ] ] ] ] ] ] ] ] ] ] *.` +._ < % ; - / / ] ] ` ` ` ] ` ` ` ` ` ` ` ` h !.1XqX",
"rX6XL.v } ' F X.] ] ] ` ` ` / / ( ] ` ' + * X ; ;.] / ] ] ` / ] ] ] ] ] ] ] ] ] ] ] ] ] ] ] ] ] ] ] ] ] ] ] ] ] ` ` ` ` -.-.>.>.>.>.>.>.-.-.-.-.*.) ] ` ^ n z n x ^ ] ] ` ] ] ` ] ] ] ] ] ] ] ] ] ] ] ] ] ] ] ] ] ] ] ] ] ] ] ] ] ] ] ] ] ] ] ] ] ] ] ] ] ] ] ] ] ] ] ] ] ] ] ] ] ] ] ] ] ] ] ] ] ] ] ] ] ] ] ] ] ] ] ] ] ] ] ] ] ] ] ] ] ] ] ] ] ] ] ] ] ] ] ] ] ] ] ] ] ] ] ] ] ] ] ] ] ] ] ] ] ] ] ] ] ] ] ] ] ] ] ] ] ] ] ] ] ] ] ] ] ] ] ] ] ] ] ] ] ] ] ] ] ` ] ] ] ] ;.u.w.p.q.) ^ ^ ^ n L L x z z l l j q _ >./ ] ] ` ] ] ] ] ] ] ] ] ] ] ] ] ] ] ] ] ] ] ] ] ] ] ] ] ] ] ] ] ] ] ] ] ] ) ` +._ < % ; - / / ] ] ` ` ` ] ` ` ` ` ` ` ` ` h !.1XqX",
"rX6XL.v } ' F X.] ] ] ` ` ` / / ( ] ` ' + * X ; ;.] / ] ] ` / ] ] ] ] ] ] ] ] ] ] ] ] ] ] ] ] ] ] ] ] ] ] ] ] ] ` ` ` ` -.-.>.>.>.>.>.>.-.-.-.-.*.) ] ` ^ n z n x ^ ] ] ` ] ] ` ] ] ] ] ] ] ] ] ] ] ] ] ] ] ] ] ] ] ] ] ] ] ] ] ] ] ] ] ] ] ] ] ] ] ] ] ] ] ] ] ] ] ] ] ] ] ] ] ] ] ] ] ] ] ] ] ] ] ] ] ] ] ] ] ] ] ] ] ] ] ] ] ] ] ] ] ] ] ] ] ] ] ] ] ] ] ] ] ] ] ] ] ] ] ] ] ] ] ] ] ] ] ] ] ] ] ] ] ] ] ] ] ] ] ] ] ] ] ] ] ] ] ] ] ] ] ] ] ] ] ] ] ] ] ] ] ] ` ] ] ] ] ;.u.w.p.q.) ^ ^ ^ n L L x z z l l j q _ >.) ] ] ` ] ] ] ] ] ] ] ] ] ] ] ] ] ] ] ] ] ] ] ] ] ] ] ] ] ] ] ] ] ] ] ] ] ) ` +._ < % ; - / / ] ] ` ` ` ] ` ` ` ` ` ` ` ` h !.1XqX",
"rX6XL.v } ' F X.] ] ] ` ` ` / / ( ] ` ' + * X ; ;.] / ] ] ` / ] ] ] ] ] ] ] ] ] ] ] ] ] ] ] ] ] ] ] ] ] ] ] ] ] ` ` ` ` -.-.>.>.>.>.>.>.-.-.-.-.*.) -.-.^ n z n x ^ ] ] ` ] ] ` ] ] ] ] ] ] ] ] ] ] ] ] ] ] ] ] ] ] ] ] ] ] ] ] ] ] ] ] ] ] ] ] ] ] ] ] ] ] ] ] ] ] ] ] ] ] ] ] ] ] ] ] ] ] ] ] ] ] ] ] ] ] ] ] ] ] ] ] ] ] ] ] ] ] ] ] ] ] ] ] ] ] ] ] ] ] ] ] ] ] ] ] ] ] ] ] ] ] ] ] ] ] ] ] ] ] ] ] ] ] ] ] ] ] ] ] ] ] ] ] ] ] ] ] ] ] ] ] ] ] ] ] ] ] ] ] ] ` ] ] ] ] ;.u.w.p.q.) ^ ^ ^ n L L x z z l l j q _ ;./ ] ] ` ] ] ] ] ] ] ] ] ] ] ] ] ] ] ] ] ] ] ] ] ] ] ] ] ] ] ] ] ] ] ] ] ] ) ` +._ < % ; - / / ] ] ` ` ` ] ` ` ` ` ` ` ` ` h !.1XqX",
"rX6XL.v } ' F X.] ] ] ` ` ` / / ( ] ` ' + * X ; ;.] / ] ] ` / ] ] ] ] ] ] ] ] ] ] ] ] ] ] ] ] ] ] ] ] ] ] ] ] ] ` ` ` ` -.-.>.>.>.>.>.>.-.-.-.-.*.) -.-.^ n z n x ^ ] ] ` ] ] ` ] ] ] ] ] ] ] ] ] ] ] ] ] ] ] ] ] ] ] ] ] ] ] ] ] ] ] ] ] ] ] ] ] ] ] ] ] ] ] ] ] ] ] ] ] ] ] ] ] ] ] ] ] ] ] ] ] ] ] ] ] ] ] ] ] ] ] ] ] ] ] ] ] ] ] ] ] ] ] ] ] ] ] ] ] ] ] ] ] ] ] ] ] ] ] ] ] ] ] ] ] ] ] ] ] ] ] ] ] ] ] ] ] ] ] ] ] ] ] ] ] ] ] ] ] ] ] ] ] ] ] ] ] ] ] ] ] ` ] ] ] ] ;.p.w.p.q.) ^ ^ ^ n L L x z z l l j q _ ;./ ] ] ` ] ] ] ] ] ] ] ] ] ] ] ] ] ] ] ] ] ] ] ] ] ] ] ] ] ] ] ] ] ] ] ] ] ) ` +._ < % ; - / / ] ] ` ` ` ] ` ` ` ` ` ` ` ` h !.1XqX",
"rX6X`.v } ' F X.] ] ] ` ` ` / / ( ] ` ' + * X ; ;.] / ] ] ` / ] ] ] ] ] ] ] ] ] ] ] ] ] ] ] ] ] ] ] ] ] ] ] ] ] ` ` ` ` ] >.>.>.>.>.>.>.-.-.-.-.*.) ] =.^ n z n x ^ ] ] ` ] ] ` ] ] ] ] ] ] ] ] ] ] ] ] ] ] ] ] ] ] ] ] ] ] ] ] ] ] ] ] ] ] ] ] ] ] ] ] ] ] ] ] ] ] ] ] ] ] ] ] ] ] ] ] ] ] ] ] ] ] ] ] ] ] ] ] ] ] ] ] ] ] ] ] ] ] ] ] ] ] ] ] ] ] ] ] ] ] ] ] ] ] ] ] ] ] ] ] ] ] ] ] ] ] ] ] ] ] ] ] ] ] ] ] ] ] ] ] ] ] ] ] ] ] ] ] ] ] ] ] ] ] ] ] ] ] ] ] ] ` ] ] ] ] ;.u.w.p.q.) ^ ^ ^ n L L x z z l l j q ` ;./ ] ] ` ] ] ] ] ] ] ] ] ] ] ] ] ] ] ] ] ] ] ] ] ] ] ] ] ] ] ] ] ] ] ] ] ] ) ` +._ < % ; - / / ] ] ` ` ` ] ` ` ` ` ` ` ` ` h !.1XqX",
"rX6X`.v } ' F X.] ] ] ` ` ` / / ( -.` ' + * X ; ;.] / ] ] ` / ] ] ] ] ] ] ] ] ] ] ] ] ] ] ] ] ] ] ] ] ] ] ] ] ] ` ` ` ` ` -.>.>.>.>.>.>.-.-.-.-.*.) -.` ^ n z n x ^ ] ] ` ] ] ` ] ] ] ] ] ] ] ] ] ] ] ] ] ] ] ] ] ] ] ] ] ] ] ] ] ] ] ] ] ] ] ] ] ] ] ] ] ] ] ] ] ] ] ] ] ] ] ] ] ] ] ] ] ] ] ] ] ] ] ] ] ] ] ] ] ] ] ] ] ] ] ] ] ] ] ] ] ] ] ] ] ] ] ] ] ] ] ] ] ] ] ] ] ] ] ] ] ] ] ] ] ] ] ] ] ] ] ] ] ] ] ] ] ] ] ] ] ] ] ] ] ] ] ] ] ] ] ] ] ] ] ] ] ] ] ] ] ` ] ] ] ] ;.u.w.p.q.) ^ ^ ^ n L L x z z l l j q ` ;./ ] ] ` ] ] ] ] ] ] ] ] ] ] ] ] ] ] ] ] ] ] ] ] ] ] ] ] ] ] ] ] ] ] ] ] ] ) ` +.! < % ; - / / ] ] ` ` ` ] ` ` ` ` ` ` ` ` h !.1XqX",
"rX6XL.v } ' F X.] ] ] ` ` ` / / ( -.` ' + * X ; ;.] / ] ] ` / ] ] ] ] ] ] ] ] ] ] ] ] ] ] ] ] ] ] ] ] ] ] ] ] ] ` ` ` ` ] >.>.>.>.>.>.>.-.-.-.-.*.) ] ` ^ n z n x ^ ] ] ` ] ] ` ] ] ] ] ] ] ] ] ] ] ] ] ] ] ] ] ] ] ] ] ] ] ] ] ] ] ] ] ] ] ] ] ] ] ] ] ] ] ] ] ] ] ] ] ] ] ] ] ] ] ] ] ] ] ] ] ] ] ] ] ] ] ] ] ] ] ] ] ] ] ] ] ] ] ] ] ] ] ] ] ] ] ] ] ] ] ] ] ] ] ] ] ] ] ] ] ] ] ] ] ] ] ] ] ] ] ] ] ] ] ] ] ] ] ] ] ] ] ] ] ] ] ] ] ] ] ] ] ] ] ] ] ] ] ] ] ] ` ] ] ] ] ;.u.w.p.q.) ^ ^ ^ n L L x z z l l j q _ <.) ] ] ` ] ] ] ] ] ] ] ] ] ] ] ] ] ] ] ] ] ] ] ] ] ] ] ] ] ] ] ] ] ] ] ] ] ) ` +._ < % ; - / / ] ] ` ` ` ] ` ` ` ` ` ` ` ` h !.1XqX",
"rX6XL.v } ' F X.] ] ] ` ` ` / / ) -.` ' + * X ; ;.] / ] ] ` / ] ] ] ] ] ] ] ] ] ] ] ] ] ] ] ] ] ] ] ] ] ] ] ] ] ` ` ` ` ] >.>.>.>.>.>.>.-.-.-.-.*.) ] =.^ n z n x ^ ] ] ` ] ] ` ] ] ] ] ] ] ] ] ] ] ] ] ] ] ] ] ] ] ] ] ] ] ] ] ] ] ] ] ] ] ] ] ] ] ] ] ] ] ] ] ] ] ] ] ] ] ] ] ] ] ] ] ] ] ] ] ] ] ] ] ] ] ] ] ] ] ] ] ] ] ] ] ] ] ] ] ] ] ] ] ] ] ] ] ] ] ] ] ] ] ] ] ] ] ] ] ] ] ] ] ] ] ] ] ] ] ] ] ] ] ] ] ] ] ] ] ] ] ] ] ] ] ] ] ] ] ] ] ] ] ] ] ] ] ] ] ] ` ] ] ] ] ;.u.w.p.q.) ^ ^ ^ n L L x z z l l j q _ <./ ] ] ` O.] ] ] ] ] ] ] ] ] ] ] ] ] ] ] ] ] ] ] ] ] ] ] ] ] ] ] ] ] ] ] ] *.` +._ < % ; - / / ] ] ` ` ` ] ` ` ` ` ` ` ` ` h !.1XqX",
"rX6XL.v } ' F X.] ] ] ` ` ` / / ( ] ` ' + * X ; ;.] / ] ] ` / ] ] ] ] ] ] ] ] ] ] ] ] ] ] ] ] ] ] ] ] ] ] ] ] ] ` ` ` ` ] -.>.>.>.>.>.>.-.-.-.-.*.) ] ] ^ n z n x ^ ] ] ` ] ] ` ] ] ] ] ] ] ] ] ] ] ] ] ] ] ] ] ] ] ] ] ] ] ] ] ] ] ] ] ] ] ] ] ] ] ] ] ] ] ] ] ] ] ] ] ] ] ] ] ] ] ] ] ] ] ] ] ] ] ] ] ] ] ] ] ] ] ] ] ] ] ] ] ] ] ] ] ] ] ] ] ] ] ] ] ] ] ] ] ] ] ] ] ] ] ] ] ] ] ] ] ] ] ] ] ] ] ] ] ] ] ] ] ] ] ] ] ] ] ] ] ] ] ] ] ] ] ] ] ] ] ] ] ] ] ] ] ] ` ] ] ] ] ;.u.w.p.q.) ^ ^ ^ n L L x z z l l j q _ ;./ ] ] ` O.] ] ] ] ] ] ] ] ] ] ] ] ] ] ] ] ] ] ] ] ] ] ] ] ] ] ] ] ] ] ] ] ) ` +._ < % ; - / / ] ] ` ` ` ] ` ` ` ` ` ` ` ` h !.1XqX",
"rX6XL.v } ' F X.] ] ] ` ` ` / / ( ] ` ' + * X ; ;.] / ] ] ` / ] ] ] ] ] ] ] ] ] ] ] ] ] ] ] ] ] ] ] ] ] ] ] ] ] ` ` ` ` ] >.>.>.>.>.>.>.-.-.-.-.*.) ] -.^ n z n x / ] ] ` ] ] ` ] ] ] ] ] ] ] ] ] ] ] ] ] ] ] ] ] ] ] ] ] ] ] ] ] ] ] ] ] ] ] ] ] ] ] ] ] ] ] ] ] ] ] ] ] ] ] ] ] ] ] ] ] ] ] ] ] ] ] ] ] ] ] ] ] ] ] ] ] ] ] ] ] ] ] ] ] ] ] ] ] ] ] ] ] ] ] ] ] ] ] ] ] ] ] ] ] ] ] ] ] ] ] ] ] ] ] ] ] ] ] ] ] ] ] ] ] ] ] ] ] ] ] ] ] ] ] ] ] ] ] ] ] ] ] ] ] ` ] ] ] ] ;.u.w.p.q.) ^ ^ ^ n L L x z z l l j q _ <./ ] ] ` O.] ] ] ] ] ] ] ] ] ] ] ] ] ] ] ] ] ] ] ] ] ] ] ] ] ] ] ] ] ] ] ] ) ` +._ < % ; - / / ] ] ` ` ` ] ` ` ` ` ` ` ` ` h !.1XqX",
"rX6XL.v } ' F X.] ] ] ` ` ` / / ( ] ` ' + * X ; ;.] / ] ] ` / ] ] ] ] ] ] ] ] ] ] ] ] ] ] ] ] ] ] ] ] ] ] ] ] ] ` ` ` ` ` -.>.>.>.>.>.>.-.-.-.-.*.) -.-.^ n z n x ^ ] ] ` ] ] ` ] ] ] ] ] ] ] ] ] ] ] ] ] ] ] ] ] ] ] ] ] ] ] ] ] ] ] ] ] ] ] ] ] ] ] ] ] ] ] ] ] ] ] ] ] ] ] ] ] ] ] ] ] ] ] ] ] ] ] ] ] ] ] ] ] ] ] ] ] ] ] ] ] ] ] ] ] ] ] ] ] ] ] ] ] ] ] ] ] ] ] ] ] ] ] ] ] ] ] ] ] ] ] ] ] ] ] ] ] ] ] ] ] ] ] ] ] ] ] ] ] ] ] ] ] ] ] ] ] ] ] ] ] ] ] ] ] ` ] ] ] ] ;.u.w.p.q.) ^ ^ ^ n L L x z l l l j q _ <./ ] ] ` ] ] ] ] ] ] ] ] ] ] ] ] ] ] ] ] ] ] ] ] ] ] ] ] ] ] ] ] ] ] ] ] ] ) ` +._ < % ; - / / ] ] ` ` ` ] ` ` ` ` ` ` ` ` h !.1XqX",
"rX6XL.v } ' F X.] ] ] ` ` ` / / ( ] ` ' + * X ; ;.] / ] ] ` / ] ] ] ] ] ] ] ] ] ] ] ] ] ] ] ] ] ] ] ] ] ] ] ] ] ` ` ` ` ` -.>.>.>.>.>.>.-.-.-.-.*.) -.] ^ n z n x ^ ] ] ` ] ] ` ] ] ] ] ] ] ] ] ] ] ] ] ] ] ] ] ] ] ] ] ] ] ] ] ] ] ] ] ] ] ] ] ] ] ] ] ] ] ] ] ] ] ] ] ] ] ] ] ] ] ] ] ] ] ] ] ] ] ] ] ] ] ] ] ] ] ] ] ] ] ] ] ] ] ] ] ] ] ] ] ] ] ] ] ] ] ] ] ] ] ] ] ] ] ] ] ] ] ] ] ] ] ] ] ] ] ] ] ] ] ] ] ] ] ] ] ] ] ] ] ] ] ] ] ] ] ] ] ] ] ] ] ] ] ] ] ] ` ] ] ] ] ;.u.w.p.q.) ^ ^ ^ n L L x z z l l w q _ >./ ] ] ` ] ] ] ] ] ] ] ] ] ] ] ] ] ] ] ] ] ] ] ] ] ] ] ] ] ] ] ] ] ] ] ] ] ) ` +._ < % ; - / / ] ] ` ` ` ] ` ` ` ` ` ` ` ` h !.1XqX",
"rX6XL.v } ' F X.] ] ] ` ` ` / / ( ] ` ' + * X ; ;.] / ] ] ` / ] ] ] ] ] ] ] ] ] ] ] ] ] ] ] ] ] ] ] ] ] ] ] ] ] ` ` ` ` -.-.>.>.>.>.>.-.-.-.-.-.*.) -.-.^ n z n x ^ ] ] ` ] ] ` ] ] ] ] ] ] ] ] ] ] ] ] ] ] ] ] ] ] ] ] ] ] ] ] ] ] ] ] ] ] ] ] ] ] ] ] ] ] ] ] ] ] ] ] ] ] ] ] ] ] ] ] ] ] ] ] ] ] ] ] ] ] ] ] ] ] ] ] ] ] ] ] ] ] ] ] ] ] ] ] ] ] ] ] ] ] ] ] ] ] ] ] ] ] ] ] ] ] ] ] ] ] ] ] ] ] ] ] ] ] ] ] ] ] ] ] ] ] ] ] ] ] ] ] ] ] ] ] ] ] ] ] ] ] ] ] ] ` ] ] ] ] ;.u.w.p.q.) ^ ^ ^ n L L x z z l l j q _ ;./ ] ] ` ] ] ] ] ] ] ] ] ] ] ] ] ] ] ] ] ] ] ] ] ] ] ] ] ] ] ] ] ] ] ] ] ] ) ` +._ < % ; - / / ] ] ` ` ` ] ` ` ` ` ` ` ` ` h !.1XqX",
"rX6XL.v } ' F X.] ] ] ` ` ` / / ( ] ` ' + * X ; ;.] / ] ] ` / ] ] ] ] ] ] ] ] ] ] ] ] ] ] ] ] ] ] ] ] ] ] ] ] ] ` ` ` ` -.-.>.>.>.>.>.>.-.-.-.-.*.) -.=.^ n z n x ^ ] ] ` ] ] ` ] ] ] ] ] ] ] ] ] ] ] ] ] ] ] ] ] ] ] ] ] ] ] ] ] ] ] ] ] ] ] ] ] ] ] ] ] ] ] ] ] ] ] ] ] ] ] ] ] ] ] ] ] ] ] ] ] ] ] ] ] ] ] ] ] ] ] ] ] ] ] ] ] ] ] ] ] ] ] ] ] ] ] ] ] ] ] ] ] ] ] ] ] ] ] ] ] ] ] ] ] ] ] ] ] ] ] ] ] ] ] ] ] ] ] ] ] ] ] ] ] ] ] ] ] ] ] ] ] ] ] ] ] ] ] ] ] ` ] ] ] ] ;.u.w.p.q.) ^ ^ ^ n L L x z z l l j q _ ;./ ] ] ` ] ] ] ] ] ] ] ] ] ] ] ] ] ] ] ] ] ] ] ] ] ] ] ] ] ] ] ] ] ] ] ] ] ) ` +._ < % ; - / / ] ] ` ` ` ] ` ` ` ` ` ` ` ` h !.1XqX",
"rX6XL.v } ' F X.] ] ] ` ` ` / / ( ] ` ' + * X ; ;.] / ] ] ` / ] ] ] ] ] ] ] ] ] ] ] ] ] ] ] ] ] ] ] ] ] ] ] ] ] ` ` ` ` -.-.>.>.>.>.>.>.-.-.-.-.*.) -.=.^ n z n x ^ ] ] ` ] ] ` ] ] ] ] ] ] ] ] ] ] ] ] ] ] ] ] ] ] ] ] ] ] ] ] ] ] ] ] ] ] ] ] ] ] ] ] ] ] ] ] ] ] ] ] ] ] ] ] ] ] ] ] ] ] ] ] ] ] ] ] ] ] ] ] ] ] ] ] ] ] ] ] ] ] ] ] ] ] ] ] ] ] ] ] ] ] ] ] ] ] ] ] ] ] ] ] ] ] ] ] ] ] ] ] ] ] ] ] ] ] ] ] ] ] ] ] ] ] ] ] ] ] ] ] ] ] ] ] ] ] ] ] ] ] ] ] ] ` ] ] ] ] ;.u.w.p.q.) ^ ^ ^ n L L x z z l l j q _ ;./ ] ] ` ] ] ] ] ] ] ] ] ] ] ] ] ] ] ] ] ] ] ] ] ] ] ] ] ] ] ] ] ] ] ] ] ] ) ` +._ < % ; - / / ] ] ` ` ` ] ` ` ` ` ` ` ` ` h !.1XqX",
"rX6XL.v } ' F X.] ] ] ` ` ` / / ( ] ` ' + * X ; ;.] / ] ] ` / ] ] ] ] ] ] ] ] ] ] ] ] ] ] ] ] ] ] ] ] ] ] ] ] ] ` ` ` ` -.-.>.>.>.>.>.>.-.-.-.-.*.) -.-.^ n z n x ^ ] ] ` ] ] ` ] ] ] ] ] ] ] ] ] ] ] ] ] ] ] ] ] ] ] ] ] ] ] ] ] ] ] ] ] ] ] ] ] ] ] ] ] ] ] ] ] ] ] ] ] ] ] ] ] ] ] ] ] ] ] ] ] ] ] ] ] ] ] ] ] ] ] ] ] ] ] ] ] ] ] ] ] ] ] ] ] ] ] ] ] ] ] ] ] ] ] ] ] ] ] ] ] ] ] ] ] ] ] ] ] ] ] ] ] ] ] ] ] ] ] ] ] ] ] ] ] ] ] ] ] ] ] ] ] ] ] ] ] ] ] ] ] ` ] ] ] ] ;.u.w.p.q.) ^ ^ ^ n L L x z z l l j q _ ;./ ] ] ` ] ] ] ] ] ] ] ] ] ] ] ] ] ] ] ] ] ] ] ] ] ] ] ] ] ] ] ] ] ] ] ] ] ) ` +._ < % ; - / / ] ] ` ` ` ] ` ` ` ` ` ` ` ` h !.1XqX",
"rX6XL.v } ' F X.] ] ] ` ` ` / / ( -.` ' + * X ; ;.] / ] ] ` / ] ] ] ] ] ] ] ] ] ] ] ] ] ] ] ] ] ] ] ] ] ] ] ] ] ` ` ` ` ] >.>.>.>.>.>.>.-.-.-.-.*.) ] ` ^ n z n x ^ ] ] ` ] ] ` ] ] ] ] ] ] ] ] ] ] ] ] ] ] ] ] ] ] ] ] ] ] ] ] ] ] ] ] ] ] ] ] ] ] ] ] ] ] ] ] ] ] ] ] ] ] ] ] ] ] ] ] ] ] ] ] ] ] ] ] ] ] ] ] ] ] ] ] ] ] ] ] ] ] ] ] ] ] ] ] ] ] ] ] ] ] ] ] ] ] ] ] ] ] ] ] ] ] ] ] ] ] ] ] ] ] ] ] ] ] ] ] ] ] ] ] ] ] ] ] ] ] ] ] ] ] ] ] ] ] ] ] ] ] ] ] ] ` ] ] ] ] ;.u.w.p.q.) ^ ^ ^ n L L x z z l l j q _ ;./ ] ] ` ] ] ] ] ] ] ] ] ] ] ] ] ] ] ] ] ] ] ] ] ] ] ] ] ] ] ] ] ] ] ] ] ] ) ` +._ < % ; - / / ] ] ` ` ` ] ` ` ` ` ` ` ` ` h !.1XqX",
"rX6XL.v ..' F X.] ] ] ` ` ` / / ( -.` ' + * X ; ;.] / ] ] ` / ] ] ] ] ] ] ] ] ] ] ] ] ] ] ] ] ] ] ] ] ] ] ] ] ] ` ` ` ` ` -.>.>.>.>.>.>.-.-.-.-.*.) ] ` ^ n z n x ^ ] ] ` ] ] ` ] ] ] ] ] ] ] ] ] ] ] ] ] ] ] ] ] ] ] ] ] ] ] ] ] ] ] ] ] ] ] ] ] ] ] ] ] ] ] ] ] ] ] ] ] ] ] ] ] ] ] ] ] ] ] ] ] ] ] ] ] ] ] ] ] ] ] ] ] ] ] ] ] ] ] ] ] ] ] ] ] ] ] ] ] ] ] ] ] ] ] ] ] ] ] ] ] ] ] ] ] ] ] ] ] ] ] ] ] ] ] ] ] ] ] ] ] ] ] ] ] ] ] ] ] ] ] ] ] ] ] ] ] ] ] ] ] ` ] ] ] ] ;.u.w.p.q.) ^ ^ ^ n L L x z z l l j q ` ;./ ] ] ` ] ] ] ] ] ] ] ] ] ] ] ] ] ] ] ] ] ] ] ] ] ] ] ] ] ] ] ] ] ] ] ] ] ) ` +._ < % ; - / / ] ] ` ` ` ] ` ` ` ` ` ` ` ` h !.1XqX",
"rX6X`.v } ' F X.] ] ] ` ` ` / / ( -.` ' + * X ; ;.] / ] ] ` / ] ] ] ] ] ] ] ] ] ] ] ] ] ] ] ] ] ] ] ] ] ] ] ] ] ` ` ` ` ] >.>.>.>.>.>.>.-.-.-.-.*.) -.] ^ n z n x ^ ] ] ` ] ] ` ] ] ] ] ] ] ] ] ] ] ] ] ] ] ] ] ] ] ] ] ] ] ] ] ] ] ] ] ] ] ] ] ] ] ] ] ] ] ] ] ] ] ] ] ] ] ] ] ] ] ] ] ] ] ] ] ] ] ] ] ] ] ] ] ] ] ] ] ] ] ] ] ] ] ] ] ] ] ] ] ] ] ] ] ] ] ] ] ] ] ] ] ] ] ] ] ] ] ] ] ] ] ] ] ] ] ] ] ] ] ] ] ] ] ] ] ] ] ] ] ] ] ] ] ] ] ] ] ] ] ] ] ] ] ] ] ] ` ] ] ] ] ;.u.w.p.q.) ^ ^ ^ n L L x z z l l j q _ <./ ] ] ` ] ] ] ] ] ] ] ] ] ] ] ] ] ] ] ] ] ] ] ] ] ] ] ] ] ] ] ] ] ] ] ] ] ) ` +._ < % ; - / / ] ] ` ` ` ] ` ` ` ` ` ` ` ` h !.1XqX",
"rX6XL.v } ' F X.] ] ] ` ` ` / / ( ] ` ' + * X ; ;.] / ] ] ` / ] ] ] ] ] ] ] ] ] ] ] ] ] ] ] ] ] ] ] ] ] ] ] ] ] ` ` ` ` ] >.>.>.>.>.>.>.-.-.-.-.*.) ] ] ^ n z n x ^ ] ] ` ] ] ` ] ] ] ] ] ] ] ] ] ] ] ] ] ] ] ] ] ] ] ] ] ] ] ] ] ] ] ] ] ] ] ] ] ] ] ] ] ] ] ] ] ] ] ] ] ] ] ] ] ] ] ] ] ] ] ] ] ] ] ] ] ] ] ] ] ] ] ] ] ] ] ] ] ] ] ] ] ] ] ] ] ] ] ] ] ] ] ] ] ] ] ] ] ] ] ] ] ] ] ] ] ] ] ] ] ] ] ] ] ] ] ] ] ] ] ] ] ] ] ] ] ] ] ] ] ] ] ] ] ] ] ] ] ] ] ] ] ` ] ] ] ] ;.u.w.p.q.) ^ ^ ^ n L L x z z l l j q _ <./ ] ] ` O.] ] ] ] ] ] ] ] ] ] ] ] ] ] ] ] ] ] ] ] ] ] ] ] ] ] ] ] ] ] ] ] ) ` +._ < % ; X / / ] ] ` ` ` ] ` ` ` ` ` ` ` ` h !.1XqX",
"rX6XL.v } ' F X.] ] ] ` ` ` / / ( ] ` ' + * X ; ;.] / ] ] ` / ] ] ] ] ] ] ] ] ] ] ] ] ] ] ] ] ] ] ] ] ] ] ] ] ] ` ` ` ` ] -.>.>.>.>.>.>.-.-.-.-.*.) ] ` ^ n z n x ^ ] ] ` ] ] ` ] ] ] ] ] ] ] ] ] ] ] ] ] ] ] ] ] ] ] ] ] ] ] ] ] ] ] ] ] ] ] ] ] ] ] ] ] ] ] ] ] ] ] ] ] ] ] ] ] ] ] ] ] ] ] ] ] ] ] ] ] ] ] ] ] ] ] ] ] ] ] ] ] ] ] ] ] ] ] ] ] ] ] ] ] ] ] ] ] ] ] ] ] ] ] ] ] ] ] ] ] ] ] ] ] ] ] ] ] ] ] ] ] ] ] ] ] ] ] ] ] ] ] ] ] ] ] ] ] ] ] ] ] ] ] ] ] ` ] ] ] ] ;.u.w.p.q.) ^ ^ ^ n L L x z z l l j q _ ;./ ] ] ` O.] ] ] ] ] ] ] ] ] ] ] ] ] ] ] ] ] ] ] ] ] ] ] ] ] ] ] ] ] ] ] ] ) ` +._ < % ; - / / ] ] ` ` ` ] ` ` ` ` ` ` ` ` h !.1XqX",
"rX6XL.v } ' F X.] ] ] ` ` ` / / ( ] ` ' + * X ; ;.] / ] ] ` / ] ] ] ] ] ] ] ] ] ] ] ] ] ] ] ] ] ] ] ] ] ] ] ] ] ` ` ` ` ] >.>.>.>.>.>.>.-.-.-.-.*.) ] ` ^ n z n x / ] ] ` ] ] ] ] ] ] ] ] ] ] ] ] ] ] ] ] ] ] ] ] ] ] ] ] ] ] ] ] ] ] ] ] ] ] ] ] ] ] ] ] ] ] ] ] ] ] ] ] ] ] ] ] ] ] ] ] ] ] ] ] ] ] ] ] ] ] ] ] ] ] ] ] ] ] ] ] ] ] ] ] ] ] ] ] ] ] ] ] ] ] ] ] ] ] ] ] ] ] ] ] ] ] ] ] ] ] ] ] ] ] ] ] ] ] ] ] ] ] ] ] ] ] ] ] ] ] ] ] ] ] ] ] ] ] ] ] ] ] ] ] ` ] ] ] ] ;.u.w.p.q.) ^ ^ ^ n L L x z z l l j q _ ;./ ] ] ` O.] ] ] ] ] ] ] ] ] ] ] ] ] ] ] ] ] ] ] ] ] ] ] ] ] ] ] ] ] ] ] ] ) ` +._ < % ; - / / ] ] ` ` ` ] ` ` ` ` ` ` ` ` h !.1XqX",
"rX6XL.v ..' F X.] ] ] ` ` ` / / ( ] ` ' + * X ; ;.] / ] ] ` / ] ] ] ] ] ] ] ] ] ] ] ] ] ] ] ] ] ] ] ] ] ] ] ] ] ` ` ` ` ` -.>.>.>.>.>.>.-.-.-.-.*.) ] -.^ n z n x ^ ] ] ` ] ] ` ] ] ] ] ] ] ] ] ] ] ] ] ] ] ] ] ] ] ] ] ] ] ] ] ] ] ] ] ] ] ] ] ] ] ] ] ] ] ] ] ] ] ] ] ] ] ] ] ] ] ] ] ] ] ] ] ] ] ] ] ] ] ] ] ] ] ] ] ] ] ] ] ] ] ] ] ] ] ] ] ] ] ] ] ] ] ] ] ] ] ] ] ] ] ] ] ] ] ] ] ] ] ] ] ] ] ] ] ] ] ] ] ] ] ] ] ] ] ] ] ] ] ] ] ] ] ] ] ] ] ] ] ] ] ] ] ] ` ] ] ] ] ;.u.w.p.q.) ^ ^ ^ n L L x z z l l j q _ ;./ ] ] ` ] ] ] ] ] ] ] ] ] ] ] ] ] ] ] ] ] ] ] ] ] ] ] ] ] ] ] ] ] ] ] ] ] ) ` +._ < % ; - / / ] ] ` ` ` ] ` ` ` ` ` ` ` ` h !.1XqX",
"rX6XL.v ..' F X.] ] ] ` ` ` / / ( ] ` ' + * X ; ;.] / ] ] ` / ] ] ] ] ] ] ] ] ] ] ] ] ] ] ] ] ] ] ] ] ] ] ] ] ] ` ` ` ` ` -.>.>.>.>.>.>.-.-.-.-.*.) -.-.^ n z n x ^ ] ] ` ] ] ` ] ] ] ] ] ] ] ] ] ] ] ] ] ] ] ] ] ] ] ] ] ] ] ] ] ] ] ] ] ] ] ] ] ] ] ] ] ] ] ] ] ] ] ] ] ] ] ] ] ] ] ] ] ] ] ] ] ] ] ] ] ] ] ] ] ] ] ] ] ] ] ] ] ] ] ] ] ] ] ] ] ] ] ] ] ] ] ] ] ] ] ] ] ] ] ] ] ] ] ] ] ] ] ] ] ] ] ] ] ] ] ] ] ] ] ] ] ] ] ] ] ] ] ] ] ] ] ] ] ] ] ] ] ] ] ] ] ` ] ] ] ] ;.u.w.p.q.) ^ ^ ^ n L L x z z l l j q _ ;./ ] ] ` ] ] ] ] ] ] ] ] ] ] ] ] ] ] ] ] ] ] ] ] ] ] ] ] ] ] ] ] ] ] ] ] ] ) ` +._ < % ; - / / ] ] ` ` ` ] ` ` ` ` ` ` ` ` h !.1XqX",
"rX6XL.v } ' F X.] ] ] ` ` ` / / ( -.` ' + * X ; ;.] / ] ] ` / ] ] ] ] ] ] ] ] ] ] ] ] ] ] ] ] ] ] ] ] ] ] ] ] ] ` ` ` ` -.-.>.>.>.>.>.>.-.-.-.-.*.) -.-.^ n z n x ^ ] ] ` ] ] ` ] ] ] ] ] ] ] ] ] ] ] ] ] ] ] ] ] ] ] ] ] ] ] ] ] ] ] ] ] ] ] ] ] ] ] ] ] ] ] ] ] ] ] ] ] ] ] ] ] ] ] ] ] ] ] ] ] ] ] ] ] ] ] ] ] ] ] ] ] ] ] ] ] ] ] ] ] ] ] ] ] ] ] ] ] ] ] ] ] ] ] ] ] ] ] ] ] ] ] ] ] ] ] ] ] ] ] ] ] ] ] ] ] ] ] ] ] ] ] ] ] ] ] ] ] ] ] ] ] ] ] ] ] ] ] ] ] ` ] ] ] ] ;.u.w.p.q.) ^ ^ ^ n L L x z z l l j q _ >./ ] ] ` ] ] ] ] ] ] ] ] ] ] ] ] ] ] ] ] ] ] ] ] ] ] ] ] ] ] ] ] ] ] ] ] ] ) ` +._ < % ; - / / ] ] ` ` ` ] ` ` ` ` ` ` ` ` h !.1XqX",
"rX6XL.v } ' F X.] ] ] ` ` ` / / ( ] ` ' + * X ; ;.] / ] ] ` / ] ] ] ] ] ] ] ] ] ] ] ] ] ] ] ] ] ] ] ] ] ] ] ] ] ` ` ` ` -.-.>.>.>.>.>.>.-.-.-.-.*.) -.-.^ n z n x ^ ] ] ` ] ] ` ] ] ] ] ] ] ] ] ] ] ] ] ] ] ] ] ] ] ] ] ] ] ] ] ] ] ] ] ] ] ] ] ] ] ] ] ] ] ] ] ] ] ] ] ] ] ] ] ] ] ] ] ] ] ] ] ] ] ] ] ] ] ] ] ] ] ] ] ] ] ] ] ] ] ] ] ] ] ] ] ] ] ] ] ] ] ] ] ] ] ] ] ] ] ] ] ] ] ] ] ] ] ] ] ] ] ] ] ] ] ] ] ] ] ] ] ] ] ] ] ] ] ] ] ] ] ] ] ] ] ] ] ] ] ] ] ] ` ] ] ] ] ;.u.w.p.q.) ^ ^ ^ n L L x z z l l j q _ >.) ] ] ` ] ] ] ] ] ] ] ] ] ] ] ] ] ] ] ] ] ] ] ] ] ] ] ] ] ] ] ] ] ] ] ] ] ) ` +._ < % ; - / / ] ] ` ` ` ] ` ` ` ` ` ` ` ` h !.1XqX",
"rX6XL.v } ' F X.] ] ] ` ` ` / / ( -.` ' + * X ; ;.] / ] ] ` / ] ] ] ] ] ] ] ] ] ] ] ] ] ] ] ] ] ] ] ] ] ] ] ] ] ` ` ` ` -.-.>.>.>.>.>.>.-.-.-.-.*.) -.] ^ n z n x ^ ] ] ` ] ] ` ] ] ] ] ] ] ] ] ] ] ] ] ] ] ] ] ] ] ] ] ] ] ] ] ] ] ] ] ] ] ] ] ] ] ] ] ] ] ] ] ] ] ] ] ] ] ] ] ] ] ] ] ] ] ] ] ] ] ] ] ] ] ] ] ] ] ] ] ] ] ] ] ] ] ] ] ] ] ] ] ] ] ] ] ] ] ] ] ] ] ] ] ] ] ] ] ] ] ] ] ] ] ] ] ] ] ] ] ] ] ] ] ] ] ] ] ] ] ] ] ] ] ] ] ] ] ] ] ] ] ] ] ] ] ] ] ] ` ] ] ] ] ;.u.w.p.q.) ^ ^ ^ n L L x z z l l j q _ ;./ ] ] ` ] ] ] ] ] ] ] ] ] ] ] ] ] ] ] ] ] ] ] ] ] ] ] ] ] ] ] ] ] ] ] ] ] ) ` +._ < % ; - / / ] ] ` ` ` ] ` ` ` ` ` ` ` ` h !.1XqX",
"rX6XL.v } ' F X.] ] ] ` ` ` / / ( -.` ' + * X ; ;.] / ] ] ` / ] ] ] ] ] ] ] ] ] ] ] ] ] ] ] ] ] ] ] ] ] ] ] ] ] ` ` ` ` -.-.>.>.>.>.>.>.-.-.-.-.*.) ] ] ^ n x n x ^ ] ] ` ] ] ` ] ] ] ] ] ] ] ] ] ] ] ] ] ] ] ] ] ] ] ] ] ] ] ] ] ] ] ] ] ] ] ] ] ] ] ] ] ] ] ] ] ] ] ] ] ] ] ] ] ] ] ] ] ] ] ] ] ] ] ] ] ] ] ] ] ] ] ] ] ] ] ] ] ] ] ] ] ] ] ] ] ] ] ] ] ] ] ] ] ] ] ] ] ] ] ] ] ] ] ] ] ] ] ] ] ] ] ] ] ] ] ] ] ] ] ] ] ] ] ] ] ] ] ] ] ] ] ] ] ] ] ] ] ] ] ] ] ` ] ] ] ] ;.u.w.p.q.) ^ ^ ^ n L L x z z l l j q _ ;./ ] ] ` ] ] ] ] ] ] ] ] ] ] ] ] ] ] ] ] ] ] ] ] ] ] ] ] ] ] ] ] ] ] ] ] ] ) ` +._ < % ; - / / ] ] ` ` ` ] ` ` ` ` ` ` ` ` h !.1XqX",
"rX6X`.v } ' F X.] ] ] ` ` ` / / ( ] ` ' + * X ; ;.] / ] ] ` / ] ] ] ] ] ] ] ] ] ] ] ] ] ] ] ] ] ] ] ] ] ] ] ] ] ` ` ` ` ] >.>.>.>.>.>.>.-.-.-.-.*.) ] =.^ n z n x ^ ] ] ` ] ] ` ] ] ] ] ] ] ] ] ] ] ] ] ] ] ] ] ] ] ] ] ] ] ] ] ] ] ] ] ] ] ] ] ] ] ] ] ] ] ] ] ] ] ] ] ] ] ] ] ] ] ] ] ] ] ] ] ] ] ] ] ] ] ] ] ] ] ] ] ] ] ] ] ] ] ] ] ] ] ] ] ] ] ] ] ] ] ] ] ] ] ] ] ] ] ] ] ] ] ] ] ] ] ] ] ] ] ] ] ] ] ] ] ] ] ] ] ] ] ] ] ] ] ] ] ] ] ] ] ] ] ] ] ] ] ] ] ] ` ] ] ] ] ;.u.w.p.q.) ^ ^ ^ n L L x z z l l j q ` ;./ ] ] ` ] ] ] ] ] ] ] ] ] ] ] ] ] ] ] ] ] ] ] ] ] ] ] ] ] ] ] ] ] ] ] ] ] ) ` +._ < % ; - / / ] ] ` ` ` ] ` ` ` ` ` ` ` ` h !.1XqX",
"rX6X`.v } ' F X.] ] ] ` ` ` / / ( ] ` ' + * X ; ;.] / ] ] ` / ] ] ] ] ] ] ] ] ] ] ] ] ] ] ] ] ] ] ] ] ] ] ] ] ] ` ` ` ` ` -.>.>.>.>.>.>.-.-.-.-.*.) -.` ^ n z n x ^ ] ] ` ] ] ` ] ] ] ] ] ] ] ] ] ] ] ] ] ] ] ] ] ] ] ] ] ] ] ] ] ] ] ] ] ] ] ] ] ] ] ] ] ] ] ] ] ] ] ] ] ] ] ] ] ] ] ] ] ] ] ] ] ] ] ] ] ] ] ] ] ] ] ] ] ] ] ] ] ] ] ] ] ] ] ] ] ] ] ] ] ] ] ] ] ] ] ] ] ] ] ] ] ] ] ] ] ] ] ] ] ] ] ] ] ] ] ] ] ] ] ] ] ] ] ] ] ] ] ] ] ] ] ] ] ] ] ] ] ] ] ] ] ` ] ] ] ] ;.u.w.p.q.) ^ ^ ^ n L L x z z l l j q ` ;./ ] ] ` ] ] ] ] ] ] ] ] ] ] ] ] ] ] ] ] ] ] ] ] ] ] ] ] ] ] ] ] ] ] ] ] ] ) ` +._ < % ; - / / ] ] ` ` ` ] ` ` ` ` ` ` ` ` h !.1XqX",
"rX6XL.v } ' F X.] ] ] ` ` ` / / ( -.` ' + * X ; ;.] / ] ] ` / ] ] ] ] ] ] ] ] ] ] ] ] ] ] ] ] ] ] ] ] ] ] ] ] ] ` ` ` ` ] >.>.>.>.>.>.>.-.-.-.-.*.) ] =.^ n z n x ^ ] ] ` ] ] ` ] ] ] ] ] ] ] ] ] ] ] ] ] ] ] ] ] ] ] ] ] ] ] ] ] ] ] ] ] ] ] ] ] ] ] ] ] ] ] ] ] ] ] ] ] ] ] ] ] ] ] ] ] ] ] ] ] ] ] ] ] ] ] ] ] ] ] ] ] ] ] ] ] ] ] ] ] ] ] ] ] ] ] ] ] ] ] ] ] ] ] ] ] ] ] ] ] ] ] ] ] ] ] ] ] ] ] ] ] ] ] ] ] ] ] ] ] ] ] ] ] ] ] ] ] ] ] ] ] ] ] ] ] ] ] ] ] ` ] ] ] ] ;.u.w.p.q.) ^ ^ ^ n L L x z z l l j q _ <.) ] ] ` ] ] ] ] ] ] ] ] ] ] ] ] ] ] ] ] ] ] ] ] ] ] ] ] ] ] ] ] ] ] ] ] ] ) ` +._ < % ; - / / ] ] ` ` ` ] ` ` ` ` ` ` ` ` h !.1XqX",
"rX6XL.v } ' F X.] ] ] ` ` ` / / ( -.` ' + * X ; ;.] / ] ] ` / ] ] ] ] ] ] ] ] ] ] ] ] ] ] ] ] ] ] ] ] ] ] ] ] ] ` ` ` ` ] >.>.>.>.>.>.>.-.-.-.-.*.) -.` ^ n z n x ^ ] ] ` ] ] ` ] ] ] ] ] ] ] ] ] ] ] ] ] ] ] ] ] ] ] ] ] ] ] ] ] ] ] ] ] ] ] ] ] ] ] ] ] ] ] ] ] ] ] ] ] ] ] ] ] ] ] ] ] ] ] ] ] ] ] ] ] ] ] ] ] ] ] ] ] ] ] ] ] ] ] ] ] ] ] ] ] ] ] ] ] ] ] ] ] ] ] ] ] ] ] ] ] ] ] ] ] ] ] ] ] ] ] ] ] ] ] ] ] ] ] ] ] ] ] ] ] ] ] ] ] ] ] ] ] ] ] ] ] ] ] ] ] ` ] ] ] ] ;.u.w.p.q.) ^ ^ ^ n L L x z z l l j q _ <./ ] ] ` O.] ] ] ] ] ] ] ] ] ] ] ] ] ] ] ] ] ] ] ] ] ] ] ] ] ] ] ] ] ] ] ] ) ` +._ < % ; - / / ] ] ` ` ` ] ` ` ` ` ` ` ` ` h !.1XqX",
"rX6XL.v } ' F X.] ] ] ` ` ` / / ( -.` ' + * X ; ;.] / ] ] ` / ] ] ] ] ] ] ] ] ] ] ] ] ] ] ] ] ] ] ] ] ] ] ] ] ] ` ` ` ` ] -.>.>.>.>.>.>.-.-.-.-.*.) -.` ^ n z n x ^ ] ] ` ] ] ` ] ] ] ] ] ] ] ] ] ] ] ] ] ] ] ] ] ] ] ] ] ] ] ] ] ] ] ] ] ] ] ] ] ] ] ] ] ] ] ] ] ] ] ] ] ] ] ] ] ] ] ] ] ] ] ] ] ] ] ] ] ] ] ] ] ] ] ] ] ] ] ] ] ] ] ] ] ] ] ] ] ] ] ] ] ] ] ] ] ] ] ] ] ] ] ] ] ] ] ] ] ] ] ] ] ] ] ] ] ] ] ] ] ] ] ] ] ] ] ] ] ] ] ] ] ] ] ] ] ] ] ] ] ] ] ] ] ` ] ] ] ] ;.u.w.p.q.) ^ ^ ^ n L L x z z l l j q _ ;./ ] ] ` O.] ] ] ] ] ] ] ] ] ] ] ] ] ] ] ] ] ] ] ] ] ] ] ] ] ] ] ] ] ] ] ] ) ` +._ < % ; - / / ] ] ` ` ` ] ` ` ` ` ` ` ` ` h !.1XqX",
"rX6XL.v } ' F X.] ] ] ` ` ` / / ( -.` ' + * X ; ;.] / ] ] ` / ] ] ] ] ] ] ] ] ] ] ] ] ] ] ] ] ] ] ] ] ] ] ] ] ] ` ` ` ` ] >.>.>.>.>.>.>.-.-.-.-.*.) -.-.^ n z n x ^ ] ] ` ] ] ` ] ] ] ] ] ] ] ] ] ] ] ] ] ] ] ] ] ] ] ] ] ] ] ] ] ] ] ] ] ] ] ] ] ] ] ] ] ] ] ] ] ] ] ] ] ] ] ] ] ] ] ] ] ] ] ] ] ] ] ] ] ] ] ] ] ] ] ] ] ] ] ] ] ] ] ] ] ] ] ] ] ] ] ] ] ] ] ] ] ] ] ] ] ] ] ] ] ] ] ] ] ] ] ] ] ] ] ] ] ] ] ] ] ] ] ] ] ] ] ] ] ] ] ] ] ] ] ] ] ] ] ] ] ] ] ] ] ` ] ] ] ] ;.u.w.p.q.) ^ ^ ^ n L L x z z l l j q _ <./ ] ] ` O.] ] ] ] ] ] ] ] ] ] ] ] ] ] ] ] ] ] ] ] ] ] ] ] ] ] ] ] ] ] ] ] ) ` +._ < % ; - / / ] ] ` ` ` ] ` ` ` ` ` ` ` ` h !.1XqX",
"rX6XL.v } ' F X.] ] ] ` ` ` / / ( ] ` ' + * X ; ;.] / ] ] ` / ] ] ] ] ] ] ] ] ] ] ] ] ] ] ] ] ] ] ] ] ] ] ] ] ] ` ` ` ` ` -.>.>.>.>.>.>.-.-.-.-.*.) -.=.^ n z n x ^ ] ] ` ] ] ` ] ] ] ] ] ] ] ] ] ] ] ] ] ] ] ] ] ] ] ] ] ] ] ] ] ] ] ] ] ] ] ] ] ] ] ] ] ] ] ] ] ] ] ] ] ] ] ] ] ] ] ] ] ] ] ] ] ] ] ] ] ] ] ] ] ] ] ] ] ] ] ] ] ] ] ] ] ] ] ] ] ] ] ] ] ] ] ] ] ] ] ] ] ] ] ] ] ] ] ] ] ] ] ] ] ] ] ] ] ] ] ] ] ] ] ] ] ] ] ] ] ] ] ] ] ] ] ] ] ] ] ] ] ] ] ] ] ` ] ] ] ] ;.u.w.p.q.) ^ ^ ^ n L L x z z l l j q _ <./ ] ] ` ] ] ] ] ] ] ] ] ] ] ] ] ] ] ] ] ] ] ] ] ] ] ] ] ] ] ] ] ] ] ] ] ] ) ` +._ < % ; - / / ] ] ` ` ` ] ` ` ` ` ` ` ` ` h !.1XqX",
"rX6XL.v } ' F X.] ] ] ` ` ` / / ( ] ` ' + * X ; ;.] / ] ] ` / ] ] ] ] ] ] ] ] ] ] ] ] ] ] ] ] ] ] ] ] ] ] ] ] ] ` ` ` ` ` -.>.>.>.>.>.>.-.-.-.-.*.) -.-.^ n z n x ^ ] ] ` ] ] ` ] ] ] ] ] ] ] ] ] ] ] ] ] ] ] ] ] ] ] ] ] ] ] ] ] ] ] ] ] ] ] ] ] ] ] ] ] ] ] ] ] ] ] ] ] ] ] ] ] ] ] ] ] ] ] ] ] ] ] ] ] ] ] ] ] ] ] ] ] ] ] ] ] ] ] ] ] ] ] ] ] ] ] ] ] ] ] ] ] ] ] ] ] ] ] ] ] ] ] ] ] ] ] ] ] ] ] ] ] ] ] ] ] ] ] ] ] ] ] ] ] ] ] ] ] ] ] ] ] ] ] ] ] ] ] ] ] ` ] ] ] ] ;.u.w.p.q.) ^ ^ ^ n L L x z z l l w q _ >./ ] ] ` ] ] ] ] ] ] ] ] ] ] ] ] ] ] ] ] ] ] ] ] ] ] ] ] ] ] ] ] ] ] ] ] ] ) ` +._ < % ; - / / ] ] ` ` ` ] ` ` ` ` ` ` ` ` h !.1XqX",
"rX6XL.v } ' F X.] ] ] ` ` ` / / ( ] ` ' + * X ; ;.] / ] ] ` / ] ] ] ] ] ] ] ] ] ] ] ] ] ] ] ] ] ] ] ] ] ] ] ] ] ` ` ` ` -.-.>.>.>.>.>.-.-.-.-.-.*.) ] ] ^ n z n x ^ ] ] ` ] ] ` ] ] ] ] ] ] ] ] ] ] ] ] ] ] ] ] ] ] ] ] ] ] ] ] ] ] ] ] ] ] ] ] ] ] ] ] ] ] ] ] ] ] ] ] ] ] ] ] ] ] ] ] ] ] ] ] ] ] ] ] ] ] ] ] ] ] ] ] ] ] ] ] ] ] ] ] ] ] ] ] ] ] ] ] ] ] ] ] ] ] ] ] ] ] ] ] ] ] ] ] ] ] ] ] ] ] ] ] ] ] ] ] ] ] ] ] ] ] ] ] ] ] ] ] ] ] ] ] ] ] ] ] ] ] ] ] ] ` ] ] ] ] ;.u.w.p.q.) ^ ^ ^ n L L x z z l l j q _ ;./ ] ] ` ] ] ] ] ] ] ] ] ] ] ] ] ] ] ] ] ] ] ] ] ] ] ] ] ] ] ] ] ] ] ] ] ] ) ` +._ < % ; - / / ] ] ` ` ` ] ` ` ` ` ` ` ` ` h !.1XqX",
"rX6XL.v } ' F X.] ] ] ` ` ` / / ( ] ` ' + * X ; ;.] / ] ] ` / ] ] ] ] ] ] ] ] ] ] ] ] ] ] ] ] ] ] ] ] ] ] ] ] ] ` ` ` ` -.-.>.>.>.>.>.-.-.-.-.-.*.) -.] ^ n z n x ^ ] ] ` ] ] ` ] ] ] ] ] ] ] ] ] ] ] ] ] ] ] ] ] ] ] ] ] ] ] ] ] ] ] ] ] ] ] ] ] ] ] ] ] ] ] ] ] ] ] ] ] ] ] ] ] ] ] ] ] ] ] ] ] ] ] ] ] ] ] ] ] ] ] ] ] ] ] ] ] ] ] ] ] ] ] ] ] ] ] ] ] ] ] ] ] ] ] ] ] ] ] ] ] ] ] ] ] ] ] ] ] ] ] ] ] ] ] ] ] ] ] ] ] ] ] ] ] ] ] ] ] ] ] ] ] ] ] ] ] ] ] ] ] ` ] ] ] ] ;.u.w.p.q.) ^ ^ ^ n L L x z z l l j q _ ;./ ] ] ` ] ] ] ] ] ] ] ] ] ] ] ] ] ] ] ] ] ] ] ] ] ] ] ] ] ] ] ] ] ] ] ] ] ) ` +._ < % ; - / / ] ] ` ` ` ] ` ` ` ` ` ` ` ` h !.1XqX",
"rX6XL.v } ' F X.] ] ] ` ` ` / / ( ] ` ' + * X ; ;.] / ] ] ` / ] ] ] ] ] ] ] ] ] ] ] ] ] ] ] ] ] ] ] ] ] ] ] ] ] ` ` ` ` -.-.>.>.>.>.-.-.-.-.-.-.*.) -.] ^ n z n x ^ ] ] ` ] ] ` ] ] ] ] ] ] ] ] ] ] ] ] ] ] ] ] ] ] ] ] ] ] ] ] ] ] ] ] ] ] ] ] ] ] ] ] ] ] ] ] ] ] ] ] ] ] ] ] ] ] ] ] ] ] ] ] ] ] ] ] ] ] ] ] ] ] ] ] ] ] ] ] ] ] ] ] ] ] ] ] ] ] ] ] ] ] ] ] ] ] ] ] ] ] ] ] ] ] ] ] ] ] ] ] ] ] ] ] ] ] ] ] ] ] ] ] ] ] ] ] ] ] ] ] ] ] ] ] ] ] ] ] ] ] ] ] ] ` ] ] ] ] ;.u.w.p.q.) ^ ^ ^ n L L x z z l l j q _ ;./ ] ] ` ] ] ] ] ] ] ] ] ] ] ] ] ] ] ] ] ] ] ] ] ] ] ] ] ] ] ] ] ] ] ] ] ] ) ` +._ < % ; - / / ] ] ` ` ` ] ` ` ` ` ` ` ` ` h !.1XqX",
"rX6XL.v } ' F X.] ] ] ` ` ` / / ( ] ` ' + * X ; ;.] / ] ] ` / ] ] ] ] ] ] ] ] ] ] ] ] ] ] ] ] ] ] ] ] ] ] ] ] ] ` ` ` ` -.-.>.>.>.>.-.-.-.-.-.-.*.) ] ] ^ n z n x ^ ] ] ` ] ] ` ] ] ] ] ] ] ] ] ] ] ] ] ] ] ] ] ] ] ] ] ] ] ] ] ] ] ] ] ] ] ] ] ] ] ] ] ] ] ] ] ] ] ] ] ] ] ] ] ] ] ] ] ] ] ] ] ] ] ] ] ] ] ] ] ] ] ] ] ] ] ] ] ] ] ] ] ] ] ] ] ] ] ] ] ] ] ] ] ] ] ] ] ] ] ] ] ] ] ] ] ] ] ] ] ] ] ] ] ] ] ] ] ] ] ] ] ] ] ] ] ] ] ] ] ] ] ] ] ] ] ] ] ] ] ] ] ] ` ] ] ] ] ;.u.w.p.q.) ^ ^ ^ n L L x z z l l j q _ ;./ ] ] ` ] ] ] ] ] ] ] ] ] ] ] ] ] ] ] ] ] ] ] ] ] ] ] ] ] ] ] ] ] ] ] ] ] ) ` +._ < % ; - / / ] ] ` ` ` ] ` ` ` ` ` ` ` ` h !.1XqX",
"rX6XL.v } ' F X.] ] ] ` ` ` / / ( -.` ' + * X ; ;.] / ] ] ` / ] ] ] ] ] ] ] ] ] ] ] ] ] ] ] ] ] ] ] ] ] ] ] ] ] ` ` ` ` -.-.>.>.>.>.>.>.-.-.-.-.*.) -.` ^ n z n x ^ ] ] ` ] ] ` ] ] ] ] ] ] ] ] ] ] ] ] ] ] ] ] ] ] ] ] ] ] ] ] ] ] ] ] ] ] ] ] ] ] ] ] ] ] ] ] ] ] ] ] ] ] ] ] ] ] ] ] ] ] ] ] ] ] ] ] ] ] ] ] ] ] ] ] ] ] ] ] ] ] ] ] ] ] ] ] ] ] ] ] ] ] ] ] ] ] ] ] ] ] ] ] ] ] ] ] ] ] ] ] ] ] ] ] ] ] ] ] ] ] ] ] ] ] ] ] ] ] ] ] ] ] ] ] ] ] ] ] ] ] ] ] ] ` ] ] ] ] ;.u.w.p.q.) ^ ^ ^ n L L x z z l l j q _ ;./ ] ] ` ] ] ] ] ] ] ] ] ] ] ] ] ] ] ] ] ] ] ] ] ] ] ] ] ] ] ] ] ] ] ] ] ] ) ` +._ < % ; - / / ] ] ` ` ` ] ` ` ` ` ` ` ` ` h !.1XqX",
"rX6XL.v ..' F X.] ] ] ` ` ` / / ( ] ` ' + * X ; ;.] / ] ] ` / ] ] ] ] ] ] ] ] ] ] ] ] ] ] ] ] ] ] ] ] ] ] ] ] ] ` ` ` ` -.-.>.>.>.>.>.>.-.-.-.-.*.) -.-.^ n z n x ^ ] ] ` ] ] ` ] ] ] ] ] ] ] ] ] ] ] ] ] ] ] ] ] ] ] ] ] ] ] ] ] ] ] ] ] ] ] ] ] ] ] ] ] ] ] ] ] ] ] ] ] ] ] ] ] ] ] ] ] ] ] ] ] ] ] ] ] ] ] ] ] ] ] ] ] ] ] ] ] ] ] ] ] ] ] ] ] ] ] ] ] ] ] ] ] ] ] ] ] ] ] ] ] ] ] ] ] ] ] ] ] ] ] ] ] ] ] ] ] ] ] ] ] ] ] ] ] ] ] ] ] ] ] ] ] ] ] ] ] ] ] ] ] ` ] ] ] ] ;.u.w.p.q.) ^ ^ ^ n L L x z z l l j q ` ;./ ] ] ` ] ] ] ] ] ] ] ] ] ] ] ] ] ] ] ] ] ] ] ] ] ] ] ] ] ] ] ] ] ] ] ] ] ) ` +._ < % ; - / / ] ] ` ` ` ] ` ` ` ` ` ` ` ` h !.1XqX",
"rX6X`.v } ' F X.] ] ] ` ` ` / / ( -.` ' + * X ; ;.] / ] ] ` / ] ] ] ] ] ] ] ] ] ] ] ] ] ] ] ] ] ] ] ] ] ] ] ] ] ` ` ` ` -.-.>.>.>.>.>.>.-.-.-.-.*.) -.=.^ n z n x ^ ] ] ` ] ] ` ] ] ] ] ] ] ] ] ] ] ] ] ] ] ] ] ] ] ] ] ] ] ] ] ] ] ] ] ] ] ] ] ] ] ] ] ] ] ] ] ] ] ] ] ] ] ] ] ] ] ] ] ] ] ] ] ] ] ] ] ] ] ] ] ] ] ] ] ] ] ] ] ] ] ] ] ] ] ] ] ] ] ] ] ] ] ] ] ] ] ] ] ] ] ] ] ] ] ] ] ] ] ] ] ] ] ] ] ] ] ] ] ] ] ] ] ] ] ] ] ] ] ] ] ] ] ] ] ] ] ] ] ] ] ] ] ] ` ] ] ] ] ;.u.w.p.q.) ^ ^ ^ n L L x z z l l j q _ <./ ] ] ` ] ] ] ] ] ] ] ] ] ] ] ] ] ] ] ] ] ] ] ] ] ] ] ] ] ] ] ] ] ] ] ] ] ) ` +._ < % ; - / / ] ] ` ` ` ] ` ` ` ` ` ` ` ` h !.1XqX",
"rX6XL.v } ' F X.] ] ] ` ` ` / ` ( -.` ' + * X ; ;.] / ] ] ` / ] ] ] ] ] ] ] ] ] ] ] ] ] ] ] ] ] ] ] ] ] ] ] ] ] ` ` ` ` ] -.>.>.>.>.>.>.-.-.-.-.*.) -.-.^ n z n x ^ ] ] ` ] ] ` ] ] ] ] ] ] ] ] ] ] ] ] ] ] ] ] ] ] ] ] ] ] ] ] ] ] ] ] ] ] ] ] ] ] ] ] ] ] ] ] ] ] ] ] ] ] ] ] ] ] ] ] ] ] ] ] ] ] ] ] ] ] ] ] ] ] ] ] ] ] ] ] ] ] ] ] ] ] ] ] ] ] ] ] ] ] ] ] ] ] ] ] ] ] ] ] ] ] ] ] ] ] ] ] ] ] ] ] ] ] ] ] ] ] ] ] ] ] ] ] ] ] ] ] ] ] ] ] ] ] ] ] ] ] ] ] ] ` ] ] ] ] ;.u.w.p.q.) ^ ^ ^ n L L x z z l l j q _ <./ ] ] ` O.] ] ] ] ] ] ] ] ] ] ] ] ] ] ] ] ] ] ] ] ] ] ] ] ] ] ] ] ] ] ] ] ) ` +._ < % ; - / / ] ] ` ` ` ] ` ` ` ` ` ` ` ` h !.1XqX",
"rX6XL.v } ' F X.] ] ] ` ` ` / / ( ] ` ' + * X ; ;.] / ] ] ` / ] ] ] ] ] ] ] ] ] ] ] ] ] ] ] ] ] ] ] ] ] ] ] ] ] ` ` ` ` -.-.>.>.>.>.>.>.-.-.-.-.*.) -.=.^ n z n x ^ ] ] ` ] ] ` ] ] ] ] ] ] ] ] ] ] ] ] ] ] ] ] ] ] ] ] ] ] ] ] ] ] ] ] ] ] ] ] ] ] ] ] ] ] ] ] ] ] ] ] ] ] ] ] ] ] ] ] ] ] ] ] ] ] ] ] ] ] ] ] ] ] ] ] ] ] ] ] ] ] ] ] ] ] ] ] ] ] ] ] ] ] ] ] ] ] ] ] ] ] ] ] ] ] ] ] ] ] ] ] ] ] ] ] ] ] ] ] ] ] ] ] ] ] ] ] ] ] ] ] ] ] ] ] ] ] ] ] ] ] ] ] ] ` ] ] ] ] ;.u.w.p.q.) ^ ^ ^ n L L x z z l l j q _ ;./ ] ] ` O.] ] ] ] ] ] ] ] ] ] ] ] ] ] ] ] ] ] ] ] ] ] ] ] ] ] ] ] ] ] ] ] ) ` +._ < % ; - / / ] ] ` ` ` ] ` ` ` ` ` ` ` ` h !.1XqX",
"rX6XL.v } ' F X.] ] ] ` ` ` / / ( -.` ' + * X ; ;.] / ] ] ` / ] ] ] ] ] ] ] ] ] ] ] ] ] ] ] ] ] ] ] ] ] ] ] ] ] ` ` ` ` -.-.>.>.>.>.>.>.-.-.-.-.*.) -.=.^ n z n x ^ ] ] ` ] ] ` ] ] ] ] ] ] ] ] ] ] ] ] ] ] ] ] ] ] ] ] ] ] ] ] ] ] ] ] ] ] ] ] ] ] ] ] ] ] ] ] ] ] ] ] ] ] ] ] ] ] ] ] ] ] ] ] ] ] ] ] ] ] ] ] ] ] ] ] ] ] ] ] ] ] ] ] ] ] ] ] ] ] ] ] ] ] ] ] ] ] ] ] ] ] ] ] ] ] ] ] ] ] ] ] ] ] ] ] ] ] ] ] ] ] ] ] ] ] ] ] ] ] ] ] ] ] ] ] ] ] ] ] ] ] ] ] ] ` ] ] ] ] ;.u.w.p.q.) ^ ^ ^ n L L x z z l l j q _ ;./ ] ] ` O.] ] ] ] ] ] ] ] ] ] ] ] ] ] ] ] ] ] ] ] ] ] ] ] ] ] ] ] ] ] ] ] ) ` +._ < % ; - / / ] ] ` ` ` ] ` ` ` ` ` ` ` ` h !.1XqX",
"rX6XL.v ..' F X.] ] ] ` ` ` / / ( -.` ' + * X ; ;.] / ] ] ` / ] ] ] ] ] ] ] ] ] ] ] ] ] ] ] ] ] ] ] ] ] ] ] ] ] ` ` ` ` ` -.>.>.>.>.>.>.-.-.-.-.*.) ] ` ^ n z n x ^ ] ] ` ] ] ` ] ] ] ] ] ] ] ] ] ] ] ] ] ] ] ] ] ] ] ] ] ] ] ] ] ] ] ] ] ] ] ] ] ] ] ] ] ] ] ] ] ] ] ] ] ] ] ] ] ] ] ] ] ] ] ] ] ] ] ] ] ] ] ] ] ] ] ] ] ] ] ] ] ] ] ] ] ] ] ] ] ] ] ] ] ] ] ] ] ] ] ] ] ] ] ] ] ] ] ] ] ] ] ] ] ] ] ] ] ] ] ] ] ] ] ] ] ] ] ] ] ] ] ] ] ] ] ] ] ] ] ] ] ] ] ] ] ` ] ] ] ] ;.u.w.p.q.) ^ ^ ^ n L L x z z l l j q _ ;./ ] ] ` ] ] ] ] ] ] ] ] ] ] ] ] ] ] ] ] ] ] ] ] ] ] ] ] ] ] ] ] ] ] ] ] ] ) ` +._ < % ; - / / ] ] ` ` ` ] ` ` ` ` ` ` ` ` h !.1XqX",
"rX6XL.v ..' F X.] ] ] ` ` ` / / ) -.` ' + * X ; ;.] / ] ] ` / ] ] ] ] ] ] ] ] ] ] ] ] ] ] ] ] ] ] ] ] ] ] ] ] ] ` ` ` ` ` -.>.>.>.>.>.>.-.-.-.-.*.) ] ` ^ n z n x ^ ] ] ` ] ] ` ] ] ] ] ] ] ] ] ] ] ] ] ] ] ] ] ] ] ] ] ] ] ] ] ] ] ] ] ] ] ] ] ] ] ] ] ] ] ] ] ] ] ] ] ] ] ] ] ] ] ] ] ] ] ] ] ] ] ] ] ] ] ] ] ] ] ] ] ] ] ] ] ] ] ] ] ] ] ] ] ] ] ] ] ] ] ] ] ] ] ] ] ] ] ] ] ] ] ] ] ] ] ] ] ] ] ] ] ] ] ] ] ] ] ] ] ] ] ] ] ] ] ] ] ] ] ] ] ] ] ] ] ] ] ] ] ] ` ] ] ] ] ;.u.w.p.q.) ^ ^ ^ n L L x z z l l j q _ ;./ ] ] ` ] ] ] ] ] ] ] ] ] ] ] ] ] ] ] ] ] ] ] ] ] ] ] ] ] ] ] ] ] ] ] ] ] ) ` +._ < % ; - / / ] ] ` ` ` ] ` ` ` ` ` ` ` ` h !.1XqX",
"rX6XL.v } ' F X.] ] ] ` ` ` / / ( ] ` ' + * X ; ;.] / ] ] ` / ] ] ] ] ] ] ] ] ] ] ] ] ] ] ] ] ] ] ] ] ] ] ] ] ] ` ` ` ` ` -.>.>.>.>.>.>.-.-.-.-.*.) ] ] ^ n z n x ^ ] ] ` ] ] ` ] ] ] ] ] ] ] ] ] ] ] ] ] ] ] ] ] ] ] ] ] ] ] ] ] ] ] ] ] ] ] ] ] ] ] ] ] ] ] ] ] ] ] ] ] ] ] ] ] ] ] ] ] ] ] ] ] ] ] ] ] ] ] ] ] ] ] ] ] ] ] ] ] ] ] ] ] ] ] ] ] ] ] ] ] ] ] ] ] ] ] ] ] ] ] ] ] ] ] ] ] ] ] ] ] ] ] ] ] ] ] ] ] ] ] ] ] ] ] ] ] ] ] ] ] ] ] ] ] ] ] ] ] ] ] ] ] ` ] ] ] ] ;.u.w.p.q.) ^ ^ ^ n L L x z z l l j q _ >./ ] ] ` ] ] ] ] ] ] ] ] ] ] ] ] ] ] ] ] ] ] ] ] ] ] ] ] ] ] ] ] ] ] ] ] ] ) ` +._ < % ; - / / ] ] ` ` ` ] ` ` ` ` ` ` ` ` h !.1XqX",
"rX6XL.v } ' F X.] ] ] ` ` ` / / ( ] ` ' + * X ; ;.] / ] ] ` / ] ] ] ] ] ] ] ] ] ] ] ] ] ] ] ] ] ] ] ] ] ] ] ] ] ` ` ` ` ` -.>.>.>.>.>.>.-.-.-.-.*.) ] ` ^ n z n x ^ ] ] ` ] ] ` ] ] ] ] ] ] ] ] ] ] ] ] ] ] ] ] ] ] ] ] ] ] ] ] ] ] ] ] ] ] ] ] ] ] ] ] ] ] ] ] ] ] ] ] ] ] ] ] ] ] ] ] ] ] ] ] ] ] ] ] ] ] ] ] ] ] ] ] ] ] ] ] ] ] ] ] ] ] ] ] ] ] ] ] ] ] ] ] ] ] ] ] ] ] ] ] ] ] ] ] ] ] ] ] ] ] ] ] ] ] ] ] ] ] ] ] ] ] ] ] ] ] ] ] ] ] ] ] ] ] ] ] ] ] ] ] ] ` ] ] ] ] ;.u.w.p.q.) ^ ^ ^ n L L x z z l l j q _ >.) ] ] ` ] ] ] ] ] ] ] ] ] ] ] ] ] ] ] ] ] ] ] ] ] ] ] ] ] ] ] ] ] ] ] ] ] ) ` +._ < % ; - / / ] ] ` ` ` ] ` ` ` ` ` ` ` ` h !.1XqX",
"rX6XL.v } ' F X.] ] ] ` ` ` / / ( ] ` ' + * X ; ;.] / ] ] ` / ] ] ] ] ] ] ] ] ] ] ] ] ] ] ] ] ] ] ] ] ] ] ] ] ] ` ` ` ` -.-.>.>.>.>.>.>.-.-.-.-.*.) -.-.^ n z n x ^ ] ] ` ] ] ` ] ] ] ] ] ] ] ] ] ] ] ] ] ] ] ] ] ] ] ] ] ] ] ] ] ] ] ] ] ] ] ] ] ] ] ] ] ] ] ] ] ] ] ] ] ] ] ] ] ] ] ] ] ] ] ] ] ] ] ] ] ] ] ] ] ] ] ] ] ] ] ] ] ] ] ] ] ] ] ] ] ] ] ] ] ] ] ] ] ] ] ] ] ] ] ] ] ] ] ] ] ] ] ] ] ] ] ] ] ] ] ] ] ] ] ] ] ] ] ] ] ] ] ] ] ] ] ] ] ] ] ] ] ] ] ] ] ` ] ] ] ] ;.u.w.p.q.) ^ ^ ^ n L L x z z l l j q _ ;./ ] ] ` ] ] ] ] ] ] ] ] ] ] ] ] ] ] ] ] ] ] ] ] ] ] ] ] ] ] ] ] ] ] ] ] ] ) ` +._ < % ; - / / ] ] ` ` ` ] ` ` ` ` ` ` ` ` h !.1XqX",
"rX6XL.v } ' F X.] ] ] ` ` ` / / ( ] ` ' + * X ; ;.] / ] ] ` / ] ] ] ] ] ] ] ] ] ] ] ] ] ] ] ] ] ] ] ] ] ] ] ] ] ` ` ` ` ] -.>.>.>.>.>.>.-.-.-.-.*.) -.-.^ n z n x ^ ] ] ` ] ] ` ] ] ] ] ] ] ] ] ] ] ] ] ] ] ] ] ] ] ] ] ] ] ] ] ] ] ] ] ] ] ] ] ] ] ] ] ] ] ] ] ] ] ] ] ] ] ] ] ] ] ] ] ] ] ] ] ] ] ] ] ] ] ] ] ] ] ] ] ] ] ] ] ] ] ] ] ] ] ] ] ] ] ] ] ] ] ] ] ] ] ] ] ] ] ] ] ] ] ] ] ] ] ] ] ] ] ] ] ] ] ] ] ] ] ] ] ] ] ] ] ] ] ] ] ] ] ] ] ] ] ] ] ] ] ] ] ] ` ] ] ] ] ;.p.w.p.q.) ^ ^ ^ n L L x z z l l j q _ ;./ ] ] ` ] ] ] ] ] ] ] ] ] ] ] ] ] ] ] ] ] ] ] ] ] ] ] ] ] ] ] ] ] ] ] ] ] ) ` +._ < % ; - / / ] ] ` ` ` ] ` ` ` ` ` ` ` ` h !.1XqX",
"rX6X`.v } ' F X.] ] ] ` ` ` / / ( ] ` ' + * X ; ;.] / ] ] ` / ] ] ] ] ] ] ] ] ] ] ] ] ] ] ] ] ] ] ] ] ] ] ] ] ] ` ` ` ` -.-.>.>.>.>.>.>.-.-.-.-.*.) -.-.^ n z n x ^ ] ] ` ] ] ` ] ] ] ] ] ] ] ] ] ] ] ] ] ] ] ] ] ] ] ] ] ] ] ] ] ] ] ] ] ] ] ] ] ] ] ] ] ] ] ] ] ] ] ] ] ] ] ] ] ] ] ] ] ] ] ] ] ] ] ] ] ] ] ] ] ] ] ] ] ] ] ] ] ] ] ] ] ] ] ] ] ] ] ] ] ] ] ] ] ] ] ] ] ] ] ] ] ] ] ] ] ] ] ] ] ] ] ] ] ] ] ] ] ] ] ] ] ] ] ] ] ] ] ] ] ] ] ] ] ] ] ] ] ] ] ] ] ` ] ] ] ] ;.u.w.p.q.) ^ ^ ^ n L L x z z l l j q ` ;./ ] ] ` ] ] ] ] ] ] ] ] ] ] ] ] ] ] ] ] ] ] ] ] ] ] ] ] ] ] ] ] ] ] ] ] ] ) ` +._ < % ; - / / ] ] ` ` ` ] ` ` ` ` ` ` ` ` h !.1XqX",
"rX6X`.v } ' F X.] ] ] ` ` ` / / ( -.` ' + * X ; ;.] / ] ] ` / ] ] ] ] ] ] ] ] ] ] ] ] ] ] ] ] ] ] ] ] ] ] ] ] ] ` ` ` ` -.-.>.>.>.>.>.>.-.-.-.-.*.) -.=.^ n z n x ^ ] ] ` ] ] ` ] ] ] ] ] ] ] ] ] ] ] ] ] ] ] ] ] ] ] ] ] ] ] ] ] ] ] ] ] ] ] ] ] ] ] ] ] ] ] ] ] ] ] ] ] ] ] ] ] ] ] ] ] ] ] ] ] ] ] ] ] ] ] ] ] ] ] ] ] ] ] ] ] ] ] ] ] ] ] ] ] ] ] ] ] ] ] ] ] ] ] ] ] ] ] ] ] ] ] ] ] ] ] ] ] ] ] ] ] ] ] ] ] ] ] ] ] ] ] ] ] ] ] ] ] ] ] ] ] ] ] ] ] ] ] ] ] ` ] ] ] ] ;.u.w.p.q.) ^ ^ ^ n L L x z z l l j q ` ;./ ] ] ` ] ] ] ] ] ] ] ] ] ] ] ] ] ] ] ] ] ] ] ] ] ] ] ] ] ] ] ] ] ] ] ] ] ) ` +._ < % ; - / / ] ] ` ` ` ] ` ` ` ` ` ` ` ` h !.1XqX",
"rX6XL.v } ' F X.] ] ] ` ` ` / / ( -.` ' + * X ; ;.] / ] ] ` / ] ] ] ] ] ] ] ] ] ] ] ] ] ] ] ] ] ] ] ] ] ] ] ] ] ` ` ` ` ` -.>.>.>.>.>.>.-.-.-.-.*.) -.=.^ n z n x ^ ] ] ` ] ] ` ] ] ] ] ] ] ] ] ] ] ] ] ] ] ] ] ] ] ] ] ] ] ] ] ] ] ] ] ] ] ] ] ] ] ] ] ] ] ] ] ] ] ] ] ] ] ] ] ] ] ] ] ] ] ] ] ] ] ] ] ] ] ] ] ] ] ] ] ] ] ] ] ] ] ] ] ] ] ] ] ] ] ] ] ] ] ] ] ] ] ] ] ] ] ] ] ] ] ] ] ] ] ] ] ] ] ] ] ] ] ] ] ] ] ] ] ] ] ] ] ] ] ] ] ] ] ] ] ] ] ] ] ] ] ] ] ] ` ] ] ] ] ;.u.w.p.q.) ^ ^ ^ n L L x z z l l j q _ <.) ] ] ` ] ] ] ] ] ] ] ] ] ] ] ] ] ] ] ] ] ] ] ] ] ] ] ] ] ] ] ] ] ] ] ] ] ) ` +._ < % ; - / / ] ] ` ` ` ] ` ` ` ` ` ` ` ` h !.1XqX",
"rX6XL.v } ' F X.] ] ] ` ` ` / / ) -.` ' + * X ; ;.] / ] ] ` / ] ] ] ] ] ] ] ] ] ] ] ] ] ] ] ] ] ] ] ] ] ] ] ] ] ` ` ` ` ` -.>.>.>.>.>.>.-.-.-.-.*.) -.-.^ n z n x ^ ] ] ` ] ] ` ] ] ] ] ] ] ] ] ] ] ] ] ] ] ] ] ] ] ] ] ] ] ] ] ] ] ] ] ] ] ] ] ] ] ] ] ] ] ] ] ] ] ] ] ] ] ] ] ] ] ] ] ] ] ] ] ] ] ] ] ] ] ] ] ] ] ] ] ] ] ] ] ] ] ] ] ] ] ] ] ] ] ] ] ] ] ] ] ] ] ] ] ] ] ] ] ] ] ] ] ] ] ] ] ] ] ] ] ] ] ] ] ] ] ] ] ] ] ] ] ] ] ] ] ] ] ] ] ] ] ] ] ] ] ] ] ] ` ] ] ] ] ;.u.w.p.q.) ^ ^ ^ n L L x z z l l j q _ <./ ] ] ` O.] ] ] ] ] ] ] ] ] ] ] ] ] ] ] ] ] ] ] ] ] ] ] ] ] ] ] ] ] ] ] ] ) ` +._ < % ; - / / ] ] ` ` ` ] ` ` ` ` ` ` ` ` h !.1XqX",
"rX6XL.v } ' F X.] ] ] ` ` ` / / ( ] ` ' + * X ; ;.] / ] ] ` / ] ] ] ] ] ] ] ] ] ] ] ] ] ] ] ] ] ] ] ] ] ] ] ] ] ` ` ` ` ` -.>.>.>.>.>.>.-.-.-.-.*.) ] ` ^ n z n x ^ ] ] ` ] ] ` ] ] ] ] ] ] ] ] ] ] ] ] ] ] ] ] ] ] ] ] ] ] ] ] ] ] ] ] ] ] ] ] ] ] ] ] ] ] ] ] ] ] ] ] ] ] ] ] ] ] ] ] ] ] ] ] ] ] ] ] ] ] ] ] ] ] ] ] ] ] ] ] ] ] ] ] ] ] ] ] ] ] ] ] ] ] ] ] ] ] ] ] ] ] ] ] ] ] ] ] ] ] ] ] ] ] ] ] ] ] ] ] ] ] ] ] ] ] ] ] ] ] ] ] ] ] ] ] ] ] ] ] ] ] ] ] ] ` ] ] ] ] ;.u.w.p.q.) ^ ^ ^ n L L x z z l l j q _ ;./ ] ] ` O.] ] ] ] ] ] ] ] ] ] ] ] ] ] ] ] ] ] ] ] ] ] ] ] ] ] ] ] ] ] ] ] ) ` +._ < % ; - / / ] ] ` ` ` ] ` ` ` ` ` ` ` ` h !.1XqX",
"rX6XL.v } ' F X.] ] ] ` ` ` / / ( ] ` ' + * X ; ;.] / ] ] ` / ] ] ] ] ] ] ] ] ] ] ] ] ] ] ] ] ] ] ] ] ] ] ] ] ] ` ` ` ` ` -.>.>.>.>.>.>.-.-.-.-.*.) ] ` ^ n z n x / ] ] ` ] ] ` ] ] ] ] ] ] ] ] ] ] ] ] ] ] ] ] ] ] ] ] ] ] ] ] ] ] ] ] ] ] ] ] ] ] ] ] ] ] ] ] ] ] ] ] ] ] ] ] ] ] ] ] ] ] ] ] ] ] ] ] ] ] ] ] ] ] ] ] ] ] ] ] ] ] ] ] ] ] ] ] ] ] ] ] ] ] ] ] ] ] ] ] ] ] ] ] ] ] ] ] ] ] ] ] ] ] ] ] ] ] ] ] ] ] ] ] ] ] ] ] ] ] ] ] ] ] ] ] ] ] ] ] ] ] ] ] ] ` ] ] ] ] ;.u.w.p.q.) ^ ^ ^ n L L x z z l l j q _ <./ ] ] ` O.] ] ] ] ] ] ] ] ] ] ] ] ] ] ] ] ] ] ] ] ] ] ] ] ] ] ] ] ] ] ] ] ) ` +._ < % ; - / / ] ] ` ` ` ] ` ` ` ` ` ` ` ` h !.1XqX",
"rX6XL.v } ' F X.] ] ] ` ` ` / / ( ] ` ' + * X ; ;.] / ] ] ` / ] ] ] ] ] ] ] ] ] ] ] ] ] ] ] ] ] ] ] ] ] ] ] ] ] ` ` ` ` -.-.>.>.>.>.>.>.-.-.-.-.*.) -.] ^ n z n x ^ ] ] ` ] ] ` ] ] ] ] ] ] ] ] ] ] ] ] ] ] ] ] ] ] ] ] ] ] ] ] ] ] ] ] ] ] ] ] ] ] ] ] ] ] ] ] ] ] ] ] ] ] ] ] ] ] ] ] ] ] ] ] ] ] ] ] ] ] ] ] ] ] ] ] ] ] ] ] ] ] ] ] ] ] ] ] ] ] ] ] ] ] ] ] ] ] ] ] ] ] ] ] ] ] ] ] ] ] ] ] ] ] ] ] ] ] ] ] ] ] ] ] ] ] ] ] ] ] ] ] ] ] ] ] ] ] ] ] ] ] ] ] ] ` ] ] ] ] ;.u.w.p.q.) ^ ^ ^ n L L x z l l l j q _ <./ ] ] ` ] ] ] ] ] ] ] ] ] ] ] ] ] ] ] ] ] ] ] ] ] ] ] ] ] ] ] ] ] ] ] ] ] ) ` +._ < % ; - / / ] ] ` ` ` ] ` ` ` ` ` ` ` ` h !.1XqX",
"rX6XL.v } ' F X.] ] ] ` ` ` / / ( ] ` ' + * X ; ;.] / ] ] ` / ] ] ] ] ] ] ] ] ] ] ] ] ] ] ] ] ] ] ] ] ] ] ] ] ] ` ` ` ` -.-.>.>.>.>.>.>.-.-.-.-.*.) ] ] ^ n z n x ^ ] ] ` ] ] ` ] ] ] ] ] ] ] ] ] ] ] ] ] ] ] ] ] ] ] ] ] ] ] ] ] ] ] ] ] ] ] ] ] ] ] ] ] ] ] ] ] ] ] ] ] ] ] ] ] ] ] ] ] ] ] ] ] ] ] ] ] ] ] ] ] ] ] ] ] ] ] ] ] ] ] ] ] ] ] ] ] ] ] ] ] ] ] ] ] ] ] ] ] ] ] ] ] ] ] ] ] ] ] ] ] ] ] ] ] ] ] ] ] ] ] ] ] ] ] ] ] ] ] ] ] ] ] ] ] ] ] ] ] ] ] ] ] ` ] ] ] ] ;.u.w.p.q.) ^ ^ ^ n L L x z z l l w q _ >./ ] ] ` ] ] ] ] ] ] ] ] ] ] ] ] ] ] ] ] ] ] ] ] ] ] ] ] ] ] ] ] ] ] ] ] ] ) ` +._ < % ; - / / ] ] ` ` ` ] ` ` ` ` ` ` ` ` h !.1XqX",
"rX6XL.v } ' F X.] ] ] ` ` ` / / ( ] ` ' + * X ; ;.] / ] ] ` / ] ] ] ] ] ] ] ] ] ] ] ] ] ] ] ] ] ] ] ] ] ] ] ] ] ` ` ` ` -.-.>.>.>.>.>.>.-.-.-.-.*.) -.=.^ n z n x ^ ] ] ` ] ] ` ] ] ] ] ] ] ] ] ] ] ] ] ] ] ] ] ] ] ] ] ] ] ] ] ] ] ] ] ] ] ] ] ] ] ] ] ] ] ] ] ] ] ] ] ] ] ] ] ] ] ] ] ] ] ] ] ] ] ] ] ] ] ] ] ] ] ] ] ] ] ] ] ] ] ] ] ] ] ] ] ] ] ] ] ] ] ] ] ] ] ] ] ] ] ] ] ] ] ] ] ] ] ] ] ] ] ] ] ] ] ] ] ] ] ] ] ] ] ] ] ] ] ] ] ] ] ] ] ] ] ] ] ] ] ] ] ] ` ] ] ] ] ;.u.w.p.q.) ^ ^ ^ n L L x z z l l j q _ ;./ ] ] ` ] ] ] ] ] ] ] ] ] ] ] ] ] ] ] ] ] ] ] ] ] ] ] ] ] ] ] ] ] ] ] ] ] ) ` +._ < % ; - / / ] ] ` ` ` ] ` ` ` ` ` ` ` ` h !.1XqX",
"rX6XL.v } ' F X.] ] ] ` ` ` / / ( ] ` ' + * X ; ;.] / ] ] ` / ] ] ] ] ] ] ] ] ] ] ] ] ] ] ] ] ] ] ] ] ] ] ] ] ] ` ` ` ` -.-.>.>.>.>.>.>.-.-.-.-.*.) -.=.^ n z n x ^ ] ] ` ] ] ` ] ] ] ] ] ] ] ] ] ] ] ] ] ] ] ] ] ] ] ] ] ] ] ] ] ] ] ] ] ] ] ] ] ] ] ] ] ] ] ] ] ] ] ] ] ] ] ] ] ] ] ] ] ] ] ] ] ] ] ] ] ] ] ] ] ] ] ] ] ] ] ] ] ] ] ] ] ] ] ] ] ] ] ] ] ] ] ] ] ] ] ] ] ] ] ] ] ] ] ] ] ] ] ] ] ] ] ] ] ] ] ] ] ] ] ] ] ] ] ] ] ] ] ] ] ] ] ] ] ] ] ] ] ] ] ] ] ` ] ] ] ] ;.u.w.p.q.) ^ ^ ^ n L L x z z l l j q _ ;./ ] ] ` ] ] ] ] ] ] ] ] ] ] ] ] ] ] ] ] ] ] ] ] ] ] ] ] ] ] ] ] ] ] ] ] ] ) ` +._ < % ; - / / ] ] ` ` ` ] ` ` ` ` ` ` ` ` h !.1XqX",
"rX6XL.v } ' F X.] ] ] ` ` ` / / ( ] ` ' + * X ; ;.] / ] ] ` / ] ] ] ] ] ] ] ] ] ] ] ] ] ] ] ] ] ] ] ] ] ] ] ] ] ` ` ` ` ` -.>.>.>.>.>.>.-.-.-.-.*.) ] ` ^ n z n x ^ ] ] ` ] ] ` ] ] ] ] ] ] ] ] ] ] ] ] ] ] ] ] ] ] ] ] ] ] ] ] ] ] ] ] ] ] ] ] ] ] ] ] ] ] ] ] ] ] ] ] ] ] ] ] ] ] ] ] ] ] ] ] ] ] ] ] ] ] ] ] ] ] ] ] ] ] ] ] ] ] ] ] ] ] ] ] ] ] ] ] ] ] ] ] ] ] ] ] ] ] ] ] ] ] ] ] ] ] ] ] ] ] ] ] ] ] ] ] ] ] ] ] ] ] ] ] ] ] ] ] ] ] ] ] ] ] ] ] ] ] ] ] ] ` ] ] ] ] ;.u.w.p.q.) ^ ^ ^ n L L x z z l l j q _ ;./ ] ] ` ] ] ] ] ] ] ] ] ] ] ] ] ] ] ] ] ] ] ] ] ] ] ] ] ] ] ] ] ] ] ] ] ] ) ` +._ < % ; - / / ] ] ` ` ` ] ` ` ` ` ` ` ` ` h !.1XqX",
"rX6XL.v } ' F X.] ] ] ` ` ` / / ( ] ` ' + * X ; ;.] / ] ] ` / ] ] ] ] ] ] ] ] ] ] ] ] ] ] ] ] ] ] ] ] ] ] ] ] ] ` ` ` ` ` -.>.>.>.>.>.>.-.-.-.-.*.) ] ` ^ n z n x ^ ] ] ` ] ] ` ] ] ] ] ] ] ] ] ] ] ] ] ] ] ] ] ] ] ] ] ] ] ] ] ] ] ] ] ] ] ] ] ] ] ] ] ] ] ] ] ] ] ] ] ] ] ] ] ] ] ] ] ] ] ] ] ] ] ] ] ] ] ] ] ] ] ] ] ] ] ] ] ] ] ] ] ] ] ] ] ] ] ] ] ] ] ] ] ] ] ] ] ] ] ] ] ] ] ] ] ] ] ] ] ] ] ] ] ] ] ] ] ] ] ] ] ] ] ] ] ] ] ] ] ] ] ] ] ] ] ] ] ] ] ] ] ] ` ] ] ] ] ;.p.w.p.q.) ^ ^ ^ n L L x z z l l j q _ ;./ ] ] ` ] ] ] ] ] ] ] ] ] ] ] ] ] ] ] ] ] ] ] ] ] ] ] ] ] ] ] ] ] ] ] ] ] ) ` +._ < % ; - / / ] ] ` ` ` ] ` ` ` ` ` ` ` ` h !.1XqX",
"rX6XL.v } ' F X.] ] ] ` ` ` / / ( ] ` ' + * X ; ;.] / ] ] ` / ] ] ] ] ] ] ] ] ] ] ] ] ] ] ] ] ] ] ] ] ] ] ] ] ] ` ` ` ` ` -.>.>.>.>.>.>.-.-.-.-.*.) ] ] ^ n z n x ^ ] ] ` ] ] ` ] ] ] ] ] ] ] ] ] ] ] ] ] ] ] ] ] ] ] ] ] ] ] ] ] ] ] ] ] ] ] ] ] ] ] ] ] ] ] ] ] ] ] ] ] ] ] ] ] ] ] ] ] ] ] ] ] ] ] ] ] ] ] ] ] ] ] ] ] ] ] ] ] ] ] ] ] ] ] ] ] ] ] ] ] ] ] ] ] ] ] ] ] ] ] ] ] ] ] ] ] ] ] ] ] ] ] ] ] ] ] ] ] ] ] ] ] ] ] ] ] ] ] ] ] ] ] ] ] ] ] ] ] ] ] ] ] ` ] ] ] ] ;.u.w.p.q.) ^ ^ ^ n L L x z z l l j q _ ;./ ] ] ` ] ] ] ] ] ] ] ] ] ] ] ] ] ] ] ] ] ] ] ] ] ] ] ] ] ] ] ] ] ] ] ] ] ) ` +._ < % ; - / / ] ] ` ` ` ] ` ` ` ` ` ` ` ` h !.1XqX",
"rX6XL.v ..' F X.] ] ] ` ` ` / / ( ] ` ' + * X ; ;.] / ] ] ` / ] ] ] ] ] ] ] ] ] ] ] ] ] ] ] ] ] ] ] ] ] ] ] ] ] ` ` ` ` ` -.>.>.>.>.>.>.-.-.-.-.*.) ] ` ^ n z n x ^ ] ] ` ] ] ` ] ] ] ] ] ] ] ] ] ] ] ] ] ] ] ] ] ] ] ] ] ] ] ] ] ] ] ] ] ] ] ] ] ] ] ] ] ] ] ] ] ] ] ] ] ] ] ] ] ] ] ] ] ] ] ] ] ] ] ] ] ] ] ] ] ] ] ] ] ] ] ] ] ] ] ] ] ] ] ] ] ] ] ] ] ] ] ] ] ] ] ] ] ] ] ] ] ] ] ] ] ] ] ] ] ] ] ] ] ] ] ] ] ] ] ] ] ] ] ] ] ] ] ] ] ] ] ] ] ] ] ] ] ] ] ] ] ` ] ] ] ] ;.u.w.p.q.) ^ ^ ^ n L L x z z l l j q ` ;./ ] ] ` ] ] ] ] ] ] ] ] ] ] ] ] ] ] ] ] ] ] ] ] ] ] ] ] ] ] ] ] ] ] ] ] ] ) ` +._ < % ; - / / ] ] ` ` ` ] ` ` ` ` ` ` ` ` h !.1XqX",
"rX6X`.v } ' F X.] ] ] ` ` ` / / ( ] ` ' + * X ; ;.] / ] ] ` / ] ] ] ] ] ] ] ] ] ] ] ] ] ] ] ] ] ] ] ] ] ] ] ] ] ` ` ` ` -.-.>.>.>.>.>.>.-.-.-.-.*.) -.-.^ n z n x ^ ] ] ` ] ] ` ] ] ] ] ] ] ] ] ] ] ] ] ] ] ] ] ] ] ] ] ] ] ] ] ] ] ] ] ] ] ] ] ] ] ] ] ] ] ] ] ] ] ] ] ] ] ] ] ] ] ] ] ] ] ] ] ] ] ] ] ] ] ] ] ] ] ] ] ] ] ] ] ] ] ] ] ] ] ] ] ] ] ] ] ] ] ] ] ] ] ] ] ] ] ] ] ] ] ] ] ] ] ] ] ] ] ] ] ] ] ] ] ] ] ] ] ] ] ] ] ] ] ] ] ] ] ] ] ] ] ] ] ] ] ] ] ] ` ] ] ] ] ;.u.w.p.q.) ^ ^ ^ n L L x z z l l j q _ <./ ] ] ` ] ] ] ] ] ] ] ] ] ] ] ] ] ] ] ] ] ] ] ] ] ] ] ] ] ] ] ] ] ] ] ] ] ) ` +._ < % ; - / / ] ] ` ` ` ] ` ` ` ` ` ` ` ` h !.1XqX",
"rX6XL.v } ' F X.] ] ] ` ` ` / / ( ] ` ' + * X ; ;.] / ] ] ` / ] ] ] ] ] ] ] ] ] ] ] ] ] ] ] ] ] ] ] ] ] ] ] ] ] ` ` ` ` ] -.>.>.>.>.>.>.-.-.-.-.*.) -.-.^ n z n x ^ ] ] ` ] ] ` ] ] ] ] ] ] ] ] ] ] ] ] ] ] ] ] ] ] ] ] ] ] ] ] ] ] ] ] ] ] ] ] ] ] ] ] ] ] ] ] ] ] ] ] ] ] ] ] ] ] ] ] ] ] ] ] ] ] ] ] ] ] ] ] ] ] ] ] ] ] ] ] ] ] ] ] ] ] ] ] ] ] ] ] ] ] ] ] ] ] ] ] ] ] ] ] ] ] ] ] ] ] ] ] ] ] ] ] ] ] ] ] ] ] ] ] ] ] ] ] ] ] ] ] ] ] ] ] ] ] ] ] ] ] ] ] ] ` ] ] ] ] ;.u.w.p.q.) ^ ^ ^ n L L x z z l l j q _ <./ ] ] ` O.] ] ] ] ] ] ] ] ] ] ] ] ] ] ] ] ] ] ] ] ] ] ] ] ] ] ] ] ] ] ] ] ) ` +._ < % ; - / / ] ] ` ` ` ] ` ` ` ` ` ` ` ` h !.1XqX",
"rX6XL.v } ' F X.] ] ] ` ` ` / / ( -.` ' + * X ; ;.] / ] ] ` / ] ] ] ] ] ] ] ] ] ] ] ] ] ] ] ] ] ] ] ] ] ] ] ] ] ` ` ` ` -.-.>.>.>.>.>.>.-.-.-.-.*.) -.-.^ n z n x ^ ] ] ` ] ] ` ] ] ] ] ] ] ] ] ] ] ] ] ] ] ] ] ] ] ] ] ] ] ] ] ] ] ] ] ] ] ] ] ] ] ] ] ] ] ] ] ] ] ] ] ] ] ] ] ] ] ] ] ] ] ] ] ] ] ] ] ] ] ] ] ] ] ] ] ] ] ] ] ] ] ] ] ] ] ] ] ] ] ] ] ] ] ] ] ] ] ] ] ] ] ] ] ] ] ] ] ] ] ] ] ] ] ] ] ] ] ] ] ] ] ] ] ] ] ] ] ] ] ] ] ] ] ] ] ] ] ] ] ] ] ] ] ] ` ] ] ] ] ;.u.w.p.q.) ^ ^ ^ n L L x z z l l j q _ ;./ ] ] ` O.] ] ] ] ] ] ] ] ] ] ] ] ] ] ] ] ] ] ] ] ] ] ] ] ] ] ] ] ] ] ] ] ) ` +._ < % ; - / / ] ] ` ` ` ] ` ` ` ` ` ` ` ` h !.1XqX",
"rX6XL.v } ' F X.] ] ] ` ` ` / / ( ] ` ' + * X ; ;.] / ] ] ` / ] ] ] ] ] ] ] ] ] ] ] ] ] ] ] ] ] ] ] ] ] ] ] ] ] ` ` ` ` -.-.>.>.>.>.>.>.-.-.-.-.*.) -.=.^ n z n x / ] ] ` ] ] ] ] ] ] ] ] ] ] ] ] ] ] ] ] ] ] ] ] ] ] ] ] ] ] ] ] ] ] ] ] ] ] ] ] ] ] ] ] ] ] ] ] ] ] ] ] ] ] ] ] ] ] ] ] ] ] ] ] ] ] ] ] ] ] ] ] ] ] ] ] ] ] ] ] ] ] ] ] ] ] ] ] ] ] ] ] ] ] ] ] ] ] ] ] ] ] ] ] ] ] ] ] ] ] ] ] ] ] ] ] ] ] ] ] ] ] ] ] ] ] ] ] ] ] ] ] ] ] ] ] ] ] ] ] ] ] ] ] ` ] ] ] ] ;.u.w.p.q.) ^ ^ ^ n L L x z z l l j q _ ;./ ] ] ` O.] ] ] ] ] ] ] ] ] ] ] ] ] ] ] ] ] ] ] ] ] ] ] ] ] ] ] ] ] ] ] ] ) ` +._ < % ; - / / ] ] ` ` ` ] ` ` ` ` ` ` ` ` h !.1XqX",
"rX6XL.v ..' F X.] ] ] ` ` ` / / ( -.` ' + * X ; ;.] / ] ] ` / ] ] ] ] ] ] ] ] ] ] ] ] ] ] ] ] ] ] ] ] ] ] ] ] ] ` ` ` ` ` -.>.>.>.>.>.>.-.-.-.-.*.) -.=.^ n z n x ^ ] ] ` ] ] ` ] ] ] ] ] ] ] ] ] ] ] ] ] ] ] ] ] ] ] ] ] ] ] ] ] ] ] ] ] ] ] ] ] ] ] ] ] ] ] ] ] ] ] ] ] ] ] ] ] ] ] ] ] ] ] ] ] ] ] ] ] ] ] ] ] ] ] ] ] ] ] ] ] ] ] ] ] ] ] ] ] ] ] ] ] ] ] ] ] ] ] ] ] ] ] ] ] ] ] ] ] ] ] ] ] ] ] ] ] ] ] ] ] ] ] ] ] ] ] ] ] ] ] ] ] ] ] ] ] ] ] ] ] ] ] ] ] ` ] ] ] ] ;.u.w.p.q.) ^ ^ ^ n L L x z z l l j q _ ;./ ] ] ` ] ] ] ] ] ] ] ] ] ] ] ] ] ] ] ] ] ] ] ] ] ] ] ] ] ] ] ] ] ] ] ] ] ) ` +._ < % ; - / / ] ] ` ` ` ] ` ` ` ` ` ` ` ` h !.1XqX",
"rX6XL.v ..' F X.] ] ] ` ` ` / / ( -.` ' + * X ; ;.] / ] ] ` / ] ] ] ] ] ] ] ] ] ] ] ] ] ] ] ] ] ] ] ] ] ] ] ] ] ` ` ` ` ` -.>.>.>.>.>.>.-.-.-.-.*.) -.-.^ n z n x ^ ] ] ` ] ] ` ] ] ] ] ] ] ] ] ] ] ] ] ] ] ] ] ] ] ] ] ] ] ] ] ] ] ] ] ] ] ] ] ] ] ] ] ] ] ] ] ] ] ] ] ] ] ] ] ] ] ] ] ] ] ] ] ] ] ] ] ] ] ] ] ] ] ] ] ] ] ] ] ] ] ] ] ] ] ] ] ] ] ] ] ] ] ] ] ] ] ] ] ] ] ] ] ] ] ] ] ] ] ] ] ] ] ] ] ] ] ] ] ] ] ] ] ] ] ] ] ] ] ] ] ] ] ] ] ] ] ] ] ] ] ] ] ] ` ] ] ] ] ;.u.w.p.q.) ^ ^ ^ n L L x z z l l j q _ ;./ ] ] ` ] ] ] ] ] ] ] ] ] ] ] ] ] ] ] ] ] ] ] ] ] ] ] ] ] ] ] ] ] ] ] ] ] ) ` +._ < % ; - / / ] ] ` ` ` ] ` ` ` ` ` ` ` ` h !.1XqX",
"rX6XL.v } ' F X.] ] ] ` ` ` / / ( -.` ' + * X ; ;.] / ] ] ` / ] ] ] ] ] ] ] ] ] ] ] ] ] ] ] ] ] ] ] ] ] ] ] ] ] ` ` ` ` ` -.>.>.>.>.>.>.-.-.-.-.*.) ] ` ^ n z n x ^ ] ] ` ] ] ` ] ] ] ] ] ] ] ] ] ] ] ] ] ] ] ] ] ] ] ] ] ] ] ] ] ] ] ] ] ] ] ] ] ] ] ] ] ] ] ] ] ] ] ] ] ] ] ] ] ] ] ] ] ] ] ] ] ] ] ] ] ] ] ] ] ] ] ] ] ] ] ] ] ] ] ] ] ] ] ] ] ] ] ] ] ] ] ] ] ] ] ] ] ] ] ] ] ] ] ] ] ] ] ] ] ] ] ] ] ] ] ] ] ] ] ] ] ] ] ] ] ] ] ] ] ] ] ] ] ] ] ] ] ] ] ] ] ` ] ] ] ] ;.u.w.p.q.) ^ ^ ^ n L L x z z l l j q _ >./ ] ] ` ] ] ] ] ] ] ] ] ] ] ] ] ] ] ] ] ] ] ] ] ] ] ] ] ] ] ] ] ] ] ] ] ] ) ` +._ < % ; - / / ] ] ` ` ` ] ` ` ` ` ` ` ` ` h !.1XqX",
"rX6XL.v } ' F X.] ] ] ` ` ` / / ( ] ` ' + * X ; ;.] / ] ] ` / ] ] ] ] ] ] ] ] ] ] ] ] ] ] ] ] ] ] ] ] ] ] ] ] ] ` ` ` ` ` -.>.>.>.>.>.>.-.-.-.-.*.) ] ` ^ n z n x ^ ] ] ` ] ] ` ] ] ] ] ] ] ] ] ] ] ] ] ] ] ] ] ] ] ] ] ] ] ] ] ] ] ] ] ] ] ] ] ] ] ] ] ] ] ] ] ] ] ] ] ] ] ] ] ] ] ] ] ] ] ] ] ] ] ] ] ] ] ] ] ] ] ] ] ] ] ] ] ] ] ] ] ] ] ] ] ] ] ] ] ] ] ] ] ] ] ] ] ] ] ] ] ] ] ] ] ] ] ] ] ] ] ] ] ] ] ] ] ] ] ] ] ] ] ] ] ] ] ] ] ] ] ] ] ] ] ] ] ] ] ] ] ] ` ] ] ] ] ;.u.w.p.q.) ^ ^ ^ n L L x z z l l j q _ >.) ] ] ` ] ] ] ] ] ] ] ] ] ] ] ] ] ] ] ] ] ] ] ] ] ] ] ] ] ] ] ] ] ] ] ] ] ) ` +._ < % ; - / / ] ] ` ` ` ] ` ` ` ` ` ` ` ` h !.1XqX",
"rX6XL.v } ' F X.] ] ] ` ` ` / / ( -.` ' + * X ; ;.] / ] ] ` / ] ] ] ] ] ] ] ] ] ] ] ] ] ] ] ] ] ] ] ] ] ] ] ] ] ` ` ` ` -.-.>.>.>.>.>.>.-.-.-.-.*.) -.] ^ n z n x ^ ] ] ` ] ] ` ] ] ] ] ] ] ] ] ] ] ] ] ] ] ] ] ] ] ] ] ] ] ] ] ] ] ] ] ] ] ] ] ] ] ] ] ] ] ] ] ] ] ] ] ] ] ] ] ] ] ] ] ] ] ] ] ] ] ] ] ] ] ] ] ] ] ] ] ] ] ] ] ] ] ] ] ] ] ] ] ] ] ] ] ] ] ] ] ] ] ] ] ] ] ] ] ] ] ] ] ] ] ] ] ] ] ] ] ] ] ] ] ] ] ] ] ] ] ] ] ] ] ] ] ] ] ] ] ] ] ] ] ] ] ] ] ] ` ] ] ] ] ;.u.w.p.q.) ^ ^ ^ n L L x z z l l j q _ ;./ ] ] ` ] ] ] ] ] ] ] ] ] ] ] ] ] ] ] ] ] ] ] ] ] ] ] ] ] ] ] ] ] ] ] ] ] ) ` +._ < % ; - / / ] ] ` ` ` ] ` ` ` ` ` ` ` ` h !.1XqX",
"rX6XL.v } ' F X.] ] ] ` ` ` / / ( -.` ' + * X ; ;.] / ] ] ` / ] ] ] ] ] ] ] ] ] ] ] ] ] ] ] ] ] ] ] ] ] ] ] ] ] ` ` ` ` -.-.>.>.>.>.>.>.-.-.-.-.*.) ] ] ^ n z n x ^ ] ] ` ] ] ` ] ] ] ] ] ] ] ] ] ] ] ] ] ] ] ] ] ] ] ] ] ] ] ] ] ] ] ] ] ] ] ] ] ] ] ] ] ] ] ] ] ] ] ] ] ] ] ] ] ] ] ] ] ] ] ] ] ] ] ] ] ] ] ] ] ] ] ] ] ] ] ] ] ] ] ] ] ] ] ] ] ] ] ] ] ] ] ] ] ] ] ] ] ] ] ] ] ] ] ] ] ] ] ] ] ] ] ] ] ] ] ] ] ] ] ] ] ] ] ] ] ] ] ] ] ] ] ] ] ] ] ] ] ] ] ] ] ` ] ] ] ] ;.p.w.p.q.) ^ ^ ^ n L L x z z l l j q _ ;./ ] ] ` ] ] ] ] ] ] ] ] ] ] ] ] ] ] ] ] ] ] ] ] ] ] ] ] ] ] ] ] ] ] ] ] ] ) ` +._ < % ; - / / ] ] ` ` ` ] ` ` ` ` ` ` ` ` h !.1XqX",
"rX6X`.v } ' F X.] ] ] ` ` ` / / ( ] ` ' + * X ; ;.] / ] ] ` / ] ] ] ] ] ] ] ] ] ] ] ] ] ] ] ] ] ] ] ] ] ] ] ] ] ` ` ` ` -.-.>.>.>.>.>.>.-.-.-.-.*.) -.=.^ n z n x ^ ] ] ` ] ] ` ] ] ] ] ] ] ] ] ] ] ] ] ] ] ] ] ] ] ] ] ] ] ] ] ] ] ] ] ] ] ] ] ] ] ] ] ] ] ] ] ] ] ] ] ] ] ] ] ] ] ] ] ] ] ] ] ] ] ] ] ] ] ] ] ] ] ] ] ] ] ] ] ] ] ] ] ] ] ] ] ] ] ] ] ] ] ] ] ] ] ] ] ] ] ] ] ] ] ] ] ] ] ] ] ] ] ] ] ] ] ] ] ] ] ] ] ] ] ] ] ] ] ] ] ] ] ] ] ] ] ] ] ] ] ] ] ] ` ] ] ] ] ;.u.w.p.q.) ^ ^ ^ n L L x z z l l j q ` ;./ ] ] ` ] ] ] ] ] ] ] ] ] ] ] ] ] ] ] ] ] ] ] ] ] ] ] ] ] ] ] ] ] ] ] ] ] ) ` +._ < % ; - / / ] ] ` ` ` ] ` ` ` ` ` ` ` ` h !.1XqX",
"rX6X`.v } ' F X.] ] ] ` ` ` / / ( ] ` ' + * X ; ;.] / ] ] ` / ] ] ] ] ] ] ] ] ] ] ] ] ] ] ] ] ] ] ] ] ] ] ] ] ] ` ` ` ` -.-.>.>.>.>.>.>.-.-.-.-.*.) -.=.^ n z n x ^ ] ] ` ] ] ` ] ] ] ] ] ] ] ] ] ] ] ] ] ] ] ] ] ] ] ] ] ] ] ] ] ] ] ] ] ] ] ] ] ] ] ] ] ] ] ] ] ] ] ] ] ] ] ] ] ] ] ] ] ] ] ] ] ] ] ] ] ] ] ] ] ] ] ] ] ] ] ] ] ] ] ] ] ] ] ] ] ] ] ] ] ] ] ] ] ] ] ] ] ] ] ] ] ] ] ] ] ] ] ] ] ] ] ] ] ] ] ] ] ] ] ] ] ] ] ] ] ] ] ] ] ] ] ] ] ] ] ] ] ] ] ] ] ` ] ] ] ] ;.u.w.p.q.) ^ ^ ^ n L L x z z l l j q ` ;./ ] ] ` ] ] ] ] ] ] ] ] ] ] ] ] ] ] ] ] ] ] ] ] ] ] ] ] ] ] ] ] ] ] ] ] ] ) ` +.! < % ; - / / ] ] ` ` ` ] ` ` ` ` ` ` ` ` h !.1XqX",
"rX6XL.v } ' F X.] ] ] ` ` ` / / ( ] ` ' + * X ; ;.] / ] ] ` / ] ] ] ] ] ] ] ] ] ] ] ] ] ] ] ] ] ] ] ] ] ] ] ] ] ` ` ` ` ` -.>.>.>.>.>.>.-.-.-.-.*.) ] ` ^ n z n x ^ ] ] ` ] ] ` ] ] ] ] ] ] ] ] ] ] ] ] ] ] ] ] ] ] ] ] ] ] ] ] ] ] ] ] ] ] ] ] ] ] ] ] ] ] ] ] ] ] ] ] ] ] ] ] ] ] ] ] ] ] ] ] ] ] ] ] ] ] ] ] ] ] ] ] ] ] ] ] ] ] ] ] ] ] ] ] ] ] ] ] ] ] ] ] ] ] ] ] ] ] ] ] ] ] ] ] ] ] ] ] ] ] ] ] ] ] ] ] ] ] ] ] ] ] ] ] ] ] ] ] ] ] ] ] ] ] ] ] ] ] ] ] ] ` ] ] ] ] ;.u.w.p.q.) ^ ^ ^ n L L x z z l l j q _ <.) ] ] ` ] ] ] ] ] ] ] ] ] ] ] ] ] ] ] ] ] ] ] ] ] ] ] ] ] ] ] ] ] ] ] ] ] ) ` +._ < % ; - / / ] ] ` ` ` ] ` ` ` ` ` ` ` ` h !.1XqX",
"rX6XL.v } ' F X.] ] ] ` ` ` / / ( ] ` ' + * X ; ;.] / ] ] ` / ] ] ] ] ] ] ] ] ] ] ] ] ] ] ] ] ] ] ] ] ] ] ] ] ] ` ` ` ` ` -.>.>.>.>.>.>.-.-.-.-.*.) ] ` ^ n z n x ^ ] ] ` ] ] ` ] ] ] ] ] ] ] ] ] ] ] ] ] ] ] ] ] ] ] ] ] ] ] ] ] ] ] ] ] ] ] ] ] ] ] ] ] ] ] ] ] ] ] ] ] ] ] ] ] ] ] ] ] ] ] ] ] ] ] ] ] ] ] ] ] ] ] ] ] ] ] ] ] ] ] ] ] ] ] ] ] ] ] ] ] ] ] ] ] ] ] ] ] ] ] ] ] ] ] ] ] ] ] ] ] ] ] ] ] ] ] ] ] ] ] ] ] ] ] ] ] ] ] ] ] ] ] ] ] ] ] ] ] ] ] ] ] ` ] ] ] ] ;.u.w.p.q.) ^ ^ ^ n L L x z z l l j q _ <./ ] ] ` O.] ] ] ] ] ] ] ] ] ] ] ] ] ] ] ] ] ] ] ] ] ] ] ] ] ] ] ] ] ] ] ] *.` +._ < % ; - / / ] ] ` ` ` ] ` ` ` ` ` ` ` ` h !.1XqX",
"rX6XL.v } ' F X.] ] ] ` ` ` / / ( -.` ' + * X ; ;.] / ] ] ` / ] ] ] ] ] ] ] ] ] ] ] ] ] ] ] ] ] ] ] ] ] ] ] ] ] ` ` ` ` ` -.>.>.>.>.>.>.-.-.-.-.*.) ] ] ^ n z n x ^ ] ] ` ] ] ` ] ] ] ] ] ] ] ] ] ] ] ] ] ] ] ] ] ] ] ] ] ] ] ] ] ] ] ] ] ] ] ] ] ] ] ] ] ] ] ] ] ] ] ] ] ] ] ] ] ] ] ] ] ] ] ] ] ] ] ] ] ] ] ] ] ] ] ] ] ] ] ] ] ] ] ] ] ] ] ] ] ] ] ] ] ] ] ] ] ] ] ] ] ] ] ] ] ] ] ] ] ] ] ] ] ] ] ] ] ] ] ] ] ] ] ] ] ] ] ] ] ] ] ] ] ] ] ] ] ] ] ] ] ] ] ] ] ` ] ] ] ] ;.u.w.p.q.) ^ ^ ^ n L L x z z l l j q _ ;./ ] ] ` O.] ] ] ] ] ] ] ] ] ] ] ] ] ] ] ] ] ] ] ] ] ] ] ] ] ] ] ] ] ] ] ] ) ` +._ < % ; - / / ] ] ` ` ` ] ` ` ` ` ` ` ` ` h !.1XqX",
"rX6XL.v } ' F X.] ] ] ` ` ` / / ( ] ` ' + * X ; ;.] / ] ] ` / ] ] ] ] ] ] ] ] ] ] ] ] ] ] ] ] ] ] ] ] ] ] ] ] ] ` ` ` ` ` -.>.>.>.>.>.>.-.-.-.-.*.) ] ` ^ n z n x ^ ] ] ` ] ] ` ] ] ] ] ] ] ] ] ] ] ] ] ] ] ] ] ] ] ] ] ] ] ] ] ] ] ] ] ] ] ] ] ] ] ] ] ] ] ] ] ] ] ] ] ] ] ] ] ] ] ] ] ] ] ] ] ] ] ] ] ] ] ] ] ] ] ] ] ] ] ] ] ] ] ] ] ] ] ] ] ] ] ] ] ] ] ] ] ] ] ] ] ] ] ] ] ] ] ] ] ] ] ] ] ] ] ] ] ] ] ] ] ] ] ] ] ] ] ] ] ] ] ] ] ] ] ] ] ] ] ] ] ] ] ] ] ] ` ] ] ] ] ;.u.w.p.q.) ^ ^ ^ n L L x z z l l j q _ <./ ] ] ` O.] ] ] ] ] ] ] ] ] ] ] ] ] ] ] ] ] ] ] ] ] ] ] ] ] ] ] ] ] ] ] ] ) ` +._ < % ; - / / ] ] ` ` ` ] ` ` ` ` ` ` ` ` h !.1XqX",
"rX6XL.v } ' F X.] ] ] ` ` ` / / ( -.` ' + * X ; ;.] / ] ] ` / ] ] ] ] ] ] ] ] ] ] ] ] ] ] ] ] ] ] ] ] ] ] ] ] ] ` ` ` ` -.-.>.>.>.>.>.>.-.-.-.-.*.) -.-.^ n z n x ^ ] ] ` ] ] ` ] ] ] ] ] ] ] ] ] ] ] ] ] ] ] ] ] ] ] ] ] ] ] ] ] ] ] ] ] ] ] ] ] ] ] ] ] ] ] ] ] ] ] ] ] ] ] ] ] ] ] ] ] ] ] ] ] ] ] ] ] ] ] ] ] ] ] ] ] ] ] ] ] ] ] ] ] ] ] ] ] ] ] ] ] ] ] ] ] ] ] ] ] ] ] ] ] ] ] ] ] ] ] ] ] ] ] ] ] ] ] ] ] ] ] ] ] ] ] ] ] ] ] ] ] ] ] ] ] ] ] ] ] ] ] ] ] ` ] ] ] ] ;.u.w.p.q.) ^ ^ ^ n L L x z z l l j q _ <./ ] ] ` ] ] ] ] ] ] ] ] ] ] ] ] ] ] ] ] ] ] ] ] ] ] ] ] ] ] ] ] ] ] ] ] ] ) ` +._ < % ; - / / ] ] ` ` ` ] ` ` ` ` ` ` ` ` h !.1XqX",
"rX6XL.v } ' F X.] ] ] ` ` ` / / ( -.` ' + * X ; ;.] / ] ] ` / ] ] ] ] ] ] ] ] ] ] ] ] ] ] ] ] ] ] ] ] ] ] ] ] ] ` ` ` ` ] -.>.>.>.>.>.>.-.-.-.-.*.) -.-.^ n z n x ^ ] ] ` ] ] ` ] ] ] ] ] ] ] ] ] ] ] ] ] ] ] ] ] ] ] ] ] ] ] ] ] ] ] ] ] ] ] ] ] ] ] ] ] ] ] ] ] ] ] ] ] ] ] ] ] ] ] ] ] ] ] ] ] ] ] ] ] ] ] ] ] ] ] ] ] ] ] ] ] ] ] ] ] ] ] ] ] ] ] ] ] ] ] ] ] ] ] ] ] ] ] ] ] ] ] ] ] ] ] ] ] ] ] ] ] ] ] ] ] ] ] ] ] ] ] ] ] ] ] ] ] ] ] ] ] ] ] ] ] ] ] ] ] ` ] ] ] ] ;.u.w.p.q.) ^ ^ ^ n L L x z z l l w q _ >./ ] ] ` ] ] ] ] ] ] ] ] ] ] ] ] ] ] ] ] ] ] ] ] ] ] ] ] ] ] ] ] ] ] ] ] ] ) ` +._ < % ; - / / ] ] ` ` ` ] ` ` ` ` ` ` ` ` h !.1XqX",
"rX6XL.v } ' F X.] ] ] ` ` ` / / ( -.` ' + * X ; ;.] / ] ] ` / ] ] ] ] ] ] ] ] ] ] ] ] ] ] ] ] ] ] ] ] ] ] ] ] ] ` ` ` ` -.-.>.>.>.>.>.>.-.-.-.-.*.) -.-.^ n z n x ^ ] ] ` ] ] ` ] ] ] ] ] ] ] ] ] ] ] ] ] ] ] ] ] ] ] ] ] ] ] ] ] ] ] ] ] ] ] ] ] ] ] ] ] ] ] ] ] ] ] ] ] ] ] ] ] ] ] ] ] ] ] ] ] ] ] ] ] ] ] ] ] ] ] ] ] ] ] ] ] ] ] ] ] ] ] ] ] ] ] ] ] ] ] ] ] ] ] ] ] ] ] ] ] ] ] ] ] ] ] ] ] ] ] ] ] ] ] ] ] ] ] ] ] ] ] ] ] ] ] ] ] ] ] ] ] ] ] ] ] ] ] ] ] ` ] ] ] ] ;.u.w.p.q.) ^ ^ ^ n L L x z z l l j q _ ;./ ] ] ` ] ] ] ] ] ] ] ] ] ] ] ] ] ] ] ] ] ] ] ] ] ] ] ] ] ] ] ] ] ] ] ] ] ) ` +._ < % ; - / / ] ] ` ` ` ] ` ` ` ` ` ` ` ` h !.1XqX",
"rX6XL.v } ' F X.] ] ] ` ` ` / / ( ] ` ' + * X ; ;.] / ] ] ` / ] ] ] ] ] ] ] ] ] ] ] ] ] ] ] ] ] ] ] ] ] ] ] ] ] ` ` ` ` -.-.>.>.>.>.>.>.-.-.-.-.*.) -.=.^ n z n x ^ ] ] ` ] ] ` ] ] ] ] ] ] ] ] ] ] ] ] ] ] ] ] ] ] ] ] ] ] ] ] ] ] ] ] ] ] ] ] ] ] ] ] ] ] ] ] ] ] ] ] ] ] ] ] ] ] ] ] ] ] ] ] ] ] ] ] ] ] ] ] ] ] ] ] ] ] ] ] ] ] ] ] ] ] ] ] ] ] ] ] ] ] ] ] ] ] ] ] ] ] ] ] ] ] ] ] ] ] ] ] ] ] ] ] ] ] ] ] ] ] ] ] ] ] ] ] ] ] ] ] ] ] ] ] ] ] ] ] ] ] ] ] ] ` ] ] ] ] ;.u.w.p.q.) ^ ^ ^ n L L x z z l l j q _ ;./ ] ] ` ] ] ] ] ] ] ] ] ] ] ] ] ] ] ] ] ] ] ] ] ] ] ] ] ] ] ] ] ] ] ] ] ] ) ` +.! < % ; - / / ] ] ` ` ` ] ` ` ` ` ` ` ` ` h !.1XqX",
"rX6XL.v } ' F X.] ] ] ` ` ` / / ( -.` ' + * X ; ;.] / ] ] ` / ] ] ] ] ] ] ] ] ] ] ] ] ] ] ] ] ] ] ] ] ] ] ] ] ] ` ` ` ` ` -.>.>.>.>.>.>.-.-.-.-.*.) -.=.^ n z n x ^ ] ] ` ] ] ` ] ] ] ] ] ] ] ] ] ] ] ] ] ] ] ] ] ] ] ] ] ] ] ] ] ] ] ] ] ] ] ] ] ] ] ] ] ] ] ] ] ] ] ] ] ] ] ] ] ] ] ] ] ] ] ] ] ] ] ] ] ] ] ] ] ] ] ] ] ] ] ] ] ] ] ] ] ] ] ] ] ] ] ] ] ] ] ] ] ] ] ] ] ] ] ] ] ] ] ] ] ] ] ] ] ] ] ] ] ] ] ] ] ] ] ] ] ] ] ] ] ] ] ] ] ] ] ] ] ] ] ] ] ] ] ] ] ` ] ] ] ] ;.u.w.p.q.) ^ ^ ^ n L L x z z l l j q _ ;./ ] ] ` ] ] ] ] ] ] ] ] ] ] ] ] ] ] ] ] ] ] ] ] ] ] ] ] ] ] ] ] ] ] ] ] ] ) ` +._ < % ; - / / ] ] ` ` ` ] ` ` ` ` ` ` ` ` h !.1XqX",
"rX6XL.v } ' F X.] ] ] ` ` ` / / ( ] ` ' + * X ; ;.] / ] ] ` / ] ] ] ] ] ] ] ] ] ] ] ] ] ] ] ] ] ] ] ] ] ] ] ] ] ` ` ` ` ` -.>.>.>.>.>.>.-.-.-.-.*.) -.-.^ n z n x ^ ] ] ` ] ] ` ] ] ] ] ] ] ] ] ] ] ] ] ] ] ] ] ] ] ] ] ] ] ] ] ] ] ] ] ] ] ] ] ] ] ] ] ] ] ] ] ] ] ] ] ] ] ] ] ] ] ] ] ] ] ] ] ] ] ] ] ] ] ] ] ] ] ] ] ] ] ] ] ] ] ] ] ] ] ] ] ] ] ] ] ] ] ] ] ] ] ] ] ] ] ] ] ] ] ] ] ] ] ] ] ] ] ] ] ] ] ] ] ] ] ] ] ] ] ] ] ] ] ] ] ] ] ] ] ] ] ] ] ] ] ] ] ] ` ] ] ] ] ;.p.w.p.q.) ^ ^ ^ n L L x z z l l j q _ ;./ ] ] ` ] ] ] ] ] ] ] ] ] ] ] ] ] ] ] ] ] ] ] ] ] ] ] ] ] ] ] ] ] ] ] ] ] *.` +._ < % ; - / / ] ] ` ` ` ] ` ` ` ` ` ` ` ` h !.1XqX",
"rX6XL.v } ' F X.] ] ] ` ] ] / / ( ] ` ' + * X ; ;.] / ] ] ` / ] ] ] ] ] ] ] ] ] ] ] ] ] ] ] ] ] ] ] ] ] ] ] ] ] ` ` ` ` ` -.>.>.>.>.>.>.-.-.-.-.*.) ] ` ^ n z n x ^ ] ] ` ] ] ` ] ] ] ] ] ] ] ] ] ] ] ] ] ] ] ] ] ] ] ] ] ] ] ] ] ] ] ] ] ] ] ] ] ] ] ] ] ] ] ] ] ] ] ] ] ] ] ] ] ] ] ] ] ] ] ] ] ] ] ] ] ] ] ] ] ] ] ] ] ] ] ] ] ] ] ] ] ] ] ] ] ] ] ] ] ] ] ] ] ] ] ] ] ] ] ] ] ] ] ] ] ] ] ] ] ] ] ] ] ] ] ] ] ] ] ] ] ] ] ] ] ] ] ] ] ] ] ] ] ] ] ] ] ] ] ] ] ` ] ] ] ] ;.u.w.p.q.) ^ ^ ^ n L L x z z l l j q _ ;./ ] ] ` ] ] ] ] ] ] ] ] ] ] ] ] ] ] ] ] ] ] ] ] ] ] ] ] ] ] ] ] ] ] ] ] ] ) ` +._ < % ; - / / ] ] ` ` ` ] ` ` ` ` ` ` ` ` h !.1XqX",
"rX6XL.v ..' F X.] ] ] ` ] ] / / ( ] ` ' + * X ; ;.] / ] ] ` / ] ] ] ] ] ] ] ] ] ] ] ] ] ] ] ] ] ] ] ] ] ] ] ] ] ` ` ` ` ` -.>.>.>.>.>.>.-.-.-.-.*.) ] ` ^ n z n x / ] ] ` ] ] ` ] ] ] ] ] ] ] ] ] ] ] ] ] ] ] ] ] ] ] ] ] ] ] ] ] ] ] ] ] ] ] ] ] ] ] ] ] ] ] ] ] ] ] ] ] ] ] ] ] ] ] ] ] ] ] ] ] ] ] ] ] ] ] ] ] ] ] ] ] ] ] ] ] ] ] ] ] ] ] ] ] ] ] ] ] ] ] ] ] ] ] ] ] ] ] ] ] ] ] ] ] ] ] ] ] ] ] ] ] ] ] ] ] ] ] ] ] ] ] ] ] ] ] ] ] ] ] ] ] ] ] ] ] ] ] ] ] ` ] ] ] ] ;.u.w.p.q.) ^ ^ ^ n L L x z z l l j q ` ;./ ] ] ` ] ] ] ] ] ] ] ] ] ] ] ] ] ] ] ] ] ] ] ] ] ] ] ] ] ] ] ] ] ] ] ] ] ) ` +._ < % ; - / / ] ] ` ` ` ] ` ` ` ` ` ` ` ` h !.1XqX",
"rX6X`.v } ' F X.] ] ] ` ] ` / / ( ] ` ' + * X ; ;.] / ] ] ` / ] ] ] ] ] ] ] ] ] ] ] ] ] ] ] ] ] ] ] ] ] ] ] ] ] ` ` ` ` -.-.>.>.>.>.>.>.-.-.-.-.*.) -.] ^ n z n x ^ ] ] ` ] ] ` ] ] ] ] ] ] ] ] ] ] ] ] ] ] ] ] ] ] ] ] ] ] ] ] ] ] ] ] ] ] ] ] ] ] ] ] ] ] ] ] ] ] ] ] ] ] ] ] ] ] ] ] ] ] ] ] ] ] ] ] ] ] ] ] ] ] ] ] ] ] ] ] ] ] ] ] ] ] ] ] ] ] ] ] ] ] ] ] ] ] ] ] ] ] ] ] ] ] ] ] ] ] ] ] ] ] ] ] ] ] ] ] ] ] ] ] ] ] ] ] ] ] ] ] ] ] ] ] ] ] ] ] ] ] ] ] ] ` ] ] ] ] ;.u.w.p.q.) ^ ^ ^ n L L x z z l l j q _ <./ ] ] ` ] ] ] ] ] ] ] ] ] ] ] ] ] ] ] ] ] ] ] ] ] ] ] ] ] ] ] ] ] ] ] ] ] ) ` +._ < % ; - / / ] ] ` ` ` ] ` ` ` ` ` ` ` ` h !.1XqX",
"rX6XL.v } ' F X.] ] ] ` ` ` / / ( ] ` ' + * X ; ;.] / ] ] ` / ] ] ] ] ] ] ] ] ] ] ] ] ] ] ] ] ] ] ] ] ] ] ] ] ] ` ` ` ` -.-.>.>.>.>.>.>.-.-.-.-.*.) ] ] ^ n z n x ^ ] ] ` ] ] ` ] ] ] ] ] ] ] ] ] ] ] ] ] ] ] ] ] ] ] ] ] ] ] ] ] ] ] ] ] ] ] ] ] ] ] ] ] ] ] ] ] ] ] ] ] ] ] ] ] ] ] ] ] ] ] ] ] ] ] ] ] ] ] ] ] ] ] ] ] ] ] ] ] ] ] ] ] ] ] ] ] ] ] ] ] ] ] ] ] ] ] ] ] ] ] ] ] ] ] ] ] ] ] ] ] ] ] ] ] ] ] ] ] ] ] ] ] ] ] ] ] ] ] ] ] ] ] ] ] ] ] ] ] ] ] ] ] ` ] ] ] ] ;.u.w.p.q.) ^ ^ ^ n L L x z z l l j q _ <./ ] ] ` O.] ] ] ] ] ] ] ] ] ] ] ] ] ] ] ] ] ] ] ] ] ] ] ] ] ] ] ] ] ] ] ] ) ` +._ < % ; - / / ] ] ` ` ` ] ` ` ` ` ` ` ` ` h !.1XqX",
"rX6XL.v } ' F X.] ] ] ` ` ` / / ( ] ` ' + * X ; ;.] / ] ] ` / ] ] ] ] ] ] ] ] ] ] ] ] ] ] ] ] ] ] ] ] ] ] ] ] ] ` ` ` ` -.-.>.>.>.>.>.>.-.-.-.-.*.) -.=.^ n z n x ^ ] ] ` ] ] ` ] ] ] ] ] ] ] ] ] ] ] ] ] ] ] ] ] ] ] ] ] ] ] ] ] ] ] ] ] ] ] ] ] ] ] ] ] ] ] ] ] ] ] ] ] ] ] ] ] ] ] ] ] ] ] ] ] ] ] ] ] ] ] ] ] ] ] ] ] ] ] ] ] ] ] ] ] ] ] ] ] ] ] ] ] ] ] ] ] ] ] ] ] ] ] ] ] ] ] ] ] ] ] ] ] ] ] ] ] ] ] ] ] ] ] ] ] ] ] ] ] ] ] ] ] ] ] ] ] ] ] ] ] ] ] ] ] ` ] ] ] ] ;.u.w.p.q.) ^ ^ ^ n L L x z z l l j q _ ;./ ] ] ` O.] ] ] ] ] ] ] ] ] ] ] ] ] ] ] ] ] ] ] ] ] ] ] ] ] ] ] ] ] ] ] ] ) ` +._ < % ; - / / ] ] ` ` ` ] ` ` ` ` ` ` ` ` h !.1XqX",
"rX6XL.v } ' F X.] ] ] ` ` ` / / ( -.` ' + * X ; ;.] / ] ] ` / ] ] ] ] ] ] ] ] ] ] ] ] ] ] ] ] ] ] ] ] ] ] ] ] ] ` ` ` ` -.-.>.>.>.>.>.>.-.-.-.-.*.) -.=.^ n z n x ^ ] ] ` ] ] ` ] ] ] ] ] ] ] ] ] ] ] ] ] ] ] ] ] ] ] ] ] ] ] ] ] ] ] ] ] ] ] ] ] ] ] ] ] ] ] ] ] ] ] ] ] ] ] ] ] ] ] ] ] ] ] ] ] ] ] ] ] ] ] ] ] ] ] ] ] ] ] ] ] ] ] ] ] ] ] ] ] ] ] ] ] ] ] ] ] ] ] ] ] ] ] ] ] ] ] ] ] ] ] ] ] ] ] ] ] ] ] ] ] ] ] ] ] ] ] ] ] ] ] ] ] ] ] ] ] ] ] ] ] ] ] ] ] ` ] ] ] ] ;.u.w.p.q.) ^ ^ ^ n L L x z z l l j q _ ;./ ] ] ` O.] ] ] ] ] ] ] ] ] ] ] ] ] ] ] ] ] ] ] ] ] ] ] ] ] ] ] ] ] ] ] ] ) ` +.! < % ; - / / ] ] ` ` ` ] ` ` ` ` ` ` ` ` h !.1XqX",
"rX6XL.v ..' F X.] ] ] ` ` ` / / ( -.` ' + * X ; ;.] / ] ] ` / ] ] ] ] ] ] ] ] ] ] ] ] ] ] ] ] ] ] ] ] ] ] ] ] ] ` ` ` ` ` -.>.>.>.>.>.>.-.-.-.-.*.) ] ` ^ n z n x ^ ] ] ` ] ] ` ] ] ] ] ] ] ] ] ] ] ] ] ] ] ] ] ] ] ] ] ] ] ] ] ] ] ] ] ] ] ] ] ] ] ] ] ] ] ] ] ] ] ] ] ] ] ] ] ] ] ] ] ] ] ] ] ] ] ] ] ] ] ] ] ] ] ] ] ] ] ] ] ] ] ] ] ] ] ] ] ] ] ] ] ] ] ] ] ] ] ] ] ] ] ] ] ] ] ] ] ] ] ] ] ] ] ] ] ] ] ] ] ] ] ] ] ] ] ] ] ] ] ] ] ] ] ] ] ] ] ] ] ] ] ] ] ] ` ] ] ] ] ;.u.w.p.q.) ^ ^ ^ n L L x z z l l j q _ ;./ ] ] ` ] ] ] ] ] ] ] ] ] ] ] ] ] ] ] ] ] ] ] ] ] ] ] ] ] ] ] ] ] ] ] ] ] ) ` +._ < % ; - / / ] ] ` ` ` ] ` ` ` ` ` ` ` ` h !.1XqX",
"rX6XL.v ..' F X.] ] ] ` ` ` / / ) -.` ' + * X ; ;.] / ] ] ` / ] ] ] ] ] ] ] ] ] ] ] ] ] ] ] ] ] ] ] ] ] ] ] ] ] ` ` ` ` ` -.>.>.>.>.>.>.-.-.-.-.*.) ] ` ^ n z n x ^ ] ] ` ] ] ` ] ] ] ] ] ] ] ] ] ] ] ] ] ] ] ] ] ] ] ] ] ] ] ] ] ] ] ] ] ] ] ] ] ] ] ] ] ] ] ] ] ] ] ] ] ] ] ] ] ] ] ] ] ] ] ] ] ] ] ] ] ] ] ] ] ] ] ] ] ] ] ] ] ] ] ] ] ] ] ] ] ] ] ] ] ] ] ] ] ] ] ] ] ] ] ] ] ] ] ] ] ] ] ] ] ] ] ] ] ] ] ] ] ] ] ] ] ] ] ] ] ] ] ] ] ] ] ] ] ] ] ] ] ] ] ] ] ` ] ] ] ] ;.u.w.p.q.) ^ ^ ^ n L L x z z l l j q _ ;./ ] ] ` ] ] ] ] ] ] ] ] ] ] ] ] ] ] ] ] ] ] ] ] ] ] ] ] ] ] ] ] ] ] ] ] ] *.` +._ < % ; - / / ] ] ` ` ` ] ` ` ` ` ` ` ` ` h !.1XqX",
"rX6XL.v } ' F X.] ] ] ` ` ` / / ( ] ` ' + * X ; ;.] / ] ] ` / ] ] ] ] ] ] ] ] ] ] ] ] ] ] ] ] ] ] ] ] ] ] ] ] ] ` ` ` ` ` -.>.>.>.>.>.>.-.-.-.-.*.) ] ] ^ n z n x ^ ] ] ` ] ] ` ] ] ] ] ] ] ] ] ] ] ] ] ] ] ] ] ] ] ] ] ] ] ] ] ] ] ] ] ] ] ] ] ] ] ] ] ] ] ] ] ] ] ] ] ] ] ] ] ] ] ] ] ] ] ] ] ] ] ] ] ] ] ] ] ] ] ] ] ] ] ] ] ] ] ] ] ] ] ] ] ] ] ] ] ] ] ] ] ] ] ] ] ] ] ] ] ] ] ] ] ] ] ] ] ] ] ] ] ] ] ] ] ] ] ] ] ] ] ] ] ] ] ] ] ] ] ] ] ] ] ] ] ] ] ] ] ] ` ] ] ] ] ;.u.w.p.q.) ^ ^ ^ n L L x z z l l j q _ >./ ] ] ` ] ] ] ] ] ] ] ] ] ] ] ] ] ] ] ] ] ] ] ] ] ] ] ] ] ] ] ] ] ] ] ] ] ) ` +._ < % ; - / / ] ] ` ` ` ] ` ` ` ` ` ` ` ` h !.1XqX",
"rX6XL.v } ' F X.] ] ] ` ` ` / / ( ] ` ' + * X ; ;.] / ] ] ` / ] ] ] ] ] ] ] ] ] ] ] ] ] ] ] ] ] ] ] ] ] ] ] ] ] ` ` ` ` ` -.>.>.>.>.>.>.-.-.-.-.*.) ] ` ^ n z n x ^ ] ] ` ] ] ` ] ] ] ] ] ] ] ] ] ] ] ] ] ] ] ] ] ] ] ] ] ] ] ] ] ] ] ] ] ] ] ] ] ] ] ] ] ] ] ] ] ] ] ] ] ] ] ] ] ] ] ] ] ] ] ] ] ] ] ] ] ] ] ] ] ] ] ] ] ] ] ] ] ] ] ] ] ] ] ] ] ] ] ] ] ] ] ] ] ] ] ] ] ] ] ] ] ] ] ] ] ] ] ] ] ] ] ] ] ] ] ] ] ] ] ] ] ] ] ] ] ] ] ] ] ] ] ] ] ] ] ] ] ] ] ] ] ` ] ] ] ] ;.u.w.p.q.) ^ ^ ^ n L L x z z l l j q _ >.) ] ] ` ] ] ] ] ] ] ] ] ] ] ] ] ] ] ] ] ] ] ] ] ] ] ] ] ] ] ] ] ] ] ] ] ] ) ` +._ < % ; - / / ] ] ` ` ` ] ` ` ` ` ` ` ` ` h !.1XqX",
"rX6XL.v } ' F X.] ] ] ` ` ` / / ( ] ` ' + * X ; ;.] / ] ] ` / ] ] ] ] ] ] ] ] ] ] ] ] ] ] ] ] ] ] ] ] ] ] ] ] ] ` ` ` ` -.-.>.>.>.>.>.>.-.-.-.-.*.) -.-.^ n z n x ^ ] ] ` ] ] ` ] ] ] ] ] ] ] ] ] ] ] ] ] ] ] ] ] ] ] ] ] ] ] ] ] ] ] ] ] ] ] ] ] ] ] ] ] ] ] ] ] ] ] ] ] ] ] ] ] ] ] ] ] ] ] ] ] ] ] ] ] ] ] ] ] ] ] ] ] ] ] ] ] ] ] ] ] ] ] ] ] ] ] ] ] ] ] ] ] ] ] ] ] ] ] ] ] ] ] ] ] ] ] ] ] ] ] ] ] ] ] ] ] ] ] ] ] ] ] ] ] ] ] ] ] ] ] ] ] ] ] ] ] ] ] ] ] ` ] ] ] ] ;.u.w.p.q.) ^ ^ ^ n L L x z z l l j q _ ;./ ] ] ` ] ] ] ] ] ] ] ] ] ] ] ] ] ] ] ] ] ] ] ] ] ] ] ] ] ] ] ] ] ] ] ] ] ) ` +._ < % ; - / / ] ] ` ` ` ] ` ` ` ` ` ` ` ` h !.1XqX",
"rX6XL.v } ' F X.] ] ] ` ` ` / / ( ] ` ' + * X ; ;.] / ] ] ` / ] ] ] ] ] ] ] ] ] ] ] ] ] ] ] ] ] ] ] ] ] ] ] ] ] ` ` ` ` ] -.>.>.>.>.>.>.-.-.-.-.*.) -.-.^ n z n x ^ ] ] ` ] ] ` ] ] ] ] ] ] ] ] ] ] ] ] ] ] ] ] ] ] ] ] ] ] ] ] ] ] ] ] ] ] ] ] ] ] ] ] ] ] ] ] ] ] ] ] ] ] ] ] ] ] ] ] ] ] ] ] ] ] ] ] ] ] ] ] ] ] ] ] ] ] ] ] ] ] ] ] ] ] ] ] ] ] ] ] ] ] ] ] ] ] ] ] ] ] ] ] ] ] ] ] ] ] ] ] ] ] ] ] ] ] ] ] ] ] ] ] ] ] ] ] ] ] ] ] ] ] ] ] ] ] ] ] ] ] ] ] ] ` ] ] ] ] ;.p.w.p.q.) ^ ^ ^ n L L x z z l l j q _ ;./ ] ] ` ] ] ] ] ] ] ] ] ] ] ] ] ] ] ] ] ] ] ] ] ] ] ] ] ] ] ] ] ] ] ] ] ] ) ` +._ < % ; - / / ] ] ` ` ` ] ` ` ` ` ` ` ` ` h !.1XqX",
"rX6X`.v } ' F X.] ] ] ` ` ` / / ( ] ` ' + * X ; ;.] / ] ] ` / ] ] ] ] ] ] ] ] ] ] ] ] ] ] ] ] ] ] ] ] ] ] ] ] ] ` ` ` ` -.-.>.>.>.>.>.>.-.-.-.-.*.) -.-.^ n z n x ^ ] ] ` ] ] ` ] ] ] ] ] ] ] ] ] ] ] ] ] ] ] ] ] ] ] ] ] ] ] ] ] ] ] ] ] ] ] ] ] ] ] ] ] ] ] ] ] ] ] ] ] ] ] ] ] ] ] ] ] ] ] ] ] ] ] ] ] ] ] ] ] ] ] ] ] ] ] ] ] ] ] ] ] ] ] ] ] ] ] ] ] ] ] ] ] ] ] ] ] ] ] ] ] ] ] ] ] ] ] ] ] ] ] ] ] ] ] ] ] ] ] ] ] ] ] ] ] ] ] ] ] ] ] ] ] ] ] ] ] ] ] ] ] ` ] ] ] ] ;.u.w.p.q.) ^ ^ ^ n L L x z z l l j q ` ;./ ] ] ` ] ] ] ] ] ] ] ] ] ] ] ] ] ] ] ] ] ] ] ] ] ] ] ] ] ] ] ] ] ] ] ] ] ) ` +._ < % ; - / / ] ] ` ` ` ] ` ` ` ` ` ` ` ` h !.1XqX",
"rX6X`.v } ' F X.] ] ] ` ` ` / / ( -.` ' + * X ; ;.] / ] ] ` / ] ] ] ] ] ] ] ] ] ] ] ] ] ] ] ] ] ] ] ] ] ] ] ] ] ` ` ` ` -.-.>.>.>.>.>.>.-.-.-.-.*.) -.=.^ n z n x / ] ] ` ] ] ] ] ] ] ] ] ] ] ] ] ] ] ] ] ] ] ] ] ] ] ] ] ] ] ] ] ] ] ] ] ] ] ] ] ] ] ] ] ] ] ] ] ] ] ] ] ] ] ] ] ] ] ] ] ] ] ] ] ] ] ] ] ] ] ] ] ] ] ] ] ] ] ] ] ] ] ] ] ] ] ] ] ] ] ] ] ] ] ] ] ] ] ] ] ] ] ] ] ] ] ] ] ] ] ] ] ] ] ] ] ] ] ] ] ] ] ] ] ] ] ] ] ] ] ] ] ] ] ] ] ] ] ] ] ] ] ] ] ` ] ] ] ] ;.u.w.p.q.) ^ ^ ^ n L L x z z l l j q ` ;./ ] ] ` ] ] ] ] ] ] ] ] ] ] ] ] ] ] ] ] ] ] ] ] ] ] ] ] ] ] ] ] ] ] ] ] ] ) ` +.! < % ; - / / ] ] ` ` ` ] ` ` ` ` ` ` ` ` h !.1XqX",
"rX6XL.v } ' F X.] ] ] ` ` ` / / ( -.` ' + * X ; ;.] / ] ] ` / ] ] ] ] ] ] ] ] ] ] ] ] ] ] ] ] ] ] ] ] ] ] ] ] ] ` ` ` ` ` -.>.>.>.>.>.>.-.-.-.-.*.) -.=.^ n z n x ^ ] ] ` ] ] ` ] ] ] ] ] ] ] ] ] ] ] ] ] ] ] ] ] ] ] ] ] ] ] ] ] ] ] ] ] ] ] ] ] ] ] ] ] ] ] ] ] ] ] ] ] ] ] ] ] ] ] ] ] ] ] ] ] ] ] ] ] ] ] ] ] ] ] ] ] ] ] ] ] ] ] ] ] ] ] ] ] ] ] ] ] ] ] ] ] ] ] ] ] ] ] ] ] ] ] ] ] ] ] ] ] ] ] ] ] ] ] ] ] ] ] ] ] ] ] ] ] ] ] ] ] ] ] ] ] ] ] ] ] ] ] ] ] ` ] ] ] ] ;.u.w.p.q.) ^ ^ ^ n L L x z z l l j q _ <.) ] ] ` ] ] ] ] ] ] ] ] ] ] ] ] ] ] ] ] ] ] ] ] ] ] ] ] ] ] ] ] ] ] ] ] ] ) ` +._ < % ; - / / ] ] ` ` ` ] ` ` ` ` ` ` ` ` h !.1XqX",
"rX6XL.v } ' F X.] ] ] ` ` ` / / ) -.` ' + * X ; ;.] / ] ] ` / ] ] ] ] ] ] ] ] ] ] ] ] ] ] ] ] ] ] ] ] ] ] ] ] ] ` ` ` ` ` -.>.>.>.>.>.>.-.-.-.-.*.) -.-.^ n z n x ^ ] ] ` ] ] ` ] ] ] ] ] ] ] ] ] ] ] ] ] ] ] ] ] ] ] ] ] ] ] ] ] ] ] ] ] ] ] ] ] ] ] ] ] ] ] ] ] ] ] ] ] ] ] ] ] ] ] ] ] ] ] ] ] ] ] ] ] ] ] ] ] ] ] ] ] ] ] ] ] ] ] ] ] ] ] ] ] ] ] ] ] ] ] ] ] ] ] ] ] ] ] ] ] ] ] ] ] ] ] ] ] ] ] ] ] ] ] ] ] ] ] ] ] ] ] ] ] ] ] ] ] ] ] ] ] ] ] ] ] ] ] ] ] ` ] ] ] ] ;.u.w.p.q.) ^ ^ ^ n L L x z z l l j q _ <./ ] ] ` O.] ] ] ] ] ] ] ] ] ] ] ] ] ] ] ] ] ] ] ] ] ] ] ] ] ] ] ] ] ] ] ] *.` +._ < % ; - / / ] ] ` ` ` ] ` ` ` ` ` ` ` ` h !.1XqX",
"rX6XL.v } ' F X.] ] ] ` ` ` / / ( ] ` ' + * X ; ;.] / ] ] ` / ] ] ] ] ] ] ] ] ] ] ] ] ] ] ] ] ] ] ] ] ] ] ] ] ] ` ` ` ` ` -.>.>.>.>.>.>.-.-.-.-.*.) ] ` ^ n z n x ^ ] ] ` ] ] ` ] ] ] ] ] ] ] ] ] ] ] ] ] ] ] ] ] ] ] ] ] ] ] ] ] ] ] ] ] ] ] ] ] ] ] ] ] ] ] ] ] ] ] ] ] ] ] ] ] ] ] ] ] ] ] ] ] ] ] ] ] ] ] ] ] ] ] ] ] ] ] ] ] ] ] ] ] ] ] ] ] ] ] ] ] ] ] ] ] ] ] ] ] ] ] ] ] ] ] ] ] ] ] ] ] ] ] ] ] ] ] ] ] ] ] ] ] ] ] ] ] ] ] ] ] ] ] ] ] ] ] ] ] ] ] ] ] ` ] ] ] ] ;.u.w.p.q.) ^ ^ ^ n L L x z z l l j q _ ;./ ] ] ` O.] ] ] ] ] ] ] ] ] ] ] ] ] ] ] ] ] ] ] ] ] ] ] ] ] ] ] ] ] ] ] ] ) ` +._ < % ; - / / ] ] ` ` ` ] ` ` ` ` ` ` ` ` h !.1XqX",
"rX6XL.v } ' F X.] ] ] ` ` ` / / ( ] ` ' + * X ; ;.] / ] ] ` / ] ] ] ] ] ] ] ] ] ] ] ] ] ] ] ] ] ] ] ] ] ] ] ] ] ` ` ` ` ` -.>.>.>.>.>.>.-.-.-.-.*.) ] ` ^ n z n x ^ ] ] ` ] ] ` ] ] ] ] ] ] ] ] ] ] ] ] ] ] ] ] ] ] ] ] ] ] ] ] ] ] ] ] ] ] ] ] ] ] ] ] ] ] ] ] ] ] ] ] ] ] ] ] ] ] ] ] ] ] ] ] ] ] ] ] ] ] ] ] ] ] ] ] ] ] ] ] ] ] ] ] ] ] ] ] ] ] ] ] ] ] ] ] ] ] ] ] ] ] ] ] ] ] ] ] ] ] ] ] ] ] ] ] ] ] ] ] ] ] ] ] ] ] ] ] ] ] ] ] ] ] ] ] ] ] ] ] ] ] ] ] ] ` ] ] ] ] ;.u.w.p.q.) ^ ^ ^ n L L x z z l l j q _ <./ ] ] ` O.] ] ] ] ] ] ] ] ] ] ] ] ] ] ] ] ] ] ] ] ] ] ] ] ] ] ] ] ] ] ] ] ) ` +._ < % ; - / / ] ] ` ` ` ] ` ` ` ` ` ` ` ` h !.1XqX",
"rX6XL.v } ' F X.] ] ] ` ` ` / / ( ] ` ' + * X ; ;.] / ] ] ` / ] ] ] ] ] ] ] ] ] ] ] ] ] ] ] ] ] ] ] ] ] ] ] ] ] ` ` ` ` -.-.>.>.>.>.>.>.-.-.-.-.*.) -.] ^ n z n x ^ ] ] ` ] ] ` ] ] ] ] ] ] ] ] ] ] ] ] ] ] ] ] ] ] ] ] ] ] ] ] ] ] ] ] ] ] ] ] ] ] ] ] ] ] ] ] ] ] ] ] ] ] ] ] ] ] ] ] ] ] ] ] ] ] ] ] ] ] ] ] ] ] ] ] ] ] ] ] ] ] ] ] ] ] ] ] ] ] ] ] ] ] ] ] ] ] ] ] ] ] ] ] ] ] ] ] ] ] ] ] ] ] ] ] ] ] ] ] ] ] ] ] ] ] ] ] ] ] ] ] ] ] ] ] ] ] ] ] ] ] ] ] ] ` ] ] ] ] ;.u.w.p.q.) ^ ^ ^ n L L x z l l l j q _ <./ ] ] ` ] ] ] ] ] ] ] ] ] ] ] ] ] ] ] ] ] ] ] ] ] ] ] ] ] ] ] ] ] ] ] ] ] ) ` +._ < % ; - / / ] ] ` ` ` ] ` ` ` ` ` ` ` ` h !.1XqX",
"rX6XL.v } ' F X.] ] ] ` ` ` / / ( ] ` ' + * X ; ;.] / ] ] ` / ] ] ] ] ] ] ] ] ] ] ] ] ] ] ] ] ] ] ] ] ] ] ] ] ] ` ` ` ` -.-.>.>.>.>.>.>.-.-.-.-.*.) ] ] ^ n z n x ^ ] ] ` ] ] ` ] ] ] ] ] ] ] ] ] ] ] ] ] ] ] ] ] ] ] ] ] ] ] ] ] ] ] ] ] ] ] ] ] ] ] ] ] ] ] ] ] ] ] ] ] ] ] ] ] ] ] ] ] ] ] ] ] ] ] ] ] ] ] ] ] ] ] ] ] ] ] ] ] ] ] ] ] ] ] ] ] ] ] ] ] ] ] ] ] ] ] ] ] ] ] ] ] ] ] ] ] ] ] ] ] ] ] ] ] ] ] ] ] ] ] ] ] ] ] ] ] ] ] ] ] ] ] ] ] ] ] ] ] ] ] ] ] ` ] ] ] ] ;.u.w.p.q.) ^ ^ ^ n L L x z z l l w q _ >./ ] ] ` ] ] ] ] ] ] ] ] ] ] ] ] ] ] ] ] ] ] ] ] ] ] ] ] ] ] ] ] ] ] ] ] ] ) ` +._ < % ; - / / ] ] ` ` ` ] ` ` ` ` ` ` ` ` h !.1XqX",
"rX6XL.v } ' F X.] ] ] ` ` ` / / ( ] ` ' + * X ; ;.] / ] ] ` / ] ] ] ] ] ] ] ] ] ] ] ] ] ] ] ] ] ] ] ] ] ] ] ] ] ` ` ` ` -.-.>.>.>.>.>.>.-.-.-.-.*.) -.-.^ n z n x ^ ] ] ` ] ] ` ] ] ] ] ] ] ] ] ] ] ] ] ] ] ] ] ] ] ] ] ] ] ] ] ] ] ] ] ] ] ] ] ] ] ] ] ] ] ] ] ] ] ] ] ] ] ] ] ] ] ] ] ] ] ] ] ] ] ] ] ] ] ] ] ] ] ] ] ] ] ] ] ] ] ] ] ] ] ] ] ] ] ] ] ] ] ] ] ] ] ] ] ] ] ] ] ] ] ] ] ] ] ] ] ] ] ] ] ] ] ] ] ] ] ] ] ] ] ] ] ] ] ] ] ] ] ] ] ] ] ] ] ] ] ] ] ] ` ] ] ] ] ;.u.w.p.q.) ^ ^ ^ n L L x z z l l j q _ ;./ ] ] ` ] ] ] ] ] ] ] ] ] ] ] ] ] ] ] ] ] ] ] ] ] ] ] ] ] ] ] ] ] ] ] ] ] ) ` +._ < % ; - / / ] ] ` ` ` ] ` ` ` ` ` ` ` ` h !.1XqX",
"rX6XL.v } ' F X.] ] ] ` ` ` / / ( ] ` ' + * X ; ;.] / ] ] ` / ] ] ] ] ] ] ] ] ] ] ] ] ] ] ] ] ] ] ] ] ] ] ] ] ] ` ` ` ` -.-.>.>.>.>.-.-.-.-.-.-.*.) -.-.^ n z n x ^ ] ] ` ] ] ` ] ] ] ] ] ] ] ] ] ] ] ] ] ] ] ] ] ] ] ] ] ] ] ] ] ] ] ] ] ] ] ] ] ] ] ] ] ] ] ] ] ] ] ] ] ] ] ] ] ] ] ] ] ] ] ] ] ] ] ] ] ] ] ] ] ] ] ] ] ] ] ] ] ] ] ] ] ] ] ] ] ] ] ] ] ] ] ] ] ] ] ] ] ] ] ] ] ] ] ] ] ] ] ] ] ] ] ] ] ] ] ] ] ] ] ] ] ] ] ] ] ] ] ] ] ] ] ] ] ] ] ] ] ] ] ] ] ` ] ] ] ] ;.u.w.p.q.) ^ ^ ^ n L L x z z l l j q _ ;./ ] ] ` ] ] ] ] ] ] ] ] ] ] ] ] ] ] ] ] ] ] ] ] ] ] ] ] ] ] ] ] ] ] ] ] ] ) ` +._ < % ; - / / ] ] ` ` ` ] ` ` ` ` ` ` ` ` h !.1XqX",
"rX6XL.v } ' F X.] ] ] ` ` ` / / ( ] ` ' + * X ; ;.] / ] ] ` / ] ] ] ] ] ] ] ] ] ] ] ] ] ] ] ] ] ] ] ] ] ] ] ] ] ` ` ` ` -.-.>.>.>.>.-.-.-.-.-.-.*.) ] ` ^ n z n x ^ ] ] ` ] ] ` ] ] ] ] ] ] ] ] ] ] ] ] ] ] ] ] ] ] ] ] ] ] ] ] ] ] ] ] ] ] ] ] ] ] ] ] ] ] ] ] ] ] ] ] ] ] ] ] ] ] ] ] ] ] ] ] ] ] ] ] ] ] ] ] ] ] ] ] ] ] ] ] ] ] ] ] ] ] ] ] ] ] ] ] ] ] ] ] ] ] ] ] ] ] ] ] ] ] ] ] ] ] ] ] ] ] ] ] ] ] ] ] ] ] ] ] ] ] ] ] ] ] ] ] ] ] ] ] ] ] ] ] ] ] ] ] ] ` ] ] ] ] ;.u.w.p.q.) ^ ^ ^ n L L x z z l l j q _ ;./ ] ] ` ] ] ] ] ] ] ] ] ] ] ] ] ] ] ] ] ] ] ] ] ] ] ] ] ] ] ] ] ] ] ] ] ] ) ` +._ < % ; - / / ] ] ` ` ` ] ` ` ` ` ` ` ` ` h !.1XqX",
"rX6XL.v } ' F X.] ] ] ` ` ` / / ( ] ` ' + * X ; ;.] / ] ] ` / ] ] ] ] ] ] ] ] ] ] ] ] ] ] ] ] ] ] ] ] ] ] ] ] ] ` ` ` ` -.-.>.>.>.>.-.-.-.-.-.-.*.) ] ` ^ n z n x ^ ] ] ` ] ] ` ] ] ] ] ] ] ] ] ] ] ] ] ] ] ] ] ] ] ] ] ] ] ] ] ] ] ] ] ] ] ] ] ] ] ] ] ] ] ] ] ] ] ] ] ] ] ] ] ] ] ] ] ] ] ] ] ] ] ] ] ] ] ] ] ] ] ] ] ] ] ] ] ] ] ] ] ] ] ] ] ] ] ] ] ] ] ] ] ] ] ] ] ] ] ] ] ] ] ] ] ] ] ] ] ] ] ] ] ] ] ] ] ] ] ] ] ] ] ] ] ] ] ] ] ] ] ] ] ] ] ] ] ] ] ] ] ] ` ] ] ] ] ;.u.w.p.q.) ^ ^ ^ n L L x z z l l j q _ ;./ ] ] ` ] ] ] ] ] ] ] ] ] ] ] ] ] ] ] ] ] ] ] ] ] ] ] ] ] ] ] ] ] ] ] ] ] ) ` +._ < % ; X / / ] ] ` ` ` ] ` ` ` ` ` ` ` ` h !.1XqX",
"rX6XL.v } ' F X.] ] ] ` ` ` / / ( -.` ' + * X ; ;.] / ] ] ` / ] ] ] ] ] ] ] ] ] ] ] ] ] ] ] ] ] ] ] ] ] ] ] ] ] ` ` ` ` ] >.>.>.>.>.>.>.-.-.-.-.*.) ] ` ^ n z n x ^ ] ] ` ] ] ` ] ] ] ] ] ] ] ] ] ] ] ] ] ] ] ] ] ] ] ] ] ] ] ] ] ] ] ] ] ] ] ] ] ] ] ] ] ] ] ] ] ] ] ] ] ] ] ] ] ] ] ] ] ] ] ] ] ] ] ] ] ] ] ] ] ] ] ] ] ] ] ] ] ] ] ] ] ] ] ] ] ] ] ] ] ] ] ] ] ] ] ] ] ] ] ] ] ] ] ] ] ] ] ] ] ] ] ] ] ] ] ] ] ] ] ] ] ] ] ] ] ] ] ] ] ] ] ] ] ] ] ] ] ] ] ] ] ` ] ] ] ] ;.u.w.p.q.) ^ ^ ^ n L L x z z l l j q _ ;./ ] ] ` ] ] ] ] ] ] ] ] ] ] ] ] ] ] ] ] ] ] ] ] ] ] ] ] ] ] ] ] ] ] ] ] ] ) ` +._ < % ; - / / ] ] ` ` ` ] ` ` ` ` ` ` ` ` h !.1XqX",
"rX6XL.v ..' F X.] ] ] ` ` ` / / ( -.` ' + * X ; ;.] / ] ] ` / ] ] ] ] ] ] ] ] ] ] ] ] ] ] ] ] ] ] ] ] ] ] ] ] ] ` ` ` ` ` -.>.>.>.>.>.>.-.-.-.-.*.) ] ` ^ n z n x ^ ] ] ` ] ] ` ] ] ] ] ] ] ] ] ] ] ] ] ] ] ] ] ] ] ] ] ] ] ] ] ] ] ] ] ] ] ] ] ] ] ] ] ] ] ] ] ] ] ] ] ] ] ] ] ] ] ] ] ] ] ] ] ] ] ] ] ] ] ] ] ] ] ] ] ] ] ] ] ] ] ] ] ] ] ] ] ] ] ] ] ] ] ] ] ] ] ] ] ] ] ] ] ] ] ] ] ] ] ] ] ] ] ] ] ] ] ] ] ] ] ] ] ] ] ] ] ] ] ] ] ] ] ] ] ] ] ] ] ] ] ] ] ] ` ] ] ] ] ;.u.w.p.q.) ^ ^ ^ n L L x z z l l j q ` ;./ ] ] ` ] ] ] ] ] ] ] ] ] ] ] ] ] ] ] ] ] ] ] ] ] ] ] ] ] ] ] ] ] ] ] ] ] ) ` +._ < % ; - / / ] ] ` ` ` ] ` ` ` ` ` ` ` ` h !.1XqX",
"rX6X`.v } ' F X.] ] ] ` ` ` / / ( -.` ' + * X ; ;.] / ] ] ` / ] ] ] ] ] ] ] ] ] ] ] ] ] ] ] ] ] ] ] ] ] ] ] ] ] ` ` ` ` ] >.>.>.>.>.>.>.-.-.-.-.*.) -.-.^ n z n x ^ ] ] ` ] ] ` ] ] ] ] ] ] ] ] ] ] ] ] ] ] ] ] ] ] ] ] ] ] ] ] ] ] ] ] ] ] ] ] ] ] ] ] ] ] ] ] ] ] ] ] ] ] ] ] ] ] ] ] ] ] ] ] ] ] ] ] ] ] ] ] ] ] ] ] ] ] ] ] ] ] ] ] ] ] ] ] ] ] ] ] ] ] ] ] ] ] ] ] ] ] ] ] ] ] ] ] ] ] ] ] ] ] ] ] ] ] ] ] ] ] ] ] ] ] ] ] ] ] ] ] ] ] ] ] ] ] ] ] ] ] ] ] ] ` ] ] ] ] ;.u.w.p.q.) ^ ^ ^ n L L x z z l l j q _ <./ ] ] ` ] ] ] ] ] ] ] ] ] ] ] ] ] ] ] ] ] ] ] ] ] ] ] ] ] ] ] ] ] ] ] ] ] ) ` +._ < % ; - / / ] ] ` ` ` ] ` ` ` ` ` ` ` ` h !.1XqX",
"rX6XL.v } ' F X.] ] ] ` ` ` / / ( ] ` ' + * X ; ;.] / ] ] ` / ] ] ] ] ] ] ] ] ] ] ] ] ] ] ] ] ] ] ] ] ] ] ] ] ] ` ` ` ` ] >.>.>.>.>.>.>.-.-.-.-.*.) -.-.^ n z n x ^ ] ] ` ] ] ` ] ] ] ] ] ] ] ] ] ] ] ] ] ] ] ] ] ] ] ] ] ] ] ] ] ] ] ] ] ] ] ] ] ] ] ] ] ] ] ] ] ] ] ] ] ] ] ] ] ] ] ] ] ] ] ] ] ] ] ] ] ] ] ] ] ] ] ] ] ] ] ] ] ] ] ] ] ] ] ] ] ] ] ] ] ] ] ] ] ] ] ] ] ] ] ] ] ] ] ] ] ] ] ] ] ] ] ] ] ] ] ] ] ] ] ] ] ] ] ] ] ] ] ] ] ] ] ] ] ] ] ] ] ] ] ] ] ` ] ] ] ] ;.u.w.p.q.) ^ ^ ^ n L L x z z l l j q _ <./ ] ] ` O.] ] ] ] ] ] ] ] ] ] ] ] ] ] ] ] ] ] ] ] ] ] ] ] ] ] ] ] ] ] ] ] ) ` +._ < % ; - / / ] ] ` ` ` ] ` ` ` ` ` ` ` ` h !.1XqX",
"rX6XL.v } ' F X.] ] ] ` ` ` / / ( ] ` ' + * X ; ;.] / ] ] ` / ] ] ] ] ] ] ] ] ] ] ] ] ] ] ] ] ] ] ] ] ] ] ] ] ] ` ` ` ` ] -.>.>.>.>.>.>.-.-.-.-.*.) ] =.^ n z n x ^ ] ] ` ] ] ` ] ] ] ] ] ] ] ] ] ] ] ] ] ] ] ] ] ] ] ] ] ] ] ] ] ] ] ] ] ] ] ] ] ] ] ] ] ] ] ] ] ] ] ] ] ] ] ] ] ] ] ] ] ] ] ] ] ] ] ] ] ] ] ] ] ] ] ] ] ] ] ] ] ] ] ] ] ] ] ] ] ] ] ] ] ] ] ] ] ] ] ] ] ] ] ] ] ] ] ] ] ] ] ] ] ] ] ] ] ] ] ] ] ] ] ] ] ] ] ] ] ] ] ] ] ] ] ] ] ] ] ] ] ] ] ] ] ` ] ] ] ] ;.u.w.p.q.) ^ ^ ^ n L L x z z l l j q _ ;./ ] ] ` O.] ] ] ] ] ] ] ] ] ] ] ] ] ] ] ] ] ] ] ] ] ] ] ] ] ] ] ] ] ] ] ] ) ` +._ < % ; - / / ] ] ` ` ` ] ` ` ` ` ` ` ` ` h !.1XqX",
"rX6XL.v } ' F X.] ] ] ` ` ` / / ( ] ` ' + * X ; ;.] / ] ] ` / ] ] ] ] ] ] ] ] ] ] ] ] ] ] ] ] ] ] ] ] ] ] ] ] ] ` ` ` ` ] >.>.>.>.>.>.>.-.-.-.-.*.) -.` ^ n z n x ^ ] ] ` ] ] ` ] ] ] ] ] ] ] ] ] ] ] ] ] ] ] ] ] ] ] ] ] ] ] ] ] ] ] ] ] ] ] ] ] ] ] ] ] ] ] ] ] ] ] ] ] ] ] ] ] ] ] ] ] ] ] ] ] ] ] ] ] ] ] ] ] ] ] ] ] ] ] ] ] ] ] ] ] ] ] ] ] ] ] ] ] ] ] ] ] ] ] ] ] ] ] ] ] ] ] ] ] ] ] ] ] ] ] ] ] ] ] ] ] ] ] ] ] ] ] ] ] ] ] ] ] ] ] ] ] ] ] ] ] ] ] ] ] ` ] ] ] ] ;.u.w.p.q.) ^ ^ ^ n L L x z z l l j q _ ;./ ] ] ` O.] ] ] ] ] ] ] ] ] ] ] ] ] ] ] ] ] ] ] ] ] ] ] ] ] ] ] ] ] ] ] ] ) ` +._ < % ; - / / ] ] ` ` ` ] ` ` ` ` ` ` ` ` h !.1XqX",
"rX6XL.v ..' F X.] ] ] ` ` ` / / ( ] ` ' + * X ; ;.] / ] ] ` / ] ] ] ] ] ] ] ] ] ] ] ] ] ] ] ] ] ] ] ] ] ] ] ] ] ` ` ` ` ` -.>.>.>.>.>.>.-.-.-.-.*.) ] ` ^ n z n x ^ ] ] ` ] ] ` ] ] ] ] ] ] ] ] ] ] ] ] ] ] ] ] ] ] ] ] ] ] ] ] ] ] ] ] ] ] ] ] ] ] ] ] ] ] ] ] ] ] ] ] ] ] ] ] ] ] ] ] ] ] ] ] ] ] ] ] ] ] ] ] ] ] ] ] ] ] ] ] ] ] ] ] ] ] ] ] ] ] ] ] ] ] ] ] ] ] ] ] ] ] ] ] ] ] ] ] ] ] ] ] ] ] ] ] ] ] ] ] ] ] ] ] ] ] ] ] ] ] ] ] ] ] ] ] ] ] ] ] ] ] ] ] ] ` ] ] ] ] ;.u.w.p.q.) ^ ^ ^ n L L x z z l l j q _ ;./ ] ] ` ] ] ] ] ] ] ] ] ] ] ] ] ] ] ] ] ] ] ] ] ] ] ] ] ] ] ] ] ] ] ] ] ] ) ` +._ < % ; - / / ] ] ` ` ` ] ` ` ` ` ` ` ` ` h !.1XqX",
"rX6XL.v ..' F X.] ] ] ` ` ` / / ( ] ` ' + * X ; ;.] / ] ] ` / ] ] ] ] ] ] ] ] ] ] ] ] ] ] ] ] ] ] ] ] ] ] ] ] ] ` ` ` ` ` -.>.>.>.>.>.>.-.-.-.-.*.) ] =.^ n z n x ^ ] ] ` ] ] ` ] ] ] ] ] ] ] ] ] ] ] ] ] ] ] ] ] ] ] ] ] ] ] ] ] ] ] ] ] ] ] ] ] ] ] ] ] ] ] ] ] ] ] ] ] ] ] ] ] ] ] ] ] ] ] ] ] ] ] ] ] ] ] ] ] ] ] ] ] ] ] ] ] ] ] ] ] ] ] ] ] ] ] ] ] ] ] ] ] ] ] ] ] ] ] ] ] ] ] ] ] ] ] ] ] ] ] ] ] ] ] ] ] ] ] ] ] ] ] ] ] ] ] ] ] ] ] ] ] ] ] ] ] ] ] ] ] ` ] ] ] ] ;.u.w.p.q.) ^ ^ ^ n L L x z z l l j q _ ;./ ] ] ` ] ] ] ] ] ] ] ] ] ] ] ] ] ] ] ] ] ] ] ] ] ] ] ] ] ] ] ] ] ] ] ] ] ) ` +._ < % ; - / / ] ] ` ` ` ] ` ` ` ` ` ` ` ` h !.1XqX",
"rX6XL.v } ' F X.] ] ] ` ` ` / / ( -.` ' + * X ; ;.] / ] ] ` / ] ] ] ] ] ] ] ] ] ] ] ] ] ] ] ] ] ] ] ] ] ] ] ] ] ` ` ` ` -.-.>.>.>.>.>.>.-.-.-.-.*.) ] ] ^ n z n x ^ ] ] ` ] ] ` ] ] ] ] ] ] ] ] ] ] ] ] ] ] ] ] ] ] ] ] ] ] ] ] ] ] ] ] ] ] ] ] ] ] ] ] ] ] ] ] ] ] ] ] ] ] ] ] ] ] ] ] ] ] ] ] ] ] ] ] ] ] ] ] ] ] ] ] ] ] ] ] ] ] ] ] ] ] ] ] ] ] ] ] ] ] ] ] ] ] ] ] ] ] ] ] ] ] ] ] ] ] ] ] ] ] ] ] ] ] ] ] ] ] ] ] ] ] ] ] ] ] ] ] ] ] ] ] ] ] ] ] ] ] ] ] ] ` ] ] ] ] ;.u.w.p.q.) ^ ^ ^ n L L x z z l l j q _ >./ ] ] ` ] ] ] ] ] ] ] ] ] ] ] ] ] ] ] ] ] ] ] ] ] ] ] ] ] ] ] ] ] ] ] ] ] ) ` +._ < % ; - / / ] ] ` ` ` ] ` ` ` ` ` ` ` ` h !.1XqX",
"rX6XL.v } ' F X.] ] ] ` ` ` / / ( ] ` ' + * X ; ;.] / ] ] ` / ] ] ] ] ] ] ] ] ] ] ] ] ] ] ] ] ] ] ] ] ] ] ] ] ] ` ` ` ` -.-.>.>.>.>.>.>.-.-.-.-.*.) ] -.^ n z n x ^ ] ] ` ] ] ` ] ] ] ] ] ] ] ] ] ] ] ] ] ] ] ] ] ] ] ] ] ] ] ] ] ] ] ] ] ] ] ] ] ] ] ] ] ] ] ] ] ] ] ] ] ] ] ] ] ] ] ] ] ] ] ] ] ] ] ] ] ] ] ] ] ] ] ] ] ] ] ] ] ] ] ] ] ] ] ] ] ] ] ] ] ] ] ] ] ] ] ] ] ] ] ] ] ] ] ] ] ] ] ] ] ] ] ] ] ] ] ] ] ] ] ] ] ] ] ] ] ] ] ] ] ] ] ] ] ] ] ] ] ] ] ] ] ` ] ] ] ] ;.u.w.p.q.) ^ ^ ^ n L L x z z l l j q _ >.) ] ] ` ] ] ] ] ] ] ] ] ] ] ] ] ] ] ] ] ] ] ] ] ] ] ] ] ] ] ] ] ] ] ] ] ] ) ` +._ < % ; - / / ] ] ` ` ` ] ` ` ` ` ` ` ` ` h !.1XqX",
"rX6XL.v } ' F X.] ] ] ` ` ` / / ( -.` ' + * X ; ;.] / ] ] ` / ] ] ] ] ] ] ] ] ] ] ] ] ] ] ] ] ] ] ] ] ] ] ] ] ] ` ` ` ` -.-.>.>.>.>.>.>.-.-.-.-.*.) -.-.^ n z n x ^ ] ] ` ] ] ` ] ] ] ] ] ] ] ] ] ] ] ] ] ] ] ] ] ] ] ] ] ] ] ] ] ] ] ] ] ] ] ] ] ] ] ] ] ] ] ] ] ] ] ] ] ] ] ] ] ] ] ] ] ] ] ] ] ] ] ] ] ] ] ] ] ] ] ] ] ] ] ] ] ] ] ] ] ] ] ] ] ] ] ] ] ] ] ] ] ] ] ] ] ] ] ] ] ] ] ] ] ] ] ] ] ] ] ] ] ] ] ] ] ] ] ] ] ] ] ] ] ] ] ] ] ] ] ] ] ] ] ] ] ] ] ] ] ` ] ] ] ] ;.u.w.p.q.) ^ ^ ^ n L L x z z l l j q _ ;./ ] ] ` ] ] ] ] ] ] ] ] ] ] ] ] ] ] ] ] ] ] ] ] ] ] ] ] ] ] ] ] ] ] ] ] ] ) ` +._ < % ; - / / ] ] ` ` ` ] ` ` ` ` ` ` ` ` h !.1XqX",
"rX6XL.v } ' F X.] ] ] ` ` ` / / ( -.` ' + * X ; ;.] / ] ] ` / ] ] ] ] ] ] ] ] ] ] ] ] ] ] ] ] ] ] ] ] ] ] ] ] ] ` ` ` ` -.-.>.>.>.>.>.>.-.-.-.-.*.) -.] ^ n z n x ^ ] ] ` ] ] ` ] ] ] ] ] ] ] ] ] ] ] ] ] ] ] ] ] ] ] ] ] ] ] ] ] ] ] ] ] ] ] ] ] ] ] ] ] ] ] ] ] ] ] ] ] ] ] ] ] ] ] ] ] ] ] ] ] ] ] ] ] ] ] ] ] ] ] ] ] ] ] ] ] ] ] ] ] ] ] ] ] ] ] ] ] ] ] ] ] ] ] ] ] ] ] ] ] ] ] ] ] ] ] ] ] ] ] ] ] ] ] ] ] ] ] ] ] ] ] ] ] ] ] ] ] ] ] ] ] ] ] ] ] ] ] ] ] ` ] ] ] ] ;.u.w.p.q.) ^ ^ ^ n L L x z z l l j q _ ;./ ] ] ` ] ] ] ] ] ] ] ] ] ] ] ] ] ] ] ] ] ] ] ] ] ] ] ] ] ] ] ] ] ] ] ] ] ) ` +._ < % ; - / / ] ] ` ` ` ] ` ` ` ` ` ` ` ` h !.1XqX",
"rX6X`.v } ' F X.] ] ] ` ` ` / / ( ] ` ' + * X ; ;.] / ] ] ` / ] ] ] ] ] ] ] ] ] ] ] ] ] ] ] ] ] ] ] ] ] ] ] ] ] ` ` ` ` ] >.>.>.>.>.>.-.-.-.-.-.*.) -.-.^ n z n x / ] ] ` ] ] ` ] ] ] ] ] ] ] ] ] ] ] ] ] ] ] ] ] ] ] ] ] ] ] ] ] ] ] ] ] ] ] ] ] ] ] ] ] ] ] ] ] ] ] ] ] ] ] ] ] ] ] ] ] ] ] ] ] ] ] ] ] ] ] ] ] ] ] ] ] ] ] ] ] ] ] ] ] ] ] ] ] ] ] ] ] ] ] ] ] ] ] ] ] ] ] ] ] ] ] ] ] ] ] ] ] ] ] ] ] ] ] ] ] ] ] ] ] ] ] ] ] ] ] ] ] ] ] ] ] ] ] ] ] ] ] ] ] ` ] ] ] ] ;.u.w.p.q.) ^ ^ ^ n L L x z z l l j q ` ;./ ] ] ` ] ] ] ] ] ] ] ] ] ] ] ] ] ] ] ] ] ] ] ] ] ] ] ] ] ] ] ] ] ] ] ] ] ) ` +._ < % ; - / / ] ] ` ` ` ] ` ` ` ` ` ` ` ` h !.1XqX",
"rX6X`.v } ' F X.] ] ] ` ` ` / / ( ] ` ' + * X ; ;.] / ] ] ` / ] ] ] ] ] ] ] ] ] ] ] ] ] ] ] ] ] ] ] ] ] ] ] ] ] ` ` ` ` ` -.>.>.>.>.>.>.-.-.-.-.*.) -.=.^ n z n x / ] ] ` ] ] ` ] ] ] ] ] ] ] ] ] ] ] ] ] ] ] ] ] ] ] ] ] ] ] ] ] ] ] ] ] ] ] ] ] ] ] ] ] ] ] ] ] ] ] ] ] ] ] ] ] ] ] ] ] ] ] ] ] ] ] ] ] ] ] ] ] ] ] ] ] ] ] ] ] ] ] ] ] ] ] ] ] ] ] ] ] ] ] ] ] ] ] ] ] ] ] ] ] ] ] ] ] ] ] ] ] ] ] ] ] ] ] ] ] ] ] ] ] ] ] ] ] ] ] ] ] ] ] ] ] ] ] ] ] ] ] ] ] ` ] ] ] ] ;.u.w.p.q.) ^ ^ ^ n L L x z z l l j q ` ;./ ] ] ` ] ] ] ] ] ] ] ] ] ] ] ] ] ] ] ] ] ] ] ] ] ] ] ] ] ] ] ] ] ] ] ] ] ) ` +._ < % ; - / / ] ] ` ` ` ] ` ` ` ` ` ` ` ` h !.1XqX",
"rX6XL.v } ' F X.] ] ] ` ` ` / / ( -.` ' + * X ; ;.] / ] ] ` / ] ] ] ] ] ] ] ] ] ] ] ] ] ] ] ] ] ] ] ] ] ] ] ] ] ` ` ` ` ] >.>.>.>.>.>.>.-.-.-.-.*.) -.=.^ n z n x ^ ] ] ` ] ] ` ] ] ] ] ] ] ] ] ] ] ] ] ] ] ] ] ] ] ] ] ] ] ] ] ] ] ] ] ] ] ] ] ] ] ] ] ] ] ] ] ] ] ] ] ] ] ] ] ] ] ] ] ] ] ] ] ] ] ] ] ] ] ] ] ] ] ] ] ] ] ] ] ] ] ] ] ] ] ] ] ] ] ] ] ] ] ] ] ] ] ] ] ] ] ] ] ] ] ] ] ] ] ] ] ] ] ] ] ] ] ] ] ] ] ] ] ] ] ] ] ] ] ] ] ] ] ] ] ] ] ] ] ] ] ] ] ] ` ] ] ] ] ;.u.w.p.q.) ^ ^ ^ n L L x z z l l j q _ <.) ] ] ` ] ] ] ] ] ] ] ] ] ] ] ] ] ] ] ] ] ] ] ] ] ] ] ] ] ] ] ] ] ] ] ] ] ) ` +._ < % ; - / / ] ] ` ` ` ] ` ` ` ` ` ` ` ` h !.1XqX",
"rX6XL.v } ' F X.] ] ] ` ` ` / / ( -.` ' + * X ; ;.] / ] ] ` / ] ] ] ] ] ] ] ] ] ] ] ] ] ] ] ] ] ] ] ] ] ] ] ] ] ` ` ` ` ] >.>.>.>.>.>.>.-.-.-.-.*.) -.-.^ n z n x ^ ] ] ` ] ] ` ] ] ] ] ] ] ] ] ] ] ] ] ] ] ] ] ] ] ] ] ] ] ] ] ] ] ] ] ] ] ] ] ] ] ] ] ] ] ] ] ] ] ] ] ] ] ] ] ] ] ] ] ] ] ] ] ] ] ] ] ] ] ] ] ] ] ] ] ] ] ] ] ] ] ] ] ] ] ] ] ] ] ] ] ] ] ] ] ] ] ] ] ] ] ] ] ] ] ] ] ] ] ] ] ] ] ] ] ] ] ] ] ] ] ] ] ] ] ] ] ] ] ] ] ] ] ] ] ] ] ] ] ] ] ] ] ] ` ] ] ] ] ;.u.w.p.q.) ^ ^ ^ n L L x z z l l j q _ <./ ] ] ` O.] ] ] ] ] ] ] ] ] ] ] ] ] ] ] ] ] ] ] ] ] ] ] ] ] ] ] ] ] ] ] ] ) ` +._ < % ; - / / ] ] ` ` ` ] ` ` ` ` ` ` ` ` h !.1XqX",
"rX6XL.v } ' F X.] ] ] ` ` ` / / ( -.` ' + * X ; ;.] / ] ] ` / ] ] ] ] ] ] ] ] ] ] ] ] ] ] ] ] ] ] ] ] ] ] ] ] ] ` ` ` ` ] -.>.>.>.>.>.>.-.-.-.-.*.) ] ` ^ n z n x ^ ] ] ` ] ] ` ] ] ] ] ] ] ] ] ] ] ] ] ] ] ] ] ] ] ] ] ] ] ] ] ] ] ] ] ] ] ] ] ] ] ] ] ] ] ] ] ] ] ] ] ] ] ] ] ] ] ] ] ] ] ] ] ] ] ] ] ] ] ] ] ] ] ] ] ] ] ] ] ] ] ] ] ] ] ] ] ] ] ] ] ] ] ] ] ] ] ] ] ] ] ] ] ] ] ] ] ] ] ] ] ] ] ] ] ] ] ] ] ] ] ] ] ] ] ] ] ] ] ] ] ] ] ] ] ] ] ] ] ] ] ] ] ] ` ] ] ] ] ;.u.w.p.q.) ^ ^ ^ n L L x z z l l j q _ ;./ ] ] ` O.] ] ] ] ] ] ] ] ] ] ] ] ] ] ] ] ] ] ] ] ] ] ] ] ] ] ] ] ] ] ] ] ) ` +._ < % ; - / / ] ] ` ` ` ] ` ` ` ` ` ` ` ` h !.1XqX",
"rX6XL.v } ' F X.] ] ] ` ` ` / / ( -.` ' + * X ; ;.] / ] ] ` / ] ] ] ] ] ] ] ] ] ] ] ] ] ] ] ] ] ] ] ] ] ] ] ] ] ` ` ` ` ] >.>.>.>.>.>.>.-.-.-.-.*.) ] ` ^ n z n x ^ ] ] ` ] ] ` ] ] ] ] ] ] ] ] ] ] ] ] ] ] ] ] ] ] ] ] ] ] ] ] ] ] ] ] ] ] ] ] ] ] ] ] ] ] ] ] ] ] ] ] ] ] ] ] ] ] ] ] ] ] ] ] ] ] ] ] ] ] ] ] ] ] ] ] ] ] ] ] ] ] ] ] ] ] ] ] ] ] ] ] ] ] ] ] ] ] ] ] ] ] ] ] ] ] ] ] ] ] ] ] ] ] ] ] ] ] ] ] ] ] ] ] ] ] ] ] ] ] ] ] ] ] ] ] ] ] ] ] ] ] ] ] ] ` ] ] ] ] ;.u.w.p.q.) ^ ^ ^ n L L x z z l l j q _ <./ ] ] ` O.] ] ] ] ] ] ] ] ] ] ] ] ] ] ] ] ] ] ] ] ] ] ] ] ] ] ] ] ] ] ] ] ) ` +._ < % ; - / / ] ] ` ` ` ] ` ` ` ` ` ` ` ` h !.1XqX",
"rX6XL.v } ' F X.] ] ] ` ` ` / / ( ] ` ' + * X ; ;.] / ] ] ` / ] ] ] ] ] ] ] ] ] ] ] ] ] ] ] ] ] ] ] ] ] ] ] ] ] ` ` ` ` ` -.>.>.>.>.>.>.-.-.-.-.*.) -.] ^ n z n x / ] ] ` ] ] ` ] ] ] ] ] ] ] ] ] ] ] ] ] ] ] ] ] ] ] ] ] ] ] ] ] ] ] ] ] ] ] ] ] ] ] ] ] ] ] ] ] ] ] ] ] ] ] ] ] ] ] ] ] ] ] ] ] ] ] ] ] ] ] ] ] ] ] ] ] ] ] ] ] ] ] ] ] ] ] ] ] ] ] ] ] ] ] ] ] ] ] ] ] ] ] ] ] ] ] ] ] ] ] ] ] ] ] ] ] ] ] ] ] ] ] ] ] ] ] ] ] ] ] ] ] ] ] ] ] ] ] ] ] ] ] ] ] ` ] ] ] ] ;.u.w.p.q.) ^ ^ ^ n L L x z z l l j q _ <./ ] ] ` ] ] ] ] ] ] ] ] ] ] ] ] ] ] ] ] ] ] ] ] ] ] ] ] ] ] ] ] ] ] ] ] ] ) ` +._ < % ; - / / ] ] ` ` ` ] ` ` ` ` ` ` ` ` h !.1XqX",
"rX6XL.v } ' F X.] ] ] ` ` ` / / ( ] ` ' + * X ; ;.] / ] ] ` / ] ] ] ] ] ] ] ] ] ] ] ] ] ] ] ] ] ] ] ] ] ] ] ] ] ` ` ` ` ` -.>.>.>.>.>.>.-.-.-.-.*.) ] ] ^ n z n x ^ ] ] ` ] ] ` ] ] ] ] ] ] ] ] ] ] ] ] ] ] ] ] ] ] ] ] ] ] ] ] ] ] ] ] ] ] ] ] ] ] ] ] ] ] ] ] ] ] ] ] ] ] ] ] ] ] ] ] ] ] ] ] ] ] ] ] ] ] ] ] ] ] ] ] ] ] ] ] ] ] ] ] ] ] ] ] ] ] ] ] ] ] ] ] ] ] ] ] ] ] ] ] ] ] ] ] ] ] ] ] ] ] ] ] ] ] ] ] ] ] ] ] ] ] ] ] ] ] ] ] ] ] ] ] ] ] ] ] ] ] ] ] ] ` ] ] ] ] ;.u.w.p.q.) ^ ^ ^ n L L x z z l l w q _ >./ ] ] ` ] ] ] ] ] ] ] ] ] ] ] ] ] ] ] ] ] ] ] ] ] ] ] ] ] ] ] ] ] ] ] ] ] ) ` +._ < % ; - / / ] ] ` ` ` ] ` ` ` ` ` ` ` ` h !.1XqX",
"rX6XL.v } ' F X.] ] ] ` ` ` / / ( ] ` ' + * X ; ;.] / ] ] ` / ] ] ] ] ] ] ] ] ] ] ] ] ] ] ] ] ] ] ] ] ] ] ] ] ] ` ` ` ` -.-.>.>.>.>.>.>.-.-.-.-.*.) ] ` ^ n z n x ^ ] ] ` ] ] ` ] ] ] ] ] ] ] ] ] ] ] ] ] ] ] ] ] ] ] ] ] ] ] ] ] ] ] ] ] ] ] ] ] ] ] ] ] ] ] ] ] ] ] ] ] ] ] ] ] ] ] ] ] ] ] ] ] ] ] ] ] ] ] ] ] ] ] ] ] ] ] ] ] ] ] ] ] ] ] ] ] ] ] ] ] ] ] ] ] ] ] ] ] ] ] ] ] ] ] ] ] ] ] ] ] ] ] ] ] ] ] ] ] ] ] ] ] ] ] ] ] ] ] ] ] ] ] ] ] ] ] ] ] ] ] ] ] ` ] ] ] ] ;.u.w.p.q.) ^ ^ ^ n L L x z z l l j q _ ;./ ] ] ` ] ] ] ] ] ] ] ] ] ] ] ] ] ] ] ] ] ] ] ] ] ] ] ] ] ] ] ] ] ] ] ] ] ) ` +._ < % ; - / / ] ] ` ` ` ] ` ` ` ` ` ` ` ` h !.1XqX",
"rX6XL.v } ' F X.] ] ] ` ` ` / / ( ] ` ' + * X ; ;.] / ] ] ` / ] ] ] ] ] ] ] ] ] ] ] ] ] ] ] ] ] ] ] ] ] ] ] ] ] ` ` ` ` -.-.>.>.>.>.>.>.-.-.-.-.*.) ] ` ^ n z n x ^ ] ] ` ] ] ` ] ] ] ] ] ] ] ] ] ] ] ] ] ] ] ] ] ] ] ] ] ] ] ] ] ] ] ] ] ] ] ] ] ] ] ] ] ] ] ] ] ] ] ] ] ] ] ] ] ] ] ] ] ] ] ] ] ] ] ] ] ] ] ] ] ] ] ] ] ] ] ] ] ] ] ] ] ] ] ] ] ] ] ] ] ] ] ] ] ] ] ] ] ] ] ] ] ] ] ] ] ] ] ] ] ] ] ] ] ] ] ] ] ] ] ] ] ] ] ] ] ] ] ] ] ] ] ] ] ] ] ] ] ] ] ] ] ` ] ] ] ] ;.u.w.p.q.) ^ ^ ^ n L L x z z l l j q _ ;./ ] ] ` ] ] ] ] ] ] ] ] ] ] ] ] ] ] ] ] ] ] ] ] ] ] ] ] ] ] ] ] ] ] ] ] ] ) ` +._ < % ; - / / ] ] ` ` ` ] ` ` ` ` ` ` ` ` h !.1XqX",
"rX6XL.v } ' F X.] ] ] ` ` ` / / ( ] ` ' + * X ; ;.] / ] ] ` / ] ] ] ] ] ] ] ] ] ] ] ] ] ] ] ] ] ] ] ] ] ] ] ] ] ` ` ` ` -.-.>.>.>.>.>.>.-.-.-.-.*.) -.` ^ n z n x ^ ] ] ` ] ] ` ] ] ] ] ] ] ] ] ] ] ] ] ] ] ] ] ] ] ] ] ] ] ] ] ] ] ] ] ] ] ] ] ] ] ] ] ] ] ] ] ] ] ] ] ] ] ] ] ] ] ] ] ] ] ] ] ] ] ] ] ] ] ] ] ] ] ] ] ] ] ] ] ] ] ] ] ] ] ] ] ] ] ] ] ] ] ] ] ] ] ] ] ] ] ] ] ] ] ] ] ] ] ] ] ] ] ] ] ] ] ] ] ] ] ] ] ] ] ] ] ] ] ] ] ] ] ] ] ] ] ] ] ] ] ] ] ] ` ] ] ] ] ;.u.w.p.q.) ^ ^ ^ n L L x z z l l j q _ ;./ ] ] ` ] ] ] ] ] ] ] ] ] ] ] ] ] ] ] ] ] ] ] ] ] ] ] ] ] ] ] ] ] ] ] ] ] ) ` +._ < % ; - / / ] ] ` ` ` ] ` ` ` ` ` ` ` ` h !.1XqX",
"rX6XL.v } ' F X.] ] ] ` ` ` / / ( ] ` ' + * X ; ;.] / ] ] ` / ] ] ] ] ] ] ] ] ] ] ] ] ] ] ] ] ] ] ] ] ] ] ] ] ] ` ` ` ` -.-.>.>.>.>.>.>.-.-.-.-.*.) -.-.^ n z n x ^ ] ] ` ] ] ` ] ] ] ] ] ] ] ] ] ] ] ] ] ] ] ] ] ] ] ] ] ] ] ] ] ] ] ] ] ] ] ] ] ] ] ] ] ] ] ] ] ] ] ] ] ] ] ] ] ] ] ] ] ] ] ] ] ] ] ] ] ] ] ] ] ] ] ] ] ] ] ] ] ] ] ] ] ] ] ] ] ] ] ] ] ] ] ] ] ] ] ] ] ] ] ] ] ] ] ] ] ] ] ] ] ] ] ] ] ] ] ] ] ] ] ] ] ] ] ] ] ] ] ] ] ] ] ] ] ] ] ] ] ] ] ] ] ` ] ] ] ] ;.u.w.p.q.) ^ ^ ^ n L L x z z l l j q _ ;./ ] ] ` ] ] ] ] ] ] ] ] ] ] ] ] ] ] ] ] ] ] ] ] ] ] ] ] ] ] ] ] ] ] ] ] ] ) ` +._ < % ; - / / ] ] ` ` ` ] ` ` ` ` ` ` ` ` h !.1XqX",
"rX6XL.v } ' F X.] ] ] ` ` ` / / ( -.` ' + * X ; ;.] / ] ] ` / ] ] ] ] ] ] ] ] ] ] ] ] ] ] ] ] ] ] ] ] ] ] ] ] ] ` ` ` ` ] >.>.>.>.>.>.>.-.-.-.-.*.) -.-.^ n z n x ^ ] ] ` ] ] ` ] ] ] ] ] ] ] ] ] ] ] ] ] ] ] ] ] ] ] ] ] ] ] ] ] ] ] ] ] ] ] ] ] ] ] ] ] ] ] ] ] ] ] ] ] ] ] ] ] ] ] ] ] ] ] ] ] ] ] ] ] ] ] ] ] ] ] ] ] ] ] ] ] ] ] ] ] ] ] ] ] ] ] ] ] ] ] ] ] ] ] ] ] ] ] ] ] ] ] ] ] ] ] ] ] ] ] ] ] ] ] ] ] ] ] ] ] ] ] ] ] ] ] ] ] ] ] ] ] ] ] ] ] ] ] ] ] ` ] ] ] ] ;.u.w.p.q.) ^ ^ ^ n L L x z z l l j q _ ;./ ] ] ` ] ] ] ] ] ] ] ] ] ] ] ] ] ] ] ] ] ] ] ] ] ] ] ] ] ] ] ] ] ] ] ] ] ) ` +._ < % ; - / / ] ] ` ` ` ] ` ` ` ` ` ` ` ` h !.1XqX",
"rX6XL.v ..' F X.] ] ] ` ` ` / / ( ] ` ' + * X ; ;.] / ] ] ` / ] ] ] ] ] ] ] ] ] ] ] ] ] ] ] ] ] ] ] ] ] ] ] ] ] ` ` ` ` ` -.>.>.>.>.>.>.-.-.-.-.*.) -.-.^ n z n x ^ ] ] ` ] ] ` ] ] ] ] ] ] ] ] ] ] ] ] ] ] ] ] ] ] ] ] ] ] ] ] ] ] ] ] ] ] ] ] ] ] ] ] ] ] ] ] ] ] ] ] ] ] ] ] ] ] ] ] ] ] ] ] ] ] ] ] ] ] ] ] ] ] ] ] ] ] ] ] ] ] ] ] ] ] ] ] ] ] ] ] ] ] ] ] ] ] ] ] ] ] ] ] ] ] ] ] ] ] ] ] ] ] ] ] ] ] ] ] ] ] ] ] ] ] ] ] ] ] ] ] ] ] ] ] ] ] ] ] ] ] ] ] ] ` ] ] ] ] ;.u.w.p.q.) ^ ^ ^ n L L x z z l l j q ` ;./ ] ] ` ] ] ] ] ] ] ] ] ] ] ] ] ] ] ] ] ] ] ] ] ] ] ] ] ] ] ] ] ] ] ] ] ] ) ` +._ < % ; - / / ] ] ` ` ` ] ` ` ` ` ` ` ` ` h !.1XqX",
"rX6X`.v } ' F X.] ] ] ` ` ` / / ( -.` ' + * X ; ;.] / ] ] ` / ] ] ] ] ] ] ] ] ] ] ] ] ] ] ] ] ] ] ] ] ] ] ] ] ] ` ` ` ` ] >.>.>.>.>.>.>.-.-.-.-.*.) ] -.^ n x n x ^ ] ] ` ] ] ` ] ] ] ] ] ] ] ] ] ] ] ] ] ] ] ] ] ] ] ] ] ] ] ] ] ] ] ] ] ] ] ] ] ] ] ] ] ] ] ] ] ] ] ] ] ] ] ] ] ] ] ] ] ] ] ] ] ] ] ] ] ] ] ] ] ] ] ] ] ] ] ] ] ] ] ] ] ] ] ] ] ] ] ] ] ] ] ] ] ] ] ] ] ] ] ] ] ] ] ] ] ] ] ] ] ] ] ] ] ] ] ] ] ] ] ] ] ] ] ] ] ] ] ] ] ] ] ] ] ] ] ] ] ] ] ] ] ` ] ] ] ] ;.u.w.p.q.) ^ ^ ^ n L L x z z l l j q _ <./ ] ] ` ] ] ] ] ] ] ] ] ] ] ] ] ] ] ] ] ] ] ] ] ] ] ] ] ] ] ] ] ] ] ] ] ] ) ` +._ < % ; - / / ] ] ` ` ` ] ` ` ` ` ` ` ` ` h !.1XqX",
"rX6XL.v } ' F X.] ] ] ` ` ` / ` ( -.` ' + * X ; ;.] / ] ] ` / ] ] ] ] ] ] ] ] ] ] ] ] ] ] ] ] ] ] ] ] ] ] ] ] ] ` ` ` ` ] >.>.>.>.>.>.>.-.-.-.-.*.) ] ] ^ n z n x ^ ] ] ` ] ] ` ] ] ] ] ] ] ] ] ] ] ] ] ] ] ] ] ] ] ] ] ] ] ] ] ] ] ] ] ] ] ] ] ] ] ] ] ] ] ] ] ] ] ] ] ] ] ] ] ] ] ] ] ] ] ] ] ] ] ] ] ] ] ] ] ] ] ] ] ] ] ] ] ] ] ] ] ] ] ] ] ] ] ] ] ] ] ] ] ] ] ] ] ] ] ] ] ] ] ] ] ] ] ] ] ] ] ] ] ] ] ] ] ] ] ] ] ] ] ] ] ] ] ] ] ] ] ] ] ] ] ] ] ] ] ] ] ] ` ] ] ] ] ;.u.w.p.q.) ^ ^ ^ n L L x z z l l j q _ <./ ] ] ` O.] ] ] ] ] ] ] ] ] ] ] ] ] ] ] ] ] ] ] ] ] ] ] ] ] ] ] ] ] ] ] ] ) ` +._ < % ; - / / ] ] ` ` ` ] ` ` ` ` ` ` ` ` h !.1XqX",
"rX6XL.v } ' F X.] ] ] ` ` ` / / ( ] ` ' + * X ; ;.] / ] ] ` / ] ] ] ] ] ] ] ] ] ] ] ] ] ] ] ] ] ] ] ] ] ] ] ] ] ` ` ` ` ] -.>.>.>.>.>.>.-.-.-.-.*.) ] =.^ n z n x ^ ] ] ` ] ] ` ] ] ] ] ] ] ] ] ] ] ] ] ] ] ] ] ] ] ] ] ] ] ] ] ] ] ] ] ] ] ] ] ] ] ] ] ] ] ] ] ] ] ] ] ] ] ] ] ] ] ] ] ] ] ] ] ] ] ] ] ] ] ] ] ] ] ] ] ] ] ] ] ] ] ] ] ] ] ] ] ] ] ] ] ] ] ] ] ] ] ] ] ] ] ] ] ] ] ] ] ] ] ] ] ] ] ] ] ] ] ] ] ] ] ] ] ] ] ] ] ] ] ] ] ] ] ] ] ] ] ] ] ] ] ] ] ] ` ] ] ] ] ;.u.w.p.q.) ^ ^ ^ n L L x z z l l j q _ ;./ ] ] ` O.] ] ] ] ] ] ] ] ] ] ] ] ] ] ] ] ] ] ] ] ] ] ] ] ] ] ] ] ] ] ] ] ) ` +._ < % ; - / / ] ] ` ` ` ] ` ` ` ` ` ` ` ` h !.1XqX",
"rX6XL.v } ' F X.] ] ] ` ` ` / / ( -.` ' + * X ; ;.] / ] ] ` / ] ] ] ] ] ] ] ] ] ] ] ] ] ] ] ] ] ] ] ] ] ] ] ] ] ` ` ` ` ] >.>.>.>.>.>.>.-.-.-.-.*.) -.` ^ n z n x ^ ] ] ` ] ] ` ] ] ] ] ] ] ] ] ] ] ] ] ] ] ] ] ] ] ] ] ] ] ] ] ] ] ] ] ] ] ] ] ] ] ] ] ] ] ] ] ] ] ] ] ] ] ] ] ] ] ] ] ] ] ] ] ] ] ] ] ] ] ] ] ] ] ] ] ] ] ] ] ] ] ] ] ] ] ] ] ] ] ] ] ] ] ] ] ] ] ] ] ] ] ] ] ] ] ] ] ] ] ] ] ] ] ] ] ] ] ] ] ] ] ] ] ] ] ] ] ] ] ] ] ] ] ] ] ] ] ] ] ] ] ] ] ] ` ] ] ] ] ;.u.w.p.q.) ^ ^ ^ n L L x z z l l j q _ ;./ ] ] ` O.] ] ] ] ] ] ] ] ] ] ] ] ] ] ] ] ] ] ] ] ] ] ] ] ] ] ] ] ] ] ] ] ) ` +._ < % ; - / / ] ] ` ` ` ] ` ` ` ` ` ` ` ` h !.1XqX",
"rX6XL.v ..' F X.] ] ] ` ` ` / / ( -.` ' + * X ; ;.] / ] ] ` / ] ] ] ] ] ] ] ] ] ] ] ] ] ] ] ] ] ] ] ] ] ] ] ] ] ` ` ` ` ` -.>.>.>.>.>.>.-.-.-.-.*.) ] =.^ n z n x ^ ] ] ` ] ] ` ] ] ] ] ] ] ] ] ] ] ] ] ] ] ] ] ] ] ] ] ] ] ] ] ] ] ] ] ] ] ] ] ] ] ] ] ] ] ] ] ] ] ] ] ] ] ] ] ] ] ] ] ] ] ] ] ] ] ] ] ] ] ] ] ] ] ] ] ] ] ] ] ] ] ] ] ] ] ] ] ] ] ] ] ] ] ] ] ] ] ] ] ] ] ] ] ] ] ] ] ] ] ] ] ] ] ] ] ] ] ] ] ] ] ] ] ] ] ] ] ] ] ] ] ] ] ] ] ] ] ] ] ] ] ] ] ] ` ] ] ] ] ;.u.w.p.q.) ^ ^ ^ n L L x z z l l j q _ ;./ ] ] ` ] ] ] ] ] ] ] ] ] ] ] ] ] ] ] ] ] ] ] ] ] ] ] ] ] ] ] ] ] ] ] ] ] ) ` +._ < % ; - / / ] ] ` ` ` ] ` ` ` ` ` ` ` ` h !.1XqX",
"rX6XL.v ..' F X.] ] ] ` ` ` / / ) -.` ' + * X ; ;.] / ] ] ` / ] ] ] ] ] ] ] ] ] ] ] ] ] ] ] ] ] ] ] ] ] ] ] ] ] ` ` ` ` ` -.>.>.>.>.>.>.-.-.-.-.*.) -.` ^ n z n x ^ ] ] ` ] ] ` ] ] ] ] ] ] ] ] ] ] ] ] ] ] ] ] ] ] ] ] ] ] ] ] ] ] ] ] ] ] ] ] ] ] ] ] ] ] ] ] ] ] ] ] ] ] ] ] ] ] ] ] ] ] ] ] ] ] ] ] ] ] ] ] ] ] ] ] ] ] ] ] ] ] ] ] ] ] ] ] ] ] ] ] ] ] ] ] ] ] ] ] ] ] ] ] ] ] ] ] ] ] ] ] ] ] ] ] ] ] ] ] ] ] ] ] ] ] ] ] ] ] ] ] ] ] ] ] ] ] ] ] ] ] ] ] ] ` ] ] ] ] ;.u.w.p.q.) ^ ^ ^ n L L x z z l l j q _ ;./ ] ] ` ] ] ] ] ] ] ] ] ] ] ] ] ] ] ] ] ] ] ] ] ] ] ] ] ] ] ] ] ] ] ] ] ] ) ` +._ < % ; - / / ] ] ` ` ` ] ` ` ` ` ` ` ` ` h !.1XqX",
"rX6XL.v } ' F X.] ] ] ` ` ` / / ( ] ` ' + * X ; ;.] / ] ] ` / ] ] ] ] ] ] ] ] ] ] ] ] ] ] ] ] ] ] ] ] ] ] ] ] ] ` ` ` ` -.-.>.>.>.>.>.>.-.-.-.-.*.) -.` ^ n z n x ^ ] ] ` ] ] ` ] ] ] ] ] ] ] ] ] ] ] ] ] ] ] ] ] ] ] ] ] ] ] ] ] ] ] ] ] ] ] ] ] ] ] ] ] ] ] ] ] ] ] ] ] ] ] ] ] ] ] ] ] ] ] ] ] ] ] ] ] ] ] ] ] ] ] ] ] ] ] ] ] ] ] ] ] ] ] ] ] ] ] ] ] ] ] ] ] ] ] ] ] ] ] ] ] ] ] ] ] ] ] ] ] ] ] ] ] ] ] ] ] ] ] ] ] ] ] ] ] ] ] ] ] ] ] ] ] ] ] ] ] ] ] ] ] ` ] ] ] ] ;.u.w.p.q.) ^ ^ ^ n L L x z z l l j q _ >./ ] ] ` ] ] ] ] ] ] ] ] ] ] ] ] ] ] ] ] ] ] ] ] ] ] ] ] ] ] ] ] ] ] ] ] ] ) ` +._ < % ; - / / ] ] ` ` ` ] ` ` ` ` ` ` ` ` h !.1XqX",
"rX6XL.v } ' F X.] ] ] ` ` ` / / ( ] ` ' + * X ; ;.] / ] ] ` / ] ] ] ] ] ] ] ] ] ] ] ] ] ] ] ] ] ] ] ] ] ] ] ] ] ` ` ` ` -.-.>.>.>.>.>.>.-.-.-.-.*.) -.-.^ n z n x ^ ] ] ` ] ] ` ] ] ] ] ] ] ] ] ] ] ] ] ] ] ] ] ] ] ] ] ] ] ] ] ] ] ] ] ] ] ] ] ] ] ] ] ] ] ] ] ] ] ] ] ] ] ] ] ] ] ] ] ] ] ] ] ] ] ] ] ] ] ] ] ] ] ] ] ] ] ] ] ] ] ] ] ] ] ] ] ] ] ] ] ] ] ] ] ] ] ] ] ] ] ] ] ] ] ] ] ] ] ] ] ] ] ] ] ] ] ] ] ] ] ] ] ] ] ] ] ] ] ] ] ] ] ] ] ] ] ] ] ] ] ] ] ] ` ] ] ] ] ;.u.w.p.q.) ^ ^ ^ n L L x z z l l j q _ >.) ] ] ` ] ] ] ] ] ] ] ] ] ] ] ] ] ] ] ] ] ] ] ] ] ] ] ] ] ] ] ] ] ] ] ] ] ) ` +._ < % ; - / / ] ] ` ` ` ] ` ` ` ` ` ` ` ` h !.1XqX",
"rX6XL.v } ' F X.] ] ] ` ` ` / / ( ] ` ' + * X ; ;.] / ] ] ` / ] ] ] ] ] ] ] ] ] ] ] ] ] ] ] ] ] ] ] ] ] ] ] ] ] ` ` ` ` -.-.>.>.>.>.>.>.-.-.-.-.*.) -.=.^ n z n x ^ ] ] ` ] ] ` ] ] ] ] ] ] ] ] ] ] ] ] ] ] ] ] ] ] ] ] ] ] ] ] ] ] ] ] ] ] ] ] ] ] ] ] ] ] ] ] ] ] ] ] ] ] ] ] ] ] ] ] ] ] ] ] ] ] ] ] ] ] ] ] ] ] ] ] ] ] ] ] ] ] ] ] ] ] ] ] ] ] ] ] ] ] ] ] ] ] ] ] ] ] ] ] ] ] ] ] ] ] ] ] ] ] ] ] ] ] ] ] ] ] ] ] ] ] ] ] ] ] ] ] ] ] ] ] ] ] ] ] ] ] ] ] ] ` ] ] ] ] ;.u.w.p.q.) ^ ^ ^ n L L x z z l l j q _ ;./ ] ] ` ] ] ] ] ] ] ] ] ] ] ] ] ] ] ] ] ] ] ] ] ] ] ] ] ] ] ] ] ] ] ] ] ] ) ` +._ < % ; - / / ] ] ` ` ` ] ` ` ` ` ` ` ` ` h !.1XqX",
"rX6XL.v } ' F X.] ] ] ` ` ` / / ( ] ` ' + * X ; ;.] / ] ] ` / ] ] ] ] ] ] ] ] ] ] ] ] ] ] ] ] ] ] ] ] ] ] ] ] ] ` ` ` ` -.-.>.>.>.>.>.>.-.-.-.-.*.) -.-.^ n z n x ^ ] ] ` ] ] ` ] ] ] ] ] ] ] ] ] ] ] ] ] ] ] ] ] ] ] ] ] ] ] ] ] ] ] ] ] ] ] ] ] ] ] ] ] ] ] ] ] ] ] ] ] ] ] ] ] ] ] ] ] ] ] ] ] ] ] ] ] ] ] ] ] ] ] ] ] ] ] ] ] ] ] ] ] ] ] ] ] ] ] ] ] ] ] ] ] ] ] ] ] ] ] ] ] ] ] ] ] ] ] ] ] ] ] ] ] ] ] ] ] ] ] ] ] ] ] ] ] ] ] ] ] ] ] ] ] ] ] ] ] ] ] ] ] ` ] ] ] ] ;.p.w.p.q.) ^ ^ ^ n L L x z z l l j q _ ;./ ] ] ` ] ] ] ] ] ] ] ] ] ] ] ] ] ] ] ] ] ] ] ] ] ] ] ] ] ] ] ] ] ] ] ] ] ) ` +._ < % ; - / / ] ] ` ` ` ] ` ` ` ` ` ` ` ` h !.1XqX",
"rX6X`.v } ' F X.] ] ] ` ` ` / / ( ] ` ' + * X ; ;.] / ] ] ` / ] ] ] ] ] ] ] ] ] ] ] ] ] ] ] ] ] ] ] ] ] ] ] ] ] ` ` ` ` ] >.>.>.>.>.>.-.-.-.-.-.*.) ] ] ^ n z n x ^ ] ] ` ] ] ` ] ] ] ] ] ] ] ] ] ] ] ] ] ] ] ] ] ] ] ] ] ] ] ] ] ] ] ] ] ] ] ] ] ] ] ] ] ] ] ] ] ] ] ] ] ] ] ] ] ] ] ] ] ] ] ] ] ] ] ] ] ] ] ] ] ] ] ] ] ] ] ] ] ] ] ] ] ] ] ] ] ] ] ] ] ] ] ] ] ] ] ] ] ] ] ] ] ] ] ] ] ] ] ] ] ] ] ] ] ] ] ] ] ] ] ] ] ] ] ] ] ] ] ] ] ] ] ] ] ] ] ] ] ] ] ] ] ` ] ] ] ] ;.u.w.p.q.) ^ ^ ^ n L L x z z l l j q ` ;./ ] ] ` ] ] ] ] ] ] ] ] ] ] ] ] ] ] ] ] ] ] ] ] ] ] ] ] ] ] ] ] ] ] ] ] ] ) ` +._ < % ; - / / ] ] ` ` ` ] ` ` ` ` ` ` ` ` h !.1XqX",
"rX6X`.v } ' F X.] ] ] ` ` ` / / ( -.` ' + * X ; ;.] / ] ] ` / ] ] ] ] ] ] ] ] ] ] ] ] ] ] ] ] ] ] ] ] ] ] ] ] ] ` ` ` ` ` -.>.>.>.>.>.-.-.-.-.-.*.) -.] ^ n z n x ^ ] ] ` ] ] ` ] ] ] ] ] ] ] ] ] ] ] ] ] ] ] ] ] ] ] ] ] ] ] ] ] ] ] ] ] ] ] ] ] ] ] ] ] ] ] ] ] ] ] ] ] ] ] ] ] ] ] ] ] ] ] ] ] ] ] ] ] ] ] ] ] ] ] ] ] ] ] ] ] ] ] ] ] ] ] ] ] ] ] ] ] ] ] ] ] ] ] ] ] ] ] ] ] ] ] ] ] ] ] ] ] ] ] ] ] ] ] ] ] ] ] ] ] ] ] ] ] ] ] ] ] ] ] ] ] ] ] ] ] ] ] ] ] ` ] ] ] ] ;.u.w.p.q.) ^ ^ ^ n L L x z z l l j q ` ;./ ] ] ` ] ] ] ] ] ] ] ] ] ] ] ] ] ] ] ] ] ] ] ] ] ] ] ] ] ] ] ] ] ] ] ] ] ) ` +._ < % ; - / / ] ] ` ` ` ] ` ` ` ` ` ` ` ` h !.1XqX",
"rX6XL.v } ' F X.] ] ] ` ` ` / / ( -.` ' + * X ; ;.] / ] ] ` / ] ] ] ] ] ] ] ] ] ] ] ] ] ] ] ] ] ] ] ] ] ] ] ] ] ` ` ` ` ] >.>.>.>.>.-.-.-.-.-.-.*.) -.] ^ n z n x ^ ] ] ` ] ] ` ] ] ] ] ] ] ] ] ] ] ] ] ] ] ] ] ] ] ] ] ] ] ] ] ] ] ] ] ] ] ] ] ] ] ] ] ] ] ] ] ] ] ] ] ] ] ] ] ] ] ] ] ] ] ] ] ] ] ] ] ] ] ] ] ] ] ] ] ] ] ] ] ] ] ] ] ] ] ] ] ] ] ] ] ] ] ] ] ] ] ] ] ] ] ] ] ] ] ] ] ] ] ] ] ] ] ] ] ] ] ] ] ] ] ] ] ] ] ] ] ] ] ] ] ] ] ] ] ] ] ] ] ] ] ] ] ] ` ] ] ] ] ;.u.w.p.q.) ^ ^ ^ n L L x z z l l j q _ <.) ] ] ` ] ] ] ] ] ] ] ] ] ] ] ] ] ] ] ] ] ] ] ] ] ] ] ] ] ] ] ] ] ] ] ] ] ) ` +._ < % ; - / / ] ] ` ` ` ] ` ` ` ` ` ` ` ` h !.1XqX",
"rX6XL.v } ' F X.] ] ] ` ` ` / / ) -.` ' + * X ; ;.] / ] ] ` / ] ] ] ] ] ] ] ] ] ] ] ] ] ] ] ] ] ] ] ] ] ] ] ] ] ` ` ` ` ] >.>.>.>.>.-.-.-.-.-.-.*.) ] ] ^ n z n x ^ ] ] ` ] ] ` ] ] ] ] ] ] ] ] ] ] ] ] ] ] ] ] ] ] ] ] ] ] ] ] ] ] ] ] ] ] ] ] ] ] ] ] ] ] ] ] ] ] ] ] ] ] ] ] ] ] ] ] ] ] ] ] ] ] ] ] ] ] ] ] ] ] ] ] ] ] ] ] ] ] ] ] ] ] ] ] ] ] ] ] ] ] ] ] ] ] ] ] ] ] ] ] ] ] ] ] ] ] ] ] ] ] ] ] ] ] ] ] ] ] ] ] ] ] ] ] ] ] ] ] ] ] ] ] ] ] ] ] ] ] ] ] ] ` ] ] ] ] ;.u.w.p.q.) ^ ^ ^ n L L x z z l l j q _ <./ ] ] ` O.] ] ] ] ] ] ] ] ] ] ] ] ] ] ] ] ] ] ] ] ] ] ] ] ] ] ] ] ] ] ] ] ) ` +._ < % ; - / / ] ] ` ` ` ] ` ` ` ` ` ` ` ` h !.1XqX",
"rX6XL.v } ' F X.] ] ] ` ` ` / / ( ] ` ' + * X ; ;.] / ] ] ` / ] ] ] ] ] ] ] ] ] ] ] ] ] ] ] ] ] ] ] ] ] ] ] ] ] ` ` ` ` ] -.>.>.>.>.>.>.-.-.-.-.*.) -.` ^ n z n x ^ ] ] ` ] ] ` ] ] ] ] ] ] ] ] ] ] ] ] ] ] ] ] ] ] ] ] ] ] ] ] ] ] ] ] ] ] ] ] ] ] ] ] ] ] ] ] ] ] ] ] ] ] ] ] ] ] ] ] ] ] ] ] ] ] ] ] ] ] ] ] ] ] ] ] ] ] ] ] ] ] ] ] ] ] ] ] ] ] ] ] ] ] ] ] ] ] ] ] ] ] ] ] ] ] ] ] ] ] ] ] ] ] ] ] ] ] ] ] ] ] ] ] ] ] ] ] ] ] ] ] ] ] ] ] ] ] ] ] ] ] ] ] ] ` ] ] ] ] ;.u.w.p.q.) ^ ^ ^ n L L x z z l l j q _ ;./ ] ] ` O.] ] ] ] ] ] ] ] ] ] ] ] ] ] ] ] ] ] ] ] ] ] ] ] ] ] ] ] ] ] ] ] ) ` +._ < % ; - / / ] ] ` ` ` ] ` ` ` ` ` ` ` ` h !.1XqX",
"rX6XL.v } ' F X.] ] ] ` ` ` / / ( ] ` ' + * X ; ;.] / ] ] ` / ] ] ] ] ] ] ] ] ] ] ] ] ] ] ] ] ] ] ] ] ] ] ] ] ] ` ` ` ` ] >.>.>.>.>.>.>.-.-.-.-.*.) -.-.^ n z n x ^ ] ] ` ] ] ` ] ] ] ] ] ] ] ] ] ] ] ] ] ] ] ] ] ] ] ] ] ] ] ] ] ] ] ] ] ] ] ] ] ] ] ] ] ] ] ] ] ] ] ] ] ] ] ] ] ] ] ] ] ] ] ] ] ] ] ] ] ] ] ] ] ] ] ] ] ] ] ] ] ] ] ] ] ] ] ] ] ] ] ] ] ] ] ] ] ] ] ] ] ] ] ] ] ] ] ] ] ] ] ] ] ] ] ] ] ] ] ] ] ] ] ] ] ] ] ] ] ] ] ] ] ] ] ] ] ] ] ] ] ] ] ] ] ` ] ] ] ] ;.u.w.p.q.) ^ ^ ^ n L L x z z l l j q _ <./ ] ] ` O.] ] ] ] ] ] ] ] ] ] ] ] ] ] ] ] ] ] ] ] ] ] ] ] ] ] ] ] ] ] ] ] ) ` +._ < % ; - / / ] ] ` ` ` ] ` ` ` ` ` ` ` ` h !.1XqX",
"rX6XL.v } ' F X.] ] ] ` ` ` / / ( ] ` ' + * X ; ;.] / ] ] ` / ] ] ] ] ] ] ] ] ] ] ] ] ] ] ] ] ] ] ] ] ] ] ] ] ] ` ` ` ` ` -.>.>.>.>.>.>.-.-.-.-.*.) -.=.^ n z n x ^ ] ] ` ] ] ` ] ] ] ] ] ] ] ] ] ] ] ] ] ] ] ] ] ] ] ] ] ] ] ] ] ] ] ] ] ] ] ] ] ] ] ] ] ] ] ] ] ] ] ] ] ] ] ] ] ] ] ] ] ] ] ] ] ] ] ] ] ] ] ] ] ] ] ] ] ] ] ] ] ] ] ] ] ] ] ] ] ] ] ] ] ] ] ] ] ] ] ] ] ] ] ] ] ] ] ] ] ] ] ] ] ] ] ] ] ] ] ] ] ] ] ] ] ] ] ] ] ] ] ] ] ] ] ] ] ] ] ] ] ] ] ] ] ` ] ] ] ] ;.u.w.p.q.) ^ ^ ^ n L L x z l l l j q _ <./ ] ] ` ] ] ] ] ] ] ] ] ] ] ] ] ] ] ] ] ] ] ] ] ] ] ] ] ] ] ] ] ] ] ] ] ] ) ` +._ < % ; - / / ] ] ` ` ` ] ` ` ` ` ` ` ` ` h !.1XqX",
"rX6XL.v } ' F X.] ] ] ` ` ` / / ( ] ` ' + * X ; ;.] / ] ] ` / ] ] ] ] ] ] ] ] ] ] ] ] ] ] ] ] ] ] ] ] ] ] ] ] ] ` ` ` ` ` -.>.>.>.>.>.>.-.-.-.-.*.) -.-.^ n z n x ^ ] ] ` ] ] ` ] ] ] ] ] ] ] ] ] ] ] ] ] ] ] ] ] ] ] ] ] ] ] ] ] ] ] ] ] ] ] ] ] ] ] ] ] ] ] ] ] ] ] ] ] ] ] ] ] ] ] ] ] ] ] ] ] ] ] ] ] ] ] ] ] ] ] ] ] ] ] ] ] ] ] ] ] ] ] ] ] ] ] ] ] ] ] ] ] ] ] ] ] ] ] ] ] ] ] ] ] ] ] ] ] ] ] ] ] ] ] ] ] ] ] ] ] ] ] ] ] ] ] ] ] ] ] ] ] ] ] ] ] ] ] ] ] ` ] ] ] ] ;.u.w.p.q.) ^ ^ ^ n L L x z z l l w q _ >./ ] ] ` ] ] ] ] ] ] ] ] ] ] ] ] ] ] ] ] ] ] ] ] ] ] ] ] ] ] ] ] ] ] ] ] ] ) ` +._ < % ; - / / ] ] ` ` ` ] ` ` ` ` ` ` ` ` h !.1XqX",
"rX6XL.v } ' F X.] ] ] ` ` ` / / ( ] ` ' + * X ; ;.] / ] ] ` / ] ] ] ] ] ] ] ] ] ] ] ] ] ] ] ] ] ] ] ] ] ] ] ] ] ` ` ` ` -.-.>.>.>.>.>.>.-.-.-.-.*.) -.-.^ n z n x ^ ] ] ` ] ] ` ] ] ] ] ] ] ] ] ] ] ] ] ] ] ] ] ] ] ] ] ] ] ] ] ] ] ] ] ] ] ] ] ] ] ] ] ] ] ] ] ] ] ] ] ] ] ] ] ] ] ] ] ] ] ] ] ] ] ] ] ] ] ] ] ] ] ] ] ] ] ] ] ] ] ] ] ] ] ] ] ] ] ] ] ] ] ] ] ] ] ] ] ] ] ] ] ] ] ] ] ] ] ] ] ] ] ] ] ] ] ] ] ] ] ] ] ] ] ] ] ] ] ] ] ] ] ] ] ] ] ] ] ] ] ] ] ] ` ] ] ] ] ;.u.w.p.q.) ^ ^ ^ n L L x z z l l j q _ ;./ ] ] ` ] ] ] ] ] ] ] ] ] ] ] ] ] ] ] ] ] ] ] ] ] ] ] ] ] ] ] ] ] ] ] ] ] ) ` +._ < % ; - / / ] ] ` ` ` ] ` ` ` ` ` ` ` ` h !.1XqX",
"rX6XL.v } ' F X.] ] ] ` ` ` / / ( ] ` ' + * X ; ;.] / ] ] ` / ] ] ] ] ] ] ] ] ] ] ] ] ] ] ] ] ] ] ] ] ] ] ] ] ] ` ` ` ` -.-.>.>.>.>.>.>.-.-.-.-.*.) -.-.^ n z n x ^ ] ] ` ] ] ` ] ] ] ] ] ] ] ] ] ] ] ] ] ] ] ] ] ] ] ] ] ] ] ] ] ] ] ] ] ] ] ] ] ] ] ] ] ] ] ] ] ] ] ] ] ] ] ] ] ] ] ] ] ] ] ] ] ] ] ] ] ] ] ] ] ] ] ] ] ] ] ] ] ] ] ] ] ] ] ] ] ] ] ] ] ] ] ] ] ] ] ] ] ] ] ] ] ] ] ] ] ] ] ] ] ] ] ] ] ] ] ] ] ] ] ] ] ] ] ] ] ] ] ] ] ] ] ] ] ] ] ] ] ] ] ] ] ` ] ] ] ] ;.u.w.p.q.) ^ ^ ^ n L L x z z l l j q _ ;./ ] ] ` ] ] ] ] ] ] ] ] ] ] ] ] ] ] ] ] ] ] ] ] ] ] ] ] ] ] ] ] ] ] ] ] ] ) ` +._ < % ; - / / ] ] ` ` ` ] ` ` ` ` ` ` ` ` h !.1XqX",
"rX6XL.v } ' F X.] ] ] ` ` ` / / ( ] ` ' + * X ; ;.] / ] ] ` / ] ] ] ] ] ] ] ] ] ] ] ] ] ] ] ] ] ] ] ] ] ] ] ] ] ` ` ` ` -.-.>.>.>.>.>.>.-.-.-.-.*.) ] ` ^ n z n x ^ ] ] ` ] ] ` ] ] ] ] ] ] ] ] ] ] ] ] ] ] ] ] ] ] ] ] ] ] ] ] ] ] ] ] ] ] ] ] ] ] ] ] ] ] ] ] ] ] ] ] ] ] ] ] ] ] ] ] ] ] ] ] ] ] ] ] ] ] ] ] ] ] ] ] ] ] ] ] ] ] ] ] ] ] ] ] ] ] ] ] ] ] ] ] ] ] ] ] ] ] ] ] ] ] ] ] ] ] ] ] ] ] ] ] ] ] ] ] ] ] ] ] ] ] ] ] ] ] ] ] ] ] ] ] ] ] ] ] ] ] ] ] ] ` ] ] ] ] ;.u.w.p.q.) ^ ^ ^ n L L x z z l l j q _ ;./ ] ] ` ] ] ] ] ] ] ] ] ] ] ] ] ] ] ] ] ] ] ] ] ] ] ] ] ] ] ] ] ] ] ] ] ] ) ` +._ < % ; - / / ] ] ` ` ` ] ` ` ` ` ` ` ` ` h !.1XqX",
"rX6XL.v } ' F X.] ] ] ` ` ` / / ( ] ` ' + * X ; ;.] / ] ] ` / ] ] ] ] ] ] ] ] ] ] ] ] ] ] ] ] ] ] ] ] ] ] ] ] ] ` ` ` ` -.-.>.>.>.>.>.>.-.-.-.-.*.) ] ` ^ n z n x ^ ] ] ` ] ] ` ] ] ] ] ] ] ] ] ] ] ] ] ] ] ] ] ] ] ] ] ] ] ] ] ] ] ] ] ] ] ] ] ] ] ] ] ] ] ] ] ] ] ] ] ] ] ] ] ] ] ] ] ] ] ] ] ] ] ] ] ] ] ] ] ] ] ] ] ] ] ] ] ] ] ] ] ] ] ] ] ] ] ] ] ] ] ] ] ] ] ] ] ] ] ] ] ] ] ] ] ] ] ] ] ] ] ] ] ] ] ] ] ] ] ] ] ] ] ] ] ] ] ] ] ] ] ] ] ] ] ] ] ] ] ] ] ] ` ] ] ] ] ;.p.w.p.q.) ^ ^ ^ n L L x z z l l j q _ ;./ ] ] ` ] ] ] ] ] ] ] ] ] ] ] ] ] ] ] ] ] ] ] ] ] ] ] ] ] ] ] ] ] ] ] ] ] ) ` +._ < % ; - / / ] ] ` ` ` ] ` ` ` ` ` ` ` ` h !.1XqX",
"rX6XL.v } ' F X.] ] ] ` ` ` / / ( ] ` ' + * X ; ;.] / ] ] ` / ] ] ] ] ] ] ] ] ] ] ] ] ] ] ] ] ] ] ] ] ] ] ] ] ] ` ` ` ` ] >.>.>.>.>.>.>.-.-.-.-.*.) ] ` ^ n z n x ^ ] ] ` ] ] ` ] ] ] ] ] ] ] ] ] ] ] ] ] ] ] ] ] ] ] ] ] ] ] ] ] ] ] ] ] ] ] ] ] ] ] ] ] ] ] ] ] ] ] ] ] ] ] ] ] ] ] ] ] ] ] ] ] ] ] ] ] ] ] ] ] ] ] ] ] ] ] ] ] ] ] ] ] ] ] ] ] ] ] ] ] ] ] ] ] ] ] ] ] ] ] ] ] ] ] ] ] ] ] ] ] ] ] ] ] ] ] ] ] ] ] ] ] ] ] ] ] ] ] ] ] ] ] ] ] ] ] ] ] ] ] ] ] ` ] ] ] ] ;.u.w.p.q.) ^ ^ ^ n L L x z z l l j q _ ;./ ] ] ` ] ] ] ] ] ] ] ] ] ] ] ] ] ] ] ] ] ] ] ] ] ] ] ] ] ] ] ] ] ] ] ] ] ) ` +._ < % ; - / / ] ] ` ` ` ] ` ` ` ` ` ` ` ` h !.1XqX",
"rX6XL.v ..' F X.] ] ] ` ` ` / / ( ] ` ' + * X ; ;.] / ] ] ` / ] ] ] ] ] ] ] ] ] ] ] ] ] ] ] ] ] ] ] ] ] ] ] ] ] ` ` ` ` ` -.>.>.>.>.>.>.-.-.-.-.*.) ] ` ^ n z n x ^ ] ] ` ] ] ` ] ] ] ] ] ] ] ] ] ] ] ] ] ] ] ] ] ] ] ] ] ] ] ] ] ] ] ] ] ] ] ] ] ] ] ] ] ] ] ] ] ] ] ] ] ] ] ] ] ] ] ] ] ] ] ] ] ] ] ] ] ] ] ] ] ] ] ] ] ] ] ] ] ] ] ] ] ] ] ] ] ] ] ] ] ] ] ] ] ] ] ] ] ] ] ] ] ] ] ] ] ] ] ] ] ] ] ] ] ] ] ] ] ] ] ] ] ] ] ] ] ] ] ] ] ] ] ] ] ] ] ] ] ] ] ] ] ` ] ] ] ] ;.u.w.p.q.) ^ ^ ^ n L L x z z l l j q ` ;./ ] ] ` ] ] ] ] ] ] ] ] ] ] ] ] ] ] ] ] ] ] ] ] ] ] ] ] ] ] ] ] ] ] ] ] ] ) ` +._ < % ; - / / ] ] ` ` ` ] ` ` ` ` ` ` ` ` h !.1XqX",
"rX6X`.v } ' F X.] ] ] ` ` ` / / ( ] ` ' + * X ; ;.] / ] ] ` / ] ] ] ] ] ] ] ] ] ] ] ] ] ] ] ] ] ] ] ] ] ] ] ] ] ` ` ` ` ] >.>.>.>.>.>.>.-.-.-.-.*.) -.-.^ n z n x ^ ] ] ` ] ] ` ] ] ] ] ] ] ] ] ] ] ] ] ] ] ] ] ] ] ] ] ] ] ] ] ] ] ] ] ] ] ] ] ] ] ] ] ] ] ] ] ] ] ] ] ] ] ] ] ] ] ] ] ] ] ] ] ] ] ] ] ] ] ] ] ] ] ] ] ] ] ] ] ] ] ] ] ] ] ] ] ] ] ] ] ] ] ] ] ] ] ] ] ] ] ] ] ] ] ] ] ] ] ] ] ] ] ] ] ] ] ] ] ] ] ] ] ] ] ] ] ] ] ] ] ] ] ] ] ] ] ] ] ] ] ] ] ] ` ] ] ] ] ;.u.w.p.q.) ^ ^ ^ n L L x z z l l j q _ <./ ] ] ` ] ] ] ] ] ] ] ] ] ] ] ] ] ] ] ] ] ] ] ] ] ] ] ] ] ] ] ] ] ] ] ] ] ) ` +._ < % ; - / / ] ] ` ` ` ] ` ` ` ` ` ` ` ` h !.1XqX",
"rX6XL.v } ' F X.] ] ] ` ` ` / / ( ] ` ' + * X ; ;.] / ] ] ` / ] ] ] ] ] ] ] ] ] ] ] ] ] ] ] ] ] ] ] ] ] ] ] ] ] ` ` ` ` ] >.>.>.>.>.>.>.-.-.-.-.*.) -.-.^ n z n x ^ ] ] ` ] ] ` ] ] ] ] ] ] ] ] ] ] ] ] ] ] ] ] ] ] ] ] ] ] ] ] ] ] ] ] ] ] ] ] ] ] ] ] ] ] ] ] ] ] ] ] ] ] ] ] ] ] ] ] ] ] ] ] ] ] ] ] ] ] ] ] ] ] ] ] ] ] ] ] ] ] ] ] ] ] ] ] ] ] ] ] ] ] ] ] ] ] ] ] ] ] ] ] ] ] ] ] ] ] ] ] ] ] ] ] ] ] ] ] ] ] ] ] ] ] ] ] ] ] ] ] ] ] ] ] ] ] ] ] ] ] ] ] ] ` ] ] ] ] ;.u.w.p.q.) ^ ^ ^ n L L x z z l l j q _ <./ ] ] ` O.] ] ] ] ] ] ] ] ] ] ] ] ] ] ] ] ] ] ] ] ] ] ] ] ] ] ] ] ] ] ] ] ) ` +._ < % ; - / / ] ] ` ` ` ] ` ` ` ` ` ` ` ` h !.1XqX",
"rX6XL.v } ' F X.] ] ] ` ` ` / / ( -.` ' + * X ; ;.] / ] ] ` / ] ] ] ] ] ] ] ] ] ] ] ] ] ] ] ] ] ] ] ] ] ] ] ] ] ` ` ` ` ] -.>.>.>.>.>.>.-.-.-.-.*.) ] =.^ n z n x ^ ] ] ` ] ] ` ] ] ] ] ] ] ] ] ] ] ] ] ] ] ] ] ] ] ] ] ] ] ] ] ] ] ] ] ] ] ] ] ] ] ] ] ] ] ] ] ] ] ] ] ] ] ] ] ] ] ] ] ] ] ] ] ] ] ] ] ] ] ] ] ] ] ] ] ] ] ] ] ] ] ] ] ] ] ] ] ] ] ] ] ] ] ] ] ] ] ] ] ] ] ] ] ] ] ] ] ] ] ] ] ] ] ] ] ] ] ] ] ] ] ] ] ] ] ] ] ] ] ] ] ] ] ] ] ] ] ] ] ] ] ] ] ] ` ] ] ] ] ;.u.w.p.q.) ^ ^ ^ n L L x z z l l j q _ ;./ ] ] ` O.] ] ] ] ] ] ] ] ] ] ] ] ] ] ] ] ] ] ] ] ] ] ] ] ] ] ] ] ] ] ] ] ) ` +._ < % ; - / / ] ] ` ` ` ] ` ` ` ` ` ` ` ` h !.1XqX",
"rX6XL.v } ' F X.] ] ] ` ` ` / / ( ] ` ' + * X ; ;.] / ] ] ` / ] ] ] ] ] ] ] ] ] ] ] ] ] ] ] ] ] ] ] ] ] ] ] ] ] ` ` ` ` ] >.>.>.>.>.>.>.-.-.-.-.*.) -.` ^ n z n x ^ ] ] ` ] ] ` ] ] ] ] ] ] ] ] ] ] ] ] ] ] ] ] ] ] ] ] ] ] ] ] ] ] ] ] ] ] ] ] ] ] ] ] ] ] ] ] ] ] ] ] ] ] ] ] ] ] ] ] ] ] ] ] ] ] ] ] ] ] ] ] ] ] ] ] ] ] ] ] ] ] ] ] ] ] ] ] ] ] ] ] ] ] ] ] ] ] ] ] ] ] ] ] ] ] ] ] ] ] ] ] ] ] ] ] ] ] ] ] ] ] ] ] ] ] ] ] ] ] ] ] ] ] ] ] ] ] ] ] ] ] ] ] ] ` ] ] ] ] ;.u.w.p.q.) ^ ^ ^ n L L x z z l l j q _ ;./ ] ] ` O.] ] ] ] ] ] ] ] ] ] ] ] ] ] ] ] ] ] ] ] ] ] ] ] ] ] ] ] ] ] ] ] ) ` +._ < % ; - / / ] ] ` ` ` ] ` ` ` ` ` ` ` ` h !.1XqX",
"rX6XL.v ..' F X.] ] ] ` ` ` / / ( -.` ' + * X ; ;.] / ] ] ` / ] ] ] ] ] ] ] ] ] ] ] ] ] ] ] ] ] ] ] ] ] ] ] ] ] ` ` ` ` ` -.>.>.>.>.>.>.-.-.-.-.*.) ] ` ^ n z n x ^ ] ] ` ] ] ` ] ] ] ] ] ] ] ] ] ] ] ] ] ] ] ] ] ] ] ] ] ] ] ] ] ] ] ] ] ] ] ] ] ] ] ] ] ] ] ] ] ] ] ] ] ] ] ] ] ] ] ] ] ] ] ] ] ] ] ] ] ] ] ] ] ] ] ] ] ] ] ] ] ] ] ] ] ] ] ] ] ] ] ] ] ] ] ] ] ] ] ] ] ] ] ] ] ] ] ] ] ] ] ] ] ] ] ] ] ] ] ] ] ] ] ] ] ] ] ] ] ] ] ] ] ] ] ] ] ] ] ] ] ] ] ] ] ` ] ] ] ] ;.u.w.p.q.) ^ ^ ^ n L L x z z l l j q _ ;./ ] ] ` ] ] ] ] ] ] ] ] ] ] ] ] ] ] ] ] ] ] ] ] ] ] ] ] ] ] ] ] ] ] ] ] ] ) ` +._ < % ; - / / ] ] ` ` ` ] ` ` ` ` ` ` ` ` h !.1XqX",
"rX6XL.v ..' F X.] ] ] ` ` ` / / ( -.` ' + * X ; ;.] / ] ] ` / ] ] ] ] ] ] ] ] ] ] ] ] ] ] ] ] ] ] ] ] ] ] ] ] ] ` ` ` ` ` -.>.>.>.>.>.>.-.-.-.-.*.) ] =.^ n z n x ^ ] ] ` ] ] ` ] ] ] ] ] ] ] ] ] ] ] ] ] ] ] ] ] ] ] ] ] ] ] ] ] ] ] ] ] ] ] ] ] ] ] ] ] ] ] ] ] ] ] ] ] ] ] ] ] ] ] ] ] ] ] ] ] ] ] ] ] ] ] ] ] ] ] ] ] ] ] ] ] ] ] ] ] ] ] ] ] ] ] ] ] ] ] ] ] ] ] ] ] ] ] ] ] ] ] ] ] ] ] ] ] ] ] ] ] ] ] ] ] ] ] ] ] ] ] ] ] ] ] ] ] ] ] ] ] ] ] ] ] ] ] ] ] ` ] ] ] ] ;.u.w.p.q.) ^ ^ ^ n L L x z z l l j q _ ;./ ] ] ` ] ] ] ] ] ] ] ] ] ] ] ] ] ] ] ] ] ] ] ] ] ] ] ] ] ] ] ] ] ] ] ] ] ) ` +._ < % ; - / / ] ] ` ` ` ] ` ` ` ` ` ` ` ` h !.1XqX",
"rX6XL.v } ' F X.] ] ] ` ` ` / / ( -.` ' + * X ; ;.] / ] ] ` / ] ] ] ] ] ] ] ] ] ] ] ] ] ] ] ] ] ] ] ] ] ] ] ] ] ` ` ` ` -.-.>.>.>.>.>.>.-.-.-.-.*.) ] ] ^ n z n x ^ ] ] ` ] ] ` ] ] ] ] ] ] ] ] ] ] ] ] ] ] ] ] ] ] ] ] ] ] ] ] ] ] ] ] ] ] ] ] ] ] ] ] ] ] ] ] ] ] ] ] ] ] ] ] ] ] ] ] ] ] ] ] ] ] ] ] ] ] ] ] ] ] ] ] ] ] ] ] ] ] ] ] ] ] ] ] ] ] ] ] ] ] ] ] ] ] ] ] ] ] ] ] ] ] ] ] ] ] ] ] ] ] ] ] ] ] ] ] ] ] ] ] ] ] ] ] ] ] ] ] ] ] ] ] ] ] ] ] ] ] ] ] ] ` ] ] ] ] ;.u.w.p.q.) ^ ^ ^ n L L x z z l l j q _ >./ ] ] ` ] ] ] ] ] ] ] ] ] ] ] ] ] ] ] ] ] ] ] ] ] ] ] ] ] ] ] ] ] ] ] ] ] ) ` +._ < % ; - / / ] ] ` ` ` ] ` ` ` ` ` ` ` ` h !.1XqX",
"rX6XL.v } ' F X.] ] ] ` ` ` / / ( ] ` ' + * X ; ;.] / ] ] ` / ] ] ] ] ] ] ] ] ] ] ] ] ] ] ] ] ] ] ] ] ] ] ] ] ] ` ` ` ` -.-.>.>.>.>.>.>.-.-.-.-.*.) ] -.^ n z n x / ] ] ` ] ] ` ] ] ] ] ] ] ] ] ] ] ] ] ] ] ] ] ] ] ] ] ] ] ] ] ] ] ] ] ] ] ] ] ] ] ] ] ] ] ] ] ] ] ] ] ] ] ] ] ] ] ] ] ] ] ] ] ] ] ] ] ] ] ] ] ] ] ] ] ] ] ] ] ] ] ] ] ] ] ] ] ] ] ] ] ] ] ] ] ] ] ] ] ] ] ] ] ] ] ] ] ] ] ] ] ] ] ] ] ] ] ] ] ] ] ] ] ] ] ] ] ] ] ] ] ] ] ] ] ] ] ] ] ] ] ] ] ] ` ] ] ] ] ;.u.w.p.q.) ^ ^ ^ n L L x z z l l j q _ >.) ] ] ` ] ] ] ] ] ] ] ] ] ] ] ] ] ] ] ] ] ] ] ] ] ] ] ] ] ] ] ] ] ] ] ] ] ) ` +._ < % ; - / / ] ] ` ` ` ] ` ` ` ` ` ` ` ` h !.1XqX",
"rX6XL.v } ' F X.] ] ] ` ` ` / / ( -.` ' + * X ; ;.] / ] ] ` / ] ] ] ] ] ] ] ] ] ] ] ] ] ] ] ] ] ] ] ] ] ] ] ] ] ` ` ` ` -.-.>.>.>.>.>.>.-.-.-.-.*.) -.-.^ n z n x ^ ] ] ` ] ] ` ] ] ] ] ] ] ] ] ] ] ] ] ] ] ] ] ] ] ] ] ] ] ] ] ] ] ] ] ] ] ] ] ] ] ] ] ] ] ] ] ] ] ] ] ] ] ] ] ] ] ] ] ] ] ] ] ] ] ] ] ] ] ] ] ] ] ] ] ] ] ] ] ] ] ] ] ] ] ] ] ] ] ] ] ] ] ] ] ] ] ] ] ] ] ] ] ] ] ] ] ] ] ] ] ] ] ] ] ] ] ] ] ] ] ] ] ] ] ] ] ] ] ] ] ] ] ] ] ] ] ] ] ] ] ] ] ] ` ] ] ] ] ;.u.w.p.q.) ^ ^ ^ n L L x z z l l j q _ ;./ ] ] ` ] ] ] ] ] ] ] ] ] ] ] ] ] ] ] ] ] ] ] ] ] ] ] ] ] ] ] ] ] ] ] ] ] ) ` +._ < % ; - / / ] ] ` ` ` ] ` ` ` ` ` ` ` ` h !.1XqX",
"rX6XL.v } ' F X.] ] ] ` ` ` / / ( -.` ' + * X ; ;.] / ] ] ` / ] ] ] ] ] ] ] ] ] ] ] ] ] ] ] ] ] ] ] ] ] ] ] ] ] ` ` ` ` -.-.>.>.>.>.>.>.-.-.-.-.*.) -.] ^ n z n x ^ ] ] ` ] ] ` ] ] ] ] ] ] ] ] ] ] ] ] ] ] ] ] ] ] ] ] ] ] ] ] ] ] ] ] ] ] ] ] ] ] ] ] ] ] ] ] ] ] ] ] ] ] ] ] ] ] ] ] ] ] ] ] ] ] ] ] ] ] ] ] ] ] ] ] ] ] ] ] ] ] ] ] ] ] ] ] ] ] ] ] ] ] ] ] ] ] ] ] ] ] ] ] ] ] ] ] ] ] ] ] ] ] ] ] ] ] ] ] ] ] ] ] ] ] ] ] ] ] ] ] ] ] ] ] ] ] ] ] ] ] ] ] ] ` ] ] ] ] ;.p.w.p.q.) ^ ^ ^ n L L x z z l l j q _ ;./ ] ] ` ] ] ] ] ] ] ] ] ] ] ] ] ] ] ] ] ] ] ] ] ] ] ] ] ] ] ] ] ] ] ] ] ] ) ` +._ < % ; - / / ] ] ` ` ` ] ` ` ` ` ` ` ` ` h !.1XqX",
"rX6X`.v } ' F X.] ] ] ` ` ` / / ( ] ` ' + * X ; ;.] / ] ] ` / ] ] ] ] ] ] ] ] ] ] ] ] ] ] ] ] ] ] ] ] ] ] ] ] ] ` ` ` ` ] >.>.>.>.>.>.-.-.-.-.-.*.) -.-.^ n z n x ^ ] ] ` ] ] ` ] ] ] ] ] ] ] ] ] ] ] ] ] ] ] ] ] ] ] ] ] ] ] ] ] ] ] ] ] ] ] ] ] ] ] ] ] ] ] ] ] ] ] ] ] ] ] ] ] ] ] ] ] ] ] ] ] ] ] ] ] ] ] ] ] ] ] ] ] ] ] ] ] ] ] ] ] ] ] ] ] ] ] ] ] ] ] ] ] ] ] ] ] ] ] ] ] ] ] ] ] ] ] ] ] ] ] ] ] ] ] ] ] ] ] ] ] ] ] ] ] ] ] ] ] ] ] ] ] ] ] ] ] ] ] ] ] ` ] ] ] ] ;.u.w.p.q.) ^ ^ ^ n L L x z z l l j q ` ;./ ] ] ` ] ] ] ] ] ] ] ] ] ] ] ] ] ] ] ] ] ] ] ] ] ] ] ] ] ] ] ] ] ] ] ] ] ) ` +._ < % ; - / / ] ] ` ` ` ] ` ` ` ` ` ` ` ` h !.1XqX",
"rX6X`.v } ' F X.] ] ] ` ` ` / / ( ] ` ' + * X ; ;.] / ] ] ` / ] ] ] ] ] ] ] ] ] ] ] ] ] ] ] ] ] ] ] ] ] ] ] ] ] ` ` ` ` ` -.>.>.>.>.>.>.-.-.-.-.*.) -.=.^ n z n x ^ ] ] ` ] ] ` ] ] ] ] ] ] ] ] ] ] ] ] ] ] ] ] ] ] ] ] ] ] ] ] ] ] ] ] ] ] ] ] ] ] ] ] ] ] ] ] ] ] ] ] ] ] ] ] ] ] ] ] ] ] ] ] ] ] ] ] ] ] ] ] ] ] ] ] ] ] ] ] ] ] ] ] ] ] ] ] ] ] ] ] ] ] ] ] ] ] ] ] ] ] ] ] ] ] ] ] ] ] ] ] ] ] ] ] ] ] ] ] ] ] ] ] ] ] ] ] ] ] ] ] ] ] ] ] ] ] ] ] ] ] ] ] ] ` ] ] ] ] ;.u.w.p.q.) ^ ^ ^ n L L x z z l l j q ` ;./ ] ] ` ] ] ] ] ] ] ] ] ] ] ] ] ] ] ] ] ] ] ] ] ] ] ] ] ] ] ] ] ] ] ] ] ] ) ` +._ < % ; - / / ] ] ` ` ` ] ` ` ` ` ` ` ` ` h !.1XqX",
"rX6XL.v } ' F X.] ] ] ` ` ` / / ( ] ` ' + * X ; ;.] / ] ] ` / ] ] ] ] ] ] ] ] ] ] ] ] ] ] ] ] ] ] ] ] ] ] ] ] ] ` ` ` ` ] >.>.>.>.>.>.>.-.-.-.-.*.) -.=.^ n z n x ^ ] ] ` ] ] ` ] ] ] ] ] ] ] ] ] ] ] ] ] ] ] ] ] ] ] ] ] ] ] ] ] ] ] ] ] ] ] ] ] ] ] ] ] ] ] ] ] ] ] ] ] ] ] ] ] ] ] ] ] ] ] ] ] ] ] ] ] ] ] ] ] ] ] ] ] ] ] ] ] ] ] ] ] ] ] ] ] ] ] ] ] ] ] ] ] ] ] ] ] ] ] ] ] ] ] ] ] ] ] ] ] ] ] ] ] ] ] ] ] ] ] ] ] ] ] ] ] ] ] ] ] ] ] ] ] ] ] ] ] ] ] ] ] ` ] ] ] ] ;.u.w.p.q.) ^ ^ ^ n L L x z z l l j q _ <.) ] ] ` ] ] ] ] ] ] ] ] ] ] ] ] ] ] ] ] ] ] ] ] ] ] ] ] ] ] ] ] ] ] ] ] ] ) ` +._ < % ; - / / ] ] ` ` ` ] ` ` ` ` ` ` ` ` h !.1XqX",
"rX6XL.v } ' F X.] ] ] ` ` ` / / ( ] ` ' + * X ; ;.] / ] ] ` / ] ] ] ] ] ] ] ] ] ] ] ] ] ] ] ] ] ] ] ] ] ] ] ] ] ` ` ` ` ] >.>.>.>.>.>.>.-.-.-.-.*.) -.-.^ n z n x ^ ] ] ` ] ] ` ] ] ] ] ] ] ] ] ] ] ] ] ] ] ] ] ] ] ] ] ] ] ] ] ] ] ] ] ] ] ] ] ] ] ] ] ] ] ] ] ] ] ] ] ] ] ] ] ] ] ] ] ] ] ] ] ] ] ] ] ] ] ] ] ] ] ] ] ] ] ] ] ] ] ] ] ] ] ] ] ] ] ] ] ] ] ] ] ] ] ] ] ] ] ] ] ] ] ] ] ] ] ] ] ] ] ] ] ] ] ] ] ] ] ] ] ] ] ] ] ] ] ] ] ] ] ] ] ] ] ] ] ] ] ] ] ] ` ] ] ] ] ;.u.w.p.q.) ^ ^ ^ n L L x z z l l j q _ <./ ] ] ` O.] ] ] ] ] ] ] ] ] ] ] ] ] ] ] ] ] ] ] ] ] ] ] ] ] ] ] ] ] ] ] ] ) ` +._ < % ; X / / ] ] ` ` ` ] ` ` ` ` ` ` ` ` h !.1XqX",
"rX6XL.v } ' F X.] ] ] ` ` ` / / ( -.` ' + * X ; ;.] / ] ] ` / ] ] ] ] ] ] ] ] ] ] ] ] ] ] ] ] ] ] ] ] ] ] ] ] ] ` ` ` ` ] -.>.>.>.>.>.>.-.-.-.-.*.) ] ` ^ n z n x ^ ] ] ` ] ] ` ] ] ] ] ] ] ] ] ] ] ] ] ] ] ] ] ] ] ] ] ] ] ] ] ] ] ] ] ] ] ] ] ] ] ] ] ] ] ] ] ] ] ] ] ] ] ] ] ] ] ] ] ] ] ] ] ] ] ] ] ] ] ] ] ] ] ] ] ] ] ] ] ] ] ] ] ] ] ] ] ] ] ] ] ] ] ] ] ] ] ] ] ] ] ] ] ] ] ] ] ] ] ] ] ] ] ] ] ] ] ] ] ] ] ] ] ] ] ] ] ] ] ] ] ] ] ] ] ] ] ] ] ] ] ] ] ] ` ] ] ] ] ;.u.w.p.q.) ^ ^ ^ n L L x z z l l j q _ ;./ ] ] ` O.] ] ] ] ] ] ] ] ] ] ] ] ] ] ] ] ] ] ] ] ] ] ] ] ] ] ] ] ] ] ] ] ) ` +._ < % ; - / / ] ] ` ` ` ] ` ` ` ` ` ` ` ` h !.1XqX",
"rX6XL.v } ' F X.] ] ] ` ` ` / / ( ] ` ' + * X ; ;.] / ] ] ` / ] ] ] ] ] ] ] ] ] ] ] ] ] ] ] ] ] ] ] ] ] ] ] ] ] ` ` ` ` ] >.>.>.>.>.>.>.-.-.-.-.*.) ] ` ^ n z n x ^ ] ] ` ] ] ` ] ] ] ] ] ] ] ] ] ] ] ] ] ] ] ] ] ] ] ] ] ] ] ] ] ] ] ] ] ] ] ] ] ] ] ] ] ] ] ] ] ] ] ] ] ] ] ] ] ] ] ] ] ] ] ] ] ] ] ] ] ] ] ] ] ] ] ] ] ] ] ] ] ] ] ] ] ] ] ] ] ] ] ] ] ] ] ] ] ] ] ] ] ] ] ] ] ] ] ] ] ] ] ] ] ] ] ] ] ] ] ] ] ] ] ] ] ] ] ] ] ] ] ] ] ] ] ] ] ] ] ] ] ] ] ] ] ` ] ] ] ] ;.u.w.p.q.) ^ ^ ^ n L L x z z l l j q _ <./ ] ] ` O.] ] ] ] ] ] ] ] ] ] ] ] ] ] ] ] ] ] ] ] ] ] ] ] ] ] ] ] ] ] ] ] ) ` +._ < % ; - / / ] ] ` ` ` ] ` ` ` ` ` ` ` ` h !.1XqX",
"rX6XL.v } ' F X.] ] ] ` ` ` / / ( -.` ' + * X ; ;.] / ] ] ` / ] ] ] ] ] ] ] ] ] ] ] ] ] ] ] ] ] ] ] ] ] ] ] ] ] ` ` ` ` ` -.>.>.>.>.>.>.-.-.-.-.*.) -.] ^ n z n x ^ ] ] ` ] ] ` ] ] ] ] ] ] ] ] ] ] ] ] ] ] ] ] ] ] ] ] ] ] ] ] ] ] ] ] ] ] ] ] ] ] ] ] ] ] ] ] ] ] ] ] ] ] ] ] ] ] ] ] ] ] ] ] ] ] ] ] ] ] ] ] ] ] ] ] ] ] ] ] ] ] ] ] ] ] ] ] ] ] ] ] ] ] ] ] ] ] ] ] ] ] ] ] ] ] ] ] ] ] ] ] ] ] ] ] ] ] ] ] ] ] ] ] ] ] ] ] ] ] ] ] ] ] ] ] ] ] ] ] ] ] ] ] ] ` ] ] ] ] ;.u.w.p.q.) ^ ^ ^ n L L x z z l l j q _ <./ ] ] ` ] ] ] ] ] ] ] ] ] ] ] ] ] ] ] ] ] ] ] ] ] ] ] ] ] ] ] ] ] ] ] ] ] ) ` +._ < % ; - / / ] ] ` ` ` ] ` ` ` ` ` ` ` ` h !.1XqX",
"rX6XL.v } ' F X.] ] ] ` ` ` / / ( -.` ' + * X ; ;.] / ] ] ` / ] ] ] ] ] ] ] ] ] ] ] ] ] ] ] ] ] ] ] ] ] ] ] ] ] ` ` ` ` ` -.>.>.>.>.>.>.-.-.-.-.*.) ] ] ^ n z n x ^ ] ] ` ] ] ` ] ] ] ] ] ] ] ] ] ] ] ] ] ] ] ] ] ] ] ] ] ] ] ] ] ] ] ] ] ] ] ] ] ] ] ] ] ] ] ] ] ] ] ] ] ] ] ] ] ] ] ] ] ] ] ] ] ] ] ] ] ] ] ] ] ] ] ] ] ] ] ] ] ] ] ] ] ] ] ] ] ] ] ] ] ] ] ] ] ] ] ] ] ] ] ] ] ] ] ] ] ] ] ] ] ] ] ] ] ] ] ] ] ] ] ] ] ] ] ] ] ] ] ] ] ] ] ] ] ] ] ] ] ] ] ] ] ` ] ] ] ] ;.u.w.p.q.) ^ ^ ^ n L L x z z l l w q _ >./ ] ] ` ] ] ] ] ] ] ] ] ] ] ] ] ] ] ] ] ] ] ] ] ] ] ] ] ] ] ] ] ] ] ] ] ] ) ` +._ < % ; - / / ] ] ` ` ` ] ` ` ` ` ` ` ` ` h !.1XqX",
"rX6XL.v } ' F X.] ] ] ` ` ` / / ( -.` ' + * X ; ;.] / ] ] ` / ] ] ] ] ] ] ] ] ] ] ] ] ] ] ] ] ] ] ] ] ] ] ] ] ] ` ` ` ` -.-.>.>.>.>.>.>.-.-.-.-.*.) ] ` ^ n z n x ^ ] ] ` ] ] ` ] ] ] ] ] ] ] ] ] ] ] ] ] ] ] ] ] ] ] ] ] ] ] ] ] ] ] ] ] ] ] ] ] ] ] ] ] ] ] ] ] ] ] ] ] ] ] ] ] ] ] ] ] ] ] ] ] ] ] ] ] ] ] ] ] ] ] ] ] ] ] ] ] ] ] ] ] ] ] ] ] ] ] ] ] ] ] ] ] ] ] ] ] ] ] ] ] ] ] ] ] ] ] ] ] ] ] ] ] ] ] ] ] ] ] ] ] ] ] ] ] ] ] ] ] ] ] ] ] ] ] ] ] ] ] ] ] ` ] ] ] ] ;.u.w.p.q.) ^ ^ ^ n L L x z z l l j q _ ;./ ] ] ` ] ] ] ] ] ] ] ] ] ] ] ] ] ] ] ] ] ] ] ] ] ] ] ] ] ] ] ] ] ] ] ] ] ) ` +._ < % ; - / / ] ] ` ` ` ] ` ` ` ` ` ` ` ` h !.1XqX",
"rX6XL.v } ' F X.] ] ] ` ` ` / / ( ] ` ' + * X ; ;.] / ] ] ` / ] ] ] ] ] ] ] ] ] ] ] ] ] ] ] ] ] ] ] ] ] ] ] ] ] ` ` ` ` -.-.>.>.>.>.>.>.-.-.-.-.*.) ] ` ^ n z n x / ] ] ` ] ] ] ] ] ] ] ] ] ] ] ] ] ] ] ] ] ] ] ] ] ] ] ] ] ] ] ] ] ] ] ] ] ] ] ] ] ] ] ] ] ] ] ] ] ] ] ] ] ] ] ] ] ] ] ] ] ] ] ] ] ] ] ] ] ] ] ] ] ] ] ] ] ] ] ] ] ] ] ] ] ] ] ] ] ] ] ] ] ] ] ] ] ] ] ] ] ] ] ] ] ] ] ] ] ] ] ] ] ] ] ] ] ] ] ] ] ] ] ] ] ] ] ] ] ] ] ] ] ] ] ] ] ] ] ] ] ] ] ] ` ] ] ] ] ;.u.w.p.q.) ^ ^ ^ n L L x z z l l j q _ ;./ ] ] ` ] ] ] ] ] ] ] ] ] ] ] ] ] ] ] ] ] ] ] ] ] ] ] ] ] ] ] ] ] ] ] ] ] ) ` +._ < % ; - / / ] ] ` ` ` ] ` ` ` ` ` ` ` ` h !.1XqX",
"rX6XL.v } ' F X.] ] ] ` ` ` / / ( -.` ' + * X ; ;.] / ] ] ` / ] ] ] ] ] ] ] ] ] ] ] ] ] ] ] ] ] ] ] ] ] ] ] ] ] ` ` ` ` -.-.>.>.>.>.>.>.-.-.-.-.*.) ] -.^ n z n x ^ ] ] ` ] ] ` ] ] ] ] ] ] ] ] ] ] ] ] ] ] ] ] ] ] ] ] ] ] ] ] ] ] ] ] ] ] ] ] ] ] ] ] ] ] ] ] ] ] ] ] ] ] ] ] ] ] ] ] ] ] ] ] ] ] ] ] ] ] ] ] ] ] ] ] ] ] ] ] ] ] ] ] ] ] ] ] ] ] ] ] ] ] ] ] ] ] ] ] ] ] ] ] ] ] ] ] ] ] ] ] ] ] ] ] ] ] ] ] ] ] ] ] ] ] ] ] ] ] ] ] ] ] ] ] ] ] ] ] ] ] ] ] ] ` ] ] ] ] ;.u.w.p.q.) ^ ^ ^ n L L x z z l l j q _ ;./ ] ] ` ] ] ] ] ] ] ] ] ] ] ] ] ] ] ] ] ] ] ] ] ] ] ] ] ] ] ] ] ] ] ] ] ] ) ` +._ < % ; - / / ] ] ` ` ` ] ` ` ` ` ` ` ` ` h !.1XqX",
"rX6XL.v } ' F X.] ] ] ` ` ` / / ( ] ` ' + * X ; ;.] / ] ] ` / ] ] ] ] ] ] ] ] ] ] ] ] ] ] ] ] ] ] ] ] ] ] ] ] ] ` ` ` ` -.-.>.>.>.>.>.>.-.-.-.-.*.) -.-.^ n z n x ^ ] ] ` ] ] ` ] ] ] ] ] ] ] ] ] ] ] ] ] ] ] ] ] ] ] ] ] ] ] ] ] ] ] ] ] ] ] ] ] ] ] ] ] ] ] ] ] ] ] ] ] ] ] ] ] ] ] ] ] ] ] ] ] ] ] ] ] ] ] ] ] ] ] ] ] ] ] ] ] ] ] ] ] ] ] ] ] ] ] ] ] ] ] ] ] ] ] ] ] ] ] ] ] ] ] ] ] ] ] ] ] ] ] ] ] ] ] ] ] ] ] ] ] ] ] ] ] ] ] ] ] ] ] ] ] ] ] ] ] ] ] ] ] ` ] ] ] ] ;.p.w.p.q.) ^ ^ ^ n L L x z z l l j q _ ;./ ] ] ` ] ] ] ] ] ] ] ] ] ] ] ] ] ] ] ] ] ] ] ] ] ] ] ] ] ] ] ] ] ] ] ] ] ) ` +._ < % ; - / / ] ] ` ` ` ] ` ` ` ` ` ` ` ` h !.1XqX",
"rX6XL.v } ' F X.] ] ] ` ] ] / / ( ] ` ' + * X ; ;.] / ] ] ` / ] ] ] ] ] ] ] ] ] ] ] ] ] ] ] ] ] ] ] ] ] ] ] ] ] ` ` ` ` ] >.>.>.>.>.>.>.-.-.-.-.*.) -.-.^ n z n x ^ ] ] ` ] ] ` ] ] ] ] ] ] ] ] ] ] ] ] ] ] ] ] ] ] ] ] ] ] ] ] ] ] ] ] ] ] ] ] ] ] ] ] ] ] ] ] ] ] ] ] ] ] ] ] ] ] ] ] ] ] ] ] ] ] ] ] ] ] ] ] ] ] ] ] ] ] ] ] ] ] ] ] ] ] ] ] ] ] ] ] ] ] ] ] ] ] ] ] ] ] ] ] ] ] ] ] ] ] ] ] ] ] ] ] ] ] ] ] ] ] ] ] ] ] ] ] ] ] ] ] ] ] ] ] ] ] ] ] ] ] ] ] ] ` ] ] ] ] ;.u.w.p.q.) ^ ^ ^ n L L x z z l l j q _ ;./ ] ] ` ] ] ] ] ] ] ] ] ] ] ] ] ] ] ] ] ] ] ] ] ] ] ] ] ] ] ] ] ] ] ] ] ] ) ` +._ < % ; - / / ] ] ` ` ` ] ` ` ` ` ` ` ` ` h !.1XqX",
"rX6XL.v ..' F X.] ] ] ` ] ] / / ( ] ` ' + * X ; ;.] / ] ] ` / ] ] ] ] ] ] ] ] ] ] ] ] ] ] ] ] ] ] ] ] ] ] ] ] ] ` ` ` ` ` -.>.>.>.>.>.>.-.-.-.-.*.) -.-.^ n z n x ^ ] ] ` ] ] ` ] ] ] ] ] ] ] ] ] ] ] ] ] ] ] ] ] ] ] ] ] ] ] ] ] ] ] ] ] ] ] ] ] ] ] ] ] ] ] ] ] ] ] ] ] ] ] ] ] ] ] ] ] ] ] ] ] ] ] ] ] ] ] ] ] ] ] ] ] ] ] ] ] ] ] ] ] ] ] ] ] ] ] ] ] ] ] ] ] ] ] ] ] ] ] ] ] ] ] ] ] ] ] ] ] ] ] ] ] ] ] ] ] ] ] ] ] ] ] ] ] ] ] ] ] ] ] ] ] ] ] ] ] ] ] ] ] ` ] ] ] ] ;.u.w.p.q.) ^ ^ ^ n L L x z z l l j q ` ;./ ] ] ` ] ] ] ] ] ] ] ] ] ] ] ] ] ] ] ] ] ] ] ] ] ] ] ] ] ] ] ] ] ] ] ] ] ) ` +._ < % ; - / / ] ] ` ` ` ] ` ` ` ` ` ` ` ` h !.1XqX",
"rX6X`.v } ' F X.] ] ] ` ] ` / / ( ] ` ' + * X ; ;.] / ] ] ` / ] ] ] ] ] ] ] ] ] ] ] ] ] ] ] ] ] ] ] ] ] ] ] ] ] ` ` ` ` ] >.>.>.>.>.>.>.-.-.-.-.*.) -.] ^ n z n x ^ ] ] ` ] ] ` ] ] ] ] ] ] ] ] ] ] ] ] ] ] ] ] ] ] ] ] ] ] ] ] ] ] ] ] ] ] ] ] ] ] ] ] ] ] ] ] ] ] ] ] ] ] ] ] ] ] ] ] ] ] ] ] ] ] ] ] ] ] ] ] ] ] ] ] ] ] ] ] ] ] ] ] ] ] ] ] ] ] ] ] ] ] ] ] ] ] ] ] ] ] ] ] ] ] ] ] ] ] ] ] ] ] ] ] ] ] ] ] ] ] ] ] ] ] ] ] ] ] ] ] ] ] ] ] ] ] ] ] ] ] ] ] ] ` ] ] ] ] ;.u.w.p.q.) ^ ^ ^ n L L x z z l l j q _ <./ ] ] ` ] ] ] ] ] ] ] ] ] ] ] ] ] ] ] ] ] ] ] ] ] ] ] ] ] ] ] ] ] ] ] ] ] ) ` +._ < % ; - / / ] ] ` ` ` ] ` ` ` ` ` ` ` ` h !.1XqX",
"rX6XL.v } ' F X.] ] ] ` ` ` / / ( ] ` ' + * X ; ;.] / ] ] ` / ] ] ] ] ] ] ] ] ] ] ] ] ] ] ] ] ] ] ] ] ] ] ] ] ] ` ` ` ` ] >.>.>.>.>.>.>.-.-.-.-.*.) ] ] ^ n x n x ^ ] ] ` ] ] ` ] ] ] ] ] ] ] ] ] ] ] ] ] ] ] ] ] ] ] ] ] ] ] ] ] ] ] ] ] ] ] ] ] ] ] ] ] ] ] ] ] ] ] ] ] ] ] ] ] ] ] ] ] ] ] ] ] ] ] ] ] ] ] ] ] ] ] ] ] ] ] ] ] ] ] ] ] ] ] ] ] ] ] ] ] ] ] ] ] ] ] ] ] ] ] ] ] ] ] ] ] ] ] ] ] ] ] ] ] ] ] ] ] ] ] ] ] ] ] ] ] ] ] ] ] ] ] ] ] ] ] ] ] ] ] ] ] ` ] ] ] ] ;.u.w.p.q.) ^ ^ ^ n L L x z z l l j q _ <./ ] ] ` O.] ] ] ] ] ] ] ] ] ] ] ] ] ] ] ] ] ] ] ] ] ] ] ] ] ] ] ] ] ] ] ] ) ` +._ < % ; - / / ] ] ` ` ` ] ` ` ` ` ` ` ` ` h !.1XqX",
"rX6XL.v } ' F X.] ] ] ` ` ` / / ( ] ` ' + * X ; ;.] / ] ] ` / ] ] ] ] ] ] ] ] ] ] ] ] ] ] ] ] ] ] ] ] ] ] ] ] ] ` ` ` ` ] -.>.>.>.>.>.>.-.-.-.-.*.) ] =.^ n z n x ^ ] ] ` ] ] ` ] ] ] ] ] ] ] ] ] ] ] ] ] ] ] ] ] ] ] ] ] ] ] ] ] ] ] ] ] ] ] ] ] ] ] ] ] ] ] ] ] ] ] ] ] ] ] ] ] ] ] ] ] ] ] ] ] ] ] ] ] ] ] ] ] ] ] ] ] ] ] ] ] ] ] ] ] ] ] ] ] ] ] ] ] ] ] ] ] ] ] ] ] ] ] ] ] ] ] ] ] ] ] ] ] ] ] ] ] ] ] ] ] ] ] ] ] ] ] ] ] ] ] ] ] ] ] ] ] ] ] ] ] ] ] ] ] ` ] ] ] ] ;.u.w.p.q.) ^ ^ ^ n L L x z z l l j q _ ;./ ] ] ` O.] ] ] ] ] ] ] ] ] ] ] ] ] ] ] ] ] ] ] ] ] ] ] ] ] ] ] ] ] ] ] ] ) ` +._ < % ; - / / ] ] ` ` ` ] ` ` ` ` ` ` ` ` h !.1XqX",
"rX6XL.v } ' F X.] ] ] ` ` ` / / ( -.` ' + * X ; ;.] / ] ] ` / ] ] ] ] ] ] ] ] ] ] ] ] ] ] ] ] ] ] ] ] ] ] ] ] ] ` ` ` ` ] >.>.>.>.>.>.>.-.-.-.-.*.) -.` ^ n z n x ^ ] ] ` ] ] ` ] ] ] ] ] ] ] ] ] ] ] ] ] ] ] ] ] ] ] ] ] ] ] ] ] ] ] ] ] ] ] ] ] ] ] ] ] ] ] ] ] ] ] ] ] ] ] ] ] ] ] ] ] ] ] ] ] ] ] ] ] ] ] ] ] ] ] ] ] ] ] ] ] ] ] ] ] ] ] ] ] ] ] ] ] ] ] ] ] ] ] ] ] ] ] ] ] ] ] ] ] ] ] ] ] ] ] ] ] ] ] ] ] ] ] ] ] ] ] ] ] ] ] ] ] ] ] ] ] ] ] ] ] ] ] ] ] ` ] ] ] ] ;.u.w.p.q.) ^ ^ ^ n L L x z z l l j q _ ;./ ] ] ` O.] ] ] ] ] ] ] ] ] ] ] ] ] ] ] ] ] ] ] ] ] ] ] ] ] ] ] ] ] ] ] ] ) ` +._ < % ; - / / ] ] ` ` ` ] ` ` ` ` ` ` ` ` h !.1XqX",
"rX6XL.v ..' F X.] ] ] ` ` ` / / ( -.` ' + * X ; ;.] / ] ] ` / ] ] ] ] ] ] ] ] ] ] ] ] ] ] ] ] ] ] ] ] ] ] ] ] ] ` ` ` ` ` -.>.>.>.>.>.>.-.-.-.-.*.) ] =.^ n z n x ^ ] ] ` ] ] ` ] ] ] ] ] ] ] ] ] ] ] ] ] ] ] ] ] ] ] ] ] ] ] ] ] ] ] ] ] ] ] ] ] ] ] ] ] ] ] ] ] ] ] ] ] ] ] ] ] ] ] ] ] ] ] ] ] ] ] ] ] ] ] ] ] ] ] ] ] ] ] ] ] ] ] ] ] ] ] ] ] ] ] ] ] ] ] ] ] ] ] ] ] ] ] ] ] ] ] ] ] ] ] ] ] ] ] ] ] ] ] ] ] ] ] ] ] ] ] ] ] ] ] ] ] ] ] ] ] ] ] ] ] ] ] ] ] ` ] ] ] ] ;.u.w.p.q.) ^ ^ ^ n L L x z z l l j q _ ;./ ] ] ` ] ] ] ] ] ] ] ] ] ] ] ] ] ] ] ] ] ] ] ] ] ] ] ] ] ] ] ] ] ] ] ] ] ) ` +._ < % ; - / / ] ] ` ` ` ] ` ` ` ` ` ` ` ` h !.1XqX",
"rX6XL.v ..' F X.] ] ] ` ` ` / / ) -.` ' + * X ; ;.] / ] ] ` / ] ] ] ] ] ] ] ] ] ] ] ] ] ] ] ] ] ] ] ] ] ] ] ] ] ` ` ` ` ` -.>.>.>.>.>.>.-.-.-.-.*.) -.` ^ n z n x ^ ] ] ` ] ] ` ] ] ] ] ] ] ] ] ] ] ] ] ] ] ] ] ] ] ] ] ] ] ] ] ] ] ] ] ] ] ] ] ] ] ] ] ] ] ] ] ] ] ] ] ] ] ] ] ] ] ] ] ] ] ] ] ] ] ] ] ] ] ] ] ] ] ] ] ] ] ] ] ] ] ] ] ] ] ] ] ] ] ] ] ] ] ] ] ] ] ] ] ] ] ] ] ] ] ] ] ] ] ] ] ] ] ] ] ] ] ] ] ] ] ] ] ] ] ] ] ] ] ] ] ] ] ] ] ] ] ] ] ] ] ] ] ] ` ] ] ] ] ;.u.w.p.q.) ^ ^ ^ n L L x z z l l j q _ ;./ ] ] ` ] ] ] ] ] ] ] ] ] ] ] ] ] ] ] ] ] ] ] ] ] ] ] ] ] ] ] ] ] ] ] ] ] ) ` +._ < % ; - / / ] ] ` ` ` ] ` ` ` ` ` ` ` ` h !.1XqX",
"rX6XL.v } ' F X.] ] ] ` ` ` / / ( ] ` ' + * X ; ;.] / ] ] ` / ] ] ] ] ] ] ] ] ] ] ] ] ] ] ] ] ] ] ] ] ] ] ] ] ] ` ` ` ` -.-.>.>.>.>.>.>.-.-.-.-.*.) -.` ^ n z n x ^ ] ] ` ] ] ` ] ] ] ] ] ] ] ] ] ] ] ] ] ] ] ] ] ] ] ] ] ] ] ] ] ] ] ] ] ] ] ] ] ] ] ] ] ] ] ] ] ] ] ] ] ] ] ] ] ] ] ] ] ] ] ] ] ] ] ] ] ] ] ] ] ] ] ] ] ] ] ] ] ] ] ] ] ] ] ] ] ] ] ] ] ] ] ] ] ] ] ] ] ] ] ] ] ] ] ] ] ] ] ] ] ] ] ] ] ] ] ] ] ] ] ] ] ] ] ] ] ] ] ] ] ] ] ] ] ] ] ] ] ] ] ] ] ` ] ] ] ] ;.u.w.p.q.) ^ ^ ^ n L L x z z l l j q _ >./ ] ] ` ] ] ] ] ] ] ] ] ] ] ] ] ] ] ] ] ] ] ] ] ] ] ] ] ] ] ] ] ] ] ] ] ] ) ` +._ < % ; - / / ] ] ` ` ` ] ` ` ` ` ` ` ` ` h !.1XqX",
"rX6XL.v } ' F X.] ] ] ` ` ` / / ( ] ` ' + * X ; ;.] / ] ] ` / ] ] ] ] ] ] ] ] ] ] ] ] ] ] ] ] ] ] ] ] ] ] ] ] ] ` ` ` ` -.-.>.>.>.>.>.>.-.-.-.-.*.) -.-.^ n z n x ^ ] ] ` ] ] ` ] ] ] ] ] ] ] ] ] ] ] ] ] ] ] ] ] ] ] ] ] ] ] ] ] ] ] ] ] ] ] ] ] ] ] ] ] ] ] ] ] ] ] ] ] ] ] ] ] ] ] ] ] ] ] ] ] ] ] ] ] ] ] ] ] ] ] ] ] ] ] ] ] ] ] ] ] ] ] ] ] ] ] ] ] ] ] ] ] ] ] ] ] ] ] ] ] ] ] ] ] ] ] ] ] ] ] ] ] ] ] ] ] ] ] ] ] ] ] ] ] ] ] ] ] ] ] ] ] ] ] ] ] ] ] ] ] ` ] ] ] ] ;.u.w.p.q.) ^ ^ ^ n L L x z z l l j q _ >.) ] ] ` ] ] ] ] ] ] ] ] ] ] ] ] ] ] ] ] ] ] ] ] ] ] ] ] ] ] ] ] ] ] ] ] ] ) ` +._ < % ; - / / ] ] ` ` ` ] ` ` ` ` ` ` ` ` h !.1XqX",
"rX6XL.v } ' F X.] ] ] ` ` ` / / ( ] ` ' + * X ; ;.] / ] ] ` / ] ] ] ] ] ] ] ] ] ] ] ] ] ] ] ] ] ] ] ] ] ] ] ] ] ` ` ` ` -.-.>.>.>.>.>.>.-.-.-.-.*.) -.=.^ n z n x ^ ] ] ` ] ] ` ] ] ] ] ] ] ] ] ] ] ] ] ] ] ] ] ] ] ] ] ] ] ] ] ] ] ] ] ] ] ] ] ] ] ] ] ] ] ] ] ] ] ] ] ] ] ] ] ] ] ] ] ] ] ] ] ] ] ] ] ] ] ] ] ] ] ] ] ] ] ] ] ] ] ] ] ] ] ] ] ] ] ] ] ] ] ] ] ] ] ] ] ] ] ] ] ] ] ] ] ] ] ] ] ] ] ] ] ] ] ] ] ] ] ] ] ] ] ] ] ] ] ] ] ] ] ] ] ] ] ] ] ] ] ] ] ] ` ] ] ] ] ;.u.w.p.q.) ^ ^ ^ n L L x z z l l j q _ ;./ ] ] ` ] ] ] ] ] ] ] ] ] ] ] ] ] ] ] ] ] ] ] ] ] ] ] ] ] ] ] ] ] ] ] ] ] ) ` +._ < % ; - / / ] ] ` ` ` ] ` ` ` ` ` ` ` ` h !.1XqX",
"rX6XL.v } ' F X.] ] ] ` ` ` / / ( ] ` ' + * X ; ;.] / ] ] ` / ] ] ] ] ] ] ] ] ] ] ] ] ] ] ] ] ] ] ] ] ] ] ] ] ] ` ` ` ` -.-.>.>.>.>.>.>.-.-.-.-.*.) -.-.^ n z n x ^ ] ] ` ] ] ` ] ] ] ] ] ] ] ] ] ] ] ] ] ] ] ] ] ] ] ] ] ] ] ] ] ] ] ] ] ] ] ] ] ] ] ] ] ] ] ] ] ] ] ] ] ] ] ] ] ] ] ] ] ] ] ] ] ] ] ] ] ] ] ] ] ] ] ] ] ] ] ] ] ] ] ] ] ] ] ] ] ] ] ] ] ] ] ] ] ] ] ] ] ] ] ] ] ] ] ] ] ] ] ] ] ] ] ] ] ] ] ] ] ] ] ] ] ] ] ] ] ] ] ] ] ] ] ] ] ] ] ] ] ] ] ] ] ` ] ] ] ] ;.p.w.p.q.) ^ ^ ^ n L L x z z l l j q _ ;./ ] ] ` ] ] ] ] ] ] ] ] ] ] ] ] ] ] ] ] ] ] ] ] ] ] ] ] ] ] ] ] ] ] ] ] ] ) ` +._ < % ; - / / ] ] ` ` ` ] ` ` ` ` ` ` ` ` h !.1XqX",
"rX6X`.v } ' F X.] ] ] ` ` ` / / ( ] ` ' + * X ; ;.] / ] ] ` / ] ] ] ] ] ] ] ] ] ] ] ] ] ] ] ] ] ] ] ] ] ] ] ] ] ` ` ` ` ] >.>.>.>.>.>.-.-.-.-.-.*.) ] ] ^ n z n x ^ ] ] ` ] ] ` ] ] ] ] ] ] ] ] ] ] ] ] ] ] ] ] ] ] ] ] ] ] ] ] ] ] ] ] ] ] ] ] ] ] ] ] ] ] ] ] ] ] ] ] ] ] ] ] ] ] ] ] ] ] ] ] ] ] ] ] ] ] ] ] ] ] ] ] ] ] ] ] ] ] ] ] ] ] ] ] ] ] ] ] ] ] ] ] ] ] ] ] ] ] ] ] ] ] ] ] ] ] ] ] ] ] ] ] ] ] ] ] ] ] ] ] ] ] ] ] ] ] ] ] ] ] ] ] ] ] ] ] ] ] ] ] ] ` ] ] ] ] ;.u.w.p.q.) ^ ^ ^ n L L x z z l l j q ` ;./ ] ] ` ] ] ] ] ] ] ] ] ] ] ] ] ] ] ] ] ] ] ] ] ] ] ] ] ] ] ] ] ] ] ] ] ] ) ` +._ < % ; - / / ] ] ` ` ` ] ` ` ` ` ` ` ` ` h !.1XqX",
"rX6X`.v } ' F X.] ] ] ` ` ` / / ( -.` ' + * X ; ;.] / ] ] ` / ] ] ] ] ] ] ] ] ] ] ] ] ] ] ] ] ] ] ] ] ] ] ] ] ] ` ` ` ` ` -.>.>.>.>.>.-.-.-.-.-.*.) -.] ^ n z n x ^ ] ] ` ] ] ` ] ] ] ] ] ] ] ] ] ] ] ] ] ] ] ] ] ] ] ] ] ] ] ] ] ] ] ] ] ] ] ] ] ] ] ] ] ] ] ] ] ] ] ] ] ] ] ] ] ] ] ] ] ] ] ] ] ] ] ] ] ] ] ] ] ] ] ] ] ] ] ] ] ] ] ] ] ] ] ] ] ] ] ] ] ] ] ] ] ] ] ] ] ] ] ] ] ] ] ] ] ] ] ] ] ] ] ] ] ] ] ] ] ] ] ] ] ] ] ] ] ] ] ] ] ] ] ] ] ] ] ] ] ] ] ] ] ` ] ] ] ] ;.u.w.p.q.) ^ ^ ^ n L L x z z l l j q ` ;./ ] ] ` ] ] ] ] ] ] ] ] ] ] ] ] ] ] ] ] ] ] ] ] ] ] ] ] ] ] ] ] ] ] ] ] ] ) ` +._ < % ; - / / ] ] ` ` ` ] ` ` ` ` ` ` ` ` h !.1XqX",
"rX6XL.v } ' F X.] ] ] ` ` ` / / ( -.` ' + * X ; ;.] / ] ] ` / ] ] ] ] ] ] ] ] ] ] ] ] ] ] ] ] ] ] ] ] ] ] ] ] ] ` ` ` ` ] >.>.>.>.>.-.-.-.-.-.-.*.) -.] ^ n z n x ^ ] ] ` ] ] ` ] ] ] ] ] ] ] ] ] ] ] ] ] ] ] ] ] ] ] ] ] ] ] ] ] ] ] ] ] ] ] ] ] ] ] ] ] ] ] ] ] ] ] ] ] ] ] ] ] ] ] ] ] ] ] ] ] ] ] ] ] ] ] ] ] ] ] ] ] ] ] ] ] ] ] ] ] ] ] ] ] ] ] ] ] ] ] ] ] ] ] ] ] ] ] ] ] ] ] ] ] ] ] ] ] ] ] ] ] ] ] ] ] ] ] ] ] ] ] ] ] ] ] ] ] ] ] ] ] ] ] ] ] ] ] ] ] ` ] ] ] ] ;.u.w.p.q.) ^ ^ ^ n L L x z z l l j q _ <.) ] ] ` ] ] ] ] ] ] ] ] ] ] ] ] ] ] ] ] ] ] ] ] ] ] ] ] ] ] ] ] ] ] ] ] ] ) ` +._ < % ; - / / ] ] ` ` ` ] ` ` ` ` ` ` ` ` h !.1XqX",
"rX6XL.v } ' F X.] ] ] ` ` ` / / ) -.` ' + * X ; ;.] / ] ] ` / ] ] ] ] ] ] ] ] ] ] ] ] ] ] ] ] ] ] ] ] ] ] ] ] ] ` ` ` ` ] >.>.>.>.>.-.-.-.-.-.-.*.) ] ] ^ n z n x ^ ] ] ` ] ] ` ] ] ] ] ] ] ] ] ] ] ] ] ] ] ] ] ] ] ] ] ] ] ] ] ] ] ] ] ] ] ] ] ] ] ] ] ] ] ] ] ] ] ] ] ] ] ] ] ] ] ] ] ] ] ] ] ] ] ] ] ] ] ] ] ] ] ] ] ] ] ] ] ] ] ] ] ] ] ] ] ] ] ] ] ] ] ] ] ] ] ] ] ] ] ] ] ] ] ] ] ] ] ] ] ] ] ] ] ] ] ] ] ] ] ] ] ] ] ] ] ] ] ] ] ] ] ] ] ] ] ] ] ] ] ] ] ] ` ] ] ] ] ;.u.w.p.q.) ^ ^ ^ n L L x z z l l j q _ <./ ] ] ` O.] ] ] ] ] ] ] ] ] ] ] ] ] ] ] ] ] ] ] ] ] ] ] ] ] ] ] ] ] ] ] ] ) ` +._ < % ; - / / ] ] ` ` ` ] ` ` ` ` ` ` ` ` h !.1XqX",
"rX6XL.v } ' F X.] ] ] ` ` ` / / ( ] ` ' + * X ; ;.] / ] ] ` / ] ] ] ] ] ] ] ] ] ] ] ] ] ] ] ] ] ] ] ] ] ] ] ] ] ` ` ` ` ] -.>.>.>.>.>.>.-.-.-.-.*.) -.` ^ n z n x ^ ] ] ` ] ] ` ] ] ] ] ] ] ] ] ] ] ] ] ] ] ] ] ] ] ] ] ] ] ] ] ] ] ] ] ] ] ] ] ] ] ] ] ] ] ] ] ] ] ] ] ] ] ] ] ] ] ] ] ] ] ] ] ] ] ] ] ] ] ] ] ] ] ] ] ] ] ] ] ] ] ] ] ] ] ] ] ] ] ] ] ] ] ] ] ] ] ] ] ] ] ] ] ] ] ] ] ] ] ] ] ] ] ] ] ] ] ] ] ] ] ] ] ] ] ] ] ] ] ] ] ] ] ] ] ] ] ] ] ] ] ] ] ] ` ] ] ] ] ;.u.w.p.q.) ^ ^ ^ n L L x z z l l j q _ ;./ ] ] ` O.] ] ] ] ] ] ] ] ] ] ] ] ] ] ] ] ] ] ] ] ] ] ] ] ] ] ] ] ] ] ] ] ) ` +._ < % ; - / / ] ] ` ` ` ] ` ` ` ` ` ` ` ` h !.1XqX",
"rX6XL.v } ' F X.] ] ] ` ` ` / / ( ] ` ' + * X ; ;.] / ] ] ` / ] ] ] ] ] ] ] ] ] ] ] ] ] ] ] ] ] ] ] ] ] ] ] ] ] ` ` ` ` ] >.>.>.>.>.>.>.-.-.-.-.*.) -.-.^ n z n x ^ ] ] ` ] ] ` ] ] ] ] ] ] ] ] ] ] ] ] ] ] ] ] ] ] ] ] ] ] ] ] ] ] ] ] ] ] ] ] ] ] ] ] ] ] ] ] ] ] ] ] ] ] ] ] ] ] ] ] ] ] ] ] ] ] ] ] ] ] ] ] ] ] ] ] ] ] ] ] ] ] ] ] ] ] ] ] ] ] ] ] ] ] ] ] ] ] ] ] ] ] ] ] ] ] ] ] ] ] ] ] ] ] ] ] ] ] ] ] ] ] ] ] ] ] ] ] ] ] ] ] ] ] ] ] ] ] ] ] ] ] ] ] ] ` ] ] ] ] ;.u.w.p.q.) ^ ^ ^ n L L x z z l l j q _ <./ ] ] ` O.] ] ] ] ] ] ] ] ] ] ] ] ] ] ] ] ] ] ] ] ] ] ] ] ] ] ] ] ] ] ] ] ) ` +._ < % ; - / / ] ] ` ` ` ] ` ` ` ` ` ` ` ` h !.1XqX",
"rX6XL.v } ' F X.] ] ] ` ` ` / / ( ] ` ' + * X ; ;.] / ] ] ` / ] ] ] ] ] ] ] ] ] ] ] ] ] ] ] ] ] ] ] ] ] ] ] ] ] ` ` ` ` ` -.>.>.>.>.>.>.-.-.-.-.*.) -.=.^ n z n x ^ ] ] ` ] ] ` ] ] ] ] ] ] ] ] ] ] ] ] ] ] ] ] ] ] ] ] ] ] ] ] ] ] ] ] ] ] ] ] ] ] ] ] ] ] ] ] ] ] ] ] ] ] ] ] ] ] ] ] ] ] ] ] ] ] ] ] ] ] ] ] ] ] ] ] ] ] ] ] ] ] ] ] ] ] ] ] ] ] ] ] ] ] ] ] ] ] ] ] ] ] ] ] ] ] ] ] ] ] ] ] ] ] ] ] ] ] ] ] ] ] ] ] ] ] ] ] ] ] ] ] ] ] ] ] ] ] ] ] ] ] ] ] ] ` ] ] ] ] ;.u.w.p.q.) ^ ^ ^ n L L x z l l l j q _ <./ ] ] ` ] ] ] ] ] ] ] ] ] ] ] ] ] ] ] ] ] ] ] ] ] ] ] ] ] ] ] ] ] ] ] ] ] ) ` +._ < % ; - / / ] ] ` ` ` ] ` ` ` ` ` ` ` ` h !.1XqX",
"rX6XL.v } ' F X.] ] ] ` ` ` / / ( ] ` ' + * X ; ;.] / ] ] ` / ] ] ] ] ] ] ] ] ] ] ] ] ] ] ] ] ] ] ] ] ] ] ] ] ] ` ` ` ` ` -.>.>.>.>.>.>.-.-.-.-.*.) -.-.^ n z n x ^ ] ] ` ] ] ` ] ] ] ] ] ] ] ] ] ] ] ] ] ] ] ] ] ] ] ] ] ] ] ] ] ] ] ] ] ] ] ] ] ] ] ] ] ] ] ] ] ] ] ] ] ] ] ] ] ] ] ] ] ] ] ] ] ] ] ] ] ] ] ] ] ] ] ] ] ] ] ] ] ] ] ] ] ] ] ] ] ] ] ] ] ] ] ] ] ] ] ] ] ] ] ] ] ] ] ] ] ] ] ] ] ] ] ] ] ] ] ] ] ] ] ] ] ] ] ] ] ] ] ] ] ] ] ] ] ] ] ] ] ] ] ] ] ` ] ] ] ] ;.u.w.p.q.) ^ ^ ^ n L L x z z l l w q _ >./ ] ] ` ] ] ] ] ] ] ] ] ] ] ] ] ] ] ] ] ] ] ] ] ] ] ] ] ] ] ] ] ] ] ] ] ] ) ` +._ < % ; - / / ] ] ` ` ` ] ` ` ` ` ` ` ` ` h !.1XqX",
"rX6XL.v } ' F X.` ` ` ` ` ` ` ` ) ) ' ' @ ; X X ;.] / ] ] ` / ] ] ] ] ] ] ] ] ] ] ] ] ] ] ] ] ] ] ] ] ] ] ] ] ] ` ` ` ` -.-.>.>.>.>.>.>.-.-.-.-.*.) -.-.^ n z n x ^ ] ] ` ] ] ` ] ] ] ] ] ] ] ] ] ] ] ] ] ] ] ] ] ] ] ] ] ] ] ] ] ] ] ] ] ] ] ] ] ] ] ] ] ] ] ] ] ] ] ] ] ] ] ] ] ] ] ] ] ] ] ] ] ] ] ] ] ] ] ] ] ] ] ] ] ] ] ] ] ] ] ] ] ] ] ] ] ] ] ] ] ] ] ] ] ] ] ] ] ] ] ] ] ] ] ] ] ] ] ] ] ] ] ] ] ] ] ] ] ] ] ] ] ] ] ] ] ] ] ] ] ] ] ] ] ] ] ] ] ] ] ] ] ` ] ] ] ] ;.u.w.p.q.) ^ ^ ^ n L L x z z l l j q _ ;./ ] ] ` ] ] ] ] ] ] ] ] ] ] ] ] ] ] ] ] ] ] ] ] ] ] ] ] ] ] ] ] ] ] ] ] ] ) ` +._ < % ; - / / ] ] ` ` ` ] ` ` ` ` ` ` ` ` h !.5XqX",
"rX6XL.v } ' F X.` ` ` ` ` ` ` ` ) ) ' ' @ ; X ; ;.] / ] ] ` / ] ] ] ] ] ] ] ] ] ] ] ] ] ] ] ] ] ] ] ] ] ] ] ] ] ` ` ` ` -.-.>.>.>.>.>.>.-.-.-.-.*.) -.-.^ n z n x ^ ] ] ` ] ] ` ] ] ] ] ] ] ] ] ] ] ] ] ] ] ] ] ] ] ] ] ] ] ] ] ] ] ] ] ] ] ] ] ] ] ] ] ] ] ] ] ] ] ] ] ] ] ] ] ] ] ] ] ] ] ] ] ] ] ] ] ] ] ] ] ] ] ] ] ] ] ] ] ] ] ] ] ] ] ] ] ] ] ] ] ] ] ] ] ] ] ] ] ] ] ] ] ] ] ] ] ] ] ] ] ] ] ] ] ] ] ] ] ] ] ] ] ] ] ] ] ] ] ] ] ] ] ] ] ] ] ] ] ] ] ] ] ] ` ] ] ] ] ;.u.w.p.q.) ^ ^ ^ n L L x z z l l j q _ ;./ ] ] ` ] ] ] ] ] ] ] ] ] ] ] ] ] ] ] ] ] ] ] ] ] ] ] ] ] ] ] ] ] ] ] ] ] ) ` +._ < % ; - / / ] ] ` ` ` ] ` ` ` ` ` ` ` ` h !.5XqX",
"rX6XL.v } ' F X.` ` ` ` ` ` ` ` ) ) ' ' @ ; X ; ;.] / ] ] ` / ] ] ] ] ] ] ] ] ] ] ] ] ] ] ] ] ] ] ] ] ] ] ] ] ] ` ` ` ` -.-.>.>.>.>.>.>.-.-.-.-.*.) ] ` ^ n z n x ^ ] ] ` ] ] ` ] ] ] ] ] ] ] ] ] ] ] ] ] ] ] ] ] ] ] ] ] ] ] ] ] ] ] ] ] ] ] ] ] ] ] ] ] ] ] ] ] ] ] ] ] ] ] ] ] ] ] ] ] ] ] ] ] ] ] ] ] ] ] ] ] ] ] ] ] ] ] ] ] ] ] ] ] ] ] ] ] ] ] ] ] ] ] ] ] ] ] ] ] ] ] ] ] ] ] ] ] ] ] ] ] ] ] ] ] ] ] ] ] ] ] ] ] ] ] ] ] ] ] ] ] ] ] ] ] ] ] ] ] ] ] ] ] ` ] ] ] ] ;.u.w.p.q.) ^ ^ ^ n L L x z z l l j q _ ;./ ] ] ` ] ] ] ] ] ] ] ] ] ] ] ] ] ] ] ] ] ] ] ] ] ] ] ] ] ] ] ] ] ] ] ] ] ) ` +._ < % ; - / / ] ] ` ` ` ] ` ` ` ` ` ` ` ` h !.5XqX",
"rX6XL.v } ' F X.` ` ` ` ` ` ` ` ) ) ' ' @ ; X ; ;.] / ] ] ` / ] ] ] ] ] ] ] ] ] ] ] ] ] ] ] ] ] ] ] ] ] ] ] ] ] ` ` ` ` -.-.>.>.>.>.>.>.-.-.-.-.*.) ] ` ^ n z n x ^ ] ] ` ] ] ` ] ] ] ] ] ] ] ] ] ] ] ] ] ] ] ] ] ] ] ] ] ] ] ] ] ] ] ] ] ] ] ] ] ] ] ] ] ] ] ] ] ] ] ] ] ] ] ] ] ] ] ] ] ] ] ] ] ] ] ] ] ] ] ] ] ] ] ] ] ] ] ] ] ] ] ] ] ] ] ] ] ] ] ] ] ] ] ] ] ] ] ] ] ] ] ] ] ] ] ] ] ] ] ] ] ] ] ] ] ] ] ] ] ] ] ] ] ] ] ] ] ] ] ] ] ] ] ] ] ] ] ] ] ] ] ] ] ` ] ] ] ] ;.u.w.p.q.) ^ ^ ^ n L L x z z l l j q _ ;./ ] ] ` ] ] ] ] ] ] ] ] ] ] ] ] ] ] ] ] ] ] ] ] ] ] ] ] ] ] ] ] ] ] ] ] ] ) ` +._ < % ; - / / ] ] ` ` ` ] ` ` ` ` ` ` ` ` h !.5XqX",
"rX6XL.v } ' F X.` ` ` ` ` ` ` ` ) ) ' ' @ ; X ; ;.] / ] ] ` / ] ] ] ] ] ] ] ] ] ] ] ] ] ] ] ] ] ] ] ] ] ] ] ] ] ` ` ` ` ] >.>.>.>.>.>.>.-.-.-.-.*.) ] ` ^ n z n x ^ ] ] ` ] ] ` ] ] ] ] ] ] ] ] ] ] ] ] ] ] ] ] ] ] ] ] ] ] ] ] ] ] ] ] ] ] ] ] ] ] ] ] ] ] ] ] ] ] ] ] ] ] ] ] ] ] ] ] ] ] ] ] ] ] ] ] ] ] ] ] ] ] ] ] ] ] ] ] ] ] ] ] ] ] ] ] ] ] ] ] ] ] ] ] ] ] ] ] ] ] ] ] ] ] ] ] ] ] ] ] ] ] ] ] ] ] ] ] ] ] ] ] ] ] ] ] ] ] ] ] ] ] ] ] ] ] ] ] ] ] ] ] ] ` ] ] ] ] ;.u.w.p.q.) ^ ^ ^ n L L x z z l l j q _ ;./ ] ] ` ] ] ] ] ] ] ] ] ] ] ] ] ] ] ] ] ] ] ] ] ] ] ] ] ] ] ] ] ] ] ] ] ] ) ` +._ < % ; - / / ] ] ` ` ` ] ` ` ` ` ` ` ` ` h !.5XqX",
"rX6XL.v ..' F X.` ` ` ` ` ` ` ` ) ) ' ' @ ; X ; ;.] / ] ] ` / ] ] ] ] ] ] ] ] ] ] ] ] ] ] ] ] ] ] ] ] ] ] ] ] ] ` ` ` ` ` -.>.>.>.>.>.>.-.-.-.-.*.) ] ` ^ n z n x ^ ] ] ` ] ] ` ] ] ] ] ] ] ] ] ] ] ] ] ] ] ] ] ] ] ] ] ] ] ] ] ] ] ] ] ] ] ] ] ] ] ] ] ] ] ] ] ] ] ] ] ] ] ] ] ] ] ] ] ] ] ] ] ] ] ] ] ] ] ] ] ] ] ] ] ] ] ] ] ] ] ] ] ] ] ] ] ] ] ] ] ] ] ] ] ] ] ] ] ] ] ] ] ] ] ] ] ] ] ] ] ] ] ] ] ] ] ] ] ] ] ] ] ] ] ] ] ] ] ] ] ] ] ] ] ] ] ] ] ] ] ] ] ] ` ] ] ] ] ;.u.w.p.q.) ^ ^ ^ n L L x z z l l j q ` ;./ ] ] ` ] ] ] ] ] ] ] ] ] ] ] ] ] ] ] ] ] ] ] ] ] ] ] ] ] ] ] ] ] ] ] ] ] ) ` +._ < % ; - / / ] ] ` ` ` ] ` ` ` ` ` ` ` ` h !.5XqX",
"rX6X`.v } ' F X.` ` ` ` ` ` ` ` ) ) ' ' @ ; X ; ;.] / ] ] ` / ] ] ] ] ] ] ] ] ] ] ] ] ] ] ] ] ] ] ] ] ] ] ] ] ] ` ` ` ` ] >.>.>.>.>.>.>.-.-.-.-.*.) -.-.^ n z n x ^ ] ] ` ] ] ` ] ] ] ] ] ] ] ] ] ] ] ] ] ] ] ] ] ] ] ] ] ] ] ] ] ] ] ] ] ] ] ] ] ] ] ] ] ] ] ] ] ] ] ] ] ] ] ] ] ] ] ] ] ] ] ] ] ] ] ] ] ] ] ] ] ] ] ] ] ] ] ] ] ] ] ] ] ] ] ] ] ] ] ] ] ] ] ] ] ] ] ] ] ] ] ] ] ] ] ] ] ] ] ] ] ] ] ] ] ] ] ] ] ] ] ] ] ] ] ] ] ] ] ] ] ] ] ] ] ] ] ] ] ] ] ] ] ` ] ] ] ] ;.u.w.p.q.) ^ ^ ^ n L L x z z l l j q _ <./ ] ] ` ] ] ] ] ] ] ] ] ] ] ] ] ] ] ] ] ] ] ] ] ] ] ] ] ] ] ] ] ] ] ] ] ] ) ` +._ < % ; - / / ] ] ` ` ` ] ` ` ` ` ` ` ` ` h !.5XqX",
"rX6XL.v } ' F X.` ` ` ` ` ` ` ` ) ) ' ' @ ; X ; ;.] / ] ] ` / ] ] ] ] ] ] ] ] ] ] ] ] ] ] ] ] ] ] ] ] ] ] ] ] ] ` ` ` ` ] >.>.>.>.>.>.>.-.-.-.-.*.) -.-.^ n z n x ^ ] ] ` ] ] ` ] ] ] ] ] ] ] ] ] ] ] ] ] ] ] ] ] ] ] ] ] ] ] ] ] ] ] ] ] ] ] ] ] ] ] ] ] ] ] ] ] ] ] ] ] ] ] ] ] ] ] ] ] ] ] ] ] ] ] ] ] ] ] ] ] ] ] ] ] ] ] ] ] ] ] ] ] ] ] ] ] ] ] ] ] ] ] ] ] ] ] ] ] ] ] ] ] ] ] ] ] ] ] ] ] ] ] ] ] ] ] ] ] ] ] ] ] ] ] ] ] ] ] ] ] ] ] ] ] ] ] ] ] ] ] ] ] ` ] ] ] ] ;.u.w.p.q.) ^ ^ ^ n L L x z z l l j q _ <./ ] ] ` O.] ] ] ] ] ] ] ] ] ] ] ] ] ] ] ] ] ] ] ] ] ] ] ] ] ] ] ] ] ] ] ] ) ` +._ < % ; - / / ] ] ` ` ` ] ` ` ` ` ` ` ` ` h !.5XqX",
"rX9X_.v } ' G X.` ` ` ` ` ` ` ` ) ( ^ ' @ * X ; ;.] / ] ] ` / ] ] ] ] ] ] ] ] ] ] ] ] ] ] ] ] ] ] ] ] ] ] ] ] ] ` ` ` ` ] -.>.>.>.>.>.>.-.-.-.-.*.) ] =.^ n z n x ^ ] ] ` ] ] ` ] ] ] ] ] ] ] ] ] ] ] ] ] ] ] ] ] ] ] ] ] ] ] ] ] ] ] ] ] ] ] ] ] ] ] ] ] ] ] ] ] ] ] ] ] ] ] ] ] ] ] ] ] ] ] ] ] ] ] ] ] ] ] ] ] ] ] ] ] ] ] ] ] ] ] ] ] ] ] ] ] ] ] ] ] ] ] ] ] ] ] ] ] ] ] ] ] ] ] ] ] ] ] ] ] ] ] ] ] ] ] ] ] ] ] ] ] ] ] ] ] ] ] ] ] ] ] ] ] ] ] ] ] ] ] ] ] ` ] ] ] ] ;.u.w.p.q.) ^ ^ ^ n L L x z z l l j q _ ;./ ] ] ` O.] ] ] ] ] ] ] ] ] ] ] ] ] ] ] ] ] ] ] ] ] ] ] ] ] ] ] ] ] ] ] ] ) ` +._ < % ; - / / ] ] ` ` ` ] ` ` ` ` ` ` ` ` h T.2X0X",
"rX9X_.v } ' G X.` ` ` ` ` ` ` ` ) ( ^ X.& * X ; ;.] / ] ] ` / ] ] ] ] ] ] ] ] ] ] ] ] ] ] ] ] ] ] ] ] ] ] ] ] ] ` ` ` ` ] >.>.>.>.>.>.>.-.-.-.-.*.) -.` ^ n z n x ^ ] ] ` ] ] ` ] ] ] ] ] ] ] ] ] ] ] ] ] ] ] ] ] ] ] ] ] ] ] ] ] ] ] ] ] ] ] ] ] ] ] ] ] ] ] ] ] ] ] ] ] ] ] ] ] ] ] ] ] ] ] ] ] ] ] ] ] ] ] ] ] ] ] ] ] ] ] ] ] ] ] ] ] ] ] ] ] ] ] ] ] ] ] ] ] ] ] ] ] ] ] ] ] ] ] ] ] ] ] ] ] ] ] ] ] ] ] ] ] ] ] ] ] ] ] ] ] ] ] ] ] ] ] ] ] ] ] ] ] ] ] ] ] ` ] ] ] ] ;.u.w.p.q.) ^ ^ ^ n L L x z z l l j q _ ;./ ] ] ` O.] ] ] ] ] ] ] ] ] ] ] ] ] ] ] ] ] ] ] ] ] ] ] ] ] ] ] ] ] ] ] ] ) ` +._ < % ; - / / ] ] ` ` ` ] ` ` ` ` ` ` ` ` h T.2X0X",
"rX9X_.v } ' G X.` ` ` ` ` ` ` ` ) ( ^ X.& ; X ; ;.] / ] ] ` / ] ] ] ] ] ] ] ] ] ] ] ] ] ] ] ] ] ] ] ] ] ] ] ] ] ` ` ` ` ` -.>.>.>.>.>.>.-.-.-.-.*.) ] ` ^ n z n x ^ ] ] ` ] ] ` ] ] ] ] ] ] ] ] ] ] ] ] ] ] ] ] ] ] ] ] ] ] ] ] ] ] ] ] ] ] ] ] ] ] ] ] ] ] ] ] ] ] ] ] ] ] ] ] ] ] ] ] ] ] ] ] ] ] ] ] ] ] ] ] ] ] ] ] ] ] ] ] ] ] ] ] ] ] ] ] ] ] ] ] ] ] ] ] ] ] ] ] ] ] ] ] ] ] ] ] ] ] ] ] ] ] ] ] ] ] ] ] ] ] ] ] ] ] ] ] ] ] ] ] ] ] ] ] ] ] ] ] ] ] ] ] ] ` ] ] ] ] ;.u.w.p.q.) ^ ^ ^ n L L x z z l l j q _ ;./ ] ] ` ] ] ] ] ] ] ] ] ] ] ] ] ] ] ] ] ] ] ] ] ] ] ] ] ] ] ] ] ] ] ] ] ] ) ` +._ < % ; - / / ] ] ` ` ` ] ` ` ` ` ` ` ` ` h T.2X0X",
"rX9X_.v } ' G X.` ` ` ` ` ` ` ` ) ( ^ X.& ; X ; ;.] / ] ] ` / ] ] ] ] ] ] ] ] ] ] ] ] ] ] ] ] ] ] ] ] ] ] ] ] ] ` ` ` ` ` -.>.>.>.>.>.>.-.-.-.-.*.) ] =.^ n z n x ^ ] ] ` ] ] ` ] ] ] ] ] ] ] ] ] ] ] ] ] ] ] ] ] ] ] ] ] ] ] ] ] ] ] ] ] ] ] ] ] ] ] ] ] ] ] ] ] ] ] ] ] ] ] ] ] ] ] ] ] ] ] ] ] ] ] ] ] ] ] ] ] ] ] ] ] ] ] ] ] ] ] ] ] ] ] ] ] ] ] ] ] ] ] ] ] ] ] ] ] ] ] ] ] ] ] ] ] ] ] ] ] ] ] ] ] ] ] ] ] ] ] ] ] ] ] ] ] ] ] ] ] ] ] ] ] ] ] ] ] ] ] ] ] ` ] ] ] ] ;.u.w.p.q.) ^ ^ ^ n L L x z z l l j q _ ;./ ] ] ` ] ] ] ] ] ] ] ] ] ] ] ] ] ] ] ] ] ] ] ] ] ] ] ] ] ] ] ] ] ] ] ] ] ) ` +._ < % ; - / / ] ] ` ` ` ] ` ` ` ` ` ` ` ` h T.2X0X",
"rX9X_.v ..' G X.` ` ` ` ` ` ` ` ) ( ^ X.& ; X ; ;.] / ] ] ` / ] ] ] ] ] ] ] ] ] ] ] ] ] ] ] ] ] ] ] ] ] ] ] ] ] ` ` ` ` -.-.>.>.>.>.>.>.-.-.-.-.*.) ] ] ^ n z n x ^ ] ] ` ] ] ` ] ] ] ] ] ] ] ] ] ] ] ] ] ] ] ] ] ] ] ] ] ] ] ] ] ] ] ] ] ] ] ] ] ] ] ] ] ] ] ] ] ] ] ] ] ] ] ] ] ] ] ] ] ] ] ] ] ] ] ] ] ] ] ] ] ] ] ] ] ] ] ] ] ] ] ] ] ] ] ] ] ] ] ] ] ] ] ] ] ] ] ] ] ] ] ] ] ] ] ] ] ] ] ] ] ] ] ] ] ] ] ] ] ] ] ] ] ] ] ] ] ] ] ] ] ] ] ] ] ] ] ] ] ] ] ] ] ` ] ] ] ] ;.u.w.p.q.) ^ ^ ^ n L L x z z l l j q _ >./ ] ] ` ] ] ] ] ] ] ] ] ] ] ] ] ] ] ] ] ] ] ] ] ] ] ] ] ] ] ] ] ] ] ] ] ] ) ` +._ < % ; - / / ] ] ` ` ` ] ` ` ` ` ` ` ` ` h T.2X0X",
"rX9X_.v ..' G X.` ` ` ` ` ` ` ` ) ( _ X.& ; X ; ;.] / ] ] ` / ] ] ] ] ] ] ] ] ] ] ] ] ] ] ] ] ] ] ] ] ] ] ] ] ] ` ` ` ` -.-.>.>.>.>.>.>.-.-.-.-.*.) ] -.^ n z n x ^ ] ] ` ] ] ` ] ] ] ] ] ] ] ] ] ] ] ] ] ] ] ] ] ] ] ] ] ] ] ] ] ] ] ] ] ] ] ] ] ] ] ] ] ] ] ] ] ] ] ] ] ] ] ] ] ] ] ] ] ] ] ] ] ] ] ] ] ] ] ] ] ] ] ] ] ] ] ] ] ] ] ] ] ] ] ] ] ] ] ] ] ] ] ] ] ] ] ] ] ] ] ] ] ] ] ] ] ] ] ] ] ] ] ] ] ] ] ] ] ] ] ] ] ] ] ] ] ] ] ] ] ] ] ] ] ] ] ] ] ] ] ] ] ` ] ] ] ] ;.u.w.p.q.) ^ ^ ^ n L L x z z l l j q _ >.) ] ] ` ] ] ] ] ] ] ] ] ] ] ] ] ] ] ] ] ] ] ] ] ] ] ] ] ] ] ] ] ] ] ] ] ] ) ` +._ < % ; - / / ] ] ` ` ` ] ` ` ` ` ` ` ` ` h T.2X0X",
"rX9X_.v ..' G X.` ` ` ` ` ` ` ` *.] _ X.& ; X ; ;.] / ] ] ` / ] ] ] ] ] ] ] ] ] ] ] ] ] ] ] ] ] ] ] ] ] ] ] ] ] ` ` ` ` -.-.>.>.>.>.>.>.-.-.-.-.*.) -.-.^ n z n x ^ ] ] ` ] ] ` ] ] ] ] ] ] ] ] ] ] ] ] ] ] ] ] ] ] ] ] ] ] ] ] ] ] ] ] ] ] ] ] ] ] ] ] ] ] ] ] ] ] ] ] ] ] ] ] ] ] ] ] ] ] ] ] ] ] ] ] ] ] ] ] ] ] ] ] ] ] ] ] ] ] ] ] ] ] ] ] ] ] ] ] ] ] ] ] ] ] ] ] ] ] ] ] ] ] ] ] ] ] ] ] ] ] ] ] ] ] ] ] ] ] ] ] ] ] ] ] ] ] ] ] ] ] ] ] ] ] ] ] ] ] ] ] ] ` ] ] ] ] ;.u.w.p.q.) ^ ^ ^ n L L x z z l l j q _ ;./ ] ] ` ] ] ] ] ] ] ] ] ] ] ] ] ] ] ] ] ] ] ] ] ] ] ] ] ] ] ] ] ] ] ] ] ] ) ` +._ < % ; - / / ] ] ` ` ` ] ` ` ` ` ` ` ` ` h T.2X0X",
"rX9X_.v } ' G X.` ` ` ` ` ` ` ` *.) ^ X.& ; X ; ;.] / ] ] ` / ] ] ] ] ] ] ] ] ] ] ] ] ] ] ] ] ] ] ] ] ] ] ] ] ] ` ` ` ` -.-.>.>.>.>.>.>.-.-.-.-.*.) -.] ^ n z n x ^ ] ] ` ] ] ` ] ] ] ] ] ] ] ] ] ] ] ] ] ] ] ] ] ] ] ] ] ] ] ] ] ] ] ] ] ] ] ] ] ] ] ] ] ] ] ] ] ] ] ] ] ] ] ] ] ] ] ] ] ] ] ] ] ] ] ] ] ] ] ] ] ] ] ] ] ] ] ] ] ] ] ] ] ] ] ] ] ] ] ] ] ] ] ] ] ] ] ] ] ] ] ] ] ] ] ] ] ] ] ] ] ] ] ] ] ] ] ] ] ] ] ] ] ] ] ] ] ] ] ] ] ] ] ] ] ] ] ] ] ] ] ] ] ` ] ] ] ] ;.u.w.p.q.) ^ ^ ^ n L L x z z l l j q _ ;./ ] ] ` ] ] ] ] ] ] ] ] ] ] ] ] ] ] ] ] ] ] ] ] ] ] ] ] ] ] ] ] ] ] ] ] ] ) ` +._ < % ; - / / ] ] ` ` ` ] ` ` ` ` ` ` ` ` h T.2XwX",
"rX6X`.v } ' F X.] ] ] ` ` ` / / ) ^ ' ! : X - ; ] ] ] ` ] ` ] ] ` ` ` ` ` ` ` ` ` ` ` ` ` ` ` ` ` ` ` ` ` ` ` ` ` ` ` ` ` =.-.>.>.>.>.-.-.-.-.-.*.) -.-.^ n z n x / ] ] ` ] ] ` ] ] ] ] ] ] ] ] ] ] ] ] ] ] ] ] ] ] ] ] ] ] ] ] ] ] ] ] ] ] ] ] ] ] ] ] ] ] ] ] ] ] ] ] ] ] ] ] ] ] ] ] ] ] ] ] ] ] ] ] ] ] ] ] ] ] ] ] ] ] ] ] ] ] ] ] ] ] ] ] ] ] ] ] ] ] ] ] ] ] ] ] ] ] ] ] ] ] ] ] ] ] ] ] ] ] ] ] ] ] ] ] ] ] ] ] ] ] ] ] ] ] ] ] ] ] ] ] ] ] ] ] ] ] ] ] ] ` ] ] ] ] ;.u.w.p.q.) ^ ^ ^ n L L x z z l l j q _ ;./ ] ] ` ] ` ` ` ` ` ` ` ` ` ` ` ` ` ` ` ` ` ` ` ` ` ` ` ` ` ` ` ` ` ` ` ` ) ` +._ < % ; - ^ / ` ] / / / ` ` ` ` ` ` ` ` ` h T.2X0X",
"rX9X`.v } ' F X.] ] ] ` ` ` / / ) ^ ' ! : X - ; ] ] ] ` ] ` ] ] ` ` ` ` ` ` ` ` ` ` ` ` ` ` ` ` ` ` ` ` ` ` ` ` ` ` ` ` ` =.-.>.>.>.>.>.-.-.-.-.*.) -.=.^ n z n x / ] ] ` ] ] ` ] ] ] ] ] ] ] ] ] ] ] ] ] ] ] ] ] ] ] ] ] ] ] ] ] ] ] ] ] ] ] ] ] ] ] ] ] ] ] ] ] ] ] ] ] ] ] ] ] ] ] ] ] ] ] ] ] ] ] ] ] ] ] ] ] ] ] ] ] ] ] ] ] ] ] ] ] ] ] ] ] ] ] ] ] ] ] ] ] ] ] ] ] ] ] ] ] ] ] ] ] ] ] ] ] ] ] ] ] ] ] ] ] ] ] ] ] ] ] ] ] ] ] ] ] ] ] ] ] ] ] ] ] ] ] ] ] ` ] ] ] ] ;.u.w.p.q.) ^ ^ ^ n L L x z z l l j q _ ;./ ] ] ` ] ` ` ` ` ` ` ` ` ` ` ` ` ` ` ` ` ` ` ` ` ` ` ` ` ` ` ` ` ` ` ` ` ) ` +._ < % ; - ^ / ` ] / / / ` ` ` ` ` ` ` ` ` h T.2X0X",
"rX6X`.v } ' F X.] ] ] ` ` ` / / ) ^ ' ! : X - ; ] ] ] ` ` ` ] ] ` ` ` ` ` ` ` ` ` ` ` ` ` ` ` ` ` ` ` ` ` ` ` ` ` ` ` ` ` =.-.>.>.>.>.>.-.-.-.-.*.) -.=.^ n z n x ^ ] ] ` ] ] ` ] ] ] ] ] ] ] ] ] ] ] ] ] ] ] ] ] ] ] ] ] ] ] ] ] ] ] ] ] ] ] ] ] ] ] ] ] ] ] ] ] ] ] ] ] ] ] ] ] ] ] ] ] ] ] ] ] ] ] ] ] ] ] ] ] ] ] ] ] ] ] ] ] ] ] ] ] ] ] ] ] ] ] ] ] ] ] ] ] ] ] ] ] ] ] ] ] ] ] ] ] ] ] ] ] ] ] ] ] ] ] ] ] ] ] ] ] ] ] ] ] ] ] ] ] ] ] ] ] ] ] ] ] ] ] ] ] ` ] ] ] ] ;.u.w.p.q.) ^ ^ ^ n L L x z z l l j q _ <./ ] ] ` ] ` ` ` ` ` ` ` ` ` ` ` ` ` ` ` ` ` ` ` ` ` ` ` ` ` ` ` ` ` ` ` ` ) ` +._ < % ; - ^ / ` ] / / / ` ` ` ` ` ` ` ` ` h T.2X0X",
"rX6X`.v } ' F X.] ] ] ` ` ` / / ) ^ ' ! : . - ; ] ] ] ` ` ` ] ] ` ` ` ` ` ` ` ` ` ` ` ` ` ` ` ` ` ` ` ` ` ` ` ` ` ` ` ` ` =.-.>.>.>.>.>.-.-.-.-.*.) -.-.^ n z n x ^ ] ] ` ] ] ` ] ] ] ] ] ] ] ] ] ] ] ] ] ] ] ] ] ] ] ] ] ] ] ] ] ] ] ] ] ] ] ] ] ] ] ] ] ] ] ] ] ] ] ] ] ] ] ] ] ] ] ] ] ] ] ] ] ] ] ] ] ] ] ] ] ] ] ] ] ] ] ] ] ] ] ] ] ] ] ] ] ] ] ] ] ] ] ] ] ] ] ] ] ] ] ] ] ] ] ] ] ] ] ] ] ] ] ] ] ] ] ] ] ] ] ] ] ] ] ] ] ] ] ] ] ] ] ] ] ] ] ] ] ] ] ] ] ` ] ] ] ] ;.u.w.p.q.) ^ ^ ^ n L L x z z l l j , ^ ] / ] ] ` ] ` ` ` ` ` ` ` ` ` ` ` ` ` ` ` ` ` ` ` ` ` ` ` ` ` ` ` ` ` ` ` ` ) ` +._ < % ; - ^ / ` ] / / / ` ` ` ` ` ` ` ` ` h T.2X0X",
"rX6X`.v } ' F X.] ] ] ` ` ` / / ) ^ ' ! < % - ; ] ] ] ` ` ` ] ] ` ` ` ` ` ` ` ` ` ` ` ` ` ` ` ` ` ` ` ` ` ` ` ` ` ` ` ` ` =.=.>.>.>.>.>.-.-.-.-.*.) ] ` ^ n z n x ^ ] ] ` ] ] ` ] ] ] ] ] ] ] ] ] ] ] ] ] ] ] ] ] ] ] ] ] ] ] ] ] ] ] ] ] ] ] ] ] ] ] ] ] ] ] ] ] ] ] ] ] ] ] ] ] ] ] ] ] ] ] ] ] ] ] ] ] ] ] ] ] ] ] ] ] ] ] ] ] ] ] ] ] ] ] ] ] ] ] ] ] ] ] ] ] ] ] ] ] ] ] ] ] ] ] ] ] ] ] ] ] ] ] ] ] ] ] ] ] ] ] ] ] ] ] ] ] ] ] ] ] ] ] ] ] ] ] ] ] ] ] ] ] ` ] ] ] ] ;.u.w.p.q.) ^ ^ ^ n L L x z z l l j , ^ ] / ] ] ` ] ` ` ` ` ` ` ` ` ` ` ` ` ` ` ` ` ` ` ` ` ` ` ` ` ` ` ` ` ` ` ` ` ) ` +._ < % ; - ^ / ` ] / / / ` ` ` ` ` ` ` ` ` h T.2X0X",
"rX6X`.v } ' F X.] ] ] ` ` ` / / ) ^ ' ! < % - ; ] ] ] ` ` ` ] ] ` ` ` ` ` ` ` ` ` ` ` ` ` ` ` ` ` ` ` ` ` ` ` ` ` ` ` ` ` =.=.>.>.>.>.>.-.-.-.-.*.) ] ` ^ n z n x ^ ] ] ` ] ] ` ] ] ] ] ] ] ] ] ] ] ] ] ] ] ] ] ] ] ] ] ] ] ] ] ] ] ] ] ] ] ] ] ] ] ] ] ] ] ] ] ] ] ] ] ] ] ] ] ] ] ] ] ] ] ] ] ] ] ] ] ] ] ] ] ] ] ] ] ] ] ] ] ] ] ] ] ] ] ] ] ] ] ] ] ] ] ] ] ] ] ] ] ] ] ] ] ] ] ] ] ] ] ] ] ] ] ] ] ] ] ] ] ] ] ] ] ] ] ] ] ] ] ] ] ] ] ] ] ] ] ] ] ] ] ] ] ] ` ] ] ] ] ;.u.w.p.q.) ^ ^ ^ n L L x z z l l w , ^ ] / ] ] ` ] ` ` ` ` ` ` ` ` ` ` ` ` ` ` ` ` ` ` ` ` ` ` ` ` ` ` ` ` ` ` ` ` ) ` +._ < % ; - ^ / ` ] / / / ` ` ` ` ` ` ` ` ` h T.2X0X",
"rX6X`.v } ' F X.] ] ] ` ` ` / / ) ^ ' ! < . - ; ] ] ] ` ` ` ] ] ` ` ` ` ` ` ` ` ` ` ` ` ` ` ` ` ` ` ` ` ` ` ` ` ` ` ` ` ` =.=.>.>.>.>.>.-.-.-.-.*.) -.] ^ n z n x / ] ] ` ] ] ` ] ] ] ] ] ] ] ] ] ] ] ] ] ] ] ] ] ] ] ] ] ] ] ] ] ] ] ] ] ] ] ] ] ] ] ] ] ] ] ] ] ] ] ] ] ] ] ] ] ] ] ] ] ] ] ] ] ] ] ] ] ] ] ] ] ] ] ] ] ] ] ] ] ] ] ] ] ] ] ] ] ] ] ] ] ] ] ] ] ] ] ] ] ] ] ] ] ] ] ] ] ] ] ] ] ] ] ] ] ] ] ] ] ] ] ] ] ] ] ] ] ] ] ] ] ] ] ] ] ] ] ] ] ] ] ] ] ` ] ] ] ] ;.u.w.p.q.) ^ ^ ^ n L L x z z l l l , ^ ] / / / / ` ` ` ` ` ` ` ` ` ` ` ` ` ` ` ` ` ` ` ` ` ` ` ` ` ` ` ` ` ` ` ` ` ) ` +._ < % ; - ^ / ` ] / / / ` ` ` ` ` ` ` ` ` h T.2X0X",
"rX6X`.v } ' F X.] ] ] ` ` ` / / ) ^ ' ! : . - ; ] ] ] ` ` ` ] ] ` ` ` ` ` ` ` ` ` ` ` ` ` ` ` ` ` ` ` ` ` ` ` ` ` ` ` ` ` =.-.>.>.>.>.>.-.-.-.-.*.) ] ] ^ n z n x ^ ] ] ` ] ] ` ] ] ] ] ] ] ] ] ] ] ] ] ] ] ] ] ] ] ] ] ] ] ] ] ] ] ] ] ] ] ] ] ] ] ] ] ] ] ] ] ] ] ] ] ] ] ] ] ] ] ] ] ] ] ] ] ] ] ] ] ] ] ] ] ] ] ] ] ] ] ] ] ] ] ] ] ] ] ] ] ] ] ] ] ] ] ] ] ] ] ] ] ] ] ] ] ] ] ] ] ] ] ] ] ] ] ] ] ] ] ] ] ] ] ] ] ] ] ] ] ] ] ] ] ] ] ] ] ] ] ] ] ] ] ] ] ] ` ] ] ] ] ;.u.w.p.q.) ^ ^ ^ n L L x z z l l l , ^ ] / / / / ` ` ` ` ` ` ` ` ` ` ` ` ` ` ` ` ` ` ` ` ` ` ` ` ` ` ` ` ` ` ` ` ` ) ` +._ < % ; - ^ / ` ] / / / ` ` ` ` ` ` ` ` ` h T.2X0X",
"rX6X`.v } ' F X.] ] ] ` ` ` / / *./ ` ! = o ; 3 ] ] ` / / / ` ` ` ` ` ` ` ` ` ` ` ` ` ` ` ` ` ` ` ` ` ` ` ` ` ` ` ` / / ` -.>.>.>.>.>.>.-.-.-.-.*.) ] ` ^ n z n x ^ ] ] ` ] ] ` ] ] ] ] ] ] ] ] ] ] ] ] ] ] ] ] ] ] ] ] ] ] ] ] ] ] ] ] ] ] ] ] ] ] ] ] ] ] ] ] ] ] ] ] ] ] ] ] ] ] ] ] ] ] ] ] ] ] ] ] ] ] ] ] ] ] ] ] ] ] ] ] ] ] ] ] ] ] ] ] ] ] ] ] ] ] ] ] ] ] ] ] ] ] ] ] ] ] ] ] ] ] ] ] ] ] ] ] ] ] ] ] ] ] ] ] ] ] ] ] ] ] ] ] ] ] ] ] ] ] ] ] ] ] ] ] ] ` ] ] ] ] ;.u.w.p.q.) ^ ^ ^ n L L x z z l l j q _ >./ ] ) ` ] ` ` ` ` ` ` ` ` ` ` ` ` ` ` ` ` ` ` ` ` ` ` ` ` ` ` ` ` ` ` ` ` ) ) O.! < % ; - ^ / ` ] / / / ` ` ` ` ` ` ` ` ` h T.2X0X",
"rX6X`.v } ' F X.] ] ] ` ` ` / / *./ ` ! = o ; 3 ] ] ` / / / ` ` ` ` ` ` ` ` ` ` ` ` ` ` ` ` ` ` ` ` ` ` ` ` ` ` ` ` / / ` -.>.>.>.>.>.>.-.-.-.-.*.) ] ` ^ n z n x ^ ] ] ` ] ] ` ] ] ] ] ] ] ] ] ] ] ] ] ] ] ] ] ] ] ] ] ] ] ] ] ] ] ] ] ] ] ] ] ] ] ] ] ] ] ] ] ] ] ] ] ] ] ] ] ] ] ] ] ] ] ] ] ] ] ] ] ] ] ] ] ] ] ] ] ] ] ] ] ] ] ] ] ] ] ] ] ] ] ] ] ] ] ] ] ] ] ] ] ] ] ] ] ] ] ] ] ] ] ] ] ] ] ] ] ] ] ] ] ] ] ] ] ] ] ] ] ] ] ] ] ] ] ] ] ] ] ] ] ] ] ] ] ] ` ] ] ] ] ;.u.w.p.q.) ^ ^ ^ n L L x z z l l j , _ ] / ] ) ` ] ` ` ` ` ` ` ` ` ` ` ` ` ` ` ` ` ` ` ` ` ` ` ` ` ` ` ` ` ` ` ` ` ) ) O._ < % ; - ^ / ` ] / / / ` ` ` ` ` ` ` ` ` h T.2XwX",
"rX6X`.v } ' F X.] ] ] ` ` ` / / *.^ ` ! = o ; 3 ] ] ] / / / ` ` ` ` ` ` ` ` ` ` ` ` ` ` ` ` ` ` ` ` ` ` ` ` ` ` ` ` / / ` =.>.>.>.>.>.>.-.-.-.-.*.) -.` ^ n z n x ^ ] ] ` ] ] ` ] ] ] ] ] ] ] ] ] ] ] ] ] ] ] ] ] ] ] ] ] ] ] ] ] ] ] ] ] ] ] ] ] ] ] ] ] ] ] ] ] ] ] ] ] ] ] ] ] ] ] ] ] ] ] ] ] ] ] ] ] ] ] ] ] ] ] ] ] ] ] ] ] ] ] ] ] ] ] ] ] ] ] ] ] ] ] ] ] ] ] ] ] ] ] ] ] ] ] ] ] ] ] ] ] ] ] ] ] ] ] ] ] ] ] ] ] ] ] ] ] ] ] ] ] ] ] ] ] ] ] ] ] ] ] ] ] ` ] ] ] ] ;.u.w.p.q.) ^ ^ ^ n L L x z z l l j , _ <./ ] ) ` ] ` ` ` ` ` ` ` ` ` ` ` ` ` ` ` ` ` ` ` ` ` ` ` ` ` ` ` ` ` ` ` ` ) ) +._ < % ; - ^ / ` ] / / / ` ` ` ` ` ` ` ` ` h W.2XwX",
"rX6X`.v } ' F X.] ] ] ` ` ` / / *.^ ` ! = o ; 3 ] ] ` / / / ` ` ` ` ` ` ` ` ` ` ` ` ` ` ` ` ` ` ` ` ` ` ` ` ` ` ` ` / / ` -.>.>.>.>.>.>.-.-.-.-.*.) -.-.^ n z n x ^ ] ] ` ] ] ` ] ] ] ] ] ] ] ] ] ] ] ] ] ] ] ] ] ] ] ] ] ] ] ] ] ] ] ] ] ] ] ] ] ] ] ] ] ] ] ] ] ] ] ] ] ] ] ] ] ] ] ] ] ] ] ] ] ] ] ] ] ] ] ] ] ] ] ] ] ] ] ] ] ] ] ] ] ] ] ] ] ] ] ] ] ] ] ] ] ] ] ] ] ] ] ] ] ] ] ] ] ] ] ] ] ] ] ] ] ] ] ] ] ] ] ] ] ] ] ] ] ] ] ] ] ] ] ] ] ] ] ] ] ] ] ] ] ` ] ] ] ] ;.u.w.p.q.) ^ ^ ^ n L L x z z l l j , _ O./ ] ) ` ] ` ` ` ` ` ` ` ` ` ` ` ` ` ` ` ` ` ` ` ` ` ` ` ` ` ` ` ` ` ` ` ` ) ) O.! < % ; - ^ / ` ] / / / ` ` ` ` ` ` ` ` ` h ~.2XwX",
"rX6X`.v } ' F X.] ] ] ` ` ` / / ) / ` ! = o ; 3 ] ] ` / / / ` ` ` ` ` ` ` ` ` ` ` ` ` ` ` ` ` ` ` ` ` ` ` ` ` ` ` ` / / ` =.>.>.>.>.>.>.-.-.-.-.*.) -.-.^ n z n x ^ ] ] ` ] ] ` ] ] ] ] ] ] ] ] ] ] ] ] ] ] ] ] ] ] ] ] ] ] ] ] ] ] ] ] ] ] ] ] ] ] ] ] ] ] ] ] ] ] ] ] ] ] ] ] ] ] ] ] ] ] ] ] ] ] ] ] ] ] ] ] ] ] ] ] ] ] ] ] ] ] ] ] ] ] ] ] ] ] ] ] ] ] ] ] ] ] ] ] ] ] ] ] ] ] ] ] ] ] ] ] ] ] ] ] ] ] ] ] ] ] ] ] ] ] ] ] ] ] ] ] ] ] ] ] ] ] ] ] ] ] ] ] ] ` ] ] ] ] ;.u.w.p.q.) ^ ^ ^ n L L x z z l l j , ^ ] / ] ) ` ] ` ` ` ` ` ` ` ` ` ` ` ` ` ` ` ` ` ` ` ` ` ` ` ` ` ` ` ` ` ` ` ` ) ) +.! < % ; - ^ / ` ] / / / ` ` ` ` ` ` ` ` ` h T.2X0X",
"rX6X`.v } ' F X.] ] ] ` ` ` / / ) ^ ` ! = o ; 3 ] ] ` / / / ` ` ` ` ` ` ` ` ` ` ` ` ` ` ` ` ` ` ` ` ` ` ` ` ` ` ` ` / / ` =.>.>.>.>.>.>.-.-.-.-.*.) -.-.^ n z n x ^ ] ] ` ] ] ` ] ] ] ] ] ] ] ] ] ] ] ] ] ] ] ] ] ] ] ] ] ] ] ] ] ] ] ] ] ] ] ] ] ] ] ] ] ] ] ] ] ] ] ] ] ] ] ] ] ] ] ] ] ] ] ] ] ] ] ] ] ] ] ] ] ] ] ] ] ] ] ] ] ] ] ] ] ] ] ] ] ] ] ] ] ] ] ] ] ] ] ] ] ] ] ] ] ] ] ] ] ] ] ] ] ] ] ] ] ] ] ] ] ] ] ] ] ] ] ] ] ] ] ] ] ] ] ] ] ] ] ] ] ] ] ] ] ` ] ] ] ] ;.u.w.p.q.) ^ ^ ^ n L L x z z l l j , ^ ] / ] ) ` ] ` ` ` ` ` ` ` ` ` ` ` ` ` ` ` ` ` ` ` ` ` ` ` ` ` ` ` ` ` ` ` ` ) ) +.! < % ; - ^ / ` ] / / / ` ` ` ` ` ` ` ` ` h T.2X0X",
"rX6X`.v } ' F X.] ] ] ` ` ` / / *./ ` ! = o - ; ] ] ` / / / ` ` ` ` ` ` ` ` ` ` ` ` ` ` ` ` ` ` ` ` ` ` ` ` ` ` ` ` / / ` =.>.>.>.>.>.>.-.-.-.-.*.) ] -.^ n x n x ^ ] ] ` ] ] ` ] ] ] ] ] ] ] ] ] ] ] ] ] ] ] ] ] ] ] ] ] ] ] ] ] ] ] ] ] ] ] ] ] ] ] ] ] ] ] ] ] ] ] ] ] ] ] ] ] ] ] ] ] ] ] ] ] ] ] ] ] ] ] ] ] ] ] ] ] ] ] ] ] ] ] ] ] ] ] ] ] ] ] ] ] ] ] ] ] ] ] ] ] ] ] ] ] ] ] ] ] ] ] ] ] ] ] ] ] ] ] ] ] ] ] ] ] ] ] ] ] ] ] ] ] ] ] ] ] ] ] ] ] ] ] ] ] ` ] ] ] ] ;.u.w.p.q.) ^ ^ ^ n L L x z z l l j , ^ ] / ] ` ` ] ` ` ` ` ` ` ` ` ` ` ` ` ` ` ` ` ` ` ` ` ` ` ` ` ` ` ` ` ` ` ` ` ) ) +.! < % ; - ^ / ` ] / / / ` ` ` ` ` ` ` ` ` h T.2X0X",
"rX6X`.v } ' F X.] ] ] ` ` ` / / *./ ` ! = o - ; ] ] ` / / / ` ` ` ` ` ` ` ` ` ` ` ` ` ` ` ` ` ` ` ` ` ` ` ` ` ` ` ` / / ` =.>.>.>.>.>.>.-.-.-.-.*.) ] ] ^ n z n x ^ ] ] ` ] ] ` ] ] ] ] ] ] ] ] ] ] ] ] ] ] ] ] ] ] ] ] ] ] ] ] ] ] ] ] ] ] ] ] ] ] ] ] ] ] ] ] ] ] ] ] ] ] ] ] ] ] ] ] ] ] ] ] ] ] ] ] ] ] ] ] ] ] ] ] ] ] ] ] ] ] ] ] ] ] ] ] ] ] ] ] ] ] ] ] ] ] ] ] ] ] ] ] ] ] ] ] ] ] ] ] ] ] ] ] ] ] ] ] ] ] ] ] ] ] ] ] ] ] ] ] ] ] ] ] ] ] ] ] ] ] ] ] ] ` ] ] ] ] ;.u.w.p.q.) ^ ^ ^ n L L x z z l l j , ^ ] / ] ` ` ] ` ` ` ` ` ` ` ` ` ` ` ` ` ` ` ` ` ` ` ` ` ` ` ` ` ` ` ` ` ` ` ` ) ) +.! < % ; - ^ / ` ] / / / ` ` ` ` ` ` ` ) ` h T.2XwX",
"rX6X`.v } ' F X.] ] ] ` ` ` / / ) ` ^ ' @ ; ; 3 ] ] / / / / ` ` ` ` ` ` ` ` ` ` ` ` ` ` ` ` ` ` ` ` ` ` ` ` ` ` ` ` / / ` -.>.>.>.>.>.>.-.-.-.-.*.) -.=.^ n z n x ^ ] ] ` ] ] ` ] ] ] ] ] ] ] ] ] ] ] ] ] ] ] ] ] ] ] ] ] ] ] ] ] ] ] ] ] ] ] ] ] ] ] ] ] ] ] ] ] ] ] ] ] ] ] ] ] ] ] ] ] ] ] ] ] ] ] ] ] ] ] ] ] ] ] ] ] ] ] ] ] ] ] ] ] ] ] ] ] ] ] ] ] ] ] ] ] ] ] ] ] ] ] ] ] ] ] ] ] ] ] ] ] ] ] ] ] ] ] ] ] ] ] ] ] ] ] ] ] ] ] ] ] ] ] ] ] ] ] ] ] ] ] ] ] ` ] ] ] ] ;.u.w.p.q.) ^ ^ ^ n L L x z z l l j , ^ ] / ] ] ` ] ` ` ` ` ` ` ` ` ` ` ` ` ` ` ` ` ` ` ` ` ` ` ` ` ` ` ` ` ` ` ` ` ) ) +.! < % ; - ^ / ` ] / / / ` ` ` ` ` ` ` ` ` h W.2XwX",
"rX6X`.v } ' F X.] ] ] ` ` ` / / ) ] ^ ' @ ; ; 3 ] ] / / / / ` ` ` ` ` ` ` ` ` ` ` ` ` ` ` ` ` ` ` ` ` ` ` ` ` ` ` ` / / ` -.>.>.>.>.>.>.-.-.-.-.*.) -.=.^ n z n x ^ ] ] ` ] ] ` ] ] ] ] ] ] ] ] ] ] ] ] ] ] ] ] ] ] ] ] ] ] ] ] ] ] ] ] ] ] ] ] ] ] ] ] ] ] ] ] ] ] ] ] ] ] ] ] ] ] ] ] ] ] ] ] ] ] ] ] ] ] ] ] ] ] ] ] ] ] ] ] ] ] ] ] ] ] ] ] ] ] ] ] ] ] ] ] ] ] ] ] ] ] ] ] ] ] ] ] ] ] ] ] ] ] ] ] ] ] ] ] ] ] ] ] ] ] ] ] ] ] ] ] ] ] ] ] ] ] ] ] ] ] ] ] ] ` ] ] ] ] ;.u.w.p.q.) ^ ^ ^ n L L x z z l l j , ^ ] / ] ] ` ] ` ` ` ` ` ` ` ` ` ` ` ` ` ` ` ` ` ` ` ` ` ` ` ` ` ` ` ` ` ` ` ` ) ) +.! < % ; - ^ / ` ] / / / ` ` ` ` ` ` ` ` ` h W.2XwX",
"rX6X`.v } ' F X.] ] ] ` ` ` / / *.] ^ o.@ ; ; 3 ] ] / / / / ` ` ` ` ` ` ` ` ` ` ` ` ` ` ` ` ` ` ` ` ` ` ` ` ` ` ` ` / / ` =.>.>.>.>.>.>.-.-.-.-.*.) ] ` ^ n z n x ^ ] ] ` ] ] ` ] ] ] ] ] ] ] ] ] ] ] ] ] ] ] ] ] ] ] ] ] ] ] ] ] ] ] ] ] ] ] ] ] ] ] ] ] ] ] ] ] ] ] ] ] ] ] ] ] ] ] ] ] ] ] ] ] ] ] ] ] ] ] ] ] ] ] ] ] ] ] ] ] ] ] ] ] ] ] ] ] ] ] ] ] ] ] ] ] ] ] ] ] ] ] ] ] ] ] ] ] ] ] ] ] ] ] ] ] ] ] ] ] ] ] ] ] ] ] ] ] ] ] ] ] ] ] ] ] ] ] ] ] ] ] ] ] ` ] ] ] ] ;.u.w.p.q.) ^ ^ ^ n L L x z z l l j , _ ] / ] ] ` ] ` ` ` ` ` ` ` ` ` ` ` ` ` ` ` ` ` ` ` ` ` ` ` ` ` ` ` ` ` ` ` ` ) ) O.! < % ; - ^ / ` ] / / / ` ` ` ` ` ` ` ` ` h W.2XwX",
"rX6X`.v } ' F X.] ] ] ` ` ` / / *.] ^ o.@ ; ; 3 ] ] ` / / / ` ` ` ` ` ` ` ` ` ` ` ` ` ` ` ` ` ` ` ` ` ` ` ` ` ` ` ` / / ` =.>.>.>.>.>.>.-.-.-.-.*.) ] ` ^ n z n x ^ ] ] ` ] ] ` ] ] ] ] ] ] ] ] ] ] ] ] ] ] ] ] ] ] ] ] ] ] ] ] ] ] ] ] ] ] ] ] ] ] ] ] ] ] ] ] ] ] ] ] ] ] ] ] ] ] ] ] ] ] ] ] ] ] ] ] ] ] ] ] ] ] ] ] ] ] ] ] ] ] ] ] ] ] ] ] ] ] ] ] ] ] ] ] ] ] ] ] ] ] ] ] ] ] ] ] ] ] ] ] ] ] ] ] ] ] ] ] ] ] ] ] ] ] ] ] ] ] ] ] ] ] ] ] ] ] ] ] ] ] ] ] ] ` ] ] ] ] ;.u.w.p.q.) ^ ^ ^ n L L x z z l l j , ^ ] / ] ) ` ] ` ` ` ` ` ` ` ` ` ` ` ` ` ` ` ` ` ` ` ` ` ` ` ` ` ` ` ` ` ` ` ` ) ) O.! < % ; - ^ / ` ] / / / ` ` ` ` ` ` ` ` ` h W.2X0X",
"rX6X`.v } ' F X.] ] ] ` ` ` / / ) ( ^ ' @ * ; 3 ] ] ` / / / ` ` ` ` ` ` ` ` ` ` ` ` ` ` ` ` ` ` ` ` ` ` ` ` ` ` ` ` / / ` =.>.>.>.>.>.>.-.-.-.-.*.) ] ] ^ n z n x ^ ] ] ` ] ] ` ] ] ] ] ] ] ] ] ] ] ] ] ] ] ] ] ] ] ] ] ] ] ] ] ] ] ] ] ] ] ] ] ] ] ] ] ] ] ] ] ] ] ] ] ] ] ] ] ] ] ] ] ] ] ] ] ] ] ] ] ] ] ] ] ] ] ] ] ] ] ] ] ] ] ] ] ] ] ] ] ] ] ] ] ] ] ] ] ] ] ] ] ] ] ] ] ] ] ] ] ] ] ] ] ] ] ] ] ] ] ] ] ] ] ] ] ] ] ] ] ] ] ] ] ] ] ] ] ] ] ] ] ] ] ] ] ] ` ] ] ] ] ;.u.w.p.q.) ^ ^ ^ n L L x z z l l j , _ ] / ] ) ` ] ` ` ` ` ` ` ` ` ` ` ` ` ` ` ` ` ` ` ` ` ` ` ` ` ` ` ` ` ` ` ` ` ) ) +.! < % ; - ^ / ` ] / / / ` ` ` ` ` ` ` ` ` h T.2X0X",
"rX6X`.v } ' F X.] ] ] ` ` ` / / ) ( ^ ' @ * X 3 ] ] ` / / / ` ` ` ` ` ` ` ` ` ` ` ` ` ` ` ` ` ` ` ` ` ` ` ` ` ` ` ` / / ` =.>.>.>.>.>.>.-.-.-.-.*.) ] ` ^ n z n x ^ ] ] ` ] ] ` ] ] ] ] ] ] ] ] ] ] ] ] ] ] ] ] ] ] ] ] ] ] ] ] ] ] ] ] ] ] ] ] ] ] ] ] ] ] ] ] ] ] ] ] ] ] ] ] ] ] ] ] ] ] ] ] ] ] ] ] ] ] ] ] ] ] ] ] ] ] ] ] ] ] ] ] ] ] ] ] ] ] ] ] ] ] ] ] ] ] ] ] ] ] ] ] ] ] ] ] ] ] ] ] ] ] ] ] ] ] ] ] ] ] ] ] ] ] ] ] ] ] ] ] ] ] ] ] ] ] ] ] ] ] ] ] ] ` ] ] ] ] ;.u.w.p.q.) ^ ^ ^ n L L x z z l l j q _ >./ ] ) ` ] ` ` ` ` ` ` ` ` ` ` ` ` ` ` ` ` ` ` ` ` ` ` ` ` ` ` ` ` ` ` ` ` ) ) +.! < % ; - ^ / ` ] / / / ` ` ` ` ` ` ` ` ` h T.2X0X",
"rX6X`.v } ' F X.] ] ] ` ` ` / / ) ( ^ ' @ * ; 3 ] ] ` / / / ` ` ` ` ` ` ` ` ` ` ` ` ` ` ` ` ` ` ` ` ` ` ` ` ` ` ` ` / / ` =.>.>.>.>.>.>.-.-.-.-.*.) -.-.^ n z n x ^ ] ] ` ] ] ` ] ] ] ] ] ] ] ] ] ] ] ] ] ] ] ] ] ] ] ] ] ] ] ] ] ] ] ] ] ] ] ] ] ] ] ] ] ] ] ] ] ] ] ] ] ] ] ] ] ] ] ] ] ] ] ] ] ] ] ] ] ] ] ] ] ] ] ] ] ] ] ] ] ] ] ] ] ] ] ] ] ] ] ] ] ] ] ] ] ] ] ] ] ] ] ] ] ] ] ] ] ] ] ] ] ] ] ] ] ] ] ] ] ] ] ] ] ] ] ] ] ] ] ] ] ] ] ] ] ] ] ] ] ] ] ] ] ` ] ] ] ] ;.u.w.p.q.) ^ ^ ^ n L L x z z l l j q _ >./ ] ) ` ] ` ` ` ` ` ` ` ` ` ` ` ` ` ` ` ` ` ` ` ` ` ` ` ` ` ` ` ` ` ` ` ` ) ) +.! < % ; - ^ / ` ] / / / ` ` ` ` ` ` ` ` ` h T.2XwX",
"rX6X`.v } ' F X.] ] ] ` ` ` / / ) ( ^ ' @ * ; 3 ] ] ` / / / ` ` ` ` ` ` ` ` ` ` ` ` ` ` ` ` ` ` ` ` ` ` ` ` ` ` ` ` / / ` =.>.>.>.>.>.>.-.-.-.-.*.) -.-.^ n z n x ^ ] ] ` ] ] ` ] ] ] ] ] ] ] ] ] ] ] ] ] ] ] ] ] ] ] ] ] ] ] ] ] ] ] ] ] ] ] ] ] ] ] ] ] ] ] ] ] ] ] ] ] ] ] ] ] ] ] ] ] ] ] ] ] ] ] ] ] ] ] ] ] ] ] ] ] ] ] ] ] ] ] ] ] ] ] ] ] ] ] ] ] ] ] ] ] ] ] ] ] ] ] ] ] ] ] ] ] ] ] ] ] ] ] ] ] ] ] ] ] ] ] ] ] ] ] ] ] ] ] ] ] ] ] ] ] ] ] ] ] ] ] ] ] ` ] ] ] ] ;.p.w.p.q.) ^ ^ ^ n L L x z z l l j q _ >./ ] ) ` ] ` ` ` ` ` ` ` ` ` ` ` ` ` ` ` ` ` ` ` ` ` ` ` ` ` ` ` ` ` ` ` ` ) ) +.! < % ; - ^ / ` ] / / / ` ` ` ` ` ` ` ` ` h T.2XwX",
"rX6X`.v } ' F X.] ] ] ` ` ` / / ) ` ^ o.@ ; ; 3 ] ] ` / / / ` ` ` ` ` ` ` ` ` ` ` ` ` ` ` ` ` ` ` ` ` ` ` ` ` ` ` ` / / ` -.>.>.>.>.>.>.-.-.-.-.*.) -.-.^ n z n x ^ ] ] ` ] ] ` ] ] ] ] ] ] ] ] ] ] ] ] ] ] ] ] ] ] ] ] ] ] ] ] ] ] ] ] ] ] ] ] ] ] ] ] ] ] ] ] ] ] ] ] ] ] ] ] ] ] ] ] ] ] ] ] ] ] ] ] ] ] ] ] ] ] ] ] ] ] ] ] ] ] ] ] ] ] ] ] ] ] ] ] ] ] ] ] ] ] ] ] ] ] ] ] ] ] ] ] ] ] ] ] ] ] ] ] ] ] ] ] ] ] ] ] ] ] ] ] ] ] ] ] ] ] ] ] ] ] ] ] ] ] ] ] ] ` ] ] ] ] ;.u.w.p.q.) ^ ^ ^ n L L x z z l l j , ^ ] / ] ) ` ] ` ` ` ` ` ` ` ` ` ` ` ` ` ` ` ` ` ` ` ` ` ` ` ` ` ` ` ` ` ` ` ` ) ) +.! < % ; - ^ / ` ] / / / ` ` ` ` ` ` ` ` ` h T.2X0X",
"rX9X`.v } ' F X.] ] ] ` ` ` / / ) ] ^ o.@ ; X 3 ] ] ` / / / ` ` ` ` ` ` ` ` ` ` ` ` ` ` ` ` ` ` ` ` ` ` ` ` ` ` ` ` / / ` -.>.>.>.>.>.>.-.-.-.-.*.) -.=.^ n z n x ^ ] ] ` ] ] ` ] ] ] ] ] ] ] ] ] ] ] ] ] ] ] ] ] ] ] ] ] ] ] ] ] ] ] ] ] ] ] ] ] ] ] ] ] ] ] ] ] ] ] ] ] ] ] ] ] ] ] ] ] ] ] ] ] ] ] ] ] ] ] ] ] ] ] ] ] ] ] ] ] ] ] ] ] ] ] ] ] ] ] ] ] ] ] ] ] ] ] ] ] ] ] ] ] ] ] ] ] ] ] ] ] ] ] ] ] ] ] ] ] ] ] ] ] ] ] ] ] ] ] ] ] ] ] ] ] ] ] ] ] ] ] ] ] ` ] ] ] ] ;.u.w.p.q.) ^ ^ ^ n L L x z z l l j , ^ ] / ] ) ` ] ` ` ` ` ` ` ` ` ` ` ` ` ` ` ` ` ` ` ` ` ` ` ` ` ` ` ` ` ` ` ` ` ) ) +.! < % ; - ^ / ` ] / / / ` ` ` ` ` ` ` ` ` h T.2X0X",
"rX6X`.v } ' F X.] ] ] ` ` ` / / *.] ^ ' @ ; ; 3 ] ] ` / / / ` ` ` ` ` ` ` ` ` ` ` ` ` ` ` ` ` ` ` ` ` ` ` ` ` ` ` ` / / ` =.>.>.>.>.>.>.-.-.-.-.*.) -.=.^ n z n x ^ ] ] ` ] ] ` ] ] ] ] ] ] ] ] ] ] ] ] ] ] ] ] ] ] ] ] ] ] ] ] ] ] ] ] ] ] ] ] ] ] ] ] ] ] ] ] ] ] ] ] ] ] ] ] ] ] ] ] ] ] ] ] ] ] ] ] ] ] ] ] ] ] ] ] ] ] ] ] ] ] ] ] ] ] ] ] ] ] ] ] ] ] ] ] ] ] ] ] ] ] ] ] ] ] ] ] ] ] ] ] ] ] ] ] ] ] ] ] ] ] ] ] ] ] ] ] ] ] ] ] ] ] ] ] ] ] ] ] ] ] ] ] ] ` ] ] ] ] ;.u.w.p.q.) ^ ^ ^ n L L z z z l l j , ^ ] / ] ` ` ] ` ` ` ` ` ` ` ` ` ` ` ` ` ` ` ` ` ` ` ` ` ` ` ` ` ` ` ` ` ` ` ` ) ) O.! < % ; - ^ / ` ] / / / ` ` ` ` ` ` ` ` ` h T.2X0X",
"rX6X`.v } ' F X.] ] ] ` ` ` / / *.] ^ ' @ ; ; 3 ] ] ` / / / ` ` ` ` ` ` ` ` ` ` ` ` ` ` ` ` ` ` ` ` ` ` ` ` ` ` ` ` / / ` =.>.>.>.>.>.>.-.-.-.-.*.) -.=.^ n z n x ^ ] ] ` ] ] ` ] ] ] ] ] ] ] ] ] ] ] ] ] ] ] ] ] ] ] ] ] ] ] ] ] ] ] ] ] ] ] ] ] ] ] ] ] ] ] ] ] ] ] ] ] ] ] ] ] ] ] ] ] ] ] ] ] ] ] ] ] ] ] ] ] ] ] ] ] ] ] ] ] ] ] ] ] ] ] ] ] ] ] ] ] ] ] ] ] ] ] ] ] ] ] ] ] ] ] ] ] ] ] ] ] ] ] ] ] ] ] ] ] ] ] ] ] ] ] ] ] ] ] ] ] ] ] ] ] ] ] ] ] ] ] ] ] ` ] ] ] ] ;.u.w.p.q.) ^ ^ ^ n L L x z z l l j , _ ] / ] ] ` ] ` ` ` ` ` ` ` ` ` ` ` ` ` ` ` ` ` ` ` ` ` ` ` ` ` ` ` ` ` ` ` ` ) ) O.! < % ; - ^ / ` ] / / / ` ` ` ` ` ` ` ` ` h T.2X0X",
"rX6X`.v } ' F X.] ] ] ` ` ` / / ) ( ^ ' @ ; ; 3 ] ] ` / / / ` ` ` ` ` ` ` ` ` ` ` ` ` ` ` ` ` ` ` ` ` ` ` ` ` ` ` ` / / ` =.>.>.>.>.>.>.-.-.-.-.*.) ] ` ^ n z n x ^ ] ] ` ] ] ` ] ] ] ] ] ] ] ] ] ] ] ] ] ] ] ] ] ] ] ] ] ] ] ] ] ] ] ] ] ] ] ] ] ] ] ] ] ] ] ] ] ] ] ] ] ] ] ] ] ] ] ] ] ] ] ] ] ] ] ] ] ] ] ] ] ] ] ] ] ] ] ] ] ] ] ] ] ] ] ] ] ] ] ] ] ] ] ] ] ] ] ] ] ] ] ] ] ] ] ] ] ] ] ] ] ] ] ] ] ] ] ] ] ] ] ] ] ] ] ] ] ] ] ] ] ] ] ] ] ] ] ] ] ] ] ] ] ` ] ] ] ] ;.u.w.p.q.) ^ ^ ^ n I L x z l l l j , _ ] / ] ] ` ] ` ` ` ` ` ` ` ` ` ` ` ` ` ` ` ` ` ` ` ` ` ` ` ` ` ` ` ` ` ` ` ` ) ) +.! < % ; - ^ / ` ] / / / ` ` ` ` ` ` ` ` ` h T.2XwX",
"rX6X`.v } ' F X.] ] ] ` ` ` / / ) ( ^ ' @ ; ; 3 ] ] ` / / / ` ` ` ` ` ` ` ` ` ` ` ` ` ` ` ` ` ` ` ` ` ` ` ` ` ` ` ` / / ` =.>.>.>.>.>.>.-.-.-.-.*.) ] ` ^ n z n x / ] ] ` ] ] ` ] ] ] ] ] ] ] ] ] ] ] ] ] ] ] ] ] ] ] ] ] ] ] ] ] ] ] ] ] ] ] ] ] ] ] ] ] ] ] ] ] ] ] ] ] ] ] ] ] ] ] ] ] ] ] ] ] ] ] ] ] ] ] ] ] ] ] ] ] ] ] ] ] ] ] ] ] ] ] ] ] ] ] ] ] ] ] ] ] ] ] ] ] ] ] ] ] ] ] ] ] ] ] ] ] ] ] ] ] ] ] ] ] ] ] ] ] ] ] ] ] ] ] ] ] ] ] ] ] ] ] ] ] ] ] ] ] ` ] ] ] ] ;.u.w.p.q.) ^ ^ ^ n I I x z l l l l q _ >./ ] ` ` ] ` ` ` ` ` ` ` ` ` ` ` ` ` ` ` ` ` ` ` ` ` ` ` ` ` ` ` ` ` ` ` ` ) ) +.! < % ; - ^ / ` ] / / / ` ` ` ` ` ` ` ` ` h T.2XwX",
"rX6X`.v } ' F X.] ] ] ` ` ` / / ) ( ^ ' @ ; ; 3 ] ] ` / / / ` ` ` ` ` ` ` ` ` ` ` ` ` ` ` ` ` ` ` ` ` ` ` ` ` ` ` ` / / ` =.>.>.>.>.>.>.-.-.-.-.*.) -.] ^ n z n x ^ ] ] ` ] ] ` ] ] ] ] ] ] ] ] ] ] ] ] ] ] ] ] ] ] ] ] ] ] ] ] ] ] ] ] ] ] ] ] ] ] ] ] ] ] ] ] ] ] ] ] ] ] ] ] ] ] ] ] ] ] ] ] ] ] ] ] ] ] ] ] ] ] ] ] ] ] ] ] ] ] ] ] ] ] ] ] ] ] ] ] ] ] ] ] ] ] ] ] ] ] ] ] ] ] ] ] ] ] ] ] ] ] ] ] ] ] ] ] ] ] ] ] ] ] ] ] ] ] ] ] ] ] ] ] ] ] ] ] ] ] ] ] ] ` ] ] ] ] ;.u.w.p.q.) ^ ^ ^ n L L x z l l l l q _ ] / ] ` ` ] ` ` ` ` ` ` ` ` ` ` ` ` ` ` ` ` ` ` ` ` ` ` ` ` ` ` ` ` ` ` ` ` ) ) +.! < % ; - ^ / ` ] / / / ` ` ` ` ` ` ` ` ` h T.2XwX",
"rX6X`.v } ' F X.] ] ] ` ` ` / / ) ( ^ ' @ ; ; 3 ] ] ` / / / ` ` ` ` ` ` ` ` ` ` ` ` ` ` ` ` ` ` ` ` ` ` ` ` ` ` ` ` / / ` =.>.>.>.>.>.>.-.-.-.-.*.) ] ] ^ n z n x ^ ] ] ` ] ] ` ] ] ] ] ] ] ] ] ] ] ] ] ] ] ] ] ] ] ] ] ] ] ] ] ] ] ] ] ] ] ] ] ] ] ] ] ] ] ] ] ] ] ] ] ] ] ] ] ] ] ] ] ] ] ] ] ] ] ] ] ] ] ] ] ] ] ] ] ] ] ] ] ] ] ] ] ] ] ] ] ] ] ] ] ] ] ] ] ] ] ] ] ] ] ] ] ] ] ] ] ] ] ] ] ] ] ] ] ] ] ] ] ] ] ] ] ] ] ] ] ] ] ] ] ] ] ] ] ] ] ] ] ] ] ] ] ] ` ] ] ] ] ;.u.w.p.q.) ^ ^ ^ n L L x z z l l l , _ >./ ] ) ` ] ` ` ` ` ` ` ` ` ` ` ` ` ` ` ` ` ` ` ` ` ` ` ` ` ` ` ` ` ` ` ` ` ) ) +.! < % ; - ^ / ` ] / / / ` ` ` ` ` ` ` ` ` h T.2XwX",
"rX6X`.v } ' F X.] ] ] ` ` ` / / *.) ^ ' O ; - ; ] ] ` / / / ` ` ^ ^ ` ` / / =.,.,.=.=.` / ` =.>.=./ T / / ` ` ' ` ` ` ` ` =.-.>.>.>.>.>.-.-.-.-.-.` =.=./ I z L x ^ ] ] ` ] ] ` ] ] ] ] ] ] ] ] ] ] ] ] ] ] ] ] ] ] ] ] ] ] ] ] ] ] ] ] ] ] ] ] ] ] ] ] ] ] ] ] ] ] ] ] ] ] ] ] ] ] ] ] ] ] ] ] ] ] ] ] ] ] ] ] ] ] ] ] ] ] ] ] ] ] ] ] ] ] ] ] ] ] ] ] ] ] ] ] ] ] ] ] ] ] ] ] ] ] ] ] ] ] ] ] ] ] ] ] ] ] ] ] ] ] ] ] ] ] ] ] ] ] ] ] ] ] ] ] ] ] ] ] ] ] ] ] ] ` ] ] ] ] ;.u.w.p.q.) ^ ^ ^ n L L x z z l l j q _ >./ ] ) ` ] ` ` ` ` ` ` ` ` ` ` ` ` ` ` ` ` ` ` ` ` ` ` ` ` ` ` ` ` ` ` ` ` ) ) +.! < % ; - ^ / ` ] / / / ` ` ` ` ` ` ` ` ` h T.2XwX",
"rX6X`.v } ' F X.] ] ] ` ` ` / / *.) ^ ' O ; - ; ] ] ` / / / ` ` ` ^ ^ ` ;.;.) n U ^ ` ] ' _ ^ L ) ] >.>.` / ^ ^ ` ` ` ` ` ` -.>.>.>.>.>.-.-.-.-.-.` =.=./ I z L x ^ ] ] ` ] ] ` ] ] ] ] ] ] ] ] ] ] ] ] ] ] ] ] ] ] ] ] ] ] ] ] ] ] ] ] ] ] ] ] ] ] ] ] ] ] ] ] ] ] ] ] ] ] ] ] ] ] ] ] ] ] ] ] ] ] ] ] ] ] ] ] ] ] ] ] ] ] ] ] ] ] ] ] ] ] ] ] ] ] ] ] ] ] ] ] ] ] ] ] ] ] ] ] ] ] ] ] ] ] ] ] ] ] ] ] ] ] ] ] ] ] ] ] ] ] ] ] ] ] ] ] ] ] ] ] ] ] ] ] ] ] ] ] ] ` ] ] ] ] ;.u.w.p.q.) ^ ^ ^ n L L x z z l l j , _ ] / ] ) ` ] ` ` ` ` ` ` ` ` ` ` ` ` ` ` ` ` ` ` ` ` ` ` ` ` ` ` ` ` ` ` ` ` ) ) +.! < % ; - ^ / ` ] / / / ` ` ` ` ` ` ` ` ` h W.2XwX",
"rX6X`.v } ' F X.] ] ] ` ` ` / / *.) ^ ' O ; - ; ] ] ` / / / ` ` ^ ^ / ` ] ` ^ ^ ! o.6.k.k.k.6.6.4.' ( ^ / ] ] ` ` ` ` ` ` =.-.>.>.>.>.>.-.-.-.-.-.` ` ] / I z L x ^ ] ] ` ] ] ` ] ] ] ] ] ] ] ] ] ] ] ] ] ] ] ] ] ] ] ] ] ] ] ] ] ] ] ] ] ] ] ] ] ] ] ] ] ] ] ] ] ] ] ] ] ] ] ] ] ] ] ] ] ] ] ] ] ] ] ] ] ] ] ] ] ] ] ] ] ] ] ] ] ] ] ] ] ] ] ] ] ] ] ] ] ] ] ] ] ] ] ] ] ] ] ] ] ] ] ] ] ] ] ] ] ] ] ] ] ] ] ] ] ] ] ] ] ] ] ] ] ] ] ] ] ] ] ] ] ] ] ] ] ] ] ] ] ` ] ] ] ] ;.u.w.p.q.) ^ ^ ^ n L L x z z l l j , _ <./ ] ) ` ] ` ` ` ` ` ` ` ` ` ` ` ` ` ` ` ` ` ` ` ` ` ` ` ` ` ` ` ` ` ` ` ` ) ) O.! < % ; - ^ / ` ] / / / ` ` ` ` ` ` ` ` ` h T.2XwX",
"rX6X`.v } ' F X.] ] ] ` ` ` / / *.) ^ ' O ; - ; ] ] ` / / / ` ` ^ ] t.` N x ' d.C.J.{.XXOXOXXXXXF.k.~ M ^ ] >.=.` ` ` ` ` =.-.>.>.>.>.>.-.-.-.-.-.` ` ] / I z L x ^ ] ] ` ] ] ` ] ] ] ] ] ] ] ] ] ] ] ] ] ] ] ] ] ] ] ] ] ] ] ] ] ] ] ] ] ] ] ] ] ] ] ] ] ] ] ] ] ] ] ] ] ] ] ] ] ] ] ] ] ] ] ] ] ] ] ] ] ] ] ] ] ] ] ] ] ] ] ] ] ] ] ] ] ] ] ] ] ] ] ] ] ] ] ] ] ] ] ] ] ] ] ] ] ] ] ] ] ] ] ] ] ] ] ] ] ] ] ] ] ] ] ] ] ] ] ] ] ] ] ] ] ] ] ] ] ] ] ] ] ] ] ] ] ` ] ] ] ] ;.p.w.p.q.) ^ ^ ^ n L L x z z l l j , _ O./ ] ) ` ] ` ` ` ` ` ` ` ` ` ` ` ` ` ` ` ` ` ` ` ` ` ` ` ` ` ` ` ` ` ` ` ` ) ) O.! < % ; - ^ / ` ] / / / ` ` ` ` ` ` ` ` ` h T.2X0X",
"rX6X`.v } ' F X.] ] ] ` ` ` / / *.) ^ ' O ; ; : ] ] ` / / / ` ` ) -.] ( E 4.l.'.oXoXOX#X#X#XOXOX$X+XF.s.4.( ^ / ` ` ` ` ` =.=.>.>.>.>.>.-.-.-.-.-.` ` ] / I z L x ^ ] ] ` ] ] ` ] ] ] ] ] ] ] ] ] ] ] ] ] ] ] ] ] ] ] ] ] ] ] ] ] ] ] ] ] ] ] ] ] ] ] ] ] ] ] ] ] ] ] ] ] ] ] ] ] ] ] ] ] ] ] ] ] ] ] ] ] ] ] ] ] ] ] ] ] ] ] ] ] ] ] ] ] ] ] ] ] ] ] ] ] ] ] ] ] ] ] ] ] ] ] ] ] ] ] ] ] ] ] ] ] ] ] ] ] ] ] ] ] ] ] ] ] ] ] ] ] ] ] ] ] ] ] ] ] ] ] ] ] ] ] ] ] ` ] ] ] ] ;.u.w.p.q.) ^ ^ ^ n L L x z z l l j , ^ ] / ] ) ` ] ` ` ` ` ` ` ` ` ` ` ` ` ` ` ` ` ` ` ` ` ` ` ` ` ` ` ` ` ` ` ` ` ) ) +.! < % ; - ^ / ` ] / / / ` ` ` ` ` ` ` ` ` h T.2XwX",
"rX6X`.v } ' F X.] ] ] ` ` ` / / *.) ^ ' O * - : ] ] ` / / / ` ` >.) ^ ( d.C.'.|./.U.U.U.U./.(.(.+XOXOX{.j.' ^ ` ` ` ` ` ` =.=.>.>.>.>.>.-.-.-.-.-.` ` ] / I z L x ^ ] ] ` ] ] ` ] ] ] ] ] ] ] ] ] ] ] ] ] ] ] ] ] ] ] ] ] ] ] ] ] ] ] ] ] ] ] ] ] ] ] ] ] ] ] ] ] ] ] ] ] ] ] ] ] ] ] ] ] ] ] ] ] ] ] ] ] ] ] ] ] ] ] ] ] ] ] ] ] ] ] ] ] ] ] ] ] ] ] ] ] ] ] ] ] ] ] ] ] ] ] ] ] ] ] ] ] ] ] ] ] ] ] ] ] ] ] ] ] ] ] ] ] ] ] ] ] ] ] ] ] ] ] ] ] ] ] ] ] ] ] ] ] ` ] ] ] ] ;.u.w.p.q.) ^ ^ ^ n L L x z z l l j , ^ ] / ] ) ` ] ` ` ` ` ` ` ` ` ` ` ` ` ` ` ` ` ` ` ` ` ` ` ` ` ` ` ` ` ` ` ` ` ) ) +.! < % ; - ^ / ` ] / / / ` ` ` ` ` ) ` ` ` h T.2XwX",
"rX6X`.v } ' F X.] ] ] ` ` ` / / *.) ^ ' O * - : ] ] ` / / / ` ` >.^ ^ a.N.'.{./.D.S.S.S.S./.(.}.A.{.oXoXD.k.4.` ` ` ` ` ` =.=.>.>.>.-.-.-.-.-.-.-.` -.] / I z L x ^ ] ] ` ] ] ` ] ] ] ] ] ] ` ] ] ] ] ] ] ] ] ] ] ] ] ] ] ] ] ] ] ] ] ] ] ] ] ] ] ] ] ] ] ] ] ] ] ] ] ] ] ] ] ] ] ] ] ] ] ] ] ] ] ] ] ] ] ] ] ] ] ] ] ] ] ] ] ] ] ] ] ] ] ] ] ] ] ] ] ] ] ] ] ] ] ] ] ] ] ] ] ] ] ] ] ] ] ] ] ] ] ] ] ] ] ] ] ] ] ] ] ] ] ] ] ] ] ] ] ] ] ] ] ] ] ] ] ] ] ] ] ] ] ` ] ] ] ] ;.u.w.p.q.) ^ ^ ^ n L L x z z l l j , ^ ] / ] ` ` ] ` ` ` ` ` ` ` ` ` ` ` ` ` ` ` ` ` ` ` ` ` ` ` ` ` ` ` ` ` ` ` ` ) ) +.! < % ; - ^ / ` ] / / / ` ` ` ` ` ` ` ` ` h W.2XwX",
"rX6X`.v } ' F X.] ] ] ` ` ` / / *.) ^ ' O * - : ] ] ` / / / ` ` ^ ` u.l.C.S.S.Z.F.A.A.A.A.S.S.S.U.U.(..X+X'.d.^ ` ` ` ` ` =.-.>.>.>.-.-.-.-.-.-.-.` =.=./ I z I x ^ ] ] ` ] ] ` ] ] ] ] ] ` ` ] ] ] ] ] ] ] ] ] ] ] ] ] ] ] ] ] ] ] ] ] ] ] ] ] ] ] ] ] ] ] ] ] ] ] ] ] ] ] ] ] ] ] ] ] ] ] ] ] ] ] ] ] ] ] ] ] ] ] ] ] ] ] ] ] ] ] ] ] ] ] ] ] ] ] ] ] ] ] ] ] ] ] ] ] ] ] ] ] ] ] ] ] ] ] ] ] ] ] ] ] ] ] ] ] ] ] ] ] ] ] ] ] ] ] ] ] ] ] ] ] ] ] ] ] ] ] ] ] ] ` ] ] ] ] ;.u.w.p.q.) ^ ^ ^ n L L x z z l l j , ^ ] / ] ` ` ] ` ` ` ` ` ` ` ` ` ` ` ` ` ` ` ` ` ` ` ` ` ` ` ` ` ` ` ` ` ` ` ` ) ) +.! < % ; - ^ / ` ] / / / ` ` ` ` ` ) ` ` ` h W.2XwX",
"wXeX].a W #.&.( ` ` ` ` / / / / *.) ^ ' O ; - ; ` ` ) ) ) ` ` ` ^ ] d.n.G.m.b.m.M.V.m.n.A.S.A.S.U.S./.(.(..XA.3.C C C ^ ( ^ ^ ^ / / / ^ ^ ^ ^ ^ ^ ( C x c j j j k c x ^ E E E E c o. .K 2.f.*./ ] ] ] ] ] ] ] ] ] ] ] ] ] ] ] ] ] ] ] ] ] ] ] ] ] ] ] ] ] ] ] ] ] ] ] ] ] ] ] ] ] ] ] ] ] ] ] ] ] ] ] ] ] ] ] ] ] ] ] ] ] ] ] ] ] ] ] ] ] ] ] ] ] ] ] ] ] ] ] ] ] ] ] ] ] ] ] ] ] ] ] ] ] ] ] ] ] ] ] ] ] ] ] ] ] ] ] ] ] ] ] ] ] ] ] ] ] ] ] ] ] ] ] ] ] ] ] ] ] ` ] ] ] ] ;.u.w.p.q.) ^ ^ ^ n L L x z z l l j , ^ ] / ] ] ` ] ` ` ` ` ` ` ` ` ` ` ` ` ` ` ` ` ` ` ` ` ` ` ` ` ` ` ` ` ` ` ` ` ) ) +.! < % ; - ^ / ` ] / / / ` ` ` ` ` ` ` ` ` h T.2XwX",
"wXeX].a W #.&.( ` ` ` ` / / / / *.] ^ ' O ; - ; ` ` ) ) ) ` ` ` ^ 4.d.n.m.m.m.m.M.S.{.}.|. X/.{.+X|..X(.(.oX}.V.C.C.C.C.C.C.C.C.N.N.N.N.N.N.N.N.N.N.N.N.N.N.N.C.C.C.).).'.'.'.'.'.[.I.h./ %.-.<.] ] ] ] ] ] ] ] ] ] ] ] ] ] ] ] ] ] ] ] ] ] ] ] ] ] ] ] ] ] ] ] ] ] ] ] ] ] ] ] ] ] ] ] ] ] ] ] ] ] ] ] ] ] ] ] ] ] ] ] ] ] ] ] ] ] ] ] ] ] ] ] ] ] ] ] ] ] ] ] ] ] ] ] ] ] ] ] ] ] ] ] ] ] ] ] ] ] ] ] ] ] ] ] ] ] ] ] ] ] ] ] ] ] ] ] ] ] ] ] ] ] ] ] ] ] ] ] ] ` ] ] ] ] ;.u.w.p.q.) ^ ^ ^ n L L x z z l l j , ^ ] / ] ] ` ] ` ` ` ` ` ` ` ` ` ` ` ` ` ` ` ` ` ` ` ` ` ` ` ` ` ` ` ` ` ` ` ` ) ) +.! < % ; - ^ / ` ] / / / ` ` ` ` ` ` ` ` ` h T.2XwX",
"wXeX].a W #.&.( / / ` ` / / / / *.) ^ ' O ; - : ` ` ) ) ) ` ` ` ( 6.d.M.b.b.b.M.B. XoXOXOXoX|.oX+XXX.X(.(.}.+X{.{.{././././.U.D.S.S.A.A.A.A.A.Z.Z.A.S.D.H./.{. X|..XOXOXOXOX$X$X%X%X&X[.6.^ =.` ] ] ] ] ] ] ] ] ] ] ] ] ] ] ] ] ] ] ] ] ] ] ] ] ] ] ] ] ] ] ] ] ] ] ] ] ] ] ] ] ] ] ] ] ] ] ] ] ] ] ] ] ] ] ] ] ] ] ] ] ] ] ] ] ] ] ] ] ] ] ] ] ] ] ] ] ] ] ] ] ] ] ] ] ] ] ] ] ] ] ] ] ] ] ] ] ] ] ] ] ] ] ] ] ] ] ] ] ] ] ] ] ] ] ] ] ] ] ] ] ] ] ] ] ] ] ] ] ] ` ] ] ] ] ;.u.w.p.q.) ^ ^ ^ n L L x z z l l j , _ ] / ] ] ` ] ` ` ` ` ` ` ` ` ` ` ` ` ` ` ` ` ` ` ` ` ` ` ` ` ` ` ` ` ` ` ` ` ) ) O.! < % ; - ^ / ` ] / / / ` ` ` ` ` ` ` ` ` h W.2X0X",
"wXeX].a W #.&.( / ` ` ` / / / / *.) ^ ' O ; - : ` ` ` ) ) ` ` ` ( a.d.v.v.v.v.v.D..XOX.X.X.X}.oX{.{.}.(./.(.{.S.S.S.S.Z.Z.Z.Z.n.n.n.n.b.b.c.c.c.c.c.b.n.m.Z.Z.S././.(.}.}..XoXOX#X$X*X*Xk.] ] I ] ] ] ] ] ] ] ] ] ] ] ] ] ] ] ] ] ] ] ] ] ] ] ] ] ] ] ] ] ] ] ] ] ] ] ] ] ] ] ] ] ] ] ] ] ] ] ] ] ] ] ] ] ] ] ] ] ] ] ] ] ] ] ] ] ] ] ] ] ] ] ] ] ] ] ] ] ] ] ] ] ] ] ] ] ] ] ] ] ] ] ] ] ] ] ] ] ] ] ] ] ] ] ] ] ] ] ] ] ] ] ] ] ] ] ] ] ] ] ] ] ] ] ] ] ] ] ] ] ` ] ] ] ] ;.u.w.p.q.) ^ ^ ^ n L L x z z l l j , ^ ] / ] ) ` ] ` ` ` ` ` ` ` ` ` ` ` ` ` ` ` ` ` ` ` ` ` ` ` ` ` ` ` ` ` ` ` ` ) ) O.! < % ; - ^ / ` ] / / / ` ` ` ` ` ` ` ` ` h W.2X0X",
"wXeX].a W #.&.( / / / / / / / / *.) ^ ' O ; - : ` ` ` ) ) ` ` ` ) a.s.s.7.7.s.s.D..X.X/.(..X}.}. X/.}.(./././.A.D.D.S.A.A.Z.m.m.b.b.b.v.z.7.7.7.z.v.b.n.m.m.A.A.H.H.{.{.}.|.oXOX#X#X&X&X6.` 2.O.] ] ] ] ] ] ] ] ] ] ] ] ] ] ] ] ] ] ] ] ] ] ] ] ] ] ] ] ] ] ] ] ] ] ] ] ] ] ] ] ] ] ] ] ] ] ] ] ] ] ] ] ] ] ] ] ] ] ] ] ] ] ] ] ] ] ] ] ] ] ] ] ] ] ] ] ] ] ] ] ] ] ] ] ] ] ] ] ] ] ] ] ] ] ] ] ] ] ] ] ] ] ] ] ] ] ] ] ] ] ] ] ] ] ] ] ] ] ] ] ] ] ] ] ] ] ] ] ] ` ] ] ] ] ;.u.w.p.q.) ^ ^ ^ n L L x z z l l j , _ ] / ] ) ` ] ` ` ` ` ` ` ` ` ` ` ` ` ` ` ` ` ` ` ` ` ` ` ` ` ` ` ` ` ` ` ` ` ) ) +.! < % ; - ^ / ` ] / / / ` ` ` ` ` ` ` ` ` h T.2X0X",
"qXeX].a W #.&.( / / / / / / / / *.] ^ ' O ; - ; ` ` ` ) ) ` ` ` 4.d.M.v.7.7.s.d.A.|..X}..XoX.X XoX X/./.H././.S.D.D.F.F.A.V.V.m.M.M.M.v.s.s.s.s.s.v.M.B.B.C.F.).).@X{. X|.+XOXOX$X#X&X*X6.( / ` ] ] ] ] ] ] ] ] ] ] ] ] ] ] ] ] ] ] ] ] ] ] ] ] ] ] ] ] ] ] ] ] ] ] ] ] ] ] ] ] ] ] ] ] ] ] ] ] ] ] ] ] ] ] ] ] ] ] ] ] ] ] ] ] ] ] ] ] ] ] ] ] ] ] ] ] ] ] ] ] ] ] ] ] ] ] ] ] ] ] ] ] ] ] ] ] ] ] ] ] ] ] ] ] ] ] ] ] ] ] ] ] ] ] ] ] ] ] ] ] ] ] ] ] ] ] ] ] ] ` ] ] ] ] ;.u.w.p.q.) ^ ^ ^ n L L x z z l l j q _ >./ ] ) ` ] ` ` ` ` ` ` ` ` ` ` ` ` ` ` ` ` ` ` ` ` ` ` ` ` ` ` ` ` ` ` ` ` ) ) +.! < % ; - ^ / ` ] / / / ` ` ` ` ` ` ` ` ` h T.2X0X",
"qXeX].a W #.&.( / / / / / / / / *.] ^ ' O ; - ; ` ` ` ) ) ` ` ` 4.l.B.b.z.s.s.d.M.|.+X}..X.X|. X.X/././.S.S./.S.A.A.A.A.V.m.m.m.v.v.x.z.s.7.7.7.7.s.v.M.M.B.A.F.F.D.H.{. X|.oXoX$X$X&X*Xg.) n ^ ] ] ] ] ] ] ] ] ] ] ] ] ] ] ] ] ] ] ] ] ] ] ] ] ] ] ] ] ] ] ] ] ] ] ] ] ] ] ] ] ] ] ] ] ] ] ] ] ] ] ] ] ] ] ] ] ] ] ] ] ] ] ] ] ] ] ] ] ] ] ] ] ] ] ] ] ] ] ] ] ] ] ] ] ] ] ] ] ] ] ] ] ] ] ] ] ] ] ] ] ] ] ] ] ] ] ] ] ] ] ] ] ] ] ] ] ] ] ] ] ] ] ] ] ] ] ] ] ] ` ] ] ] ] ;.u.w.p.q.) ^ ^ ^ n L L x z z l l j q _ >./ ] ) ` ] ` ` ` ` ` ` ` ` ` ` ` ` ` ` ` ` ` ` ` ` ` ` ` ` ` ` ` ` ` ` ` ` ) ) +.! < % ; - ^ / ` ] / / / ` ` ` ` ` ` ` ` ` h T.2X0X",
"qXeX].a W #.&.) / / / / / / / / *.] ^ ' O ; - ; ` ` ` ) ) ` ` ` 6.l.C.n.v.v.s.d.B.|.OX XH. X X|.(./. X|./.D./.H.S.S.S.A.Z.Z.Z.Z.b.b.v.v.z.z.z.z.z.v.b.m.m.m.A.A.H.H. X}..X.XoXOX$X$X$X*X6.) n u.] ] ] ] ] ] ] ] ] ] ] ] ] ] ] ] ] ] ] ] ] ] ] ] ] ] ] ] ] ] ] ] ] ] ] ] ] ] ] ] ] ] ] ] ] ] ] ] ] ] ] ] ] ] ] ] ] ] ] ] ] ] ] ] ] ] ] ] ] ] ] ] ] ] ] ] ] ] ] ] ] ] ] ] ] ] ] ] ] ] ] ] ] ] ] ] ] ] ] ] ] ] ] ] ] ] ] ] ] ] ] ] ] ] ] ] ] ] ] ] ] ] ] ] ] ] ] ] ] ` ] ] ] ] ;.p.w.p.q.) ^ ^ ^ n L L x z z l l j q _ >./ ] ) ` ] ` ` ` ` ` ` ` ` ` ` ` ` ` ` ` ` ` ` ` ` ` ` ` ` ` ` ` ` ` ` ` ` ) ) +.! < % ; - ^ / ` ] / / / ` ` ` ` ` ` ` ` ` h T.2X0X",
"rX7XJ.f ! ` D ' / / / / / / / / -.^ ' ! =   - ; ` ` ` ` ` ` ` ` q.d.A.A.n.x.x.x.F.@X|.|.|. X X|.|. X{.{.{././.S.S.S.S.Z.Z.Z.Z.Z.n.n.n.b.v.v.j.j.v.v.b.n.m.G.A.S.D.D.{. X|.+XOXOX#X#X*X%Xk.K _ >.] ] ] ] ] ] ] ] ] ] ] ] ] ] ] ] ] ] ] ] ] ] ] ] ] ] ] ] ] ] ] ] ] ] ] ] ] ] ] ] ] ] ] ] ] ] ] ] ] ] ] ] ] ] ] ] ] ] ] ] ] ] ] ] ] ] ] ] ] ] ] ] ] ] ] ] ] ] ] ] ] ] ] ] ] ] ] ] ] ] ] ] ] ] ] ] ] ] ] ] ] ] ] ] ] ] ] ] ] ] ] ] ] ] ] ] ] ] ] ] ] ] ] ] ] ] ] ] ] ` / ] ] ` ] t.w.p.q.) ^ ^ ^ n L L x z z l l j , ^ ] / ] ) ` ] ` ` ` ` ` ` ` ` ` ` ` ` ` ` ` ` ` ` ` ` ` ` ` ` ` ` ` ` ` ` ` ` ) ) +.! < % ; - ^ / / ` / / / / ) ) ) ) ) ) ) ) y W.4X0X",
"rX7XJ.f ! ` D ' / / / / / / / / -.^ ' ! =   - ; ` ` ` ` ` ` ` ` ( l.F.A.m.n.B.B.n.A.{.|.|. X{.{.U.D.D.S.S.A.Z.Z.V.m.m.n.v.v.v.v.v.v.v.v.j.s.7.s.7.g.c.v.n.n.V.Z.A.S.D.H./. XXXXX#X#X$X$Xh.L ` ` ] ] ] ] ] ] ] ] ] ] ] ] ] ] ] ] ] ] ] ] ] ] ] ] ] ] ] ] ] ] ] ] ] ] ] ] ] ] ] ] ] ] ] ] ] ] ] ] ] ] ] ] ] ] ] ] ] ] ] ] ] ] ] ] ] ] ] ] ] ] ] ] ] ] ] ] ] ] ] ] ] ] ] ] ] ] ] ] ] ] ] ] ] ] ] ] ] ] ] ] ] ] ] ] ] ] ] ] ] ] ] ] ] ] ] ] ] ] ] ] ] ] ] ] ] ] ] ] ] ` / ] ] ` ] t.w.p.q.) ^ ^ ^ n L L x z z l l j , ^ ] / ] ) ` ] ` ` ` ` ` ` ` ` ` ` ` ` ` ` ` ` ` ` ` ` ` ` ` ` ` ` ` ` ` ` ` ` ) ) +.! < % ; - ^ / / ` / / / / ) ) ) ) ) ) / / y W.4X0X",
"rX6XJ.f ! ` D ' / / / / / / / / -.^ ' ! =   - ; ` ` ` ` ` ` ` ` N d.F.F.G.A.A.B.v.b.m.A.A.A.m.n.m.m.V.V.m.b.b.b.j.j.j.g.g.8.g.g.5.5.5.4.4.4.4.4.3.5.9.9.9.8.8.7.c.v.b.n.m.V.A.U.^.P.`.C.X.I <.` ] ] ] ] ] ] ] ] ] ] ] ] ] ] ] ] ] ] ] ] ] ] ] ] ] ] ] ] ] ] ] ] ] ] ] ] ] ] ] ] ] ] ] ] ] ] ] ] ] ] ] ] ] ] ] ] ] ] ] ] ] ] ] ] ] ] ] ] ] ] ] ] ] ] ] ] ] ] ] ] ] ] ] ] ] ] ] ] ] ] ] ] ] ] ] ] ] ] ] ] ] ] ] ] ] ] ] ] ] ] ] ] ] ] ] ] ] ] ] ] ] ] ] ] ] ] ] ] ] ` ` ] ] ] ] t.w.p.q.) ^ ^ ^ n L L x z z l l j , ^ ] / ] ] ` ] ` ` ` ` ` ` ` ` ` ` ` ` ` ` ` ` ` ` ` ` ` ` ` ` ` ` ` ` ` ` ` ` ) ) +.! < % ; - ^ / / ` / / / / ) ) / / / / / / y W.4X0X",
"rX6XJ.f ! ` D ' / / / / / / / / -.^ ' ! = . - ; ` ` ` ` ` ` ` ` N a.N.F.D.F.A.B.b.g.8.9.9.9.9.9.3.3.3.3.5.3.3.3.~ R R R R ~ ~ ~ V V M M M M M M M R R R R R R ~ ~ 4.4.4.6.6.6.6.k.k.k.a.^ ` 2.` ] ] ] ] ] ] ] ] ] ] ] ] ] ] ] ] ] ] ] ] ] ] ] ] ] ] ] ] ] ] ] ] ] ] ] ] ] ] ] ] ] ] ] ] ] ] ] ] ] ] ] ] ] ] ] ] ] ] ] ] ] ] ] ] ] ] ] ] ] ] ] ] ] ] ] ] ] ] ] ] ] ] ] ] ] ] ] ] ] ] ] ] ] ] ] ] ] ] ] ] ] ] ] ] ] ] ] ] ] ] ] ] ] ] ] ] ] ] ] ] ] ] ] ] ] ] ] ] ] ` ` ] ] ` ] t.w.p.q.) ^ ^ ^ n L L x z z l l j , ^ ] / ] ] ` ] ` ` ` ` ` ` ` ` ` ` ` ` ` ` ` ` ` ` ` ` ` ` ` ` ` ` ` ` ` ` ` ` ) ) +.! < % ; - ^ / / ` / / / / ) / / / ` / / / h W.4X0X",
"rX6XJ.f ! ` F ' / / / / / / / / -.^ ' ! =   - ; ` ` ` ` ` ` ` ` ^ ( a.). X).A.F.A.b.8.3.3.3.3.3.3.3.3.3.3.~ M 7 6 6 c c c K E E ( ( ( E E N N N n ^ ^ n x k k k z I ^ ( ( / ^ ^ ' ' +.` ^ >.2.` ] ] ] ] ] ] ] ] ] ] ] ] ] ] ] ] ] ] ] ] ] ] ] ] ] ] ] ] ] ] ] ] ] ] ] ] ] ] ] ] ] ] ] ] ] ] ] ] ] ] ] ] ] ] ] ] ] ] ] ] ] ] ] ] ] ] ] ] ] ] ] ] ] ] ] ] ] ] ] ] ] ] ] ] ] ] ] ] ] ] ] ] ] ] ] ] ] ] ] ] ] ] ] ] ] ] ] ] ] ] ] ] ] ] ] ] ] ] ] ] ] ] ] ] ] ] ] ] ] ` / ] ] ` ] t.w.p.q.) ^ ^ ^ n L L x z z l l j , _ ] / ] ] ` ] ` ` ` ` ` ` ` ` ` ` ` ` ` ` ` ` ` ` ` ` ` ` ` ` ` ` ` ` ` ` ` ` ) ) O.! < % ; - ^ / / ` / / / / / ` ` / ` / / / h W.4XwX",
"rX6XJ.f ! ` D ' / / / / / / / / -.^ ' ! =   - ; ` ` ` ` ` ` ` ` / ^ ] l.).).D.D.{.S.A.m.n.b.v.7.n.c.g.8.6.6.~ E ^ ^ _ ' ' ] 4.u.-.-.] ] ] ] ] ] =.>.>.=.Y n x z L T ` -.-.) / Y ^ ] ] ^ ` ;.>./ ] ] ] ] ] ] ] ] ] ] ] ] ] ] ] ] ] ] ] ] ] ] ] ] ] ] ] ] ] ] ] ] ] ] ] ] ] ] ] ] ] ] ] ] ] ] ] ] ] ] ] ] ] ] ] ] ] ] ] ] ] ] ] ] ] ] ] ] ] ] ] ] ] ] ] ] ] ] ] ] ] ] ] ] ] ] ] ] ] ] ] ] ] ] ] ] ] ] ] ] ] ] ] ] ] ] ] ] ] ] ] ] ] ] ] ] ] ] ] ] ] ] ] ] ] ] ] ] ] ` / ] ] ` ] t.w.p.q.) ^ ^ ^ n L L x z z l l w q _ <./ ] ` ` ] ` ` ` ` ` ` ` ` ` ` ` ` ` ` ` ` ` ` ` ` ` ` ` ` ` ` ` ` ` ` ` ` ) ) O.! < % ; - ^ / / ` / / / / ) ) ` / / / / / h W.4XwX",
"rX7XJ.f ! ` D ' / / / / / / / / -.^ ' ! =   - ; ` ` ` ` ` ` ` ` ` ^ ^ ] d.C.F.A.D.D.D.D.D.S.A.m.c.c.g.8.4.~ E L ^ ^ / / / ] ] ] ,.>.-.-.-.-.-.-.>.2.2.>.` I n x J U / ` ] ] -.>./ >.-.) ] ] / ` ] ] ] ] ] ] ] ] ] ] ] ] ] ] ] ] ] ] ] ] ] ] ] ] ] ] ] ] ] ] ] ] ] ] ] ] ] ] ] ] ] ] ] ] ] ] ] ] ] ] ] ] ] ] ] ] ] ] ] ] ] ] ] ] ] ] ] ] ] ] ] ] ] ] ] ] ] ] ] ] ] ] ] ] ] ] ] ] ] ] ] ] ] ] ] ] ] ] ] ] ] ] ] ] ] ] ] ] ] ] ] ] ] ] ] ] ] ] ] ] ] ] ] ] ] ] ] ] ] ` / ] ] ` ] t.w.p.q.) ^ ^ ^ n L L x z z l l j q _ ] / ] ] ` ] ` ` ` ` ` ` ` ` ` ` ` ` ` ` ` ` ` ` ` ` ` ` ` ` ` ` ` ` ` ` ` ` ) ) O.! < % ; - ^ / / ` / / / / ) ) ) ) ) ) / ` h W.2XwX",
"rX9XJ.f ! ` D ' / / / / / / / / -.^ ' ! =   - ; ` ` ` ` ` ` ` ` ^ >.^ j V M.A.b.m.n.m.m.n.m.b.v.g.g.g.8.~ R E _ *.*.) ) ) ) ) *.,.,.,.>.-.-.-.-._ ' ' _ E c c l H H L N ( ( ] 4./ >.*.) ) ^ ^ ] ] ] ] ] ] ] ] ] ] ] ] ] ] ] ] ] ] ] ] ] ] ] ] ] ] ] ] ] ] ] ] ] ] ] ] ] ] ] ] ] ] ] ] ] ] ] ] ] ] ] ] ] ] ] ] ] ] ] ] ] ] ] ] ] ] ] ] ] ] ] ] ] ] ] ] ] ] ] ] ] ] ] ] ] ] ] ] ] ] ] ] ] ] ] ] ] ] ] ] ] ] ] ] ] ] ] ] ] ] ] ] ] ] ] ] ] ] ] ] ] ] ] ] ] ] ] ] ] ] ` / ] ] ` ] t.w.p.q.) ^ ^ ^ n L L x z z l l l , _ ] / ] ] ` ] ` ` ` ` ` ` ` ` ` ` ` ` ` ` ` ` ` ` ` ` ` ` ` ` ` ` ` ` ` ` ` ` ) ) O.! < % ; - ^ / / ` / / / / ) ) ) ) ) ) ) ) h W.2XwX",
"rX7XJ.f ! ` D ' / / / / / / / / ) ( ^ ' @ % X ; ` ` ` _ ` ` / ` ^ -.;.` x N 4.d.V.m.m.M.v.j.j.j.s.6.4.^ ( ^ / / ` ` ` / / ) -.:.>.>.>.>.-.-.-.-.] ] ] ] / U I z k k k n n Y / ] ` ] ] ] ] ] ) ) ] ] ] ] ] ] ] ] ] ] ] ] ] ] ] ] ] ] ] ] ] ] ] ] ] ] ] ] ] ] ] ] ] ] ] ] ] ] ] ] ] ] ] ] ] ] ] ] ] ] ] ] ] ] ] ] ] ] ] ] ] ] ] ] ] ] ] ] ] ] ] ] ] ] ] ] ] ] ] ] ] ] ] ] ] ] ] ] ] ] ] ] ] ] ] ] ] ] ] ] ] ] ] ] ] ] ] ] ] ] ] ] ] ] ] ] ] ] ] ] ] ] ] ] ] ] ] ] ] ] ] ] ] ] ;.;.p.t.] / ^ ^ ^ ^ L L x z z l l j , ^ ] / / / / ` / / / / / / / / / / / / / / / / / / / / / / / / / / / / / / / / ) / ' ! < % ; - ^ / / ` / / / / ` / / / / / ) ) h W.4XwX",
"rX7XJ.f ! ` D ' / / / / / / / / ) ( ^ ' @ % X ; ` ` ` / ` ` ` ` ) ` ] ^ N N E ' 6.8.s.j.j.7.6.6.' W E ^ ^ / ` ) ` ` ` / / ) -.:.>.>.>.>.-.-.-.-.] =.=.` ` ^ I n n n x z x n I U ] ] ] ] ] ] ) ) ] ] ] ] ] ] ] ] ] ] ] ] ] ] ] ] ] ] ] ] ] ] ] ] ] ] ] ] ] ] ] ] ] ] ] ] ] ] ] ] ] ] ] ] ] ] ] ] ] ] ] ] ] ] ] ] ] ] ] ] ] ] ] ] ] ] ] ] ] ] ] ] ] ] ] ] ] ] ] ] ] ] ] ] ] ] ] ] ] ] ] ] ] ] ] ] ] ] ] ] ] ] ] ] ] ] ] ] ] ] ] ] ] ] ] ] ] ] ] ] ] ] ] ] ] ] ] ] ] ] ` ] ] ] ;.;.t.;.] / ^ ^ ^ ^ L L x z z l l j , ^ ] / / ` / ` / / / / / / / / / / / / / / / / / / / / / / / / / / / / / / / / ) / ' _ < % ; - ^ / / ` / / / / ` ` / / ) / ) ) h W.4XwX",
"rX7XJ.f ! ` D ' / / / / / / / / ) ( ^ ' @ % X ; ` ` ` / ` ` ` ` ` ) / ^ ^ ^ x c N E ( ' ' ( E E x x n ^ ` ] ] ` ` ` ` / ^ ) -.:.>.>.>.>.-.-.-.-.] >.>.>.` ` ^ I n n n z k z z n ` ` ] ] ] ] / / ] ] ] ] ] ] ] ] ] ] ] ] ] ] ] ] ] ] ] ] ] ] ] ] ] ] ] ] ] ] ] ] ] ] ] ] ] ] ] ] ] ] ] ] ] ] ] ] ] ] ] ] ] ] ] ] ] ] ] ] ] ] ] ] ] ] ] ] ] ] ] ] ] ] ] ] ] ] ] ] ] ] ] ] ] ] ] ] ] ] ] ] ] ] ] ] ] ] ] ] ] ] ] ] ] ] ] ] ] ] ] ] ] ] ] ] ] ] ] ] ] ] ] ] ] ] ] ] ] ] ` ] ] ] ] ;.;.] ] / ^ ^ ^ I L L x z z l l j , ^ ] / / / ` ` / / / / / / / / / / / / / / / / / / / / / / / / / / / / / / / / ) / ] _ < % ; - ^ / / ` / / / / ) ) ) ) ) ) ) ) h W.4XwX",
"rX6XJ.f ! ` D ' / / / / / / / / ) ( ^ ' @ % X ; ` ` ` / ` ` ` ` ) ^ ^ / ` ` ( x n n x x z x x x I ^ / ) ` ] ` / _ ` ` / ^ ) -.:.>.>.>.>.-.-.-.-.>.>.>.>.-.` ) ^ C n n n z z n n U ^ ` ] ] ] ] ] ] ] ] ] ] ] ] ] ] ] ] ] ] ] ] ] ] ] ] ] ] ] ] ] ] ] ] ] ] ] ] ] ] ] ] ] ] ] ] ] ] ] ] ] ] ] ] ] ] ] ] ] ] ] ] ] ] ] ] ] ] ] ] ] ] ] ] ] ] ] ] ] ] ] ] ] ] ] ] ] ] ] ] ] ] ] ] ] ] ] ] ] ] ] ] ] ] ] ] ] ] ] ] ] ] ] ] ] ] ] ] ] ] ] ] ] ] ] ] ] ] ] ] ] ] ] ] ] ] ] ` ` ] ] ] ] ` ` ` / / ^ I n L L x z z l l j , ^ ] / / / ` ` / / / / / / / / / / / / / / / / / / / / / / / / / / / / / / / / ) / ] _ < % ; - ^ / / ` / / / / ) ) ) ) ) ) ) ) h W.2XwX",
"rX6XJ.f ! ` D ' / / / / / / / / ) ( ^ ' @ % X ; ` ` ` / ` / / ` / / ) / / / / ` ` ^ ^ I I ^ ^ ) =.=.` ` / ^ / / ` ` ` / ^ ) -.:.>.>.>.>.-.-.-.-.>.>.>.>.>.-.` ` ) / Z n n n n n L L I / ` ] ] ] ] ] ] ] ] ] ] ] ] ] ] ] ] ] ] ] ] ] ] ] ] ] ] ] ] ] ] ] ] ] ] ] ] ] ] ] ] ] ] ] ] ] ] ] ] ] ] ] ] ] ] ] ] ] ] ] ] ] ] ] ] ] ] ] ] ] ] ] ] ] ] ] ] ] ] ] ] ] ] ] ] ] ] ] ] ] ] ] ] ] ] ] ] ] ] ] ] ] ] ] ] ] ] ] ] ] ] ] ] ] ] ] ] ] ] ] ] ] ] ] ] ] ] ] ] ] ] ] ] ] ` ` ` ] ] ] / / ` / / ^ I n L L x z z l l j , ^ ] / / / / ` / / / / / / / / / / / / / / / / / / / / / / / / / / / / / / / / ) / ] _ < % ; - ^ / / ` / / / / ) ) ) ) ) ) ) ) h W.2XwX",
"rX6XJ.f ! ` D ' / / / / / / / ` ) ( ^ ' @ % X ; ` ` ` ` ` / / ` / ` ` / ^ ^ / ` I ^ ` -.>.-.` ` ` ` ` / ^ ^ / ] ` ` ` / ^ ) -.:.>.>.>.>.-.-.-.-.-.-.-.-.-.-.-.-.-.-.*.) ^ I n z z J L I ^ ` ] ;.] ] ] ] ] ] ] ] ] ] ] ] ] ] ] ] ] ] ] ] ] ] ] ] ] ] ] ] ] ] ] ] ] ] ] ] ] ] ] ] ] ] ] ] ] ] ] ] ] ] ] ] ] ] ] ] ] ] ] ] ] ] ] ] ] ] ] ] ] ] ] ] ] ] ] ] ] ] ] ] ] ] ] ] ] ] ] ] ] ] ] ] ] ] ] ] ] ] ] ] ] ] ] ] ] ] ] ] ] ] ] ] ] ] ] ] ] ] ] ] ] ] ] ] ] ] ] ] ] ] ` ` ` ` ] ] / ` ` / / ^ I n L L x z z l l j , ^ ] / / / / ` / / / / / / / / / / / / / / / / / / / / / / / / / / / / / / / / ) / ] _ < % ; - ^ / / ` / / / / ) / ) ) ) ) ) ) h W.4XwX",
"rX6XJ.f ! ' D ' / / / / / / ` ` ) ( ^ ' @ % X ; ` ` ` ` ` / / ` / ` ` ) ^ ^ ^ ^ I ^ / ` ] ` / ^ ^ / ` / ^ ^ ` -.` ` ` / ) ) -.:.>.>.-.-.-.-.-.-.-.-.-.-.-.-.-.-.*.-.-.>.` ^ n z z J J L I ^ ` ] ] ] ] ] ] ] ] ] ] ] ] ] ] ] ] ] ] ] ] ] ] ] ] ] ] ] ] ] ] ] ] ] ] ] ] ] ] ] ] ] ] ] ] ] ] ] ] ] ] ] ] ] ] ] ] ] ] ] ] ] ] ] ] ] ] ] ] ] ] ] ] ] ] ] ] ] ] ] ] ] ] ] ] ] ] ] ] ] ] ] ] ] ] ] ] ] ] ] ] ] ] ] ] ] ] ] ] ] ] ] ] ] ] ] ] ] ] ] ] ] ] ] ] ] ] ] ] ] ] ] ` / / ` ` ] ] ] ] / / ^ I n L L x z z l l j , ^ ] / / / / ` / / / / / / / / / / / / / / / / / / / / / / / / / / / / / / / / ) / ' ! < % ; - ^ / / ` / / / / / / / / ) ) ) ) h W.4XwX",
"rX6XJ.f ! ' F ' / / / / / / ` ` ) ( ^ ' @ % X ; ` ` ` ` ` / / ` / / ) ` ` ` ` ^ ] ` ^ ^ ^ ^ ^ ^ ^ ' ` ] ` / ` ` ` ` ` / ) ) -.:.>.>.-.-.-.-.-.-.-.-.-.-.*.) *.*.) ) -.>.>.` ^ I J J J z L I / ` ] ] ] ] ] ] ] ] ] ] ] ] ] ] ] ] ] ] ] ] ] ] ] ] ] ] ] ] ] ] ] ] ] ] ] ] ] ] ] ] ] ] ] ] ] ] ] ] ] ] ] ] ] ] ] ] ] ] ] ] ] ] ] ] ] ] ] ] ] ] ] ] ] ] ] ] ] ] ] ] ] ] ] ] ] ] ] ] ] ] ] ] ] ] ] ] ] ] ] ] ] ] ] ] ] ] ] ] ] ] ] ] ] ] ] ] ] ] ] ] ] ] ] ] ] ] ] ] ] ] ` / / / ` ` ] ] ] / / ^ ^ I L L x z z l l j , ^ ] / / / / ` / / / / / / / / / / / / / / / / / / / / / / / / / / / / / / / / ) ^ ' ! < % ; - ^ / / ` / / / / / / / ) ) ) ) / h W.4X0X",
"rX6XJ.f ! ` D ' ` / / / / / / / ) ( _ X.& % % ; O.` ` / / / ` ` / / / / / / / / / / / / / / / / / / / / / / / / ` ` ) ) ) -.>.>.>.>.>.>.>.>.-.-.-.-.-.-.-.*.*.) ) -.-.-.-.-.) ) x x I x z z I X.;.] / / ` ] ] / ] ] ] ] ] ] ] ] ] ] ] ] ] ] ] ] ] ] ] ] ] ] ] ] ] ] ] ] ] ] ] ] ] ] ] ] ] ] ] ] ] ] ] ] ] ] ] ] ] ] ] ] ] ] ] ] ] ] ] ] ] ] ] ] ] ] ] ] ] ] ] ] ] ] ] ] ] ] ] ] ] ] ] ] ] ] ] ] ] ] ] ] ] ] ] ] ] ] ] ] ] ] ] ] ] ] ] ] ] ] ] ] ] ] ] ] ] ] ] ] ] ] ] ] ] ] ] ] ] ] ] ` / ^ ^ n L L x z z l l j $ n ] / ^ ] ] / / / / / / / / / / / / / / / / / / / / / / / / / / / / / / / / / ) / ' ! < % ; ; ^ / ` ] / / / ` ) ) ) ) ) ) ) ) h W.4XwX",
"rX6XJ.f ! ` D ' ` / / / / / / / ) ( ^ X.& % % ; O.` ` / / / ` ` / / / / / / / / / / / / / / / / / / / / / / / / ` ` ) / ) -.>.>.>.>.>.>.>.-.-.-.-.-.-.-.-.-.-.-.-.-.-.-.-.] ) ) I I L z z L I ^ ] ` / / / ] ] ` ] ] ] ] ] ] ] ] ] ] ] ] ] ] ] ] ] ] ] ] ] ] ] ] ] ] ] ] ] ] ] ] ] ] ] ] ] ] ] ] ] ] ] ] ] ] ] ] ] ] ] ] ] ] ] ] ] ] ] ] ] ] ] ] ] ] ] ] ] ] ] ] ] ] ] ] ] ] ] ] ] ] ] ] ] ] ] ] ] ] ] ] ] ] ] ] ] ] ] ] ] ] ] ] ] ] ] ] ] ] ] ] ] ] ] ] ] ] ] ] ] ] ] ] ] ] ] ] ] ] ] ` / ^ ^ n z z z z l l j w # n ] / ^ ` ] / / / / / / / / / / / / / / / / / / / / / / / / / / / / / / / / / ) / ' _ < % ; ; ^ / ` ] / / / ` ) ) ) ) ) ) / / h W.4XwX",
"rX9XJ.f ! ` D ' ` / / / / / / / ) ( ^ X.& % % ; X.` ` / / / ` ` / / / / / / / / / / / / / / / / / / / / / / / / ` ` ) / ) ` -.>.>.>.>.>.>.-.-.-.-.-.>.>.-.-.-.-.-.-.-.-.-.-.] ) ] ^ L z L L I I / / ` ` / / ` ] ] ] ] ] ] ] ] ] ] ] ] ] ] ] ] ] ] ] ] ] ] ] ] ] ] ] ] ] ] ] ] ] ] ] ] ] ] ] ] ] ] ] ] ] ] ] ] ] ] ] ] ] ] ] ] ] ] ] ] ] ] ] ] ] ] ] ] ] ] ] ] ] ] ] ] ] ] ] ] ] ] ] ] ] ] ] ] ] ] ] ] ] ] ] ] ] ] ] ] ] ] ] ] ] ] ] ] ] ] ] ] ] ] ] ] ] ] ] ] ] ] ] ] ] ] ] ] ] ] ] ] ` / ^ ^ I I L x z z l j w q n ] / ^ ` ] / / / / / / / / / / / / / / / / / / / / / / / / / / / / / / / / / ) ) ] _ < % ; ; ^ / ` ] / / / ` ) ) ) ) ` ` / / h W.4XwX",
"rX9XJ.f ! ` D ' / / / / / / / / ) ( ^ X.& % % ; X.` ` / / / ` ` / / / / / / / / / / / / / / / / / / / / / / / / ` ` ) ) ) ` ` -.-.-.-.;.-.>.>.>.>.>.>.>.>.>.>.>.-.-.-.-.-.-.] ) ;.` U L J L L L n ^ ` ] / / ` ] ] ] ] ] ] ] ] ] ] ] ] ] ] ] ] ] ] ] ] ] ] ] ] ] ] ] ] ] ] ] ] ] ] ] ] ] ] ] ] ] ] ] ] ] ] ] ] ] ] ] ] ] ] ] ] ] ] ] ] ] ] ] ] ] ] ] ] ] ] ] ] ] ] ] ] ] ] ] ] ] ] ] ] ] ] ] ] ] ] ] ] ] ] ] ] ] ] ] ] ] ] ] ] ] ] ] ] ] ] ] ] ] ] ] ] ] ] ] ] ] ] ] ] ] ] ] ] ] ] ] ] ` / ^ ^ I I I L z l j q q k ^ ] / / / ] / / / / / / / / / / / / / / / / / / / / / / / / / / / / / / / / / ) ) ] _ < % ; - ^ / ` ] / / / ` ) ) ) ) / ` / / h W.4XwX",
"rX7XJ.f ! ` D ' / / / / / / / / ) ( ^ X.& % % ; X.` ` / / / ` ` / / / / / / / / / / / / / / / / / / / / / / / / ` ` ) ) ) ` ` ` ) ] ] -.-.;.q.q.>.>.>.>.>.>.>.>.-.-.-.-.;.-.] ] ] ] ] ^ x z z I x ^ / ] / / ` ] ] ] ] ] ] ] ] ] ] ] ] ] ] ] ] ] ] ] ] ] ] ] ] ] ] ] ] ] ] ] ] ] ] ] ] ] ] ] ] ] ] ] ] ] ] ] ] ] ] ] ] ] ] ] ] ] ] ] ] ] ] ] ] ] ] ] ] ] ] ] ] ] ] ] ] ] ] ] ] ] ] ] ] ] ] ] ] ] ] ] ] ] ] ] ] ] ] ] ] ] ] ] ] ] ] ] ] ] ] ] ] ] ] ] ] ] ` ] ] ] ] ] ] ] ] ] ] ] ] ] ` / / ^ ^ ^ x x x z k j j j n ^ / / / / ` / / / / / / / / / / / / / / / / / / / / / / / / / / / / / / / / / ) ) O.! < % ; ; ^ / ` ] / / / ` ) / / / / ) ) ) h W.2XwX",
"rX6XJ.f ! ` D ' / / / / / / / / ) ( ^ X.& % % ; X.` ` / / / ` ` / / / / / / / / / / / / / / / / / / / / / / / / ) ) ) ) ) ` ) ) / / ) ] ) ;.;.q.-.-.>.>.>.>.>.>.-.-.-.-.;.-.-.] ] ;.<.` I z z L z n ^ ` ] ] ] ] ] ] ] ] ] ] ] ] ] ] ] ] ] ] ] ] ] ] ] ] ] ] ] ] ] ] ] ] ] ] ] ] ] ] ] ] ] ] ] ] ] ] ] ] ] ] ] ] ] ] ] ] ] ] ] ] ] ] ] ] ] ] ] ] ] ] ] ] ] ] ] ] ] ] ] ] ] ] ] ] ] ] ] ] ] ] ] ] ] ] ] ] ] ] ] ] ] ] ] ] ] ] ] ] ] ] ] ] ] ] ] ] ] ] ] ] ` ` ] ] ] ] ] ] ] ] ] ] ` ` ` / / ^ ^ ^ n n n n I ^ ^ ^ ^ / ` / / / / ` / / / / / / / / / / / / / / / / / / / / / / / / / / / / / / / / ) ) ] ! < % ; - ^ / ` ] / / / ` ) / / / ) ) ) ) h W.2XwX",
"rX6XJ.f ! ` D ' / / / / / / / / ) ( ^ X.& % X ; X.` ` / / / ` ` / / / / / / / / / / / / / / / / / / / / / / / / ) ) ` ` ` ) ) ^ / / ( ( ( ] ] ) -.-.-.>.>.>.>.>.-.-.;.;.;.-.-.-.] ] O.] ^ I J J k x I / ] ] ] / ] ] ] ] ] ] ] ] ] ] ] ] ] ] ] ] ] ] ] ] ] ] ] ] ] ] ] ] ] ] ] ] ] ] ] ] ] ] ] ] ] ] ] ] ] ] ] ] ] ] ] ] ] ] ] ] ] ] ] ] ] ] ] ] ] ] ] ] ] ] ] ] ] ] ] ] ] ] ] ] ] ] ] ] ] ] ] ] ] ] ] ] ] ] ] ] ] ] ] ] ] ] ] ] ] ] ] ] ] ] ] ] ] ] ] ] ` ` ` ` ] ] ] ] ] ] ] ] ` ` ` / / / ^ ^ / / / ` ] ] ] ] / / / / / / / ` / / / / / / / / / / / / / / / / / / / / / / / / / / / / / / / / ) / O.! < % ; - ^ / ` ] / / / ` ) ) / / ) ) ) ) h W.4XwX",
"rX6XJ.f ! ` D ' / / / / / / / / ) ( ^ X.& % X ; X.` ` / / / ` ` / / / / / / / / / / / / / / / / / / / / / / / / ) ) ` ` ` ) / ^ ) ( ( ( ( ( / / -.-.-.-.>.>.>.>.-.-.-.;.;.;.-.-.] ] ] ` ` U J l k x n / ;.;.] / ] ] ] ] ] ] ] ] ] ] ] ] ] ] ] ] ] ] ] ] ] ] ] ] ] ] ] ] ] ] ] ] ] ] ] ] ] ] ] ] ] ] ] ] ] ] ] ] ] ] ] ] ] ] ] ] ] ] ] ] ] ] ] ] ] ] ] ] ] ] ] ] ] ] ] ] ] ] ] ] ] ] ] ] ] ] ] ] ] ] ] ] ] ] ] ] ] ] ] ] ] ] ] ] ] ] ] ] ] ] ] ] ] ] ] ] ` ` ` ` ] ] ] ] ] ] ] ] / ` ` / / / ^ ^ ` ` / / / ^ ^ ^ ] / / ` / / / ` / / / / / / / / / / / / / / / / / / / / / / / / / / / / / / / / ) / ' ! < % ; - ^ / ` ] / / / ` ) ) ` ` ` ) ) ) h W.4XwX",
"rX7XJ.f ! ` D ' / / / / / / / / -./ ' ! < % - ; / / / / / / / / / / / / / / / / / / / / / / / / / / / / / / / / / / / / / / / / / / / / / / / / ^ ^ ) ` -.>.2.2.-.-.>.>.>.>.>.:.-.-.) -.>.` n l k k n n ^ ) ] -.;.] ] ] ] ] ` ` ` ` ] ] ] ] ] ] ] ] ] ] ] ] ] ] ] ] ] ] ] ] ] ] ] ] ] ] ] ] ] ] ] ] ] ] ] ] ] ] ] ] ] ] ] ] ] ] ] ] ] ] ] ] ] ] ] ] ] ] ] ] ] ] ] ] ] ] ] ] ] ] ] ] ] ] ] ] ] ] ] ] ] ] ] ] ] ] ] ] ] ] ] ] ] ] / / ` ] ` / ^ ^ ` ` ` ` ` ` ` ` ` ` ` ` ` ` ` ` ` ` / / / / / / / / / / / / / / / / / / / / / / / / / / / / / / / / / / / / / / / / / / / / / / / / / / / / / / ) / ' ! < % ; ; ^ / ` ] / / / ` ) ) ) ) ` / / / y W.4X0X",
"rX7XJ.f ! ` D ' / / / / / / / / -./ ' ! < % - ; / / / / / / / / / / / / / / / / / / / / / / / / / / / / / / / / / / / / / / / / / / / / / / / / ) ^ ` ` ` >.>.2.-.>.>.>.>.>.>.-.-.-.) -.>.` I l z x n I ^ ) -.-.] ] ] ] ] ] ] ] ] ] ] ] ] ] ] ] ] ] ] ` ` ` ] ] ] ] ] ] ] ] ] ] ] ] ] ] ] ] ] ] ] ] ] ] ] ] ] ] ] ] ] ] ] ] ] ] ] ] ] ] ] ] ] ] ] ] ] ] ] ] ] ] ] ] ] ] ] ] ] ] ] ] ] ] ] ] ] ] ] ] ] ] ] ] ] ] ] ] ] ` ` ` / / ] ] ] ] ] ] ] ] ` ` ` ` ` ` ` ` ` ` ` ` ` ` ` ` ` ` ` / / / / / / / / / / / / / / / / / / / / / / / / / / / / / / / / / / / / / / / / / / / / / / / / / / / / / ) / ' ! < % ; ; ^ / ` ] / / / ` ) ) ) ) ` ) / / y W.4X0X",
"rX6XJ.f ! ` D ' / / / / / / / / -./ ' ! < % - ; / / / / / / / / / / / / / / / / / / / / / / / / / / / / / / / / / / / / / / / / / / / / / / / / ^ ) ` ` ` -.>.>.>.>.>.>.>.>.-.-.*.) ) ` -.` I n z z z I U U / / / ` ` ` ` ] ] ] ] ] ] ] ] ] ` ` / / / / / / ` ` ] ] ] ] ] ] ] ] ] ] ] ] ] ] ] ] ] ] ] ] ] ] ] ] ] ] ] ] ] ] ] ] ] ] ] ] ] ] ] ] ] ] ] ] ] ] ] ] ] ] ] ] ] ] ] ] ] ] ] ] ] ] ] ] ] ] ] ] ] ] ] ] ` ` ` ` ` ` ` ` ] ] ] ` ` ` ` ] / ) ) ` ` ` -.-.` ` ` ` ` ` ` ` ` ` ` ` / / / / / / / / / / / / / / / / / / / / / / / / / / / / / / / / / / / / / / / / / / / / / / / / / / / / ) / ' _ < % ; - ^ / ` ] / / / ` / / ) / ) ) ) ) h W.4X0X",
"rX6XJ.f ! ` D ' / / / / / / / / -./ ' ! < % - ; / / / / / / / / / / / / / / / / / / / / / / / / / / / / / / / / / / / / / / / / / / / / / / / / ) ) ) ) ` ` -.>.>.>.>.>.>.>.-.-.*.) ) ` -.` ^ U z z z z L L I I x n I I ^ ^ ` ` ] ` ` ` ] ` ` ` / / / ` ` ` ` ` ] ] ] ] ] ] ] ] ] ] ] ] ] ] ] ] ] ] ] ] ] ] ] ] ] ] ] ] ] ] ] ] ] ] ] ] ] ] ] ] ] ] ] ] ] ] ] ] ] ] ] ] ] ] ] ] ] ] ] ] ] ] ] ] ` ` ` ` ` ` ` ` ] ] ] ] ] ] ] ] / ^ ^ n n n n n ^ / ) ` ` =.-.-.` ` ` ` ` ` ` ` ] ] ` ` ` / / / / / / / / / / / / / / / / / / / / / / / / / / / / / / / / / / / / / / / / / / / / / / / / / / / ) / ] _ < % ; - ^ / ` ] / / / ` ` / / / ) ) ) ) h W.4X0X",
"rX6XJ.f ! ` F ' / / / / / / / / ] ^ ' ! < % - ; / / / / / / / / / / / / / / / / / / / / / / / / / / / / / / / / / / / / / / / / / / / / / / / / ) ) / / ) ` ` -.>.>.>.>.>.>.-.=.) ) ) ` =.` ` / U I I I I z z z z z z x x x x I ^ ^ ^ / ` ` ` ] / / ` ] ] ] ] ] ] ] ] ] ] ] ] ] ] ] ] ] ] ] ] ] ] ] ] ] ] ] ] ] ] ] ] ] ] ] ] ] ] ] ] ] ] ] ] ] ] ] ] ] ] ] ] ] ] ] ] ] ] ] ] ] ] ] ] ] ] ] ] ] ` ` ` ` ` ` ` ` ] ] ] ` / / ^ ^ n n x x x x n n ^ ) ) ` ` -.-.-.` ` ` ` ` ` ` ` ] ] ] ] ` ` / / / / / / / / / / / / / / / / / / / / / / / / / / / / / / / / / / / / / / / / / / / / / / / / / / ) ) ] ! < % ; - ^ / ` ] / / / ` ` ` ) ) / / ) ) h W.4XwX",
"rX6XJ.f ! ` D ' / / / / / / / / ] ^ ' ! < % - ; / / / / / / / / / / / / / / / / / / / / / / / / / / / / / / / / / / / / / / / / / / / / / / / / ` ) ) / ) ) ) ` >.>.>.>.>.>.-.-.*.-.] ` ` ` ` ] ] ` ` ^ U I I I x x x x x z z z I I I U ^ ^ / ` / / ] ] ] ] ] ] ] ] ] ] ] ] ] ] ] ] ] ] ] ] ] ] ] ] ] ] ] ] ] ] ] ] ] ] ] ] ] ] ] ] ] ] ] ] ] ] ] ] ] ] ] ] ] ] ] ] ] ] ] ] ] ] ] ] ] ] ] ] ] ] / / / / / / / / ] ] ` ^ ^ n x x n n I ^ ^ / ` ] / ) ) ` ` ` -.-.` ` ` ` ` ` ` ` ] ] ] ] ] ` ` ` / / / / / / / / / / / / / / / / / / / / / / / / / / / / / / / / / / / / / / / / / / / / / / / / ) ) ] _ < % ; ; ^ / ` ] / / / ` ) ` ) ) ` / ) ) h W.4XwX",
"rX7XJ.f ! ` D ' / / / / / / / / ] ^ ' ! < % - ; / / / / / / / / / / / / / / / / / / / / / / / / / / / / / / / / / / / / / / / / / / / / / / / / ` ) ) ^ ^ ^ ) ) >.>.>.>.>.>.>.-.-.-.-.-.` ` ` =.-.-.` ` ) / / ^ / ^ ^ I I x x x L L L I I I I I ^ ^ / ] ] ] ` / ] ] ] ] ] ] ] ] ] ] ] ] ] ] ] ] ] ] ] ] ] ] ] ] ] ] ] ] ] ] ] ] ] ] ] ] ] ] ] ] ] ] ] ] ] ] ] ] ] ] ] ] ] ] ] ] ] ] ] ] ] ] ] ] / / / / / / / / ^ ^ ^ ^ n n n n / / ` ] ] ;.;.;.` ` ` ` ` ` ` ` ` ` ` ` ` ` ` ` ] ] ] ] ] ] ` ` / / / / / / / / / / / / / / / / / / / / / / / / / / / / / / / / / / / / / / / / / / / / / / / / ) ) ' _ < % ; ; ^ / ` ] / / / ` ) ) ) ) ` / / ) h W.2XwX",
"rX9XJ.f ! ` D ' / / / / / / / / ] ^ ' ! < % - ; / / / / / / / / / / / / / / / / / / / / / / / / / / / / / / / / / / / / / / / / / / / / / / / / ` ) / ^ ^ ^ ^ ^ -.:.>.>.>.>.>.>.:.>.-.] ` ` ` >.) ) ) ) ) ) ) ] <.;.] ` ^ I n x L L L L L L L L I ^ / ` ] ` / / ] ] ] ] ] ] ] ] ] ] ] ] ] ] ] ] ] ] ] ] ] ] ] ] ] ] ] ] ] ] ] ] ] ] ] ] ] ] ] ] ] ] ] ] ] ] ] ] ] ] ] ] ] ] ] ] ] ] ] ] ] ] ] ] / / / / / / / / x x x n ^ / ` ] ] ] ;.;.] ] ` / ` ` ` ` ` ` ` ` ` ` ` ` ` ` ` ` ] ] ] ] ] ] ` ` / / / / / / / / / / / / / / / / / / / / / / / / / / / / / / / / / / / / / / / / / / / / / / / / ) ) ' ! < % ; ; ^ / ` ] / / / ` ) ) ) ) / / / ) h W.2XwX",
"rX6XL.f ! ' F o./ / / / / / / / ) ( ^ ' @ % ; 8 ^ / / ` ` ` / / / / / / / / / / / / / / / / / / / / / / / / / / / / / / / / / / / / / / / / / / / / / / / / / / ` ` ] ;.:.:.:.:.-.-.-.-.-.-.-.-.-.-.) ) ) ) ) ] -.-.-.-.) ) ) ) U I n z z n n I L I T Y ` ` -.*./ ` ] ] ] ] ` / / ` ` ] ] ] ] ] ] ] ] ] ] ] ] ] ] ] ] ] ] ] ] ] ] ] ] ] ] ] ] ] ] ] ] ] ] ] ] ] ] ] ] ] ] ] ] ] ] ] / / / / ] ] >.-.` ^ ^ ^ ^ ^ ` ` ` ` ` ` ` ` ` ` ` ` ` ` ` ` =.=.-.=.*.*.=.=.] ] ] ] ] -.-.-.` ` ` ` ` ` ` ` / / / / / / / / / / / / / / / / / / / / / / / / / / / / / / / / / / / / / / / / / / / / / / / / *.^ ' _ < % - - ^ / ` ] / / / ` ` ` ) ) ) ) / / h W.4XwX",
"rX6XL.f ! ' F o./ / / / / / / / ) ( ^ ' @ % ; 8 ^ / / / ` ` / / / / / / / / / / / / / / / / / / / / / / / / / / / / / / / / / / / / / / / / / / / / / / / / / / / ` ] ;.:.:.:.:.-.-.-.-.-.-.-.-.-.-.) ) ) ) ] ] -.-.-.-.] ) ] ] ` / ^ I I n z z z z L I I ^ / ) ] ] ] ] ] ] ] ` ` ` ` ] ] ] ] ] ] ] ] ] ] ] ] ] ] ] ] ] ] ] ] ] ] ] ] ] ] ] ] ] ] ] ] ] ] ] ] ] ] ] ] ] ] ] ] ] / ` ] ] ] ] ] ] ^ ^ ^ ^ ^ ^ ) ) -.-.-.-.-.-.-.-.` ` ` ` ` ` ` ` -.=.-.-.*.*.*.*.] ] ] ] -.-.-.-.` ` ` ` ` ` ` ` / / / / / / / / / / / / / / / / / / / / / / / / / / / / / / / / / / / / / / / / / / / / / / / / *.^ ' _ < % - - ^ / ` ] / / / ` ` ` ) ) ) / / / h W.4XwX",
"rX6XL.f ! ' F o./ / / / / / / / ) ` ^ ' @ % ; 8 / / / / ` ` / / / / / / / / / / / / / / / / / / / / / / / / / / / / / / / / / / / / / / / / / / / / / / / / / / / ` ] ;.:.:.:.:.-.-.-.-.-.-.-.-.-.-.-.-.-.-.-.-.] ] -.-.-.-.-.-.>.>.>.` ^ I n z x z z z x n n I ] ] ] ] ] ] ] ] ] ] ] ] ] ` ` ` ] ] ] ] ] ] ] ] ] ] ] ] ] ] ] ] ] ] ] ] ] ] ] ] ] ] ] ] ] ] ] ] ] ] ] ] ] ] ] ] ` ] ] ] ] ] / ^ I I ^ ^ ) ` -.-.-.-.-.-.-.-.-.-.` ` ` ` ` ` -.-.-.-.-.-.-.-.-.-.-.-.-.-.-.-.-.-.-.` ` ` ` ` ` ` / / / / / / / / / / / / / / / / / / / / / / / / / / / / / / / / / / / / / / / / / / / / / / / / *.^ ' _ < % ; - ^ / ` ] / / / ` / / ) ) ) ) / / h W.4XwX",
"rX6XL.f ! ' F o./ / / / / / / / ) ` ^ ' @ % ; 8 ^ / / / ` ` / / / / / / / / / / / / / / / / / / / / / / / / / / / / / / / / / / / / / / / / / / / / / / / / / / / ` ] -.-.:.:.-.-.-.-.-.-.-.-.-.-.-.-.-.-.-.-.-.] ] *.-.-.-.-.-.-.-.>.>.-.` ^ ^ U I n z z z z x ^ ^ ^ ` ` ` ` ` ] ] ] ] ] ] ` ` ] ] ] ] ] ] ] ] ] ] ] ] ] ] ] ] ] ] ] ] ] ] ] ] ] ] ] ] ] ] ] ] ] ] ] ] ] ] ] ` ] ] ] ] / ^ ^ I ) ` ] -.-.-.` ` ` ` ` ` ` ` ` ` ` ` ` ` ` -.-.-.-.-.-.-.-.-.-.-.-.-.-.-.-.-.-.-.` ` ` ` ` ` ) ) / / / / / / / / / / / / / / / / / / / / / / / / / / / / / / / / / / / / / / / / / / / / / / / / =.^ ' _ < % ; - ^ / ` ] / / / ` / / ) ) ) ) / ) h W.4XwX",
"rX6XJ.f ! ' F o./ / / / / / / / ) ` ^ ' @ % ; 8 / / / ` ` ` / / / / / / / / / / / / / / / / / / / / / / / / / / / / / / / / / / / / / / / / / / / / / / / / / / / ` ] -.-.:.-.*.-.>.>.>.>.>.>.>.-.-.-.-.-.-.-.-.] ] -.-.-.-.-.-.>.>.-.-.-.>.>.>.] / U n z z z z x x L I I U ^ / ] ] ] ] ] ] ] ] ] ] ] ] ] ] ] ] ] ] ] ] ` ` ` ` ] ] ] ] ] ] ] ] ] ] ] ] ] ] ] ] ] ] ] ] ] ] ` ` ` / / ^ ^ ^ ^ ^ -.-.>.>.-.` ) ^ ` ` ` ` ` ` ` ` -.-.` ` =.=.>.>.-.-.-.-.-.-.-.-.-.-.-.-.-.-.-.] ` ` ` ` ` ) ) ) / / / / / / / / / / / / / / / / / / / / / / / / / / / / / / / / / / / / / / / / / / / / / / / / =.^ ' _ < % - - ^ / ` ] / / / ` / / ) ) ) ) ) ) h W.2XwX",
"rX6XJ.f ! ' F o./ / / / / / / / ) ` ^ ' @ % ; 8 / / / ` ` ` / / / / / / / / / / / / / / / / / / / / / / / / / / / / / / / / / / / / / / / / / / / / / / / / / / / / ] ] -.-.-.*.-.-.>.>.>.>.>.>.-.-.-.-.-.-.-.-.-.-.-.-.-.-.-.-.>.>.-.] -.-.-.>.>.>.` ^ U I I I z z z z L I I U / / / / ` ] ] ] ] ] ] ] ] ] ] ] ] ] ] ] ` ` ` ` ] ] ] ] ] ] ] ] ] ] ] ] ] ] ] ] ] ] ] ] ` ` / / ^ ^ ^ ^ ^ / ] ] ) / ) ` ` ) ) ) -.-.-.-.-.-.-.-.-.-.` -.=.>.>.>.-.-.-.-.-.-.-.-.;.;.-.-.-.-.] ] ` ` ` ` ) ) ) / / / / / / / / / / / / / / / / / / / / / / / / / / / / / / / / / / / / / / / / / / / / / / / / / =.^ ' _ < % - - ^ / ` ] / / / ` / / ) ) ) ) ) ) h W.4XwX",
"rX6XJ.f } ' F o./ / / / / / / / ) ( ^ ' @ % ; 8 / / / ` ` ` / / / / / / / / / / / / / / / / / / / / / / / / / / / / / / / / / / / / / / / / / / / / / / / / / / / / ] -.-.>.*.*.>.>.>.>.>.>.>.>.-.-.-.-.-.-.-.-.-.-.-.-.-.-.-.-.>.-.-.-.-.] ] ] >.-.-.` ` / / / L L x z z x L I n n I ^ ^ / ` ] ] ] ] ] ] ] ] ] ] ] ] ] ` ` ` ] ] ] ] ] ] ] ] ] ] ] ] ] ] ] ] ] ` ` / / / ^ ^ ^ ^ ^ ^ / / ] ] ] ) / ^ ^ ^ / ) ` -.-.-.-.-.-.-.-.-.-.-.-.>.>.>.>.>.>.-.-.-.-.-.-.>.>.-.-.-.-.-.-.` ` ` ) ) ) / / / / / / / / / / / / / / / / / / / / / / / / / / / / / / / / / / / / / / / / / / / / / / / / / / *.^ ' _ < % - - ^ / ` ] / / / ` ) ) ) ) ) ) ) ) h W.4XwX",
"rX6XL.f ! ' F o./ / / / / / / / ) ( ^ ' @ % ; 8 / / / ` ` ` / / / / / / / / / / / / / / / / / / / / / / / / / / / / / / / / / / / / / / / / / / / / / / / / / / / / ] -.-.>.*.*.>.>.>.>.>.>.>.>.-.-.-.-.-.-.-.-.;.;.;.-.-.-.-.-.) ) *.-.-.*.) ) ) -.-.>.>.=.] ] ^ U I L x z z z k z x n ^ ^ / ` ] ] ] ] ] ] ] ] ] ] ] ] ] ] ` ] ] ] ] ] ] ] ] ] ] ] ] ] ] ] ] ] / / / ^ ^ ^ I I / ` ] ] ] ] / / >.-.` ) ^ ^ ` ` ` ` ` ` ` ` ` ` -.-.-.-.>.>.>.>.>.>.-.-.-.-.-.-.>.>.-.-.-.-.-.] ` ` ) ) ) / ^ / / / / / / / / / / / / / / / / / / / / / / / / / / / / / / / / / / / / / / / / / / / / / / / / / ) ^ ' _ < % - - ^ / ` ] / / / ` ) ) ) ) ) ) ) / h W.4X0X",
"rX9XL.f ! _ D ' / / / / / / / / *.-.^ X.O % ; 8 / / / / / / / / / / / / / / / / / / / / / / / / / / / / / / / / / / / / / / / / / / / / / / / / / / / / / / / / / / ` ] ] ;.;.;.>.>.;.;.>.>.>.>.-.-.-.-.-.*.*.*.>.>.>.>.>.>.:.>.>.>.>.>.-.-.-.-.>.>.>.>.-.-.-.-.<.>.] / / U I I n n n n z z z z U U U / / ` ] ] ] ] ] ] ] ] ] ] ] O.] ] ] ] ] ] <.>.] / ^ U I I n n n I ^ ^ ) ` ` ` ` ` ` ` ` ` ` ` ` ` ` ` ` ` ) ) ) ] ) ) ) ) >.>.>.>.>.>.>.>.2.2.2.2.2.2.2.2.2.>.>.>.-.` ` ` ) ) ) ) ` ` ` ) / / / / / / / / / / / / / / / / / / / / / / / / / / / / / / / / / / / / / / / / / / / / / / / / ) ^ ' _ < % - - ^ / ` ] / / / ` / / / / / / / / h W.2XwX",
"rX9XL.f ! _ D ' / / / / / / / / *.-._ X.O % - 8 / / / / / / / / / / / / / / / / / / / / / / / / / / / / / / / / / / / / / / / / / / / / / / / / / / / / / / / / / / ` ] ] ] ] ;.>.>.>.>.>.>.>.>.:.:.:.:.e.e.:.:.>.>.:.>.>.>.:.:.>.>.>.>.-.-.-.-.>.>.>.-.-.-.-.-.>.] ` ` ` / ^ ^ I I n n n z z z z z z I I I I I / / / / / / / / Y / / / Y Y Y Y n n n n n n n n ^ ^ ^ ) ` -.-.>.` ` ` ` ` ` ` ` ` ` ` ` ` ` ` ` ) ) ] -.-.-.-.-.>.>.>.>.>.>.>.>.>.>.>.>.>.>.>.>.>.>.>.>.` ` ` ` ) ) ) ) / ` ` ) / / / / / / / / / / / / / / / / / / / / / / / / / / / / / / / / / / / / / / / / / / / / / / / / ) ^ ' _ < % - - ^ / ` ] / / / ` / / / ` / / / / h W.2XwX",
"rX9XJ.f ! _ D ' / / / / / / / / *.] _ X.O % - 4 / / / / / / / / / / / / / / / / / / / / / / / / / / / / / / / / / / / / / / / / / / / / / / / / / / / / / / / / / / ` ` ] ] ] ] -.-.>.>.-.-.-.-.:.:.:.:.>.q.q.>.>.>.:.:.>.>.>.>.>.>.>.>.>.>.>.-.>.>.>.-.-.-.-.-.] ] ] ] >.] ] ] ` ^ ^ ^ I n n z z z z z z z z z I I I I I I I I I I I I I I I I x n n I U ^ ^ ` ` ` ` ` -.-.>.>.` ` ` ` ` ` ` ` ` ` ` ` ` ` -.-.) ) -.-.-.;.>.>.>.>.>.>.>.-.-.-.=.=.=.=.` =.=.=.=.=.=.` ` ` ` ` ) ) ) ) / / ) ) / / / / / / / / / / / / / / / / / / / / / / / / / / / / / / / / / / / / / / / / / / / / / / / / ) ^ ' _ < % - - ^ / ` ` / / / ` / / / ` / / / / h W.2XwX",
"rX9XJ.f ! _ D ' / / / / / / / / ) ) ^ ' @ % - 8 / / / / / / / / / / / / / / / / / / / / / / / / / / / / / / / / / / / / / / / / / / / / / / / / / / / / / / / / / / / / / / / / ` ` ` ` ` ` ` ` ) ) ) *.*.-.-.-.>.>.>.>.>.>.>.>.>.>.>.>.>.>.>.:.>.>.>.>.-.-.-.-.` ` -.-.>.>.>.>.>.>.-.` ) ^ ^ ^ I I I I I n n n z z z z z z z z I I I I I I I I ) ` ` ` =.-.>.>.` ` ` ` ` ` ` ` ` ` ` ` ` ` ` ` ` ` ` ` ` -.-.-.-.-.-.-.;.;.>.>.>.>.>.>.-.] ] ` ) ) ) ) ) ) ) ) ) ) ) ) ) ) ` ` ) ) / / / / ) ) / / / / / / / / / / / / / / / / / / / / / / / / / / / / / / / / / / / / / / / / / / / / / / / / ) ^ ' _ < % - - ^ / ` ` / / / ` / / / ` / / / / h W.2XwX",
"rX9XJ.f ! ' D ' / / / / / / / / ) ) ^ ' @ % - 8 / / / / / / / / / / / / / / / / / / / / / / / / / / / / / / / / / / / / / / / / / / / / / / / / / / / / / / / / / / / / / / / / ) ) ` ) ) ) ) ) / / / / / ) ] ] >.>.>.>.>.>.2.2.>.>.>.>.>.>.>.>.>.>.>.>.-.-.-.-.>.>.-.-.] ` ` ` >.>.>.>.-.-.` ` ` ` ` ` ^ ^ ^ ^ I I I I I I I I U ^ ^ ^ ^ ^ ^ / ` ` ` =.` ` ` ` ` ` ` ` ` ) ) ) ` ` ` ` ` ` ` ` -.-.` ` =.=.>.>.>.>.>.-.-.-.-.-.] >.] ] ] ` / / / / / / / / / / ^ / / ^ ) ) ) ) ) / / / ) ) ) ) / / / / / / / / / / / / / / / / / / / / / / / / / / / / / / / / / / / / / / / / / / / / / / / / ) ^ ' _ < % - - ^ / / / / / / / / / / / / / / / h W.2XwX",
"rX9XJ.f ! ' D ' / / / / / / / / ) ) ^ ' @ % - : / / / / / / / / / / / / / / / / / / / / / / / / / / / / / / / / / / / / / / / / / / / / / / / / / / / / / / / / / / / / / / / / ) ) ` ` ) ) ) ` / / / / ` ` ] ] -.-.>.>.>.>.>.>.>.>.>.>.>.>.>.>.>.>.>.>.-.-.-.-.-.-.-.) ) ) ) ) ) ) ] ] -.-.] -.>.>.-.-.` ` ` ` ` ` ` ` ` ` ` ` ` ` ` ` ` =.` ` ) ) ) ) ) ) ) ) -.-.-.] -.` ` ` ` ` ` ` ` ` ` ` -.-.` -.=.>.>.>.>.>.-.-.] ) ) ) ] ] ] ] ` / / / / / / / / / / / / / / ^ ^ ) ) ) / / / / ) ) ) ) / / / / / / / / / / / / / / / / / / / / / / / / / / / / / / / / / / / / / / / / / / / / / / / / ) ^ ' _ < % - - ^ ^ / / / / / / / / / / / / / / h W.2XwX",
"rX9XJ.f ! _ D ' / / / / / / / / ) ) ^ ' @ % % 8 / / / / / / / / / / / / / / / / / / / / / / / / / / / / / / / / / / / / / / / / / / / / / / / / / / / / / / / / / / / ` ` ` ` ` ) ) ` ` ` ) ) ) / / / / / / ` ` ) ) ) *.=.-.-.-.>.>.>.>.>.>.>.>.>.>.>.-.-.-.-.-.-.-.-.-.-.) ) ) ) ] ) ) ) ) ) -.] -.-.-.` ` ` ` >.>.>.>.>.>.>.>.-.-.-.` =.` =.-.) ) ) ) -.-.-.] >.>.-.-.-.-.-.` ` ` ` ` ` ` ` ` -.-.-.-.>.>.>.>.-.] ) ) ) ) ) / ` ` ` ` / / / / / / / / / / / / ) ) ) ) / ^ / / ) ) / ` ) ) ) ) / / / / / / / / / / / / / / / / / / / / / / / / / / / / / / / / / / / / / / / / / / / / / / / / ) ^ ' _ < % - - ^ ^ / / / ^ / / / / / / / / / / h W.2XwX",
"rX9XJ.f ! _ D ' / / / / / / / / ) ) ^ ' @ % - : / / / / / / / / / / / / / / / / / / / / / / / / / / / / / / / / / / / / / / / / / / / / / / / / / / / / / / / / / / ` ` ` ` ` ` ) ) ) ) ) ) ) ) / / / / ^ ^ ^ ^ ^ ^ / ) ) ) *.*.>.>.>.>.>.>.>.2.>.>.>.>.-.-.-.-.*.*.-.-.-.-.-.-.*.*.*.*.*.*.*.*.) ` ` ` ` ` ` ` ` ` ` ` ` ` ` ` -.` ` ` ` ` ) ) -.-.*.*.) ) ) / =.=.=.` ` ` ` ` ` ` ` ` ` ` ` ` -.-.-.-.>.>.>.>./ / / ) ) ) ) ) / / / ` / / / / ` ` ` ` ` ` ` ` ` ` ` ) ) / / / ) ) ` ` ` ) ) ) / / / / / / / / / / / / / / / / / / / / / / / / / / / / / / / / / / / / / / / / / / / / / / / / ) ^ ' _ < % - - ^ ^ / / / ^ / / / / / / / / / / h W.2XwX",
"rX9XL.f ! _ D ' / / / / / / / / ) ^ ' ! : X - ; ] ` / / / / / / / / / / / / / / / / / / / / / / / / / / / / / / / / / / / / / / / / / / / / / / / / / / / / / / / / / / / / / / / / / / / / / / / / / / / / / / / / / / / / / / ` ` -.-.>.>.>.2.-.-.-.-.-.-.-.-.>.>.>.>.-.-.-.-.-.-.-.-.>.>.-.>.-.=.-.-.-.-.-.-.=.=.*.*.*.*.=.=.-.-.=.*.*.*.=.*.-.-.-.-.-.-.-.-.-.-.-.-.-.-.-.-.-.-.-.-.-.-.-.-.;.;.;.] ] ` / / / / / / / / / / ` / / / / / / / / / / / / / / / / / / / / / / / / / / / / / / / / / / / / / / / / / / / / / / / / / / / / / / / / / / / / / / / / / / / / / / / / / / / / / / / ) ^ ' ! > % ; - ^ / / ` / / / / / / / / / / / / y W.4X0X",
"rX9XL.f ! _ D ' / / / / / / / / ) ^ ' ! : X - ; ] ` / / / / / / / / / / / / / / / / / / / / / / / / / / / / / / / / / / / / / / / / / / / / / / / / / / / / / / / / / / / / / / / / / / / / / / / / / / / / / / / / / / / / / / ) ` ` -.-.>.>.>.>.-.-.>.>.>.>.>.>.-.-.-.-.-.-.-.-.-.-.-.>.>.>.>.-.-.-.-.-.-.-.-.*.=.=.*.*.=.=.=.=.=.=.=.*.*.=.*.-.-.-.-.-.-.=.-.) ) ] -.-.-.-.-.-.-.-.-.-.-.-.-.;.] ] ] ] ` / / / / / / / / / / / / / / / / / / / / / / / / / / / / / / / / / / / / / / / / / / / / / / / / / / / / / / / / / / / / / / / / / / / / / / / / / / / / / / / / / / / / / / / / / / ) ^ ' ! > % ; - ^ / / ` / / / / / / ^ ^ / / ) ) y W.4X0X",
"rX9XL.f ! _ D ' / / / / / / / / ) ^ ' ! : . - ; ] ` / / / / / / / / / / / / / / / / / / / / / / / / / / / / / / / / / / / / / / / / / / / / / / / / / / / / / / / / / / / / / / / / / / / / / / / / / / / / / / / / / / / / / / ) ) ) ` ` =.>.>.>.>.>.>.>.>.>.>.>.>.>.-.-.-.=.=.>.>.>.>.>.>.>.>.-.-.-.-.-.-.-.-.=.-.-.-.-.-.-.-.-.-.-.-.-.-.-.-.-.-.-.-.-.=.-.-.) ) ) ] -.-.-.-.;.;.-.-.-.-.-.-.] ] ] ` ` / / / / / / / / / / / / / / / / / / / / / / / / / / / / / / / / / / / / / / / / / / / / / / / / / / / / / / / / / / / / / / / / / / / / / / / / / / / / / / / / / / / / / / / / / / / / ^ ' ! > % ; - ^ / / ` / / / / / / ) ) / / / / h W.4X0X",
"rX9XL.f ! _ D ' / / / / / / / / ) ^ ' ! : . - ; ] ` / / / / / / / / / / / / / / / / / / / / / / / / / / / / / / / / / / / / / / / / / / / / / / / / / / / / / / / / / / / / / / / / / / / / / / / / / / / / / / / / / / / / / / ^ ^ ) ) ` ` ` ` -.;.>.;.>.>.q.q.>.>.>.>.>.-.-.-.>.>.-.-.>.>.-.-.-.-.-.-.-.-.-.-.-.-.-.-.-.-.-.-.-.-.-.-.-.-.-.-.-.-.-.-.=.=.-.-.) ) -.-.-.-.-.-.>.;.;.-.-.-.) ) / / / / / / / / / / / / / / / / / / / / / / / / / / / / / / / / / / / / / / / / / / / / / / / / / / / / / / / / / / / / / / / / / / / / / / / / / / / / / / / / / / / / / / / / / / / / / / / / / ^ ' ! > % ; - ^ / / ` / / / / / / / ) / / / / h W.4X0X",
"rX9XL.f ! _ D ' / / / / / / / / ) ^ ' ! < % - ; ] ` / / / / / / / / / / / / / / / / / / / / / / / / / / / / / / / / / / / / / / / / / / / / / / / / / / / / / / / / / / / / / / / / / / / / / / / / / / / / / / / / / / / / / / ^ ^ ^ ) ) ) ` ` ] ] ] -.;.;.>.>.>.>.>.>.>.>.>.-.>.>.>.-.-.-.-.-.-.-.-.-.>.>.>.>.-.-.-.-.-.-.-.-.-.-.-.-.-.-.-.-.-.-.>.>.-.-.-.-.-.-.-.-.-.;.>.>.;.-.-.-.-.] ) ) ^ ^ / / / / / / / / / / / / / / / / / / / / / / / / / / / / / / / / / / / / / / / / / / / / / / / / / / / / / / / / / / / / / / / / / / / / / / / / / / / / / / / / / / / / / / / / / / / / / / / ^ ' ! > % ; - ^ / / ` / / / / / / / ) / ) ) ) h W.4XwX",
"rX9XP.f ! _ D ' / / / / / / / / ) ^ ' ! < % - ; ] ` / / / / / / / / / / / / / / / / / / / / / / / / / / / / / / / / / / / / / / / / / / / / / / / / / / / / / / / / / / / / / / / / / / / / / / / / / / / / / / / / / / / / / / ^ ^ / / / ) ) ) ) ) ] ] ] ] -.-.>.>.>.>.>.>.>.>.>.>.>.>.-.-.-.-.-.-.-.-.>.>.>.>.-.-.-.-.-.-.-.-.-.-.-.-.-.-.-.-.>.>.>.>.>.>.>.-.;.>.>.-.-.-.-.-.-.-.] ] ) ) ) ) / / / / / / / / / / / / / / / / / / / / / / / / / / / / / / / / / / / / / / / / / / / / / / / / / / / / / / / / / / / / / / / / / / / / / / / / / / / / / / / / / / / / / / / / / / / / / / / / ) ^ ' ! > % ; - ^ / / ` / / / / / / / ) / ) ) ) h W.4XwX",
"rX9XP.f ! _ D ' / / / / / / / / ) ^ ' ! < . - ; ] ` / / / / / / / / / / / / / / / / / / / / / / / / / / / / / / / / / / / / / / / / / / / / / / / / / / / / / / / / / / / / / / / / / / / / / / / / / / / / / / / / / / / / / / ^ / / / ) ) ) ) / / / / / ( ( ( -.-.-.-.-.>.>.>.2.2.>.>.>.>.>.>.>.>.>.>.>.>.>.>.-.-.-.-.-.-.>.>.>.>.-.-.-.-.-.-.>.>.>.>.>.>.>.>.-.-.-.-.-.] ) ) ) ) ) ) ) ) ) ) / / / / / / / / / / / / / / / / / / / / / / / / / / / / / / / / / / / / / / / / / / / / / / / / / / / / / / / / / / / / / / / / / / / / / / / / / / / / / / / / / / / / / / / / / / / / / / / / ) / ' ! > % ; - ^ / / ` / / / / / / ^ ^ / / ) ) h W.2XwX",
"rX9XP.f ! _ D ' / / / / / / / / ) ^ ' ! : . - ; ] ` / / / / / / / / / / / / / / / / / / / / / / / / / / / / / / / / / / / / / / / / / / / / / / / / / / / / / / / / / / / / / / / / / / / / / / / / / / / / / / / / / / / / / / ) ) ) ) ) ) ) ) / / / / / / / / ) ) ) -.-.-.-.-.u.u.u.u.2.>.>.>.>.>.>.>.>.>.>.>.-.-.-.-.-.>.>.>.>.>.-.-.-.-.-.-.>.>.>.>.>.>.>.>.-.-.-.-.) ) / / ) / / ) ) ) ) ) / / / / / / / / / / / / / / / / / / / / / / / / / / / / / / / / / / / / / / / / / / / / / / / / / / / / / / / / / / / / / / / / / / / / / / / / / / / / / / / / / / / / / / / / / / / / / / / / ) ^ ' ! > % ; - ^ / / ` / / / / / ^ ^ / / / / / h W.2XwX",
"rX9X`.f ! _ D ' / / / / / / / / -.^ _ ! : X - ; / / / / / / / / / / / / / / / / / / / / / / / / / / / / / / / / / / / / / / / / / / / / / / / / / / / / / / / / / / / / / / / / / / / / / / / / / / / / / / / / / / / / / / / / / / / / / / / / / / / / / / / / / / / / / / / / >.>.>.>.>.>.>.>.:.:.:.:.:.:.:.:.-.-.-.*.-.-.-.-.>.>.>.>.>.>.>.>.>.>.>.>.>.>.>.>./ / / / / / / / / / / / / / / / / / / / / / / / / / / / / / / / / / / / / / / / / / / / / / / / / / / / / / / / / / / / / / / / / / / / / / / / / / / / / / / / / / / / / / / / / / / / / / / / / / / / / / / / / / / / / / / / ) ^ ' ! > % ; - ^ / / ` / / / / ) ) ) ) ) ) / / h W.4XwX",
"rX9XP.f ! _ D ' / / / / / / / / ] ^ _ ! = X - ; / / / / / / / / / / / / / / / / / / / / / / / / / / / / / / / / / / / / / / / / / / / / / / / / / / / / / / / / / / / / / / / / / / / / / / / / / / / / / / / / / / / / / / / / / / / / / / / / / / / / / / / / / / / / / / / / ` ` ` ` ` ` ` ` >.>.*.:.*.*.*.*.*.*.*.*.*.*.*.*.>.>.>.>.>.>.>.>.` ` ` ` ` ` ` =./ / / / / / / / / / / / / / / / / / / / / / / / / / / / / / / / / / / / / / / / / / / / / / / / / / / / / / / / / / / / / / / / / / / / / / / / / / / / / / / / / / / / / / / / / / / / / / / / / / / / / / / / / / / / / / / / ) ^ ' ! > % ; - ^ / / ` / / / / ) ) ) ) / / / / h W.4XwX",
"rX9XP.f ! _ D ' / / / / / / / / ) ^ ' ! : X - ; / / / / / / / / / / / / / / / / / / / / / / / / / / / / / / / / / / / / / / / / / / / / / / / / / / / / / / / / / / / / / / / / / / / / / / / / / / / / / / / / / / / / / / / / / / / / / / / / / / / / / / / / / / / / / / / / / / / / ^ ^ ^ ^ *.*.*.*.*.*.*.*.*.*.*.) ) *.*.*.=.=.=.=.=.=.=.=./ / / / ) / / / / / / / / / / / / / / / / / / / / / / / / / / / / / / / / / / / / / / / / / / / / / / / / / / / / / / / / / / / / / / / / / / / / / / / / / / / / / / / / / / / / / / / / / / / / / / / / / / / / / / / / / / / / / / / / / / / ) ^ ' ! > % ; - ^ / / ` / / / / / / ^ ^ / ^ ^ ^ h W.4XwX",
"rX9XP.f ! _ D ' / / / / / / / / ] ^ ' ! : X - ; / / / / / / / / / / / / / / / / / / / / / / / / / / / / / / / / / / / / / / / / / / / / / / / / / / / / / / / / / / / / / / / / / / / / / / / / / / / / / / / / / / / / / / / / / / / / / / / / / / / / / / / / / / / / / / / / ) ) ) ) ) ) ) ) ) ) ) ) ) ) ) ) ) ) ) ) ) ) ) ) ` ` ` ` ` ` ` ` ^ ^ ^ ^ / / ^ ^ / / / / / / / / / / / / / / / / / / / / / / / / / / / / / / / / / / / / / / / / / / / / / / / / / / / / / / / / / / / / / / / / / / / / / / / / / / / / / / / / / / / / / / / / / / / / / / / / / / / / / / / / / / / / / / / / ) ^ ' ! > % ; - ^ / / ` / / / / / ^ ^ ^ ^ ^ ^ ^ h W.4XwX",
"rX9XL.f ! _ D ' / / / / / / / / ] ^ _ ! = . - ; / / / / / / / / / / / / / / / / / / / / / / / / / / / / / / / / / / / / / / / / / / / / / / / / / / / / / / / / / / / / / / / / / / / / / / / / / / / / / / / / / / / / / / / / / / / / / / / / / / / / / / / / / / / / / / / / / / / / / / / / / / / / / / / / ) / / / / / / / / / / / / / / / / / / / / / / / / / / / / / / / / / / / / / / / / / / / / / / / / / / / / / / / / / / / / / / / / / / / / / / / / / / / / / / / / / / / / / / / / / / / / / / / / / / / / / / / / / / / / / / / / / / / / / / / / / / / / / / / / / / / / / / / ) ^ ' ! > % ; - ^ / / ` / / / / / / / / / / / / h W.2XwX",
"rX9XL.f ! ^ D ' / / / / / / / / ] ^ _ ! = . - ; / / / / / / / / / / / / / / / / / / / / / / / / / / / / / / / / / / / / / / / / / / / / / / / / / / / / / / / / / / / / / / / / / / / / / / / / / / / / / / / / / / / / / / / / / / / / / / / / / / / / / / / / / / / / / / / / ^ ^ ^ ^ / / / / ^ ^ ^ ^ ^ ^ ^ ^ / ^ ^ ^ / / / / / / / / / / / / / / / / / / / / / / / / / / / / / / / / / / / / / / / / / / / / / / / / / / / / / / / / / / / / / / / / / / / / / / / / / / / / / / / / / / / / / / / / / / / / / / / / / / / / / / / / / / / / / / / / / / / / / / / / / / / / / / / / / / / / ) ^ ' ! > % ; - ^ / / ` / / / / / / / / / / / / h W.4XwX",
"rX9XL.f ! _ D ' / / / / / / / / -.^ _ ! = . - ; / / / / / / / / / / / / / / / / / / / / / / / / / / / / / / / / / / / / / / / / / / / / / / / / / / / / / / / / / / / / / / / / / / / / / / / / / / / / / / / / / / / / / / / / / / / / / / / / / / / / / / / / / / / / / / / / ^ / / / ^ ^ ^ ^ ^ ^ ^ ^ ^ ^ ^ ^ / / / ) / / / / / / / / / / / / / / / / / / / / / / / / / / / / / / / / / / / / / / / / / / / / / / / / / / / / / / / / / / / / / / / / / / / / / / / / / / / / / / / / / / / / / / / / / / / / / / / / / / / / / / / / / / / / / / / / / / / / / / / / / / / / / / / / / / / / / ^ ' ! > % ; - ^ / / ` / / / / ) ) ) ) / ^ / / h W.4XwX",
"rX9XL.f ! ^ D ' / / / / / / / / -.^ _ ! = . - ; / / / / / / / / / / / / / / / / / / / / / / / / / / / / / / / / / / / / / / / / / / / / / / / / / / / / / / / / / / / / / / / / / / / / / / / / / / / / / / / / / / / / / / / / / / / / / / / / / / / / / / / / / / / / / / / / / / / / / / / / / / / / / / / / / ) ) ) / / / / / / / / / / / / / / / / ^ ^ ^ ^ / / / / / / / / / / / / / / / / / / / / / / / / / / / / / / / / / / / / / / / / / / / / / / / / / / / / / / / / / / / / / / / / / / / / / / / / / / / / / / / / / / / / / / / / / / / / / / / / / / / / / / / / / / / / / / / / / ^ ' ! > % ; - ^ / / ` / / / / ) ) ) / ^ ^ / / h W.4X0X",
"wXeXT.a B ..%.W / / / / / / / / *.^ _ ! > % ; ; / / / / / / / / / / / / / / / / / / / / / / / / / / / / / / / / / / / / / / / / / / / / / / / / / / / / / / / / / / / / / / / / / / / / / / / / / / / / / / / / / / / / / / / / / / / / / / / / / / / / / / / / / / / / / / / / / / / / / / / / / / / / / / / / / / / / / / / / / / / / / / / / / / / / / / / / / / / / / / / / / / / / / / / / / / / / / / / / / / / / / / / / / / / / / / / / / / / / / / / / / / / / / / / / / / / / / / / / / / / / / / / / / / / / / / / / / / / / / / / / / / / / / / / / / / / / / / / / / / / / / / / / ) ^ ' ! > % ; - ^ / / ` / / / / / / / / / / / / h W.2XwX",
"wXeXT.a B ..%.( / / / / / / / / *.^ _ ! > % ; ; / / / / / / / / / / / / / / / / / / / / / / / / / / / / / / / / / / / / / / / / / / / / / / / / / / / / / / / / / / / / / / / / / / / / / / / / / / / / / / / / / / / / / / / / / / / / / / / / / / / / / / / / / / / / / / / / / / / / / / / / / / / / / / / / / / / / / / / / / / / / / / / / / / / / / / / / / / / / / / / / / / / / / / / / / / / / / / / / / / / / / / / / / / / / / / / / / / / / / / / / / / / / / / / / / / / / / / / / / / / / / / / / / / / / / / / / / / / / / / / / / / / / / / / / / / / / / / / / / / / / / / / / / ^ ' ! > % ; - ^ / / ` / / / / / / / / / / / / h W.2XwX",
"wXeXT.a B ..%.W / / / / / / / / *.^ ` ! > % ; ; / / / / / / / / / / / / / / / / / / / / / / / / / / / / / / / / / / / / / / / / / / / / / / / / / / / / / / / / / / / / / / / / / / / / / / / / / / / / / / / / / / / / / / / / / / / / / / / / / / / / / / / / / / / / / / / / / / / / / / / / / / / / / / / / / / / / / / / / / / / / / / / / / / / / / / / / / / / / / / / / / / / / / / / / / / / / / / / / / / / / / / / / / / / / / / / / / / / / / / / / / / / / / / / / / / / / / / / / / / / / / / / / / / / / / / / / / / / / / / / / / / / / / / / / / / / / / / / / / / / / / / / / / ^ ' ! > % ; - ^ / / ` / / / / / / / / / / / / h W.2XwX",
"wXeXT.a B ..%.W / / / / / / / / *.^ ` ! > % ; ; / / / / / / / / / / / / / / / / / / / / / / / / / / / / / / / / / / / / / / / / / / / / / / / / / / / / / / / / / / / / / / / / / / / / / / / / / / / / / / / / / / / / / / / / / / / / / / / / / / / / / / / / / / / / / / / / / / / / / / / / / / / / / / / / / / / / / / / / / / / / / / / / / / / / / / / / / / / / / / / / / / / / / / / / / / / / / / / / / / / / / / / / / / / / / / / / / / / / / / / / / / / / / / / / / / / / / / / / / / / / / / / / / / / / / / / / / / / / / / / / / / / / / / / / / / / / / / / / / / / / / / / / / ^ ' ! > % ; - ^ / / ` / / / / / / / / / / / / h W.2XwX",
"wXeXT.a B ..%.W / / / / / / / / ) ^ _ ! < % ; ; / / / / / / / / / / / / / / / / / / / / / / / / / / / / / / / / / / / / / / / / / / / / / / / / / / / / / / / / / / / / / / / / / / / / / / / / / / / / / / / / / / / / / / / / / / / / / / / / / / / / / / / / / / / / / / / / / / / / / / / / / / / / / / / / / / / / / / / / / / / / / / / / / / / / / / / / / / / / / / / / / / / / / / / / / / / / / / / / / / / / / / / / / / / / / / / / / / / / / / / / / / / / / / / / / / / / / / / / / / / / / / / / / / / / / / / / / / / / / / / / / / / / / / / / / / / / / / / / / / / / / / / / ) ^ ' ! > % ; - ^ / / ` / / / / / / / / / / / / h W.2XwX",
"wXeXT.a B ..%.W / / / / / / / / ) ^ _ ! < % ; ; / / / / / / / / / / / / / / / / / / / / / / / / / / / / / / / / / / / / / / / / / / / / / / / / / / / / / / / / / / / / / / / / / / / / / / / / / / / / / / / / / / / / / / / / / / / / / / / / / / / / / / / / / / / / / / / / / / / / / / / / / / / / / / / / / / / / / / / / / / / / / / / / / / / / / / / / / / / / / / / / / / / / / / / / / / / / / / / / / / / / / / / / / / / / / / / / / / / / / / / / / / / / / / / / / / / / / / / / / / / / / / / / / / / / / / / / / / / / / / / / / / / / / / / / / / / / / / / / / / / / / / / / ) ^ ' ! > % ; - ^ / / ` / / / / / / / / / / / / h W.2XwX",
"wXeXT.a B ..%.W / / / / / / / / ) ^ ' ! < % ; ; / / / / / / / / / / / / / / / / / / / / / / / / / / / / / / / / / / / / / / / / / / / / / / / / / / / / / / / / / / / / / / / / / / / / / / / / / / / / / / / / / / / / / / / / / / / / / / / / / / / / / / / / / / / / / / / / / / / / / / / / / / / / / / / / / / / / / / / / / / / / / / / / / / / / / / / / / / / / / / / / / / / / / / / / / / / / / / / / / / / / / / / / / / / / / / / / / / / / / / / / / / / / / / / / / / / / / / / / / / / / / / / / / / / / / / / / / / / / / / / / / / / / / / / / / / / / / / / / / / / / / / / / ) ^ ' ! > % ; - ^ / / ` / / / / / / / / / / / / h W.2XwX",
"wXeXT.a B ..%.W / / / / / / / / ) ^ ' ! < % ; ; / / / / / / / / / / / / / / / / / / / / / / / / / / / / / / / / / / / / / / / / / / / / / / / / / / / / / / / / / / / / / / / / / / / / / / / / / / / / / / / / / / / / / / / / / / / / / / / / / / / / / / / / / / / / / / / / / / / / / / / / / / / / / / / / / / / / / / / / / / / / / / / / / / / / / / / / / / / / / / / / / / / / / / / / / / / / / / / / / / / / / / / / / / / / / / / / / / / / / / / / / / / / / / / / / / / / / / / / / / / / / / / / / / / / / / / / / / / / / / / / / / / / / / / / / / / / / / / / / / / / / / / / ) ^ ' ! > % ; - ^ / / ` / / / / / / / / / / / / h W.2XwX",
"wX3XT.a V ..%.W / / / / / / / / *.^ _ ! > % ; ; / / / / / / / / / / / / / / / / / / / / / / / / / / / / / / / / / / / / / / / / / / / / / / / / / / / / / / / / / / / / / / / / / / / / / / / / / / / / / / / / / / / / / / / / / / / / / / / / / / / / / / / / / / / / / / / / / / / / / / / / / / / / / / / / / / / / / / / / / / / / / / / / / / / / / / / / / / / / / / / / / / / / / / / / / / / / / / / / / / / / / / / / / / / / / / / / / / / / / / / / / / / / / / / / / / / / / / / / / / / / / / / / / / / / / / / / / / / / / / / / / / / / / / / / / / / / / / / / / / / / / / / / ) ^ ' ! > % ; - ^ / / ` / / / / / / / / / ` ` / t ~.1XqX",
"wX3XT.a V ..%.W / / / / / / / / *.^ _ ! > % ; ; / / / / / / / / / / / / / / / / / / / / / / / / / / / / / / / / / / / / / / / / / / / / / / / / / / / / / / / / / / / / / / / / / / / / / / / / / / / / / / / / / / / / / / / / / / / / / / / / / / / / / / / / / / / / / / / / / / / / / / / / / / / / / / / / / / / / / / / / / / / / / / / / / / / / / / / / / / / / / / / / / / / / / / / / / / / / / / / / / / / / / / / / / / / / / / / / / / / / / / / / / / / / / / / / / / / / / / / / / / / / / / / / / / / / / / / / / / / / / / / / / / / / / / / / / / / / / / / / / / / / / / / / / ^ ' ! > % ; - ^ / / ` / / / / / / / / / ` ` / t W.1XqX",
"wX3XT.a V ..%.W / / / / / / / / *.^ ` ! > % ; ; / / / / / / / / / / / / / / / / / / / / / / / / / / / / / / / / / / / / / / / / / / / / / / / / / / / / / / / / / / / / / / / / / / / / / / / / / / / / / / / / / / / / / / / / / / / / / / / / / / / / / / / / / / / / / / / / / / / / / / / / / / / / / / / / / / / / / / / / / / / / / / / / / / / / / / / / / / / / / / / / / / / / / / / / / / / / / / / / / / / / / / / / / / / / / / / / / / / / / / / / / / / / / / / / / / / / / / / / / / / / / / / / / / / / / / / / / / / / / / / / / / / / / / / / / / / / / / / / / / / / / / / / / ^ ' ! > % ; - ^ / / ` / / / / / / / / / ` ` ` y ~.1XqX",
"wX3XT.a V ..%.W / / / / / / / / *.^ ` ! > % ; ; / / / / / / / / / / / / / / / / / / / / / / / / / / / / / / / / / / / / / / / / / / / / / / / / / / / / / / / / / / / / / / / / / / / / / / / / / / / / / / / / / / / / / / / / / / / / / / / / / / / / / / / / / / / / / / / / / / / / / / / / / / / / / / / / / / / / / / / / / / / / / / / / / / / / / / / / / / / / / / / / / / / / / / / / / / / / / / / / / / / / / / / / / / / / / / / / / / / / / / / / / / / / / / / / / / / / / / / / / / / / / / / / / / / / / / / / / / / / / / / / / / / / / / / / / / / / / / / / / / / / / / / / / ^ ' ! > % ; - ^ / / ` / / / / / / / / / ` ` ` y ~.1XqX",
"wX3XT.a V ..%.W / / / / / / / / ) ^ _ ! > % ; ; / / / / / / / / / / / / / / / / / / / / / / / / / / / / / / / / / / / / / / / / / / / / / / / / / / / / / / / / / / / / / / / / / / / / / / / / / / / / / / / / / / / / / / / / / / / / / / / / / / / / / / / / / / / / / / / / / / / / / / / / / / / / / / / / / / / / / / / / / / / / / / / / / / / / / / / / / / / / / / / / / / / / / / / / / / / / / / / / / / / / / / / / / / / / / / / / / / / / / / / / / / / / / / / / / / / / / / / / / / / / / / / / / / / / / / / / / / / / / / / / / / / / / / / / / / / / / / / / / / / / / / / / ) ^ ' ! > % ; - ^ / / ` / / / / / / / / / / ` ` y ~.1XqX",
"wX3XT.a V ..%.W / / / / / / / / ) ^ _ ! > % ; ; / / / / / / / / / / / / / / / / / / / / / / / / / / / / / / / / / / / / / / / / / / / / / / / / / / / / / / / / / / / / / / / / / / / / / / / / / / / / / / / / / / / / / / / / / / / / / / / / / / / / / / / / / / / / / / / / / / / / / / / / / / / / / / / / / / / / / / / / / / / / / / / / / / / / / / / / / / / / / / / / / / / / / / / / / / / / / / / / / / / / / / / / / / / / / / / / / / / / / / / / / / / / / / / / / / / / / / / / / / / / / / / / / / / / / / / / / / / / / / / / / / / / / / / / / / / / / / / / / / / / / / / / ) ^ ' ! > % ; - ^ / / ` / / / / / / / / / / ` ` y ~.1XqX",
"wX3XT.a V ..%.W / / / / / / / / ) ^ ' ! > % ; ; / / / / / / / / / / / / / / / / / / / / / / / / / / / / / / / / / / / / / / / / / / / / / / / / / / / / / / / / / / / / / / / / / / / / / / / / / / / / / / / / / / / / / / / / / / / / / / / / / / / / / / / / / / / / / / / / / / / / / / / / / / / / / / / / / / / / / / / / / / / / / / / / / / / / / / / / / / / / / / / / / / / / / / / / / / / / / / / / / / / / / / / / / / / / / / / / / / / / / / / / / / / / / / / / / / / / / / / / / / / / / / / / / / / / / / / / / / / / / / / / / / / / / / / / / / / / / / / / / / / / / / / / ) ^ ' ! > % ; - ^ / / ` / / / / / / / / / / / ` y ~.1XqX",
"wX3XT.a V ..%.W / / / / / / / / ) ^ ' ! < % ; ; / / / / / / / / / / / / / / / / / / / / / / / / / / / / / / / / / / / / / / / / / / / / / / / / / / / / / / / / / / / / / / / / / / / / / / / / / / / / / / / / / / / / / / / / / / / / / / / / / / / / / / / / / / / / / / / / / / / / / / / / / / / / / / / / / / / / / / / / / / / / / / / / / / / / / / / / / / / / / / / / / / / / / / / / / / / / / / / / / / / / / / / / / / / / / / / / / / / / / / / / / / / / / / / / / / / / / / / / / / / / / / / / / / / / / / / / / / / / / / / / / / / / / / / / / / / / / / / / / / / / / / / / ) ^ ' ! > % ; - ^ / / ` / / / / / / / / / / / ` y ~.1XqX",
"wX8XT.a V ..&.( / / / / / / / / ) ^ _ P =   - ; / / / / / / / / / / / / / / / / / / / / / / / / / / / / / / / / / / / / / / / / / / / / / / / / / / / / / / / / ^ ` ] ] ` ^ ` O./ / / ^ ^ ^ ^ ^ ^ / / / ` ] ] ] ;.] ] / ^ ^ / / / / / / / / / / / / / / / / / / / / / / / / / / / / / / / / / / / / / / / / / / / / / / / / / / / / / / / / / / / / / / / / / / / / / / / / / / / / / / / / / / / / / / / / / / / ` ] ] ] / / ^ ` ` ` ` ] ] ] ] ` ` ` ` ` ` / ^ I ` ^ ^ ` / ^ ` / / / / / / / / / / / / / / / / / / / / / / / / / / / / / / / / / / / / / / / / / / / / / / / / / / / / / / / / ) ^ ' ! < % - ; ^ ^ / / / ^ / / / / / / ^ ^ ^ ^ y W.4X0X",
"wX8XT.a V ..&.( / ^ / / / / / ^ ) ^ _ P =   - ; / / / / / / / / / / / / / / / / / / / / / / / / / / / / / / / / / / / / / / / / / / / / / / / / / / / / / / / / ` ] ] ] ` ^ ^ ^ / / / / / ` ` ` / / / / / / / / ^ ^ ^ ^ / / ` ` / / / / / / / / / / / / / / / / / / / / / / / / / / / / / / / / / / / / / / / / / / / / / / / / / / / / / / / / / / / / / / / / / / / / / / / / / / / / / / / / / / / / / / / / / / / ` / / ^ ^ ^ ^ ^ / ` ` ` ] ] ] ] ] ` ` ` ` ^ ] ^ ^ ] ] ^ ` / / / / / / / / / / / / / / / / / / / / / / / / / / / / / / / / / / / / / / / / / / / / / / / / / / / / / / / / ) ^ ' ! < % - ; I ^ / / / ^ / / / / / / ^ ^ ^ ^ y W.4XwX",
"wX8XT.a B ..&.( ^ ^ / / / / / ^ ) ^ _ P =   - ; / / / / / / / / / / / / / / / / / / / / / / / / / / / / / / / / / / / / / / / / / / / / / / / / / / / / / / / / ` ` ` / I L J z z z x L I I I U ^ ^ / / / ` ` ] ^ ^ ^ / / ` / / / / / / / / / / / / / / / / / / / / / / / / / / / / / / / / / / / / / / / / / / / / / / / / / / / / / / / / / / / / / / / / / / / / / / / / / / / / / / / / / / / / / / / / / / ^ ^ / / / / / / ` ` ` ` ` ` / / ^ U I I L x z z x I z z ` ` ^ ^ / / / / / / / / / / / / / / / / / / / / / / / / / / / / / / / / / / / / / / / / / / / / / / / / / / / / / / / / ) ^ ` _ < % ; ; ^ ^ / / / ^ / / / / / / ^ ^ / / y W.4X0X",
"wX8XT.a B ..&.( ^ ^ / / / / ^ ^ ) ^ _ P =   - 3 ^ / ^ / / / / / / / / / / / / / / / / / / / / / / / / / / / / / / / / / / / / / / / / / / / / / / / / / / / / / / ^ I x l q q q , , q q q w l l x x x I ^ / ` ` ] ] ] ] ] ` ^ ^ / / / / / / / / / / / / / / / / / / / / / / / / / / / / / / / / / / / / / / / / / / / / / / / / / / / / / / / / / / / / / / / / / / / / / / / / / / / / / / / / / / / / / / / / ^ ^ / ` ` ` ` ` ` ` ^ U I L z z j w q q q q q , q q $ q ^ ] ^ ^ / / / / / / / / / / / / / / / / / / / / / / / / / / / / / / / / / / / / / / / / / / / / / / / / / / / / / / / / ) ^ ` _ < % ; ; ^ ^ / / / ^ / / ^ ^ ^ ^ ^ ^ / / y W.4X0X",
"wX8XT.a B ..&.C / / / / / / / / ) ^ _ P =   - 8 / / / / / / / / / / / / / / / / / / / / / / / / / / / / / / / / / / / / / / / / / / / / / / / / / / / / / / / / ` ^ x j q , , q w w w w w w w w # , q w j z z z ^ ^ ` ` ` ` ` / / / / / / / / / / / / / / / / / / / / / / / / / / / / / / / / / / / / / / / / / / / / / / / / / / / / / / / / / / / / / / / / / / / / / / / / / / / / / / / / / / / / / / / / / ] ] ` ` ^ ^ ^ U L z z l w q , , q q q q q q q q w q $ q ` ;.] ] / / / / / / / / / / / / / / / / / / / / / / / / / / / / / / / / / / / / / / / / / / / / / / / / / / / / / / / / ) ^ ' _ < % - ; ^ ^ / / / ^ / / ^ ^ ^ ^ ^ ^ ^ ^ y W.4X0X",
"wX8XT.a V ..&.C / / / / / / / / ) ^ _ P =   - 3 / / / / / / / / / / / / / / / / / / / / / / / / / / / / / / / / / / / / / / / / / / / / / / / / / / / / / / / / ` I z j q w w w z z l l l l l w q q q q q q q q q j z x I ^ ` ] / / / / / / / / / / / / / / / / / / / / / / / / / / / / / / / / / / / / / / / / / / / / / / / / / / / / / / / / / / / / / / / / / / / / / / / / / / / / / / / / / / / / / / / / <.] ` U L z z l q q q q q q q q j j l l l z z z z z q w / ] / / / / / / / / / / / / / / / / / / / / / / / / / / / / / / / / / / / / / / / / / / / / / / / / / / / / / / / / / / ) ^ ' _ < % - ; ^ ^ / / / ^ / / ^ ^ ^ ^ ^ ^ / / y W.4X0X",
"wX8XT.a V ..&.( / / ^ ^ / / / / ) ^ _ P =   - 3 / / / / / / / / / / / / / / / / / / / / / / / / / / / / / / / / / / / / / / / / / / / / / / / / / / / / / / / / I x z l l z l l z z z l l l j j l l l j w q q q , , q j z L I ^ / / / / / / / / / / / / / / / / / / / / / / / / / / / / / / / / / / / / / / / / / / / / / / / / / / / / / / / / / / / / / / / / / / / / / / / / / / / / / / / / ^ ^ ^ ^ ^ ^ ^ ^ U I L z l w q q w w l l l z z z l l l z z z z z z z q q I / ^ ^ / / / / / / / / / / / / / / / / / / / / / / / / / / / / / / / / / / / / / / / / / / / / / / / / / / / / / / / / ) ^ ' ! < % - ; ^ ^ / / / ^ / / / / ^ ^ ^ ^ ^ ^ y W.4XwX",
"wX8XT.a V ..&.( / / ^ ^ ^ / / / ) ^ _ P =   - ; / / / / / / / / / / / / / / / / / / / / / / / / / / / / / / / / / / / / / / / / / / / / / / / / / / / / / / / / z k l z z z l l z z z l l l l l j w w w w q q q w w q q q l l l / / / / / / / / / / / / / / / / / / / / / / / / / / / / / / / / / / / / / / / / / / / / / / / / / / / / / / / / / / / / / / / / / / / / / / / / / / / / / / / / ^ ^ ^ ^ ^ ^ ^ ^ w q q q q q q q l l l l l l z z J J z z z z z z j l q q I / ^ ` / / / / / / / / / / / / / / / / / / / / / / / / / / / / / / / / / / / / / / / / / / / / / / / / / / / / / / / / ) ^ ' ! < % - ; ^ ^ / / / ^ / / / / ^ ^ ^ ^ ^ ^ y W.4XwX",
"wX8XT.a V o.&.C ^ ^ ^ ^ / ^ ^ / ) C _ P = o ; ; _ _ ^ ^ ^ ^ / / / / / / ^ ^ ^ / / / / / ^ ^ / / / / / / ^ ^ ^ / / / / / ^ ^ / / ^ ^ ^ ^ / / / / / / / / ^ ^ n x z z z z z z x x z z z z z z z z l l l l l l w w l l l l w w q q q j z U ` ` ` ` I I ^ ^ / / / / / ^ ^ ^ ^ ^ / / / / / / / / / / / / / ^ ^ ^ ^ / / / / / / / / / / / ^ ^ / / / / / / / ^ ^ ^ ^ / / / / / / / / / / / ^ ^ ^ ^ ^ ^ ^ / ` ] ^ L j , q q w j l j l l l l z z z z x x z z z x x J J z l q , q z I ^ ^ / / / / / / / / / / / / ^ ^ ^ / / / / / ^ ^ / / / / / ^ ^ ^ ^ / / / / / / / / / / / ^ ^ / / / / / / / ^ ^ ^ ^ / ) ^ ' ! < % - ; ^ ^ / / / ^ / / / / / / / / / / y W.4X0X",
"wX8XT.a V o.&.C ^ ^ ^ ^ / / ^ ^ ) C _ P = o ; : _ _ ^ ^ ^ ^ / / / / / / ^ / ^ / / / / / ^ ^ / / / / / / ^ / ^ / / / / / ^ ^ / / / ^ ^ ^ / / / / ^ / / / ^ I n x x x x x x x x x x x z z z z z z z z l l l l l l l l l l l w q q , q l z I ^ / ` O.] ` ^ ^ ^ ^ / / / / / / / ` ` / / / / / / / / / / / / ^ ^ / / / / / / / / / / / / / ^ / / / / / / / / ^ ^ / / / / / / / / / / ^ ^ / / / / / / ` ^ I z l q q q l l l l l z z z z z z z x L L L x x x x L L L J l w q q z I ^ / / / / / / ^ / / / / / / ^ / ^ / / / / / ^ ^ / / / / / / ^ ^ / / / / / / / / / / / / / ^ / / / / / / / / ^ ^ / / ) ^ ' ! < % - ; ^ ^ / / / ^ / / / / / ^ / / / / y W.4X0X",
"wX8XT.a V o.&.( / / ^ / / / / / ) C _ P = o ; : _ _ ^ / / / / / / / / / / / / / ^ / / / / ^ / / / / / / / / / / ^ / / / / ^ / / / / / / / / ^ ^ ^ ^ ^ ^ ^ I n x I I I L x x x x L x x x x x x x z z z z z z z z l l l l l l l w q q q q w z L I ] ] ` ` / / ^ ^ / / / / / / ` ` / / / / / / / / / / / / / / / / / / ^ ^ / ^ ^ / / / / ^ / / ^ / / / / / / / / / / / / / / / ^ ^ ^ ^ / ` ` / ^ n I L l q , q l l z z z z z z x x x x x L I I I I n n I I I L L L l l w q l z ^ ] ^ / / / ^ ^ / / / / / / / / / / ^ / / / / ^ / / / / / / / / / / / / ^ ^ / ^ ^ / / / / ^ / / ^ / / / / / / / / / ) ^ ' _ < % ; ; ^ ^ / / / ^ / / / / / / / ^ / / y W.4X0X",
"wX8XT.a V ..&.( / / / / / / / / ) C _ P = o ; : _ _ / / / / / / ^ / / / / / / / ^ / / / / / / / ^ / / / / / / / ^ / / / / / / / / / / / / / / / ^ ^ ^ ^ ^ I n n U I I I I L L x I I I I I L L L x x x z z z z z z z z z l l l l z l q q , q q q z L U ` ] ` ` ^ ` ` / ` / / ^ ^ / / / / / / / / / / / / / / / / / ^ ^ / ^ ^ ^ / / / / / / / ^ ^ / / / / / / / / ^ ^ ^ ^ ^ ^ ^ / ] ] ` / ^ x z k q q q j l z z z z z x x x L I I I I I I I I I U I I I I I I L L l l l w q l U ] / ^ / / / / / / ^ / / / / / / / ^ / / / / / / / / / / / / / / / / ^ ^ / ^ ^ ^ / / / / / / / ^ ^ / / / / / / / / ) ^ ` _ < % ; ; ^ ^ / / / ^ / / / / / / / / / / y W.4X0X",
"wX8XT.a V ..&.( / / / / / / / / ) C _ P = o ; : _ _ / ^ ^ ^ / / ^ ^ / / / / / / ^ ^ / / / / / / ^ ^ / / / / / / ^ ^ / / / / / / / / / / / / / / ^ ^ ^ ^ ^ ^ n n ^ ^ ^ ^ I I I I I I I I I I I I x x x x x z z z J J z J z z l l z l l w q , , # , q l x I ^ / ` / / ` ` ` / ^ ^ / / / / / / / / ^ ^ / / / / / ^ / / / / / / / / / / / / / / / ^ ^ ^ / / / / / ^ ^ ^ / / / / / ` ] ` ^ L z j w q , q j z x L L L x x x x n I I I ^ ^ ^ ^ ^ ^ ^ ^ ^ ^ ^ ^ I I L L l z z w q j I ` / / / ^ ^ ^ / / ^ ^ / / / / / / ^ ^ / / / / / / ^ ^ / / / / / ^ / / / / / / / / / / / / / / / ^ ^ ^ / / / / / ^ ) ^ ' _ < % - ; ^ ^ / / / ^ / / / / ^ ^ / / / / y W.4X0X",
"wX8XT.a V ..&.( / / / / / / / / ) C _ P = o ; : _ _ / ^ ^ ^ / / ^ ^ / / / / / / / ^ / / ^ / / / ^ ^ / / / / / / / ^ / / ^ / / / / / / / / / / / ^ ^ ^ ^ ^ ^ ^ ^ ^ ^ ^ ^ ^ ^ ^ ^ ^ ^ ^ ^ ^ ^ ^ I I L L L x x x x L L L J z z z z l l l l l j q q w q , , q z I ^ ^ ^ ` ` ` ` / ^ / / / / / / / / ^ / / / / / ^ ^ / / / / / / / / / / ^ / / / / ^ ^ / / / / / ^ ^ / / / / / / / / I I z l j j j l l l l l z z L I n n n n I I ^ ^ ^ ^ ^ ^ ^ ^ ^ ^ / ^ ^ ^ U I L L z z z w q q z ^ / / / / ^ ^ / / ^ ^ / / / / / / / ^ / / ^ / / / ^ / / / / / ^ ^ / / / / / / / / / / ^ / / / / ^ ^ / / / / / ^ ^ ) ^ ' ! < % - ; ^ ^ / / / ^ / / / / / ^ / ^ / / y W.4X0X",
"wX8XT.a V ..&.( / / / / / ^ ^ / ) C _ P = o ; : _ _ / ^ / / / / ^ / / / / ^ ^ / / / / / ^ / / / ^ / / / / ^ ^ / / / / / ^ / / / / ^ / / / / / / ^ ^ ^ ^ ^ ^ / / / / / ^ ^ ^ ^ ^ ^ ^ ^ ^ ^ ^ ^ ^ I I I I I I n n L L L L L J z z l l l z l l l w w w q , , q j l z L I ^ / / / ^ / / / / / / / / ^ ^ / / / / ^ / / / / / ^ ^ / / / / ^ ^ / / / / ^ ^ / / / / ^ / / / / ^ I n x x l l j j j l z z x z z z z L I I ^ ^ ^ ^ ^ ^ ^ / ^ ^ ^ ^ ^ ^ ^ ^ ` / ^ ^ I I L L z z l q q q l x / / / / ^ / / / ^ / / / / ^ ^ / / / / / ^ / / / ^ ^ / / / / ^ / / / / / ^ ^ / / / / ^ ^ / / / / ^ ^ / / / / ^ / ) ^ ' ! < % - ; ^ ^ / / / ^ / / / / / ^ ^ / / / h W.4XwX",
"wX8XT.a V ..&.( / / / / ^ ^ ^ ^ ) C _ P = o ; : _ _ ^ ^ / / / / / / / / ^ ^ / / / / / / ^ ^ / / / / / / ^ ^ / / / / / / ^ ^ / / / ^ ^ / / / / / / ^ ^ ^ ^ / / / / / / / / / / / / / / ^ ^ ^ ^ ^ ^ ^ ^ ^ ^ I I I I I L L L L J J z z z z l l j w , w l l l w , $ q w z L I ^ ^ ^ / / / / / / / / / / / / / / / / / / / ^ ^ ^ / / / / ^ ^ / / / / / / / / / / / / ^ ^ I x k j j q q q w l l l z z z z I U ^ ^ ^ ^ ^ ^ ^ / / / / / / ^ ^ ^ ^ ^ ^ ^ ` / ^ ^ I I L J z z l q q q w l / / / / ^ / / / / / / / ^ ^ / / / / / / ^ ^ / / / / / / / / / / / / / ^ ^ ^ / / / / ^ ^ / / / / / / / / / / / / ) ^ ' ! < % - ; ^ ^ / / / ^ / / / / / / ^ / / / h W.4X0X",
"wXeXT.a E ..%.W / / / / / / / / ) C ^ P =   ; 4 _ _ / / / / / / / / / / ^ / / / / / / / / / / / / / ^ ^ / / / / / / ^ ^ / / / / / / / ^ ^ ^ ^ / / / / / ^ ^ ^ / / / / / / / / / ^ / / / / ^ / / / / ^ ^ n n n n I I I I I L x x L L J z z z z z l l j j w q q q l w , $ $ , q w ^ ^ ^ / ` ` ` ] / / / ^ ^ ^ ^ ^ ^ ^ ^ ^ ^ ^ / / / / / / / / / / / / / ^ ^ I n n q q q q q w w w l l z z x L I I ^ ^ ^ ^ ^ / / / / / / / / / / / ^ ^ ^ ^ ^ ^ / / ] / ^ ^ U I L z z l l j w q q q z n ^ ` ` _ ^ ^ ^ ^ ^ / / ` ` ` / / / / / / / / / / / / ^ ^ / / / / ^ ^ ^ / / / / / / / / / / / / / / / ^ ^ / / ) ^ ' _ < % ; ; ^ ^ / / / ^ / / / / / / ^ ^ ^ / h W.4XwX",
"wXeXT.a E ..%.W / / / / / / / / ) C _ P =   ; 4 _ _ / / ^ / / / / / / / ^ / / / / / / / / / / / / / / ^ / / / / / ^ ^ ^ / / / / / / / / ^ ^ / / / / / / ^ ^ / / / / / / / / / ^ / / / / / / ` ] ] ) / / ^ ^ C C I I I I n n x x L L L J z z J J l l l l l l j w l j q q q q w j # , q j z z L I n I I ^ ^ ) ` ` ` ` ` ` ` ` ] ] / / / / / ^ ^ ^ I x z z l j q q w w l l l l l l z z z L I I I U ^ ^ ^ ^ ^ / / / / / / / ^ ^ / / / / / / / ] ] ] ;.] / ^ ^ U I x z l l j w q q q j z I ^ ` ^ ^ ^ ^ ^ ^ ^ / / / / / / / / / / / / / / / / ^ ^ / / / / ^ ^ / / / / ^ ^ / / / / ^ ^ / / / / ^ ^ / / ) ^ ` ! < % ; ; ^ ^ / / / ^ / / / / / / ^ ^ / / h W.4XwX",
"wX3XT.a E ..%.W / / / / / / / / ) C _ P = o ; ; _ _ / / ^ ^ / / / / / / ^ ^ / / / / / / ^ ^ / / / / ^ ^ / / / / / / / / / / ^ ^ ^ / / / / / / / / / / / / / / / ^ ^ / / / / ^ ^ / / / / / / ] ;.;.;.;.-.] ) / / ^ I I I I I I I I I L x x z x x z z z z l l l l l l l w w w j j , , q q q q q q j j l z x I I I I I I I I I I I I I L x z z z z w q q q , # $ $ l l l z z z z z L L I I U ^ ^ ^ ^ ^ ^ ^ ^ ^ ^ ^ / / ^ ^ ^ ^ / / ` ] ] ;.;.;.t.<.q.-.` ^ ^ I I L z z l l j w q q , j x ^ ^ _ _ ` / / / / / / / / / / ^ ^ / / / / ^ / / / / ^ / / / / / / / / / / ^ ^ / / / / / ^ ^ / / / / / / / ) ^ ' ! < % ; ; ^ ^ / / / ^ / / ^ ^ / / / / / / h W.4XwX",
"wX3XT.a E ..%.W / / / ^ ^ / / / Z C _ P < % ; ; _ _ / ^ ^ ^ / / ^ / / / / ^ / / / / / ^ ^ ^ / / / / / / / / ^ ^ / / / / / / ^ ^ ^ / ` ] ` / / / / / / / / / / / ^ ^ / / / / ^ ^ / / / / / ] ;.t.p.p.t.t.q.;.;.;./ / ^ ^ ^ I n n I I I L x z z x z z z z z z l l l l l l l l l j l l l j q q q q q q q q q q q q q q q q q q q q w q q q q q q q q q q q w w w w z z z z z x L L I I U ^ ^ ^ / / / / / / ^ ^ ^ ^ / ^ ^ ^ / / ] ] -.;.q.t.t.t.t.q.t.;.) ^ ^ I I I z z z l l j w q , j z L I ^ ` ] ` ` / / ^ ^ ^ ^ / / ^ ^ ^ ^ / / ^ / / / / / / / / / / / / / / / ^ / / / / / / ^ ^ / / / / / / / ) ^ ' ! < % - ; ^ ^ / / / ^ / / / / / / / / / / h W.4XwX",
"wX3XT.a E ..%.W / ^ ^ ^ ^ ^ ^ / Z C _ P < % ; ; _ _ ^ ^ ^ / / / ^ / / / / / / / / ^ ^ / ^ ^ / / / / / / / / / ^ / / / / / / / ^ ^ / ] ] ] / / / ^ / / / / / / ^ / / / / / / / / / / / / / ] ;.u.p.p.p.p.t.t.t.t.;.;.] ` / ^ I I I I I L x z z z x z z z z z z l l l l z l l j j q q q q j l l l j j w w q , , , , , , , , , , , q q w w w w w w w w w l l J J J z z z x x L I I ^ ^ ^ ^ ^ ^ ^ / / / / / / / / ^ ^ ^ / / ] ;.<.t.q.q.p.p.y.q.q.q.-.-.] / ^ I n n x z z z l l j j , , q j j z ^ ' ^ ^ ^ ^ ^ ^ ^ ^ / / ^ ^ ^ ^ ^ / ^ ^ / / / / / / / ^ ^ ^ / ^ ^ / / / / / / / / / ^ ^ / / / / / / ) ^ ' ! < % - ; ^ ^ / / ^ ^ ^ / ^ ^ / / / / / / h W.2XwX",
"wX3XT.a E ..%.W ^ ^ / ^ ^ ^ ^ ^ Z C _ ! < % ; ; _ _ ^ ^ / ^ / / ^ ^ / / ^ ^ / / ^ ^ / / ^ ^ / / / / ^ / / / ^ ^ / / / / / / / / ` ] ] ] ` / / ` ^ / / / / / ^ ^ / / / / / / / / / / / / / ] ;.t.t.t.t.t.t.p.p.p.p.t.q.;.] / / / ^ ^ I I L L x x L x x z z z z z l z z z z l l j l l j j j j j j l l l l l w w w j j q q j j j j q q w l l l z z l l l l l z z z z z x L I I I U ^ ^ ^ ^ ^ ^ ^ ^ / / / / / / / / / ` ] ] ;.t.u.u.y.y.y.q.q.-.-.-.) -.) / ^ n n n L L z z z l l l , , , # , 6 c L / / ` ` ` ` ] ] / / ^ ^ / / ^ / / ^ / / ^ / / / / ^ ^ / ^ ^ / / / / / / / / / / / ^ / / ^ / / / ) ^ ' ! < % - ; ^ ^ / / ^ ^ ^ / / ^ / / ^ / / / h W.2XwX",
"wX3XT.a E ..%.W / / / / ^ ^ / / Z C _ ! < % ; ; _ _ ^ ^ / ^ / / / / / / ^ ^ / / / / / / / ^ / / / / ^ ^ / / / / / / / ^ / / / / ] ] ] ] / / / ` ^ ^ / / / / ^ ^ / / ^ ^ / / / / / / / ` / ] ] ;.;.;.;.q.t.t.p.p.p.p.p.t.t.;.;.-.` ` ^ ^ I I I I I I L L L x z z z z z z z z z z L x x z l l w q j j j j l l l l j j j j j j j j l l l l l z z z z z z z z z z z x n I I ^ ^ ^ / / / / / / / / / ^ ^ / / / / / / ;.;.t.t.u.u.t.t.q.q.-.-.) ) ) ) ) -.-.) / ^ n n L L x z z z l l 6 j , , , , 6 j L I I U ^ ` ` ] / / / / / / / / / / / / ^ / / / / / / / / / / / / / ^ ^ / / / / / / / / ^ ^ / / ) ^ ' ! < % - ; ^ ^ / / ^ ^ ^ / / / / / ^ ^ / / h W.4XwX",
"wX3XT.a E ..%.W / / / / / / / / Z C _ ! < % ; ; _ _ / ^ / / / / / / / / ^ / / / / / / / / / / / / / / ^ / / / / / ^ ^ ^ / / / / ;.;.;.] / / / ` / / / / / / / / / / ^ ^ ^ ^ / / ^ / ` ` ` ` ] ;.] ] -.;.q.t.p.p.p.p.p.p.p.y.y.y.] ] ` ^ ^ ^ ^ I I I I I I L L L L L x z z z z x l l z z z z z z z c z z z l l l c c c c c c c c z z z z z z z z k k z x n n I ^ I I I ^ ^ ` ` ` ] ` ` ` / / / / ^ ^ ^ / / / ` ] t.u.p.a.a.p.t.;.-.-.) ) ) ) ) ) ) -.q.-.) ^ ^ I I L L z z z l l l c c l 6 , , , , , q w l z x L / / / / / / / / / / / / ^ ^ / / / / / / / / / / / ^ ^ ^ / / / / / / / / ^ ^ / / ) ^ ' ! < % - ; ^ ^ / / / ^ / / / / / / ^ ^ / / h W.4XwX",
",X8XT.a V ..$.( / / / ^ ^ ^ ` ` ^ ^ _ o.& % % 4 _ _ ^ ^ ^ ^ / / / / / / / / / / / / / / / / / / / / ^ ^ / / / / / ^ / / / ^ ] t.t.;.] ] ] ] ` / / / ^ ^ ^ / / / ` / / / / / / / ^ / / / / ` ] ] ] ] ] ] ] ] ] ] t.t.t.t.t.u.p.p.t.t.;.] / / ^ ^ ^ ^ I I I I I I L L x L L L I I z z z z z z x x c c c c J J J z c c c c J J J J x x L L L L L L x x x n n n n n ^ ^ ^ ^ / / / / / / / ` / / ^ ^ ^ ^ ` ] <.u.p.a.u.t.t.<.;.;.] ] ] ] ] ] ] ] ] ] ] ] ] ;.<.;.` ^ x n I I z z z J j j j j j j j j j j j , , , , , w L / ` ^ / ` ` / / / / / / / / / / ^ / / / / / ^ ^ / / / / ^ ^ ^ ^ / / / / ^ ^ ) ^ ` _ < % ; ; ^ ^ ` ` ` ` ` ` ^ ^ ^ / / / / / y W.4X0X",
",X8XT.a V ..S C / / / / ^ ^ ` ` Z ^ _ o.& % % 4 _ _ ^ ^ ^ ^ / / ^ / / / / / / / / / / / ^ / / / / / ^ ^ / / / / / ^ / / / ^ ] t.t.;.] ] ] ] ` / / / / / ^ ^ / / / / / / / / / / / / / / ` ` ] ] ] ] ] ] ] ] ] ] ] ;.;.<.t.t.p.p.t.t.t.;.;.] ] ) ^ ^ I I I I ^ ^ I I I I L L L x x x x x L L x L J J J J J J J J J J J J J J J J L L L I I I I I I I n ^ ^ ^ ^ ^ / / / / / / / / ^ ^ ^ ^ ^ ^ / / ] ] ] ;.<.t.u.p.<.;.;.;.] ] ] ] ] ] ] ] ] ] ] ] ` ] ] ;.<.;./ I n I I I L z l l l l l j j j j j j j j , , , , , q L / ` ^ / ` ` / / / / / / / / / / ^ ^ / / / / ^ ^ / / / / ^ ^ ^ ^ / / / / ^ / ) ^ ` _ < % ; - ^ ^ / ` ` ` ` ` ^ ^ ^ / / / / / y W.4X0X",
",X8XT.a N ..S ( ` ` ` ` ^ ^ ` ` ^ ^ _ o.& % % 4 _ _ ` / ^ / / / ^ ^ / / / / ^ ^ / / ^ ^ ^ / / / / / / ^ / / / / / ^ / / / ^ ] t.t.;.] ] ] ] ` / / / / / / / / / / / / / / / / / / / / / ` ] ] ] ] ] ] ] ] ] ] ] / / ] ] ;.t.t.u.t.t.t.p.t.t.q.;.` ` ^ ^ ^ ^ ^ ^ ^ ^ U I I I L L z z z z z z z z L L J J L L L L L L L L L L L L I I I I I I I I ^ ^ ^ ^ ^ ^ ^ ^ / / / / ^ ^ ^ ^ ^ ^ ^ ^ ^ / ] ] q.q.q.q.q.q.q.q.] ] ] ] ] ] ] ` ] ] ] ] ] ] ] ] / ` ] ;.;.;./ ^ n I I I I L z l z l l l l l l l l l l w w w q q q L / / ^ / ` ` / / / / / ^ / / / / / ^ / / / / / ^ / / / / / / ^ ^ / / / / / / ) I ` _ < % ; - ^ ^ / ` ` ` ^ ^ ^ ^ ^ / / / / / y W.4X0X",
",X8XT.a N ..$.( ` ` ` _ ^ ^ ` ` ^ ^ _ o.& % % 4 _ _ / / ^ ^ / / ^ ^ / / / ^ ^ ^ / / / ^ ^ ^ / / / / / / / / / / / ^ / / / ^ ] t.t.;.] ] ] ] ` / / / / / / / / / / / / / / / / ` / / / ` ` ] ] ] ] ] ] ] ] ] ] ] ^ / / ] ] ;.;.<.;.q.t.p.p.p.t.t.t.<.;.] / ^ ^ ^ I I U U U U U U L L L L L x x x L L L L L L L L I I I I I I I I U U U ^ ^ ^ ^ ^ / / / ^ ^ ^ ^ ^ ^ ^ ^ ^ ^ ^ ^ ^ / / / / ] ;.<.t.p.w.q.q.q.-.-.-.] ] ] ] ] ] ] ] ] ] ] ] ] ] ] ] ` ` ] ] ;.;.;.] ^ n x x I I I L z z z z l l l l l l l l l j w w q L / ` ^ / / / / / / ^ ^ ^ / / / / / ^ ^ / / / / / / / / / / / / / / / / / / / ) ^ ` _ < % ; - ^ ^ / ` ` ` ^ ^ ^ ^ ^ / / / / / y W.4X0X",
"wX8XT.a N ..$.( / / / ^ / / ^ / ^ ^ _ ..& % % 4 _ _ / / / / / / / / / / / / / / / / / ^ ^ ^ / / / / ^ ^ ^ ^ ^ / / ^ / / / ^ ] t.t.;.] ] ] ] ` / ^ ^ / / / ^ ^ ^ / / / / / / / ` ` ` ` ` ] ] ] ] ] ] ] ] ] ] ] ] / / / ` ` ] ] ] ] -.q.t.p.p.t.t.p.u.t.<.;.] ] / ^ ^ ^ ^ ^ ^ ^ ^ ^ ^ ^ ^ ^ ^ ^ ^ I I I I I I I I ^ ^ ^ ^ ^ ^ ^ ^ ^ ^ ^ ^ ^ ^ / / ] ] ` ` ` ` ` / ^ ^ ^ ^ / ` ` ` ] ] ;.<.t.u.u.u.q.q.e.-.-.) ) ) ] ] ] ] ] ] ] ] ] ] ] ] ] ] ] ] ] ] ` ` ] ;.t.p.] ^ n x n I U U z z z z z z z z l l l l l l l l q L ` ` / / / / / ^ ^ ^ ^ ^ ^ / / / ^ ^ ^ / / / / / / / / / / / / / / / / / / / ) I ` ! < % ; - ^ ^ ` ` ` ` ^ ^ ^ ^ ^ / / / / / y W.4X0X",
"wX8XT.a N ..$.( / / ^ ^ / / / / ^ ^ _ ..& % % 4 _ / / / / / / / / / / / / / / / / / / ^ ^ / / / / ^ ^ / ^ ^ / / / ^ / / / ^ ] t.t.;.] ] ] ] ` / ^ ^ / / / / ^ ^ / / ^ ^ / / ` ] ] ] ] ] ] ] ] ] ] ] ] ] ] ] ] ] ] ] ] ` / / / / ) ] -.;.q.t.q.q.t.t.t.t.t.t.t.q.;.;.] ] / / ^ ^ ^ ^ ^ ^ ^ ^ I I ^ ^ ^ ^ ^ ^ ^ ^ ^ ^ ^ ^ ^ ^ ^ ^ ^ ^ ^ ^ / / / / ^ ^ ^ ^ ^ ^ ^ ^ ^ ^ / / ] ] ;.;.;.<.t.p.p.p.u.t.-.-.-.) ) ( / / ] ] ] ] ] ] ] ] ] ] ] ] ] ] ] ] ] ] ] / ` ] t.a.t.;./ I n I I I L L L z z z z z J z z l l l l w q x ` ` / / / ^ ^ ^ / / ^ ^ / / / / ^ ^ ^ ^ / / / / / / / / / / / / / / / / / / ) ^ ` _ < % ; - ^ ^ ` ` ` ` ^ ^ ^ ^ / ` / / / / y W.4X0X",
"wX8XT.a N ..$.( / ^ / / / / / / ^ ^ _ ..& % % 4 _ _ ^ ^ / ^ / / / / / / ^ ^ / / / / / / ^ ^ / / / / / / / / / / / ^ / / / ^ ] t.t.;.] ] ] ] ` / / / / / / / / / ^ ^ ^ ^ / / ` ] ] ] ] ] ] ] ] ] ] ] ] ] ] ] ] ] ] ] ] ] ` / / / ) ) ] ] -.;.;.;.;.;.t.t.p.p.p.p.u.u.t.<.;.] ] ] / ^ ^ ^ ^ ^ I I / ^ ^ ^ / / / / ^ ^ ^ ^ ^ ^ ^ ^ ^ ^ ^ / / / / / ^ ^ ^ ^ ^ ^ ^ ^ ] ] ] ;.<.t.t.t.t.t.t.t.t.t.;.;.] ] ] ] ` / / / ] ] ] ] ] ] ] ] ] ] ] ] ] ] ] ] ` ] ] ] / ` ] <.p.y.;./ ^ n x L I I I I L L L J I L J z l l w w , x ` ` / ^ ^ ^ / / / / / / / / / / / ^ / / / / ^ / ^ / / / / / ^ / / / / / / / ) ^ _ ! < % ; - ^ ^ / ` ` ` ^ ^ / / / ` / / / / y W.4X0X",
"wX8XT.a N ..$.( / / / / / / / / ^ ^ _ ..& % % 4 _ _ ^ ^ ^ ^ / / / / / ^ ^ / / / / / / / / / / / / / / / / / / / / ^ / / / ^ ] t.t.;.] ] ] ] ` / / / / / / / / / ^ ^ ^ ^ / / ] ] ] ] ] ] ] ] ] ] ] ] ] ] ] ] ] ] ] ] ] ] ] ] ] ` ] ] ) ] ] ] -.;.q.q.q.y.p.y.q.q.p.p.u.u.t.t.t.t.;.;.] ] ] ] ` ` ^ ^ ^ ^ ^ ^ ^ ^ ^ ^ ^ ^ ^ ^ ^ ^ ^ ^ ^ / / / / / / / ` ] ] ] ] ] t.t.t.u.u.u.p.p.p.p.t.;.] ] ] ] ` ` ` ` ` ` ` ` ] ] ] ` ` ` / / ] ] ] ] ] ] ] ] ` ] ;.] ` / / / q.q.t.;./ I n I I I I I I I I I I I J z l l w w , z ` ` / ^ ^ ^ / / / / / / / / / / / / / / / / ^ ^ ^ / / / ^ ^ ^ / / / / / / / ) ^ _ ! < % ; - ^ ^ / ` ` ` ^ ^ ^ / / ` / / / / y W.4X0X",
"wX8XT.a V ..$.C ^ ^ ^ ^ ^ ^ ^ ^ ) n _ ! < % ; ; _ _ / / ^ ^ ^ / ^ ^ ^ ^ ^ ^ ^ ^ ^ ^ ^ ^ ^ ^ ^ ^ ^ ^ ^ / / / ^ ^ / ^ ^ ) ^ ^ =.u.>.;.-.) ) ) / / ^ ^ ^ / / ^ ^ ` / / ` ` ` ] ] ] ] ] ] ] ] ] ] ] ] ] ] ] ] ] ] ] ] ] ] ] ] ] ] ] ] ] ] ] ] ] ] ] ;.;.;.;.<.<.t.t.q.q.q.q.q.y.p.p.p.p.w.q.q.q.e.q.-.] ] ) / / / ^ ] ] ] ] ] ] ] ] / ` ` ` ] ] ] ] -.-.;.;.q.t.t.t.u.t.t.t.t.t.t.t.;.;.] ] ` / / / ] ] ] ] ] ] ] ] ] ] ] ] ] ] ] ] ] ] ] ] ] ] ] ] ] ] ] ] ] ] ] ] ] ;.q.t.q.] ^ n ^ ^ n n n n x x U I I x z l w q q I ` ^ I ^ / ^ ^ ^ ^ ^ ^ ^ ^ ^ ^ ^ ^ / / / ^ ^ ^ ^ ^ ^ ^ ^ ^ / ^ ^ ^ ^ ^ ^ ^ ^ ^ I _ ! 5 % ; - ^ ^ / / / / / / ^ ^ ^ ^ / ^ ^ ^ y W.4X0X",
"wX8XT.a V ..$.C ^ ^ ^ ^ ^ ^ ^ ^ Z n _ P < % ; ; _ _ / / ^ / / / ^ ^ ^ ^ ^ ^ ^ ^ ^ ^ ^ ^ ^ ^ / ^ ^ ^ ^ ^ ^ ^ ^ ^ / ^ ^ ) ^ ^ ` u.>.;.-.) ) ) / / ^ ^ ^ / ^ U ^ ` ` / ` ` ` ] ] ] ] ] ] ] ] ] ] ] ] ] ] ] ] ] ] ] ] ] ] ] ] ] ] ] ] ] ] ] ] ] ] ] ] ] ] ] ;.;.;.;.;.;.;.t.t.t.t.t.p.p.p.w.q.q.q.q.t.t.t.q.;.;.;.;.<.<.<.<.<.t.t.<.;.;.<.t.t.t.t.t.t.t.t.t.t.t.t.t.u.t.t.<.;.;.] ] ] ] ] ] ] / / / ] ] ] ] ] ] ] ] ] ] ] ] ] ] ] ] ] ] ] ] ] ] ] ] ] ] ] ] ] ] ] ] ) ] ;.t.t.t.;.-./ / ^ I n n n n U I I z z l w q q I ` ^ I ^ / ^ ^ ^ ^ ^ ^ ^ ^ ^ ^ ^ ^ ^ ^ ^ ^ ^ / / ^ ^ ^ ^ / / ^ / ^ ^ ^ ^ ^ ^ ^ I _ _ 5 % ; - ^ ^ / / / / / / ^ ^ ^ ^ / / ^ ^ y W.4XwX",
"wX8XT.a V ..$.C ^ ^ ^ ^ ^ ^ / / Z n _ ! < % ; ; _ _ / / / / / / ^ ^ ^ ^ ^ ^ / / ^ ^ ^ ^ ^ ^ / / ^ ^ ^ ^ ^ ^ ^ ^ ) ^ ^ ) ^ ^ =.u.>.;.-.) ) / ^ ^ ^ ^ ^ / ^ I ^ ` / ` ` ` ` ] ] ] ] ] ] ] ] ] ] ] ] ] ] ] ] ] ] ] ] ] ] ] ] ] ] ] ] ] ] ] ] ] ] ] ] ] ] ] ] ] ] ] ;.;.;.;.;.;.q.q.p.p.y.y.y.y.y.y.t.t.t.t.t.t.t.t.p.p.p.p.p.p.p.p.q.q.q.q.t.q.q.q.p.p.p.t.t.t.q.;.;.;.;.;.] ] ` / ] ] ] ] ] ` ` ` ] ] ] ] ] ] ] ] ] ] ] ] ] ] ] ] ] ] ] ] ] ] ] ] ] ] ] ] ] ] ] ] / ] ] ;.q.p.p.p.;.] ` ^ ^ ^ ^ ^ U I I x z l w q q I ` ^ I ^ / ^ ^ ^ ^ ^ / ^ ^ ^ ^ ^ ^ ^ ^ ^ ^ ^ / ^ ^ ^ ^ ^ ^ ^ / / ^ ^ ^ ^ ^ / / I _ _ 5 % ; - ^ ^ / / / / / / ^ ^ ^ ^ ^ / ^ ^ y W.4XwX",
"wX8XT.a V ..$.C ^ ^ ^ ^ ^ / / / Z n _ ! < % ; ; _ _ / / / / / / ^ ^ ^ ^ ^ / / ^ / / ^ ^ ^ ^ ^ ^ ^ ^ ^ ^ ^ ^ ^ ^ ) ^ ^ ) ^ ^ =.u.>.;.-.) ) / ^ ^ ^ ^ ^ ^ U I U ` / ` ` ` ` ] ] ] ] ] ] ] ] ] ] ] ] ] ] ] ] ] ] ] ] ] ] ] ] ] ] ] ] ] ] ] ] ] ] ] ` ` ] ] ] ] ] ] ] ] ] ] ;.;.;.;.q.q.q.q.q.q.q.q.t.t.q.q.q.t.t.t.q.q.q.q.q.q.q.q.q.q.q.q.q.q.q.q.;.;.;.-.] ] ] ] ` ` ` ] ] ] ] ] ] ] ] ] ] ] ] ] ] ] ] ] ] ] ] ] ] ] ] ] ] ] ] ] ] ] ] ] ] ] ] ] ] ] ] ] ] ] ] ] ] ] ) / ] -.>.t.t.t.] / ^ ^ / / U I I x z l w q q I ` ^ I ^ / ^ ^ ^ ^ ^ / ^ ^ ^ ^ ^ ^ ^ ^ ^ ^ ^ ^ ^ ^ ^ ^ ^ ^ ^ ^ ^ ^ ^ ^ ^ / / / I _ ! 5 % ; - ^ ^ ^ / / / / / ^ ^ ^ ^ ^ ^ ^ ^ y W.4X0X",
"wX8XT.a V ..$.C ^ ^ ^ ^ ^ ^ ^ ^ ^ n _ ! < % ; ; _ _ / ^ ^ ^ / / ^ ^ ^ / / ^ ^ ^ ^ ^ ^ ^ ^ ^ ^ ^ ^ ^ / ^ / ^ ^ ^ ) ^ ^ / ^ ^ -.u.>.:.-.) ) ) / / / ^ ^ ^ I x I ` / / ` ` ` ] ] ] ] ] ] ] ] ] ] ] ] ] ] ] ] ] ] ] ] ] ] ] ] ] ] ] ] ] ] ] ] ] ] ] ] ] ] ] ] ] ] ] ] ] ] ] ] ] ] ] ] -.-.;.;.;.;.;.q.q.q.q.t.t.t.t.-.-.-.-.-.-.-.-.w.w.w.q.q.q.q.q./ / / / / / / / ] ` ` ] ] ] ] ] ` ] ] ] ] ] ] ] ] ] ] ] ] ] ] ] ] ] ] ] ] ] ] ] ] ] ] ] ] ] ] ] ] ] ] ] ] ] ] ] ] ] / / / / ] -.t.t.;.] ^ ^ / ] U I I x z l w q q I ` ^ I ^ / ^ ^ ^ ^ ^ / ^ ^ ^ ^ ^ / ^ / / ^ ^ ^ ^ ^ ^ ^ ^ ^ ^ ^ ^ ^ ^ ^ ^ ^ ^ / I _ _ 5 % ; - ^ ^ / / / / ^ / ^ ^ ^ ^ / ^ ^ ^ y W.4X0X",
"wX8XT.a V ..S C ^ ^ ^ ^ ^ ^ ^ ^ / n _ ! < % ; ; _ _ / ^ ^ ^ / / ^ ^ ^ ^ ^ ^ ^ ^ ^ ^ ^ ^ ^ ^ ^ ^ ^ ^ / / / ^ ^ ^ ) ^ ^ / ^ ^ -.u.>.:.-.) ) / / / ^ ^ / ^ I z I ` / / ` ` ` ] ] ] ] ] ] ] ] ] ] ] ] ] ] ] ] ] ] ] ] ] ] ] ] ] ] ] ] ] ] ] ] ] ] ] ] ] ] ] ] ] ] ] ] ] ] ] ] ] ] ] ] ] ] ] ] ] ] ] ] ] ] ] ] ) -.) ) ) ) ) ) ) ) ) -.-.-.) ] ) ) ) / / / / / / ) ) ] ] ] ] ] ] ` ` ] ] ] ] ] ] ] ] ] ] ] ] ] ] ] ] ] ] ] ] ] ] ] ] ] ] ] ] ] ] ] ] ] ] ] ] ] ] ] ] ] ) ) ) ) ] ] ;.<.<.;.] ^ ^ / ] U I I x z l w q q I ` ^ I ^ / ^ ^ ^ ^ ^ ^ ^ ^ ^ ^ ^ / / / ^ ^ ^ / ^ ^ ^ ^ ^ ^ ^ ^ ^ ^ ^ ^ ^ ^ ^ / I _ _ 5 % ; - ^ ^ / / / / ^ / ^ ^ ^ ^ ^ ^ ^ ^ y W.4X0X",
"wX8XT.a V ..S C ^ ^ ^ ^ ^ / ^ ^ / n _ ! < % ; ; _ _ ^ ^ / / / / ^ ^ ^ ^ ^ ^ ^ ^ ^ / ^ ^ ^ ^ ^ ^ ^ ^ ^ ^ ^ ^ ^ ^ / ^ ^ ) ^ ^ -.u.>.>.-.) ) / / / / ^ / ^ L z I ] / / ` ` ` ] ] ] ] ] ] ] ] ] ] ] ] ] ] ] ] ] ] ] ] ] ] ] ] ] ] ] ] ] ] ] ] ] ] ] ] ] ] ] ] ` ` ` ] ] ] ] ] ] ] ] ` ` ` ] ] ] ] ] / / / / / / / / ] ] ] ] ] ] ] ] ` ` ` / / / / / / / / / ) ) ] ] ] ] ] ] ] ] ` ` ] ] ] ] ] ] ] ] ] ] ] ] ] ] ] ] ] ] ] ] ] ] ] ] ] ] ] ] ] ] ] ] ] ] ] ] ] ] ] ] / ) ] ] ] ] ] ] ] ] ;.] ^ I ^ / U I I x z l w q q I ` ^ I ^ / ^ ^ ^ / / ^ ^ ^ ^ ^ ^ ^ ^ ^ ^ ^ ^ / / ^ ^ ^ ^ / / ^ ^ ^ ^ ^ ^ / ^ / I _ _ 5 % ; - ^ ^ / / / / / / ^ ^ ^ ^ ^ ^ ^ ^ y W.4X0X",
"wX8XT.a V ..S C / / ^ ^ ^ ^ ^ ^ / n _ ! < % ; ; _ _ ^ ^ / / / / ^ ^ ^ ^ ^ ^ ^ ^ / / ^ ^ ^ / / / ^ ^ ^ ^ ^ ^ ^ ^ / ^ ^ / ^ ^ -.u.>.;.-.) ) / ^ / / / / ^ L z I ] / / ` ` ` ] ] ] ] ] ] ] ] ] ] ] ] ] ] ] ] ] ] ] ] ] ] ] ] ] ] ] ] ] ] ] ] ] ] ] ] ] ] ` ` / / / ] ] ] ] ] ] ] ` ] ] ] ] ] ] ] ] ] ] ] ] ] ] ] ] ] ] ] ] ] ] ] ] ] ] ] ] ] ] ] ] ) ) ) ) ) ) ) ) / / ` ] ] ] ] ] ] ] ] ] ] ] ` ` ] ] ] ] ] ] ] ] ] ] ] ] ] ] ] ] ] ] ] ] ] ] ] ] ] ] ] ] ] ] ] ] / ] ] -.] ) / ^ / ] ] ] ^ n ^ / U I I x z l w q q I ` ^ I ^ / ^ ^ ^ / ^ ^ ^ ^ ^ ^ ^ ^ ^ ^ ^ ^ ^ ^ ^ ^ ^ ^ ^ ^ / / / / ^ ^ ^ / / / I _ _ 5 % ; - ^ ^ / / / / / / ^ ^ ^ ^ ^ / ^ ^ y W.4X0X",
"wX3XT.p V ..$.B / / ^ ^ ^ / ^ ^ Z n _ ! < % ; ; _ _ / / ^ / / / ^ ^ ^ ^ ^ ^ ^ ^ ^ ^ ^ ^ / ^ ^ ^ ^ ^ ^ ^ ^ ^ ^ ^ ` ^ ^ ) ^ ^ -.r.>.>.>.` ` ) ^ ^ / ^ ^ ` U z I O.] ] ] ] ] ] ] ] ] ] ] ] ] ] ] ] ] ] ] ] ] ] ] ] ] ] ] ] ] ] ] ] ] ] ] ] ] ] ] ] ] ] ] ] ] ] ] ] ] ] ] ] ] ] ] ] ] ] ] ] ] ] ] ] ] ] ] ] ] ] ] ] ] ] ] ] ] ] ] ] ] ] ] ] ] ] ] ] ] ] ] ] ] ] ] ] ] ] ] ] ] ] ] ] ] ] ] ] ] ] ] ] ] ] ] ] ] ] ] ] ] ] ] ] ] ] ] ] ] ] ] ] ] ] ] ] ] ] ] ] ] ] ] ] ] ] ] ] ] ] ] ] ] ] ` / / ^ ^ ^ I I I z z l w q q I ` ^ n ^ ` ^ ^ ^ / / ^ ^ ^ / ^ ^ ^ ^ ^ ^ ^ ^ ^ ^ ^ ^ ^ ^ ^ ^ ^ ^ ^ ^ ^ ^ ^ ^ / I _ _ 5 % ; - ^ ^ / / / / / / ^ ^ ^ ^ ^ ^ ^ ^ y W.4XwX",
"wX3XT.p V ..%.B ^ ^ ^ ^ ^ / ^ ^ Z n _ ! < % ; ; _ _ / / ^ / / / ^ ^ ^ ^ ^ ^ ^ ^ ^ ^ ^ ^ / / ^ ^ ^ ^ ^ ^ ^ ^ ^ ^ ` ^ ^ ) ^ ^ -.r.>.>.>.` ` ) ^ ^ / ^ ^ ` U z I O.] ] ] ] ] ] ] ] ] ] ] ] ] ] ] ] ] ] ] ] ] ] ] ] ] ] ] ] ] ] ] ] ] ] ] ] ] ] ] ] ] ] ] ] ] ] ] ] ] ] ] ] ] ] ] ] ] ] ] ] ] ] ] ] ] ] ] ] ] ] ] ] ] ] ] ] ] ] ] ] ] ] ] ] ] ] ] ] ] ] ] ] ] ] ] ] ] ] ] ] ] ] ] ] ] ] ] ] ] ] ] ] ] ] ] ] ] ] ] ] ] ] ] ] ] ] ] ] ] ] ] ] ] ] ] ] ] ] ] ] ] ] ] ] ] ] ] ] ] ] ] ] ] ] ` / / ^ ^ ^ I I I z z l w q q I ` ^ n ^ ` ^ ^ ^ ^ / ^ ^ / / ^ ^ ^ ^ ^ / ^ ^ ^ ^ ^ ^ ^ ^ ^ ^ ^ ^ / ^ ^ ^ ^ ^ / I _ _ 5 % ; - ^ ^ / / / / / / ^ ^ ^ ^ / ^ ^ ^ y W.4XwX",
"wX3XT.p V ..S B ^ ^ ^ ^ ^ ^ ^ ^ Z n _ ! < % ; ; _ _ / / ^ ^ / / ^ ^ ^ ^ / / ^ ^ ^ ^ ^ ^ ^ ^ ^ ^ ^ ^ / ^ ^ / / ^ ` ^ ^ / ^ ^ -.r.>.>.>.` ) ) ^ ^ / ^ ^ ` U z I ] ] ] ] ] ] ] ] ] ] ] ] ] ] ] ] ] ] ] ] ] ] ] ] ] ] ] ] ] ] ] ] ] ] ] ] ] ] ] ] ] ] ] ] ] ] ] ] ] ] ] ] ] ] ] ] ] ] ] ] ] ] ] ] ] ] ] ] ] ] ] ] ] ] ] ] ] ] ] ] ] ] ] ] ] ] ] ] ] ] ] ] ] ] ] ] ] ] ] ] ] ] ] ] ] ] ] ] ] ] ] ] ] ] ] ] ] ] ] ] ] ] ] ] ] ] ] ] ] ] ] ] ] ] ] ] ] ] ] ] ] ] ] ] ] ] ] ] ] ] ] ] ] ] ] ` / / ^ ^ ^ ^ I I x z l w q q I ` ^ n ^ ` ^ ^ ^ ^ ^ ^ ^ ^ ^ ^ ^ ^ ^ / / ^ ^ / ^ ^ ^ / ^ ^ ^ ^ ^ / / ^ ^ ^ ^ ^ I _ _ 5 % ; - ^ ^ / / / / / / ^ ^ ^ ^ / / ^ ^ y W.4XwX",
"wX3XT.p V ..%.B ^ ^ ^ ^ ^ ^ ^ ^ Z n _ ! < % ; ; _ _ / ^ ^ ^ / / / ^ ^ ^ ^ / ^ ^ ^ ^ ^ ^ ^ ^ ^ ^ / ^ ^ ^ ^ / / ^ ` ^ ^ ^ ^ ^ -.r.2.>.>.` ) ) ^ ^ / ^ ^ ` U z I ] ] ] ] ] ] ] ] ] ] ] ] ] ] ] ] ] ] ] ] ] ] ] ] ] ] ] ] ] ] ] ] ] ] ] ] ] ] ] ] ] ] ] ] ] ] ] ] ] ] ] ] ] ] ] ] ] ] ] ] ] ] ] ] ] ] ] ] ] ] ] ] ] ] ] ] ] ] ] ] ] ] ] ] ] ] ] ] ] ] ] ] ] ] ] ] ] ] ] ] ] ] ] ] ] ] ] ] ] ] ] ] ] ] ] ] ] ] ] ] ] ] ] ] ] ] ] ] ] ] ] ] ] ] ] ] ] ] ] ] ] ] ] ] ] ] ] ] ] ] ] ] ] ] ] ` / / ^ ^ ^ ^ I I x z l w q q I ` ^ n ^ ` ^ ^ ^ ^ ^ ^ ^ ^ ^ ^ ^ ^ ^ ^ ^ ^ ^ / ^ ^ ^ / / ^ ^ ^ ^ ^ ^ ^ ^ ^ ^ ^ I _ _ 5 % ; - ^ ^ / / / / / / ^ ^ ^ ^ / / ^ ^ y W.4XwX",
"wX3XT.p V ..%.B ^ / ^ ^ ^ ^ / / Z n _ ! < % ; ; _ _ ^ ^ / / / / / ^ ^ ^ / / ^ ^ ^ ^ / ^ ^ / / / ^ ^ ^ ^ ^ ^ ^ ^ ` ^ ^ / ^ ^ ] r.2.>.>.` ` ) ^ ^ / ^ ^ ` U z I ] ] ] ] ] ] ] ] ] ] ] ] ] ] ] ] ] ] ] ] ] ] ] ] ] ] ] ] ] ] ] ] ] ] ] ] ] ] ] ] ] ] ] ] ] ] ] ] ] ] ] ] ] ] ] ] ] ] ] ] ] ] ] ] ] ] ] ] ] ] ] ] ] ] ] ] ] ] ] ] ] ] ] ] ] ] ] ] ] ] ] ] ] ] ] ] ] ] ] ] ] ] ] ] ] ] ] ] ] ] ] ] ] ] ] ] ] ] ] ] ] ] ] ] ] ] ] ] ] ] ] ] ] ] ] ] ] ] ] ] ] ] ] ] ] ] ] ] ] ] ] ] ] ] ] ` / / ^ ^ ^ ^ I I x z l w q q I ` ^ n ^ ` ^ ^ ^ ^ ^ ^ ^ ^ ^ / / ^ ^ ^ ^ ^ ^ / ^ ^ ^ ^ / ^ ^ ^ ^ ^ ^ ^ ^ / / ^ I _ _ 5 % ; - ^ ^ / / / / / / / ^ ^ ^ ^ ^ ^ ^ y W.4X0X",
"wX3XT.p V ..%.B ^ / / ^ ^ ^ ^ / Z n _ ! < % ; ; _ _ ^ ^ / / / / / ^ ^ ^ / ^ ^ ^ ^ / / ^ ^ ^ ^ ^ ^ ^ ^ ^ ^ ^ ^ ^ ` ^ / ) ^ ^ -.r.>.;.>.` ` ) ^ ^ / ^ ^ ` U z I ] ] ] ] ] ] ] ] ] ] ] ] ] ] ] ] ] ] ] ] ] ] ] ] ] ] ] ] ] ] ] ] ] ] ] ] ] ] ] ] ] ] ] ] ] ] ] ] ] ] ] ] ] ] ] ] ] ] ] ] ] ] ] ] ] ] ] ] ] ] ] ] ] ] ] ] ] ] ] ] ] ] ] ] ] ] ] ] ] ] ] ] ] ] ] ] ] ] ] ] ] ] ] ] ] ] ] ] ] ] ] ] ] ] ] ] ] ] ] ] ] ] ] ] ] ] ] ] ] ] ] ] ] ] ] ] ] ] ] ] ] ] ] ] ] ] ] ] ] ] ] ] ] ] ] ` / / ^ ^ ^ ^ I I x z l w q q I ` ^ n ^ ` ^ ^ ^ ^ ^ ^ ^ ^ / ^ / ^ ^ / ^ ^ ^ ^ ^ ^ ^ / / ^ ^ ^ ^ ^ / ^ ^ / ^ ^ I _ ! 5 % ; - ^ ^ / / / / / / / ^ ^ ^ ^ ^ ^ ^ y W.4X0X",
"wX3XT.p V ..%.B ^ ^ ^ ^ ^ ^ ^ ^ Z n _ ! < % ; ; _ _ ^ ^ / / / / ^ ^ ^ ^ ^ ^ ^ ^ ^ ^ ^ ^ ^ ^ ^ ^ ^ ^ ^ ^ ^ ^ ^ ^ ` ^ / / ^ ^ ] r.>.;.>.` ` / ^ ^ / ^ ^ ` U z I ] ] ] ] ] ] ] ] ] ] ] ] ] ] ] ] ] ] ] ] ] ] ] ] ] ] ] ] ] ] ] ] ] ] ] ] ] ] ] ] ] ] ] ] ] ] ] ] ] ] ] ] ] ] ] ] ] ] ] ] ] ] ] ] ] ] ] ] ] ] ] ] ] ] ] ] ] ] ] ] ] ] ] ] ] ] ] ] ] ] ] ] ] ] ] ] ] ] ] ] ] ] ] ] ] ] ] ] ] ] ] ] ] ] ] ] ] ] ] ] ] ] ] ] ] ] ] ] ] ] ] ] ] ] ] ] ] ] ] ] ] ] ] ] ] ] ] ] ] ] ] ] ] ] ] ` / / ^ ^ ^ ^ I I x z l w q q I ` ^ n ^ ` ^ ^ / / ^ ^ ^ ^ / ^ ^ ^ ^ / ^ ^ ^ ^ ^ ^ ^ ^ ^ ^ ^ ^ ^ ^ / ^ ^ ^ ^ ^ I _ _ 5 % ; - ^ ^ / / / / / / ^ ^ ^ ^ ^ ^ ^ ^ y W.4X0X",
"wX3XT.p V ..%.B ^ ^ ^ ^ ^ ^ ^ ^ Z n _ ! < % ; ; _ _ / ^ / / / / ^ ^ ^ ^ ^ ^ ^ ^ ^ ^ ^ ^ ^ ^ ^ ^ ^ ^ ^ ^ ^ ^ ^ ^ ` ^ / / ^ ^ ] r.>.;.>.` ) / ^ ^ / ^ ^ ` U z I ] ] ] ] ] ] ] ] ] ] ] ] ] ] ] ] ] ] ] ] ] ] ] ] ] ] ] ] ] ] ] ] ] ] ] ] ] ] ] ] ] ] ] ] ] ] ] ] ] ] ] ] ] ] ] ] ] ] ] ] ] ] ] ] ] ] ] ] ] ] ] ] ] ] ] ] ] ] ] ] ] ] ] ] ] ] ] ] ] ] ] ] ] ] ] ] ] ] ] ] ] ] ] ] ] ] ] ] ] ] ] ] ] ] ] ] ] ] ] ] ] ] ] ] ] ] ] ] ] ] ] ] ] ] ] ] ] ] ] ] ] ] ] ] ] ] ] ] ] ] ] ] ] ] ] ` / / ^ ^ ^ ^ I I x z l w q q I ` ^ n ^ ` ^ ^ ^ / ^ ^ ^ ^ / ^ ^ ^ ^ / ^ ^ ^ ^ ^ ^ ^ ^ ^ ^ ^ ^ ^ ^ / ^ ^ ^ ^ ^ I _ _ 5 % ; - ^ ^ / / / / / / ^ ^ ^ ^ ^ ^ ^ ^ y W.4XwX",
"wX3XL.p V ..%.B ^ / / ^ ^ ^ / / ^ ^ ^ ..O % - 8 _ ^ ^ ^ ^ ^ ^ / ^ ^ ^ ^ ^ ^ ^ ^ ^ ^ ^ / ^ ^ ^ / / ^ ^ ^ ^ / ^ ^ / ^ / / ^ ^ ] t.;.;.] ] / / / / / ^ ^ ` U z I ] ] ] ] ] ] ] ] ] ] ] ] ] ] ] ] ] ] ] ] ] ] ] ] ] ] ] ] ] ] ] ] ] ] ] ] ] ] ] ] ] ] ] ] ] ] ] ] ] ] ] ] ] ] ] ] ] ] ] ] ] ] ] ] ] ] ] ] ] ] ] ] ] ] ] ] ] ] ] ] ] ] ] ] ] ] ] ] ] ] ] ] ] ] ] ] ] ] ] ] ] ] ] ] ] ] ] ] ] ] ] ] ] ] ] ] ] ] ] ] ] ] ] ] ] ] ] ] ] ] ] ] ] ] ] ] ] ] ] ] ] ] ] ] ] ] ] ] ] ] ] ] ] ] ` / / ^ ^ / / ^ L L z c l j 6 , I ] / n ^ / ^ / / ^ ^ ^ ^ / ^ ^ ^ ^ ^ ^ ^ ^ ^ ^ ^ ^ ^ ^ ^ ^ ^ ^ ^ / ^ ^ ^ ^ / ^ I _ ! < % ; - ^ ^ ^ ^ / / ^ ^ ^ ^ ^ ^ ^ ^ ^ / y ~.2XqX",
"wX3XT.p V ..%.B ^ ^ / ^ ^ ^ ^ ^ ^ ^ ^ ..O % - 8 _ ^ ^ ^ ^ ^ ^ ^ ^ ^ ^ ^ / / ^ ^ ^ ^ / / ^ ^ ^ / ^ ^ ^ ^ / / ^ ^ / ^ / / ^ ^ ] t.;.;.] ] / / / / / ^ ^ ` U z I ] ] ] ] ] ] ] ] ] ] ] ] ] ] ] ] ] ] ] ] ] ] ] ] ] ] ] ] ] ] ] ] ] ] ] ] ] ] ] ] ] ] ] ] ] ] ] ] ] ] ] ] ] ] ] ] ] ] ] ] ] ] ] ] ] ] ] ] ] ] ] ] ] ] ] ] ] ] ] ] ] ] ] ] ] ] ] ] ] ] ] ] ] ] ] ] ] ] ] ] ] ] ] ] ] ] ] ] ] ] ] ] ] ] ] ] ] ] ] ] ] ] ] ] ] ] ] ] ] ] ] ] ] ] ] ] ] ] ] ] ] ] ] ] ] ] ] ] ] ] ] ] ] ] ` / / ^ ^ / / ^ L L z c l j j , I ] / I ^ / ^ / ^ ^ ^ ^ / / ^ ^ ^ ^ ^ ^ ^ ^ ^ ^ ^ ^ ^ ^ ^ ^ ^ ^ / / ^ ^ ^ ^ / ^ I _ _ < % ; - ^ ^ ^ ^ / / ^ ^ ^ ^ ^ ^ ^ ^ / / y ~.2XqX",
"wX3XT.p V ..$.B ^ ^ ^ ^ ^ ^ ^ ^ ^ ^ ^ ..O % - 8 _ / ^ ^ ^ ^ ^ / ^ ^ ^ / / ^ ^ ^ ^ ^ ^ ^ ^ ^ ^ ^ ^ ^ ^ ^ ^ ^ ^ ^ / ^ / / ^ ^ ] t.;.;.] ] / / / / / ^ ^ ` U z I ] ] ] ] ] ] ] ] ] ] ] ] ] ] ] ] ] ] ] ] ] ] ] ] ] ] ] ] ] ] ] ] ] ] ] ] ] ] ] ] ] ] ] ] ] ] ] ] ] ] ] ] ] ] ] ] ] ] ] ] ] ] ] ] ] ] ] ] ] ] ] ] ] ] ] ] ] ] ] ] ] ] ] ] ] ] ] ] ] ] ] ] ] ] ] ] ] ] ] ] ] ] ] ] ] ] ] ] ] ] ] ] ] ] ] ] ] ] ] ] ] ] ] ] ] ] ] ] ] ] ] ] ] ] ] ] ] ] ] ] ] ] ] ] ] ] ] ] ] ] ] ] ] ] ` / / ^ ^ / / ^ L L z c j j 6 , I ] / I ^ / ^ ^ ^ ^ ^ ^ ^ ^ ^ ^ ^ ^ ^ ^ / ^ ^ ^ ^ ^ ^ ^ ^ ^ ^ ^ ^ ^ ^ ^ ^ ^ / ^ I _ _ < % ; - ^ ^ ^ ^ / / ^ ^ ^ ^ ^ ^ ^ ^ ^ ^ y ~.2XqX",
"wX3XT.p V ..%.B ^ ^ ^ ^ ^ ^ ^ ^ ^ ^ ^ ..O % - 8 _ ^ ^ ^ ^ ^ ^ / ^ ^ ^ / ^ ^ ^ ^ ^ ^ ^ ^ ^ ^ ^ ^ ^ ^ ^ ^ ^ ^ ^ ^ / ^ / / ^ ^ ] t.;.;.] ] / / / / / ^ ^ ` U z I O.] ] ] ] ] ] ] ] ] ] ] ] ] ] ] ] ] ] ] ] ] ] ] ] ] ] ] ] ] ] ] ] ] ] ] ] ] ] ] ] ] ] ] ] ] ] ] ] ] ] ] ] ] ] ] ] ] ] ] ] ] ] ] ] ] ] ] ] ] ] ] ] ] ] ] ] ] ] ] ] ] ] ] ] ] ] ] ] ] ] ] ] ] ] ] ] ] ] ] ] ] ] ] ] ] ] ] ] ] ] ] ] ] ] ] ] ] ] ] ] ] ] ] ] ] ] ] ] ] ] ] ] ] ] ] ] ] ] ] ] ] ] ] ] ] ] ] ] ] ] ] ] ] ` / / ^ ^ / / ^ L L z c l j 6 , I ] / n ^ / ^ ^ ^ ^ ^ ^ ^ ^ ^ ^ ^ ^ ^ / / ^ ^ ^ ^ / / / ^ ^ ^ ^ ^ ^ ^ ^ ^ ^ ^ ^ I _ _ < % - - ^ ^ ^ ^ / / ^ ^ ^ ^ ^ ^ ^ ^ ^ ^ y ~.2XqX",
"wX3XT.p V ..%.B / ^ ^ ^ ^ ^ / ^ ^ ^ ^ _ O % - 8 _ _ ^ ^ ^ ^ ^ ^ ^ ^ ^ / ^ ^ ^ ^ ^ ^ ^ ^ ^ ^ ^ ^ ^ / ^ ^ ^ ^ / / / ^ / / ^ ^ ] t.;.;.] ] / / / / / ^ ^ ` U z I ] ] ] ] ] ] ] ] ] ] ] ] ] ] ] ] ] ] ] ] ] ] ] ] ] ] ] ] ] ] ] ] ] ] ] ] ] ] ] ] ] ] ] ] ] ] ] ] ] ] ] ] ] ] ] ] ] ] ] ] ] ] ] ] ] ] ] ] ] ] ] ] ] ] ] ] ] ] ] ] ] ] ] ] ] ] ] ] ] ] ] ] ] ] ] ] ] ] ] ] ] ] ] ] ] ] ] ] ] ] ] ] ] ] ] ] ] ] ] ] ] ] ] ] ] ] ] ] ] ] ] ] ] ] ] ] ] ] ] ] ] ] ] ] ] ] ] ] ] ] ] ] ] ] ` / / ^ ^ / / ^ L L z c j j , , I ` ^ n ^ / ^ ^ ^ ^ ^ ^ ^ ^ ^ / ^ ^ ^ / / / ^ ^ / / ^ ^ ^ / ^ ^ ^ ^ ^ ^ ^ ^ ^ ^ I _ ! < % - - ^ ^ ^ ^ / / ^ ^ ^ ^ ^ ^ ^ ^ ^ ^ y ~.2XqX",
"wX3XT.p V ..%.B / / ^ ^ ^ ^ / ^ ^ ^ ^ _ O % - 8 _ _ ^ ^ ^ ^ ^ ^ ^ ^ ^ ^ ^ ^ ^ ^ ^ ^ ^ ^ ^ ^ / / ^ / / ^ ^ ^ ^ / / ^ / / ^ ^ ] t.;.;.] ] / / / / / ^ ^ ` U z I ] ] ] ] ] ] ] ] ] ] ] ] ] ] ] ] ] ] ] ] ] ] ] ] ] ] ] ] ] ] ] ] ] ] ] ] ] ] ] ] ] ] ] ] ] ] ] ] ] ] ] ] ] ] ] ] ] ] ] ] ] ] ] ] ] ] ] ] ] ] ] ] ] ] ] ] ] ] ] ] ] ] ] ] ] ] ] ] ] ] ] ] ] ] ] ] ] ] ] ] ] ] ] ] ] ] ] ] ] ] ] ] ] ] ] ] ] ] ] ] ] ] ] ] ] ] ] ] ] ] ] ] ] ] ] ] ] ] ] ] ] ] ] ] ] ] ] ] ] ] ] ] ] ] ` / / ^ ^ / / ^ L L z c j j , , I ] / C ^ / ^ ^ ^ ^ ^ ^ ^ ^ ^ / / ^ ^ ^ ^ ^ ^ ^ / ^ ^ ^ ^ / / ^ ^ ^ ^ ^ ^ ^ ^ ^ I _ ! < % - - ^ ^ ^ ^ / / ^ ^ ^ ^ ^ ^ ^ ^ ^ / y ~.2XqX",
"wX3XT.p V ..%.B ^ ^ ^ ^ ^ ^ ^ ^ ^ ^ ^ _ O % - 8 _ / ^ ^ ^ ^ ^ ^ ^ ^ ^ ^ / / ^ ^ ^ ^ / ^ ^ ^ ^ / ^ ^ ^ ^ ^ ^ ^ ^ / ^ / / ^ ^ ] t.;.;.] ] / / / / / ^ ^ ` U z I ] ] ] ] ] ] ] ] ] ] ] ] ] ] ] ] ] ] ] ] ] ] ] ] ] ] ] ] ] ] ] ] ] ] ] ] ] ] ] ] ] ] ] ] ] ] ] ] ] ] ] ] ] ] ] ] ] ] ] ] ] ] ] ] ] ] ] ] ] ] ] ] ] ] ] ] ] ] ] ] ] ] ] ] ] ] ] ] ] ] ] ] ] ] ] ] ] ] ] ] ] ] ] ] ] ] ] ] ] ] ] ] ] ] ] ] ] ] ] ] ] ] ] ] ] ] ] ] ] ] ] ] ] ] ] ] ] ] ] ] ] ] ] ] ] ] ] ] ] ] ] ] ] ] ` / / ^ ^ / / ^ L L z c l j w , I ] / C ^ / ^ / / ^ ^ ^ ^ ^ ^ ^ ^ ^ ^ ^ ^ ^ ^ ^ ^ ^ ^ ^ ^ ^ ^ ^ ^ ^ / ^ ^ / / ^ I _ ! 5 % - - ^ ^ ^ ^ / / ^ ^ ^ / / ^ ^ ^ ^ / y ~.2XqX",
"wX3XT.p V ..$.B ^ ^ ^ ^ ^ ^ ^ ^ ^ ^ ^ _ O % - 8 _ / ^ ^ ^ ^ ^ ^ ^ ^ ^ ^ ^ / ^ ^ ^ ^ / / ^ ^ ^ ^ ^ ^ ^ ^ ^ ^ ^ ^ / ^ / / ^ ^ ] t.;.;.] ] / / / / / ^ ^ ` U z I ] ] ] ] ] ] ] ] ] ] ] ] ] ] ] ] ] ] ] ] ] ] ] ] ] ] ] ] ] ] ] ] ] ] ] ] ] ] ] ] ] ] ] ] ] ] ] ] ] ] ] ] ] ] ] ] ] ] ] ] ] ] ] ] ] ] ] ] ] ] ] ] ] ] ] ] ] ] ] ] ] ] ] ] ] ] ] ] ] ] ] ] ] ] ] ] ] ] ] ] ] ] ] ] ] ] ] ] ] ] ] ] ] ] ] ] ] ] ] ] ] ] ] ] ] ] ] ] ] ] ] ] ] ] ] ] ] ] ] ] ] ] ] ] ] ] ] ] ] ] ] ] ] ] ` / / ^ ^ / / ^ L L z c l j w , I ] / C ^ / ^ ^ / ^ ^ / / / ^ ^ ^ ^ ^ ^ ^ ^ ^ ^ ^ ^ ^ ^ ^ ^ ^ ^ ^ / / ^ ^ ^ / ^ I _ ! 5 % ; - ^ ^ ^ ^ / / ^ ^ ^ / ^ ^ ^ ^ / / y ~.2XqX",
"wXeXT.i E #.$.( ^ ^ ^ ^ ^ ^ ^ ^ ^ ^ ^ _ & ; - ; ^ ^ ^ ^ ^ ^ ^ ^ ^ ^ ^ ^ ^ ^ ^ ^ ^ ^ ^ ^ / / ^ ^ ^ ^ ^ ^ ^ ^ ^ ^ ^ ^ ^ / ^ ^ ] t.;.;.] ] / / / / ^ ^ ^ ^ I x I ` ] ] ] ] ] ] ] ] ] ] ] ] ] ] ] ] ] ] ] ] ] ] ] ] ] ] ] ] ] ] ] ] ] ] ] ] ] ] ] ] ] ] ] ] ] ] ] ] ] ] ] ] ] ] ] ] ] ] ] ] ] ] ] ] ] ] ] ] ] ] ] ] ] ] ] ] ] ] ] ] ] ] ] ] ] ] ] ] ] ] ] ] ] ] ] ] ] ] ] ] ] ] ] ] ] ] ] ] ] ] ] ] ] ] ] ] ] ] ] ] ] ] ] ] ] ] ] ] ] ] ] ] ] ] ] ] ] ] ] ] ] ] ] ] ] ] ] ] ] ] ] ] ] ] / / ^ ^ ^ ^ E E L c l l 6 6 q L ` ^ ^ / / ^ ^ ^ ^ / / ^ ^ ^ ^ ^ ^ ^ ^ ^ ^ ^ ^ ^ ^ ^ ^ ^ ^ ^ ^ ^ ^ / ^ ^ ^ ^ ^ I _ ! < % - - ^ ^ ^ ^ / / ^ ^ ^ ^ ^ ^ ^ ^ ^ ^ y W.4XwX",
"wXeXT.i E #.$.( ^ ^ ^ ^ ^ ^ ^ ^ ^ ^ ^ _ & ; - ; ^ ^ ^ ^ ^ ^ ^ ^ ^ / ^ ^ ^ ^ ^ ^ ^ ^ ^ ^ ^ ^ ^ ^ ^ ^ ^ ^ ^ ^ ^ ^ ^ ^ ^ ^ ^ ^ ] t.;.;.] ] / / / / ^ ^ ^ ^ I x I ` ] ] ] ] ] ] ] ] ] ] ] ] ] ] ] ] ] ] ] ] ] ] ] ] ] ] ] ] ] ] ] ] ] ] ] ] ] ] ] ] ] ] ] ] ] ] ] ] ] ] ] ] ] ] ] ] ] ] ] ] ] ] ] ] ] ] ] ] ] ] ] ] ] ] ] ] ] ] ] ] ] ] ] ] ] ] ] ] ] ] ] ] ] ] ] ] ] ] ] ] ] ] ] ] ] ] ] ] ] ] ] ] ] ] ] ] ] ] ] ] ] ] ] ] ] ] ] ] ] ] ] ] ] ] ] ] ] ] ] ] ] ] ] ] ] ] ] ] ] ] ] ] ] ] / / ^ ^ ^ ^ E E L c l l 6 6 q I ` ^ ^ ^ / ^ ^ ^ ^ ^ / ^ ^ ^ ^ ^ ^ ^ ^ ^ ^ ^ ^ ^ ^ ^ ^ ^ ^ ^ ^ ^ / / ^ ^ ^ ^ ^ n _ ! < % - - ^ ^ ^ ^ / ` ^ ^ ^ ^ ^ ^ ^ ^ ^ ^ y W.4XwX",
"wXeXT.i E #.$.( ^ ^ ^ ^ ^ ^ / ^ ^ ^ ^ _ & ; - ; ^ ^ ^ ^ ^ ^ ^ ^ / / ^ ^ ^ ^ ^ / ^ / ^ ^ / ^ ^ ^ ^ ^ ^ ^ ^ ^ / / ^ ^ ^ ^ ^ ^ ] t.<.;.] ] / / / / ^ ^ ^ ^ I x I ` ] ] ] ] ] ] ] ] ] ] ] ] ] ] ] ] ] ] ] ] ] ] ] ] ] ] ] ] ] ] ] ] ] ] ] ] ] ] ] ] ] ] ] ] ] ] ] ] ] ] ] ] ] ] ] ] ] ] ] ] ] ] ] ] ] ] ] ] ] ] ] ] ] ] ] ] ] ] ] ] ] ] ] ] ] ] ] ] ] ] ] ] ] ] ] ] ] ] ] ] ] ] ] ] ] ] ] ] ] ] ] ] ] ] ] ] ] ] ] ] ] ] ] ] ] ] ] ] ] ] ] ] ] ] ] ] ] ] ] ] ] ] ] ] ] ] ] ] ] ] ] ] ] ] / / ^ / ^ ^ E L L c l j 6 , q I ` ^ I ^ ^ ^ ^ ^ ^ ^ ^ ^ ^ ^ / ^ ^ ^ ^ / / ^ ^ / ^ ^ ^ ^ / / ^ ^ ^ ^ ^ ^ ^ ^ ^ n _ _ < % ; - ^ ^ ^ ^ / / ^ ^ ^ ^ ^ ^ ^ ^ ^ ^ y W.4XwX",
"wXeXT.i E #.$.( ^ ^ ^ ^ / / / ^ ^ ^ ^ _ & ; - 1 ^ ^ ^ ^ ^ ^ ^ ^ ^ ^ ^ ^ ^ ^ / / / / ^ ^ ^ ^ ^ ^ ^ / / / ^ ^ ^ / ^ ^ ^ ^ ^ ^ ] t.;.;.] ] / / / / ^ ^ ^ ^ I x I ` ] ] ] ] ] ] ] ] ] ] ] ] ] ] ] ] ] ] ] ] ] ] ] ] ] ] ] ] ] ] ] ] ] ] ] ] ] ] ] ] ] ] ] ] ] ] ] ] ] ] ] ] ] ] ] ] ] ] ] ] ] ] ] ] ] ] ] ] ] ] ] ] ] ] ] ] ] ] ] ] ] ] ] ] ] ] ] ] ] ] ] ] ] ] ] ] ] ] ] ] ] ] ] ] ] ] ] ] ] ] ] ] ] ] ] ] ] ] ] ] ] ] ] ] ] ] ] ] ] ] ] ] ] ] ] ] ] ] ] ] ] ] ] ] ] ] ] ] ] ] ] ] ] ] / / / / ^ ^ ^ L L z l j q , q I ` ^ I ^ ^ ^ ^ ^ ^ ^ ^ ^ ^ ^ / / ^ ^ ^ ^ / ^ / / ^ ^ ^ ^ ^ / ^ ^ ^ ^ ^ ^ ^ ^ ^ n _ ! < % ; - ^ ^ ^ ^ / / ^ ^ ^ ^ ^ ^ ^ ^ ^ ^ y W.4XwX",
"wXeXT.i E #.$.( ^ ^ ^ ^ / / ^ ^ ^ ^ ^ _ & ; - 1 ^ ^ ^ ^ ^ ^ ^ ^ ^ ^ ^ ^ ^ ^ ^ ^ ^ ^ ^ ^ ^ ^ ^ ^ ^ ^ / / ^ ^ ^ ^ ^ ^ ^ ^ ^ ^ ] t.;.;.] ] / / / / ^ ^ ^ ^ I x I ` ] ] ] ] ] ] ] ] ] ] ] ] ] ] ] ] ] ] ] ] ] ] ] ] ] ] ] ] ] ] ] ] ] ] ] ] ] ] ] ] ] ] ] ] ] ] ] ] ] ] ] ] ] ] ] ] ] ] ] ] ] ] ] ] ] ] ] ] ] ] ] ] ] ] ] ] ] ] ] ] ] ] ] ] ] ] ] ] ] ] ] ] ] ] ] ] ] ] ] ] ] ] ] ] ] ] ] ] ] ] ] ] ] ] ] ] ] ] ] ] ] ] ] ] ] ] ] ] ] ] ] ] ] ] ] ] ] ] ] ] ] ] ] ] ] ] ] ] ] ] ] ] ] ] / / ^ ^ ^ ^ I I L z z l q q q I ` ^ I ^ / ^ ^ ^ / / ^ / / ^ ^ ^ ^ ^ ^ ^ ^ ^ ^ ^ ^ ^ ^ ^ ^ ^ / ^ / ^ ^ ^ ^ ^ ^ n _ _ < % ; - ^ ^ ^ ^ ^ ^ ^ ^ ^ ^ ^ ^ ^ ^ ^ ^ y W.4XwX",
"wXeXT.i E #.$.( ^ ^ ^ ^ ^ ^ ^ ^ ^ ^ ^ _ & ; - 1 ^ ^ ^ ^ ^ ^ ^ ^ ^ ^ ^ ^ ^ ^ ^ ^ ^ ^ ^ ^ ^ ^ ^ ^ ^ ^ / ^ ^ ^ ^ ^ ^ ^ ^ ^ ^ ^ ] t.;.;.] ] / / / / ^ ^ ^ ^ I x I ` ] ] ] ] ] ] ] ] ] ] ] ] ] ] ] ] ] ] ] ] ] ] ] ] ] ] ] ] ] ] ] ] ] ] ] ] ] ] ] ] ] ] ] ] ] ] ] ] ] ] ] ] ] ] ] ] ] ] ] ] ] ] ] ] ] ] ] ] ] ] ] ] ] ] ] ] ] ] ] ] ] ] ] ] ] ] ] ] ] ] ] ] ] ] ] ] ] ] ] ] ] ] ] ] ] ] ] ] ] ] ] ] ] ] ] ] ] ] ] ] ] ] ] ] ] ] ] ] ] ] ] ] ] ] ] ] ] ] ] ] ] ] ] ] ] ] ] ] ] ] ] ] ] ] / / ^ ^ ^ ^ I I L z z l q q q I ` ^ ^ / / ^ ^ ^ / ^ ^ / ^ ^ ^ ^ ^ ^ ^ ^ ^ ^ ^ ^ ^ ^ ^ ^ ^ ^ / ^ ^ ^ ^ ^ ^ ^ ^ I _ _ < % ; - ^ ^ ^ ^ / ^ ^ ^ ^ ^ ^ ^ ^ ^ ^ ^ y W.4XwX",
"wXeXT.i E #.S ( ^ ^ ^ ^ ^ ^ ^ ^ ^ ^ ^ _ & ; - ; ^ ^ ^ ^ ^ ^ ^ ^ ^ ^ ^ ^ ^ ^ / ^ ^ ^ ^ ^ ^ ^ ^ ^ ^ ^ ^ ^ ^ ^ ^ ^ ^ ^ ^ ^ ^ ^ ] t.;.;.] ] / / / / ^ ^ ^ ^ I x I ` ] ] ] ] ] ] ] ] ] ] ] ] ] ] ] ] ] ] ] ] ] ] ] ] ] ] ] ] ] ] ] ] ] ] ] ] ] ] ] ] ] ] ] ] ] ] ] ] ] ] ] ] ] ] ] ] ] ] ] ] ] ] ] ] ] ] ] ] ] ] ] ] ] ] ] ] ] ] ] ] ] ] ] ] ] ] ] ] ] ] ] ] ] ] ] ] ] ] ] ] ] ] ] ] ] ] ] ] ] ] ] ] ] ] ] ] ] ] ] ] ] ] ] ] ] ] ] ] ] ] ] ] ] ] ] ] ] ] ] ] ] ] ] ] ] ] ] ] ] ] ] ] ] ] / / ^ ^ ^ ^ ^ I L z z l q q q L ` ^ ^ / / ^ ^ ^ ^ ^ ^ ^ ^ ^ ^ ^ / / ^ ^ ^ ^ ^ ^ ^ ^ ^ / ^ ^ ^ ^ ^ ^ ^ ^ ^ ^ ^ n _ _ < % ; - ^ ^ ^ ^ / / ^ ^ ^ ^ ^ ^ ^ ^ ^ ^ y W.4XwX",
"wXeXT.i E #.S ( ^ ^ ^ ^ ^ ^ ^ ^ ^ ^ ^ _ & ; - ; ^ ^ ^ ^ ^ ^ ^ ^ / / / ^ ^ ^ / / ^ ^ ^ ^ ^ ^ ^ ^ ^ ^ ^ ^ ^ ^ ^ ^ ^ ^ ^ ^ ^ ^ ] t.;.;.] ] / / / / ^ ^ ^ ^ I x I ` ] ] ] ] ] ] ] ] ] ] ] ] ] ] ] ] ] ] ] ] ] ] ] ] ] ] ] ] ] ] ] ] ] ] ] ] ] ] ] ] ] ] ] ] ] ] ] ] ] ] ] ] ] ] ] ] ] ] ] ] ] ] ] ] ] ] ] ] ] ] ] ] ] ] ] ] ] ] ] ] ] ] ] ] ] ] ] ] ] ] ] ] ] ] ] ] ] ] ] ] ] ] ] ] ] ] ] ] ] ] ] ] ] ] ] ] ] ] ] ] ] ] ] ] ] ] ] ] ] ] ] ] ] ] ] ] ] ] ] ] ] ] ] ] ] ] ] ] ] ] ] ] ] ] / / ^ ^ ^ ^ I I L z z l q q q I ` ^ ^ / / ^ ^ ^ ^ ^ ^ ^ ^ ^ ^ ^ / ^ ^ ^ ^ / / / ^ ^ ^ / / ^ ^ ^ ^ ^ ^ ^ ^ ^ ^ n _ _ < % - - ^ ^ ^ ^ / / ^ ^ ^ ^ ^ ^ ^ ^ ^ ^ y W.4XwX",
"wXeXT.y V ..S C ^ ^ ^ ^ ^ ^ ^ ^ ^ n _ ! > % ; ; ^ ^ ^ ^ ^ ^ ^ ^ ^ ^ ^ ^ ^ ^ ^ ^ ^ ^ ^ ^ ^ ^ ^ ^ ^ ^ ^ ^ ^ ^ ^ ^ / ^ ^ / ^ ^ ] t.;.;.] ` / / ^ ^ ^ ^ ^ ^ I x I ` ] ] ] ] ] ] ] ] ] ] ] ] ] ] ] ] ] ] ] ] ] ] ] ] ] ] ] ] ] ] ] ] ] ] ] ] ] ] ] ] ] ] ] ] ] ] ] ] ] ] ] ] ] ] ] ] ] ] ] ] ] ] ] ] ] ] ] ] ] ] ] ] ] ] ] ] ] ] ] ] ] ] ] ] ] ] ] ] ] ] ] ] ] ] ] ] ] ] ] ] ] ] ] ] ] ] ] ] ] ] ] ] ] ] ] ] ] ] ] ] ] ] ] ] ] ] ] ] ] ] ] ] ] ] ] ] ] ] ] ] ] ] ] ] ] ] ] ] ] ] ] ] ] ] ` ^ ^ / / ^ I I I z l l w w q I ` ^ n ^ ` ^ ^ ^ ^ ^ ^ ^ ^ ^ ^ ^ ^ ^ ^ ^ ^ ^ ^ ^ ^ ^ ^ ^ ^ ^ ^ ^ ^ ^ ^ ^ ^ ^ ^ I _ ! < % ; - I ^ ^ ^ ^ ^ ^ ^ ^ ^ ^ ^ ^ ^ ^ ^ y W.4X0X",
"wXeXT.y V ..S C ^ ^ ^ ^ ^ ^ ^ ^ ^ n _ ! > % ; ; ^ ^ ^ ^ ^ ^ ^ ^ ^ ^ ^ ^ ^ ^ ^ ^ ^ ^ ^ ^ ^ ^ ^ ^ ^ ^ ^ ^ ^ ^ ^ ^ / ^ ^ / ^ ^ ] t.;.;.] ` / / ^ ^ ^ ^ ^ ^ I x I ` ] ] ] ] ] ] ] ] ] ] ] ] ] ] ] ] ] ] ] ] ] ] ] ] ] ] ] ] ] ] ] ] ] ] ] ] ] ] ] ] ] ] ] ] ] ] ] ] ] ] ] ] ] ] ] ] ] ] ] ] ] ] ] ] ] ] ] ] ] ] ] ] ] ] ] ] ] ] ] ] ] ] ] ] ] ] ] ] ] ] ] ] ] ] ] ] ] ] ] ] ] ] ] ] ] ] ] ] ] ] ] ] ] ] ] ] ] ] ] ] ] ] ] ] ] ] ] ] ] ] ] ] ] ] ] ] ] ] ] ] ] ] ] ] ] ] ] ] ] ] ] ] ] ] ` ^ ^ / / ^ I I I z l l w q q I ` ^ n ^ ` ^ ^ ^ ^ ^ ^ ^ ^ ^ ^ ^ ^ ^ ^ ^ ^ ^ ^ ^ ^ ^ ^ ^ ^ ^ ^ ^ ^ ^ ^ ^ ^ ^ ^ I _ ! < % ; - I ^ ^ ^ ^ ^ ^ ^ ^ ^ ^ ^ ^ ^ ^ ^ y W.4XwX",
"wXeXT.y V ..S C ^ ^ ^ ^ ^ ^ ^ ^ ^ n _ ! > % ; ; ^ ^ ^ ^ ^ ^ ^ ^ ^ ^ ^ ^ ^ ^ ^ ^ ^ ^ ^ ^ ^ ^ ^ ^ ^ ^ ^ ^ ^ ^ ^ ^ / ^ ^ / ^ ^ ] t.;.;.] ` / / ^ ^ ^ ^ ^ ^ I x I ` ] ] ] ] ] ] ] ] ] ] ] ] ] ] ] ] ] ] ] ] ] ] ] ] ] ] ] ] ] ] ] ] ] ] ] ] ] ] ] ] ] ] ] ] ] ] ] ] ] ] ] ] ] ] ] ] ] ] ] ] ] ] ] ] ] ] ] ] ] ] ] ] ] ] ] ] ] ] ] ] ] ] ] ] ] ] ] ] ] ] ] ] ] ] ] ] ] ] ] ] ] ] ] ] ] ] ] ] ] ] ] ] ] ] ] ] ] ] ] ] ] ] ] ] ] ] ] ] ] ] ] ] ] ] ] ] ] ] ] ] ] ] ] ] ] ] ] ] ] ] ] ] ] ] ` ^ ^ / / ^ I I L z z l q q q I ` ^ n ^ ` ^ ^ ^ ^ ^ ^ ^ ^ ^ ^ ^ ^ ^ ^ ^ ^ ^ ^ ^ ^ ^ ^ ^ ^ ^ ^ ^ ^ ^ ^ ^ ^ ^ ^ I _ ! < % ; - I ^ ^ ^ ^ ^ ^ ^ ^ ^ ^ ^ ^ ^ ^ ^ y W.4XwX",
",XeXT.y V ..S C ^ ^ ^ ^ ^ ^ ^ ^ ^ n _ ! > % ; ; ^ ^ ^ ^ ^ ^ ^ ^ ^ ^ ^ ^ ^ ^ ^ ^ ^ ^ ^ ^ ^ ^ ^ ^ ^ ^ ^ ^ ^ ^ ^ ^ / ^ ^ / ^ ^ ] t.;.;.] ` / / ^ ^ ^ ^ ^ ^ I x I ` ] ] ] ] ] ] ] ] ] ] ] ] ] ] ] ] ] ] ] ] ] ] ] ] ] ] ] ] ] ] ] ] ] ] ] ] ] ] ] ] ] ] ] ] ] ] ] ] ] ] ] ] ] ] ] ] ] ] ] ] ] ] ] ] ] ] ] ] ] ] ] ] ] ] ] ] ] ] ] ] ] ] ] ] ] ] ] ] ] ] ] ] ] ] ] ] ] ] ] ] ] ] ] ] ] ] ] ] ] ] ] ] ] ] ] ] ] ] ] ] ] ] ] ] ] ] ] ] ] ] ] ] ] ] ] ] ] ] ] ] ] ] ] ] ] ] ] ] ] ] ] ] ] ] ` ^ ^ / / ^ I I L z z l w q q I ` ^ n ^ ` ^ ^ ^ ^ ^ ^ ^ ^ ^ ^ ^ ^ ^ ^ ^ ^ ^ ^ ^ ^ ^ ^ ^ ^ ^ ^ ^ ^ ^ ^ ^ ^ ^ / I _ ! < % ; - I ^ ^ ^ ^ ^ ^ ^ ^ ^ ^ ^ ^ ^ ^ ^ y W.4XwX",
",XeXT.i V ..S C ^ ^ ^ ^ ^ ^ ^ ^ ^ n _ ! > % ; ; ^ ^ ^ ^ ^ ^ ^ ^ ^ ^ ^ ^ ^ ^ ^ ^ ^ ^ ^ ^ ^ ^ ^ ^ ^ ^ ^ ^ ^ ^ ^ ^ / ^ ^ / ^ ^ ] t.;.;.] ` / / ^ ^ ^ ^ ^ ^ I x I ` ] ] ] ] ] ] ] ] ] ] ] ] ] ] ] ] ] ] ] ] ] ] ] ] ] ] ] ] ] ] ] ] ] ] ] ] ] ] ] ] ] ] ] ] ] ] ] ] ] ] ] ] ] ] ] ] ] ] ] ] ] ] ] ] ] ] ] ] ] ] ] ] ] ] ] ] ] ] ] ] ] ] ] ] ] ] ] ] ] ] ] ] ] ] ] ] ] ] ] ] ] ] ] ] ] ] ] ] ] ] ] ] ] ] ] ] ] ] ] ] ] ] ] ] ] ] ] ] ] ] ] ] ] ] ] ] ] ] ] ] ] ] ] ] ] ] ] ] ] ] ] ] ] ] ` ^ ^ / / ^ I I L x z l w q q I ` ^ n ^ ` ^ ^ ^ ^ ^ ^ ^ ^ ^ ^ ^ ^ ^ ^ ^ ^ ^ ^ ^ ^ ^ ^ ^ ^ ^ ^ ^ ^ ^ ^ ^ ^ ^ / n _ ! < % ; - n ^ ^ ^ ^ ^ ^ ^ ^ ^ ^ ^ ^ ^ ^ ^ y W.4X0X",
",XeXT.y V ..S C ^ ^ ^ ^ ^ ^ ^ ^ ^ n _ ! > % ; ; ^ ^ ^ ^ ^ ^ ^ ^ ^ ^ ^ ^ ^ ^ ^ ^ ^ ^ ^ ^ ^ ^ ^ ^ ^ ^ ^ ^ ^ ^ ^ ^ / ^ ^ / ^ ^ ] t.;.;.] ` / / ^ ^ ^ ^ ^ ^ I x I ` ] ] ] ] ] ] ] ] ] ] ] ] ] ] ] ] ] ] ] ] ] ] ] ] ] ] ] ] ] ] ] ] ] ] ] ] ] ] ] ] ] ] ] ] ] ] ] ] ] ] ] ] ] ] ] ] ] ] ] ] ] ] ] ] ] ] ] ] ] ] ] ] ] ] ] ] ] ] ] ] ] ] ] ] ] ] ] ] ] ] ] ] ] ] ] ] ] ] ] ] ] ] ] ] ] ] ] ] ] ] ] ] ] ] ] ] ] ] ] ] ] ] ] ] ] ] ] ] ] ] ] ] ] ] ] ] ] ] ] ] ] ] ] ] ] ] ] ] ] ] ] ] ] ] ` ^ ^ / / ^ I I L z z l w q q I ` ^ n ^ ` ^ ^ ^ ^ ^ ^ ^ ^ ^ ^ ^ ^ ^ ^ ^ ^ ^ ^ ^ ^ ^ ^ ^ ^ ^ ^ ^ ^ ^ ^ ^ ^ ^ / n _ ! < % ; - n ^ ^ ^ ^ ^ ^ ^ ^ ^ ^ ^ ^ ^ ^ ^ y W.4X0X",
"wXeXT.i V ..S C ^ ^ ^ ^ ^ ^ ^ ^ ^ n ^ ! > % ; ; ^ ^ ^ ^ ^ ^ ^ ^ ^ ^ ^ ^ ^ ^ ^ ^ ^ ^ ^ ^ ^ ^ ^ ^ ^ ^ ^ ^ ^ ^ ^ ^ / ^ ^ / ^ ^ ] t.;.;.] ` / / ^ ^ ^ ^ ^ ^ I x I ` ] ] ] ] ] ] ] ] ] ] ] ] ] ] ] ] ] ] ] ] ] ] ] ] ] ] ] ] ] ] ] ] ] ] ] ] ] ] ] ] ] ] ] ] ] ] ] ] ] ] ] ] ] ] ] ] ] ] ] ] ] ] ] ] ] ] ] ] ] ] ] ] ] ] ] ] ] ] ] ] ] ] ] ] ] ] ] ] ] ] ] ] ] ] ] ] ] ] ] ] ] ] ] ] ] ] ] ] ] ] ] ] ] ] ] ] ] ] ] ] ] ] ] ] ] ] ] ] ] ] ] ] ] ] ] ] ] ] ] ] ] ] ] ] ] ] ] ] ] ] ] ] ] ] ` ^ ^ / / ^ ^ L L z l j q , q I ` ^ n ^ / ^ ^ ^ ^ ^ ^ ^ ^ ^ ^ ^ ^ ^ ^ ^ ^ ^ ^ ^ ^ ^ ^ ^ ^ ^ ^ ^ ^ ^ ^ ^ ^ ^ / n _ ! < % ; - n ^ ^ ^ ^ ^ ^ ^ ^ ^ ^ ^ ^ ^ ^ ^ y W.4X0X",
"wXeXT.i V ..S C ^ ^ ^ ^ ^ ^ ^ ^ ^ n ^ E > % ; ; ^ ^ ^ ^ ^ ^ ^ ^ ^ ^ ^ ^ ^ ^ ^ ^ ^ ^ ^ ^ ^ ^ ^ ^ ^ ^ ^ ^ ^ ^ ^ ^ / ^ ^ / ^ ^ ] t.;.;.] ` / / ^ ^ ^ ^ ^ ^ I x I ` ] ] ] ] ] ] ] ] ] ] ] ] ] ] ] ] ] ] ] ] ] ] ] ] ] ] ] ] ] ] ] ] ] ] ] ] ] ] ] ] ] ] ] ] ] ] ] ] ] ] ] ] ] ] ] ] ] ] ] ] ] ] ] ] ] ] ] ] ] ] ] ] ] ] ] ] ] ] ] ] ] ] ] ] ] ] ] ] ] ] ] ] ] ] ] ] ] ] ] ] ] ] ] ] ] ] ] ] ] ] ] ] ] ] ] ] ] ] ] ] ] ] ] ] ] ] ] ] ] ] ] ] ] ] ] ] ] ] ] ] ] ] ] ] ] ] ] ] ] ] ] ] ] ] ` ^ ^ / / ^ ^ L L z l j q , q I ` ^ n ^ ` ^ ^ ^ ^ ^ ^ ^ ^ ^ ^ ^ ^ ^ ^ ^ ^ ^ ^ ^ ^ ^ ^ ^ ^ ^ ^ ^ ^ ^ ^ ^ ^ ^ / n _ ! < % ; - I ^ ^ ^ ^ ^ ^ ^ ^ ^ ^ ^ ^ ^ ^ ^ y W.4X0X",
"wX9XJ.i ! _ A _ ^ ^ ^ ^ ^ ^ ^ ^ ^ I I _ @ ; X 1 ^ ^ ^ ^ ^ ^ ^ ^ ^ ^ ^ ^ ^ ^ ^ ^ ^ ^ ^ ^ ^ ^ ^ ^ ^ ^ ^ ^ ^ ^ ^ ^ / ^ ^ / ^ ^ ] t.-.-.] / / / ^ ^ ^ ^ ^ ^ I x I ` ] ] ] ] ] ] ] ] ] ] ] ] ] ] ] ] ] ] ] ] ] ] ] ] ] ] ] ] ] ] ] ] ] ] ] ] ] ] ] ] ] ] ] ] ] ] ] ] ] ] ] ] ] ] ] ] ] ] ] ] ] ] ] ] ] ] ] ] ] ] ] ] ] ] ] ] ] ] ] ] ] ] ] ] ] ] ] ] ] ] ] ] ] ] ] ] ] ] ] ] ] ] ] ] ] ] ] ] ] ] ] ] ] ] ] ] ] ] ] ] ] ] ] ] ] ] ] ] ] ] ] ] ] ] ] ] ] ] ] ] ] ] ] ] ] ] ] ] ] ] ] ] / ] / ^ ^ ^ / ^ L x L z c l j , q L ` ^ n ^ / U ^ ^ ^ ^ ^ ^ ^ ^ ^ ^ ^ ^ ^ ^ ^ ^ ^ ^ ^ ^ ^ ^ ^ ^ ^ ^ ^ ^ ^ ^ ^ ^ / n _ ! < % ; - I I ^ ^ ^ ^ ^ ^ ^ ^ ^ ^ ^ ^ ^ ^ t W.4X0X",
"wX9XJ.i ! _ A _ ^ ^ ^ ^ ^ ^ ^ ^ ^ I I _ @ ; X 1 ^ ^ ^ ^ ^ ^ ^ ^ ^ ^ ^ ^ ^ ^ ^ ^ ^ ^ ^ ^ ^ ^ ^ ^ ^ ^ ^ ^ ^ ^ ^ ^ / ^ ^ / ^ ^ ] t.-.-.] / / / ^ ^ ^ ^ ^ ^ I x I ` ] ] ] ] ] ] ] ] ] ] ] ] ] ] ] ] ] ] ] ] ] ] ] ] ] ] ] ] ] ] ] ] ] ] ] ] ] ] ] ] ] ] ] ] ] ] ] ] ] ] ] ] ] ] ] ] ] ] ] ] ] ] ] ] ] ] ] ] ] ] ] ] ] ] ] ] ] ] ] ] ] ] ] ] ] ] ] ] ] ] ] ] ] ] ] ] ] ] ] ] ] ] ] ] ] ] ] ] ] ] ] ] ] ] ] ] ] ] ] ] ] ] ] ] ] ] ] ] ] ] ] ] ] ] ] ] ] ] ] ] ] ] ] ] ] ] ] ] ] ] ] ] / ] / ^ ^ ^ / ^ L x L z c l j , q L / C n ^ / U ^ ^ ^ ^ ^ ^ ^ ^ ^ ^ ^ ^ ^ ^ ^ ^ ^ ^ ^ ^ ^ ^ ^ ^ ^ ^ ^ ^ ^ ^ ^ ^ / I _ ! < % ; - I I ^ ^ ^ ^ ^ ^ ^ ^ ^ ^ ^ ^ ^ ^ t W.4X0X",
"wX9XJ.i ! _ A _ ^ ^ ^ ^ ^ ^ ^ ^ ^ I I _ @ ; X 1 ^ ^ ^ ^ ^ ^ ^ ^ ^ ^ ^ ^ ^ ^ ^ ^ ^ ^ ^ ^ ^ ^ ^ ^ ^ ^ ^ ^ ^ ^ ^ ^ / ^ ^ / ^ ^ ] t.-.-.] / / / ^ ^ ^ ^ ^ ^ I x I ` ] ] ] ] ] ] ] ] ] ] ] ] ] ] ] ] ] ] ] ] ] ] ] ] ] ] ] ] ] ] ] ] ] ] ] ] ] ] ] ] ] ] ] ] ] ] ] ] ] ] ] ] ] ] ] ] ] ] ] ] ] ] ] ] ] ] ] ] ] ] ] ] ] ] ] ] ] ] ] ] ] ] ] ] ] ] ] ] ] ] ] ] ] ] ] ] ] ] ] ] ] ] ] ] ] ] ] ] ] ] ] ] ] ] ] ] ] ] ] ] ] ] ] ] ] ] ] ] ] ] ] ] ] ] ] ] ] ] ] ] ] ] ] ] ] ] ] ] ] ] ] ] ` ] / ^ ^ ^ / ^ L x L z c l j , q L ` ^ n ^ / U ^ ^ ^ ^ ^ ^ ^ ^ ^ ^ ^ ^ ^ ^ ^ ^ ^ ^ ^ ^ ^ ^ ^ ^ ^ ^ ^ ^ ^ ^ ^ ^ / n _ ! < % ; - I I ^ ^ ^ ^ ^ ^ ^ ^ ^ ^ ^ ^ ^ ^ t R.4XwX",
"wX9XJ.i ! _ A _ ^ ^ ^ ^ ^ ^ ^ ^ ^ I I _ @ ; X 1 ^ ^ ^ ^ ^ ^ ^ ^ ^ ^ ^ ^ ^ ^ ^ ^ ^ ^ ^ ^ ^ ^ ^ ^ ^ ^ ^ ^ ^ ^ ^ ^ / ^ ^ / ^ ^ ] t.;.-.] / / / ^ ^ ^ ^ ^ ^ I x I ` ] ] ] ] ] ] ] ] ] ] ] ] ] ] ] ] ] ] ] ] ] ] ] ] ] ] ] ] ] ] ] ] ] ] ] ] ] ] ] ] ] ] ] ] ] ] ] ] ] ] ] ] ] ] ] ] ] ] ] ] ] ] ] ] ] ] ] ] ] ] ] ] ] ] ] ] ] ] ] ] ] ] ] ] ] ] ] ] ] ] ] ] ] ] ] ] ] ] ] ] ] ] ] ] ] ] ] ] ] ] ] ] ] ] ] ] ] ] ] ] ] ] ] ] ] ] ] ] ] ] ] ] ] ] ] ] ] ] ] ] ] ] ] ] ] ] ] ] ] ] ] ] ` ] / ^ ^ ^ / ^ L x L z c l j , q L ` ^ n ^ / U ^ ^ ^ ^ ^ ^ ^ ^ ^ ^ ^ ^ ^ ^ ^ ^ ^ ^ ^ ^ ^ ^ ^ ^ ^ ^ ^ ^ ^ ^ ^ ^ / n _ ! < % ; - I I ^ ^ ^ ^ ^ ^ ^ ^ ^ ^ ^ ^ ^ ^ t R.4XwX",
"wX9XJ.i ! ^ A _ ^ ^ ^ ^ ^ ^ ^ ^ ^ I I _ @ X X 1 ^ ^ ^ ^ ^ ^ ^ ^ ^ ^ ^ ^ ^ ^ ^ ^ ^ ^ ^ ^ ^ ^ ^ ^ ^ ^ ^ ^ ^ ^ ^ ^ / ^ ^ / ^ ^ ] t.;.-.] / / / ^ ^ ^ ^ ^ ^ I x I ` ] ] ] ] ] ] ] ] ] ] ] ] ] ] ] ] ] ] ] ] ] ] ] ] ] ] ] ] ] ] ] ] ] ] ] ] ] ] ] ] ] ] ] ] ] ] ] ] ] ] ] ] ] ] ] ] ] ] ] ] ] ] ] ] ] ] ] ] ] ] ] ] ] ] ] ] ] ] ] ] ] ] ] ] ] ] ] ] ] ] ] ] ] ] ] ] ] ] ] ] ] ] ] ] ] ] ] ] ] ] ] ] ] ] ] ] ] ] ] ] ] ] ] ] ] ] ] ] ] ] ] ] ] ] ] ] ] ] ] ] ] ] ] ] ] ] ] ] ] ] ] ] ` ] / ^ ^ ^ / ^ L L L z c l j , q L ` ^ n ^ / U ^ ^ ^ ^ ^ ^ ^ ^ ^ ^ ^ ^ ^ ^ ^ ^ ^ ^ ^ ^ ^ ^ ^ ^ ^ ^ ^ ^ ^ ^ ^ ^ ^ I _ ! < % ; - I U ^ ^ ^ ^ ^ ^ ^ ^ ^ ^ ^ ^ ^ ^ t R.4X0X",
"wX9XJ.i ! ^ v _ ^ ^ ^ ^ ^ ^ ^ ^ ^ I I _ @ ; - 1 ^ ^ ^ ^ ^ ^ ^ ^ ^ ^ ^ ^ ^ ^ ^ ^ ^ ^ ^ ^ ^ ^ ^ ^ ^ ^ ^ ^ ^ ^ ^ ^ / ^ ^ / ^ ^ ] t.;.-.] / / / ^ ^ ^ ^ ^ ^ I x I ` ] ] ] ] ] ] ] ] ] ] ] ] ] ] ] ] ] ] ] ] ] ] ] ] ] ] ] ] ] ] ] ] ] ] ] ] ] ] ] ] ] ] ] ] ] ] ] ] ] ] ] ] ] ] ] ] ] ] ] ] ] ] ] ] ] ] ] ] ] ] ] ] ] ] ] ] ] ] ] ] ] ] ] ] ] ] ] ] ] ] ] ] ] ] ] ] ] ] ] ] ] ] ] ] ] ] ] ] ] ] ] ] ] ] ] ] ] ] ] ] ] ] ] ] ] ] ] ] ] ] ] ] ] ] ] ] ] ] ] ] ] ] ] ] ] ] ] ] ] ] ] ] ` ] / ^ ^ ^ / ^ L L L z c l j , q L ` ^ n ^ / U ^ ^ ^ ^ ^ ^ ^ ^ ^ ^ ^ ^ ^ ^ ^ ^ ^ ^ ^ ^ ^ ^ ^ ^ ^ ^ ^ ^ ^ ^ ^ ^ ^ I _ ! < % ; - I U ^ ^ ^ ^ ^ ^ ^ ^ ^ ^ ^ ^ ^ ^ t R.4X0X",
"wX9XJ.i ! _ A _ ^ ^ ^ ^ ^ ^ ^ ^ C ^ I _ @ ; - 2 ^ ^ ^ ^ ^ ^ ^ ^ ^ ^ ^ ^ ^ ^ ^ ^ ^ ^ ^ ^ ^ ^ ^ ^ ^ ^ ^ ^ ^ ^ ^ ^ / ^ ^ / ^ ^ ] t.;.-.] / / / ^ ^ ^ ^ ^ ^ I z I ` ] ] ] ] ] ] ] ] ] ] ] ] ] ] ] ] ] ] ] ] ] ] ] ] ] ] ] ] ] ] ] ] ] ] ] ] ] ] ] ] ] ] ] ] ] ] ] ] ] ] ] ] ] ] ] ] ] ] ] ] ] ] ] ] ] ] ] ] ] ] ] ] ] ] ] ] ] ] ] ] ] ] ] ] ] ] ] ] ] ] ] ] ] ] ] ] ] ] ] ] ] ] ] ] ] ] ] ] ] ] ] ] ] ] ] ] ] ] ] ] ] ] ] ] ] ] ] ] ] ] ] ] ] ] ] ] ] ] ] ] ] ] ] ] ] ] ] ] ] ] ] ] ` ] / ^ ^ ^ ^ ^ L L L z c l j , q L / C n ^ / U ^ ^ ^ ^ ^ ^ ^ ^ ^ ^ ^ ^ ^ ^ ^ ^ ^ ^ ^ ^ ^ ^ ^ ^ ^ ^ ^ ^ ^ ^ ^ ^ ^ I _ ! < % ; - I U ^ ^ ^ ^ ^ ^ ^ ^ ^ ^ ^ ^ ^ ^ t R.4X0X",
"wX9XJ.i ! _ A _ ^ ^ ^ ^ ^ ^ ^ ^ C ^ I _ @ ; - 2 ^ ^ ^ ^ ^ ^ ^ ^ ^ ^ ^ ^ ^ ^ ^ ^ ^ ^ ^ ^ ^ ^ ^ ^ ^ ^ ^ ^ ^ ^ ^ ^ / ^ ^ / ^ ^ ] t.;.-.] / / / ^ ^ ^ ^ ^ ^ I z I ` ] ] ] ] ] ] ] ] ] ] ] ] ] ] ] ] ] ] ] ] ] ] ] ] ] ] ] ] ] ] ] ] ] ] ] ] ] ] ] ] ] ] ] ] ] ] ] ] ] ] ] ] ] ] ] ] ] ] ] ] ] ] ] ] ] ] ] ] ] ] ] ] ] ] ] ] ] ] ] ] ] ] ] ] ] ] ] ] ] ] ] ] ] ] ] ] ] ] ] ] ] ] ] ] ] ] ] ] ] ] ] ] ] ] ] ] ] ] ] ] ] ] ] ] ] ] ] ] ] ] ] ] ] ] ] ] ] ] ] ] ] ] ] ] ] ] ] ] ] ] ] ] ` ] / ^ ^ ^ ^ ^ L L L z c l j , q L / C n ^ / U ^ ^ ^ ^ ^ ^ ^ ^ ^ ^ ^ ^ ^ ^ ^ ^ ^ ^ ^ ^ ^ ^ ^ ^ ^ ^ ^ ^ ^ ^ ^ ^ / I _ ! < % ; - I U ^ ^ ^ ^ ^ ^ ^ ^ ^ ^ ^ ^ ^ ^ t R.4X0X",
"qX9XJ.i ! _ v } ^ ^ ^ ^ ^ ^ ^ ^ ^ n ^ E = % ; 1 ^ ^ ^ ^ ^ ^ ^ ^ ^ ^ ^ ^ ^ ^ ^ ^ ^ ^ ^ ^ ^ ^ ^ ^ ^ ^ ^ ^ ^ ^ ^ ^ / ^ ^ / ^ ^ ] t.;.;.] ` / ^ ^ ^ ^ ^ ^ ^ L z I ` ] ] ] ] ] ] ] ] ] ] ] ] ] ] ] ] ] ] ] ] ] ] ] ] ] ] ] ] ] ] ] ] ] ] ] ] ] ] ] ] ] ] ] ] ] ] ] ] ] ] ] ] ] ] ] ] ] ] ] ] ] ] ] ] ] ] ] ] ] ] ] ] ] ] ] ] ] ] ] ] ] ] ] ] ] ] ] ] ] ] ] ] ] ] ] ] ] ] ] ] ] ] ] ] ] ] ] ] ] ] ] ] ] ] ] ] ] ] ] ] ] ] ] ] ] ] ] ] ] ] ] ] ] ] ] ] ] ] ] ] ] ] ] ] ] ] ] ] ] ] ] ] ` ] ` ^ ^ ^ / ^ I x x z l w q q q L ` ^ I ^ / ^ ^ ^ ^ ^ ^ ^ ^ ^ ^ ^ ^ ^ ^ ^ ^ ^ ^ ^ ^ ^ ^ ^ ^ ^ ^ ^ ^ ^ ^ ^ ^ ^ ^ I _ ! < % ; - I ^ ^ ^ ^ ^ ^ ^ ^ ^ ^ ^ ^ ^ ^ ^ t R.4XwX",
"qX9XJ.i ! _ v } ^ ^ ^ ^ ^ ^ ^ ^ ^ n ^ E > % ; 1 I ^ ^ ^ ^ ^ ^ ^ ^ ^ ^ ^ ^ ^ ^ ^ ^ ^ ^ ^ ^ ^ ^ ^ ^ ^ ^ ^ ^ ^ ^ ^ / ^ ^ / ^ ^ ] t.;.;.] ` / ^ ^ ^ ^ ^ ^ ^ L z I ` ] ] ] ] ] ] ] ] ] ] ] ] ] ] ] ] ] ] ] ] ] ] ] ] ] ] ] ] ] ] ] ] ] ] ] ] ] ] ] ] ] ] ] ] ] ] ] ] ] ] ] ] ] ] ] ] ] ] ] ] ] ] ] ] ] ] ] ] ] ] ] ] ] ] ] ] ] ] ] ] ] ] ] ] ] ] ] ] ] ] ] ] ] ] ] ] ] ] ] ] ] ] ] ] ] ] ] ] ] ] ] ] ] ] ] ] ] ] ] ] ] ] ] ] ] ] ] ] ] ] ] ] ] ] ] ] ] ] ] ] ] ] ] ] ] ] ] ] ] ] ] ] ` ] ` ^ ^ ^ / ^ I n x z l w q q q L ` ^ I ^ ^ ^ ^ ^ ^ ^ ^ ^ ^ ^ ^ ^ ^ ^ ^ ^ ^ ^ ^ ^ ^ ^ ^ ^ ^ ^ ^ ^ ^ ^ ^ ^ ^ ^ ^ I _ ! < % ; - I ^ ^ ^ ^ ^ ^ ^ ^ ^ ^ ^ ^ ^ ^ ^ t R.4XwX",
"qX9XJ.i ! _ v ..^ ^ ^ ^ ^ ^ ^ ^ ^ n ^ P > % ; 1 ^ ^ ^ ^ ^ ^ ^ ^ ^ ^ ^ ^ ^ ^ ^ ^ ^ ^ ^ ^ ^ ^ ^ ^ ^ ^ ^ ^ ^ ^ ^ ^ / ^ ^ / ^ ^ ] t.;.;.] ` / ^ ^ ^ ^ ^ ^ ^ L z I ` ] ] ] ] ] ] ] ] ] ] ] ] ] ] ] ] ] ] ] ] ] ] ] ] ] ] ] ] ] ] ] ] ] ] ] ] ] ] ] ] ] ] ] ] ] ] ] ] ] ] ] ] ] ] ] ] ] ] ] ] ] ] ] ] ] ] ] ] ] ] ] ] ] ] ] ] ] ] ] ] ] ] ] ] ] ] ] ] ] ] ] ] ] ] ] ] ] ] ] ] ] ] ] ] ] ] ] ] ] ] ] ] ] ] ] ] ] ] ] ] ] ] ] ] ] ] ] ] ] ] ] ] ] ] ] ] ] ] ] ] ] ] ] ] ] ] ] ] ] ] ] ] ` ] ` ^ ^ ^ ` ^ I n x z l w q q q L ` ^ I ^ ^ I ^ ^ ^ ^ ^ ^ ^ ^ ^ ^ ^ ^ ^ ^ ^ ^ ^ ^ ^ ^ ^ ^ ^ ^ ^ ^ ^ ^ ^ ^ ^ ^ / I _ ! < % ; - I ^ ^ ^ ^ ^ ^ ^ ^ ^ ^ ^ ^ ^ ^ ^ t R.4XwX",
"wX9XJ.i ! _ v ..^ ^ ^ ^ ^ ^ ^ ^ ^ n ^ P > % ; 1 ^ ^ ^ ^ ^ ^ ^ ^ ^ ^ ^ ^ ^ ^ ^ ^ ^ ^ ^ ^ ^ ^ ^ ^ ^ ^ ^ ^ ^ ^ ^ ^ / ^ ^ / ^ ^ ] t.;.;.] ` / ^ ^ ^ ^ ^ ^ ^ L z I ` ] ] ] ] ] ] ] ] ] ] ] ] ] ] ] ] ] ] ] ] ] ] ] ] ] ] ] ] ] ] ] ] ] ] ] ] ] ] ] ] ] ] ] ] ] ] ] ] ] ] ] ] ] ] ] ] ] ] ] ] ] ] ] ] ] ] ] ] ] ] ] ] ] ] ] ] ] ] ] ] ] ] ] ] ] ] ] ] ] ] ] ] ] ] ] ] ] ] ] ] ] ] ] ] ] ] ] ] ] ] ] ] ] ] ] ] ] ] ] ] ] ] ] ] ] ] ] ] ] ] ] ] ] ] ] ] ] ] ] ] ] ] ] ] ] ] ] ] ] ] ] ] ` ] ` ^ ^ ^ ` ^ I n x z l w q q q L ` ^ I ^ / I ^ ^ ^ ^ ^ ^ ^ ^ ^ ^ ^ ^ ^ ^ ^ ^ ^ ^ ^ ^ ^ ^ ^ ^ ^ ^ ^ ^ ^ ^ ^ ^ / I _ ! < % ; - I ^ ^ ^ ^ ^ ^ ^ ^ ^ ^ ^ ^ ^ ^ ^ t R.2XwX",
"wX9XJ.i ! _ v ..^ ^ ^ ^ ^ ^ ^ ^ ^ n ^ P > % ; 1 ^ ^ ^ ^ ^ ^ ^ ^ ^ ^ ^ ^ ^ ^ ^ ^ ^ ^ ^ ^ ^ ^ ^ ^ ^ ^ ^ ^ ^ ^ ^ ^ / ^ ^ / ^ ^ ] t.;.;.] ` / ^ ^ ^ ^ ^ ^ ^ x z I ` ] ] ] ] ] ] ] ] ] ] ] ] ] ] ] ] ] ] ] ] ] ] ] ] ] ] ] ] ] ] ] ] ] ] ] ] ] ] ] ] ] ] ] ] ] ] ] ] ] ] ] ] ] ] ] ] ] ] ] ] ] ] ] ] ] ] ] ] ] ] ] ] ] ] ] ] ] ] ] ] ] ] ] ] ] ] ] ] ] ] ] ] ] ] ] ] ] ] ] ] ] ] ] ] ] ] ] ] ] ] ] ] ] ] ] ] ] ] ] ] ] ] ] ] ] ] ] ] ] ] ] ] ] ] ] ] ] ] ] ] ] ] ] ] ] ] ] ] ] ] ] ] ` ] ` ^ ^ ^ / ^ I n x z l w q q q L ` ^ I ^ / ^ ^ ^ ^ ^ ^ ^ ^ ^ ^ ^ ^ ^ ^ ^ ^ ^ ^ ^ ^ ^ ^ ^ ^ ^ ^ ^ ^ ^ ^ ^ ^ ^ / I _ ! < % ; - I ^ ^ ^ ^ ^ ^ ^ ^ ^ ^ ^ ^ ^ ^ ^ t R.2XwX",
"qX9XJ.i ! _ v ..^ ^ ^ ^ ^ ^ ^ ^ ^ n ^ P > % ; 1 ^ ^ ^ ^ ^ ^ ^ ^ ^ ^ ^ ^ ^ ^ ^ ^ ^ ^ ^ ^ ^ ^ ^ ^ ^ ^ ^ ^ ^ ^ ^ ^ / ^ ^ / ^ ^ ] t.;.;.] ` / ^ ^ ^ ^ ^ ^ ^ L z I ` ] ] ] ] ] ] ] ] ] ] ] ] ] ] ] ] ] ] ] ] ] ] ] ] ] ] ] ] ] ] ] ] ] ] ] ] ] ] ] ] ] ] ] ] ] ] ] ] ] ] ] ] ] ] ] ] ] ] ] ] ] ] ] ] ] ] ] ] ] ] ] ] ] ] ] ] ] ] ] ] ] ] ] ] ] ] ] ] ] ] ] ] ] ] ] ] ] ] ] ] ] ] ] ] ] ] ] ] ] ] ] ] ] ] ] ] ] ] ] ] ] ] ] ] ] ] ] ] ] ] ] ] ] ] ] ] ] ] ] ] ] ] ] ] ] ] ] ] ] ] ] ] ` ] ` ^ ^ ^ / ^ I n x z l w q q q L ` ^ I ^ / ^ ^ ^ ^ ^ ^ ^ ^ ^ ^ ^ ^ ^ ^ ^ ^ ^ ^ ^ ^ ^ ^ ^ ^ ^ ^ ^ ^ ^ ^ ^ ^ ^ / I _ ! < % ; - I ^ ^ ^ ^ ^ ^ ^ ^ ^ ^ ^ ^ ^ ^ ^ t R.2XwX",
"wX9XJ.i ! _ v ..^ ^ ^ ^ ^ ^ ^ ^ ^ n ^ P > % ; 1 ^ ^ ^ ^ ^ ^ ^ ^ ^ ^ ^ ^ ^ ^ ^ ^ ^ ^ ^ ^ ^ ^ ^ ^ ^ ^ ^ ^ ^ ^ ^ ^ / ^ ^ / ^ ^ ] t.;.;.] ` / ^ ^ ^ ^ ^ ^ ^ L z I ` ] ] ] ] ] ] ] ] ] ] ] ] ] ] ] ] ] ] ] ] ] ] ] ] ] ] ] ] ] ] ] ] ] ] ] ] ] ] ] ] ] ] ] ] ] ] ] ] ] ] ] ] ] ] ] ] ] ] ] ] ] ] ] ] ] ] ] ] ] ] ] ] ] ] ] ] ] ] ] ] ] ] ] ] ] ] ] ] ] ] ] ] ] ] ] ] ] ] ] ] ] ] ] ] ] ] ] ] ] ] ] ] ] ] ] ] ] ] ] ] ] ] ] ] ] ] ] ] ] ] ] ] ] ] ] ] ] ] ] ] ] ] ] ] ] ] ] ] ] ] ] ] ` ] ` ^ ^ ^ ` ^ I n x z l w q q q L ` ^ I ^ / ^ ^ ^ ^ ^ ^ ^ ^ ^ ^ ^ ^ ^ ^ ^ ^ ^ ^ ^ ^ ^ ^ ^ ^ ^ ^ ^ ^ ^ ^ ^ ^ ^ ^ n _ ! < % ; - I ^ ^ ^ ^ ^ ^ ^ ^ ^ ^ ^ ^ ^ ^ ^ t R.2XwX",
"qX9XJ.i ! _ v ..^ ^ ^ ^ ^ ^ ^ ^ ^ n ^ P = % ; 1 ^ ^ ^ ^ ^ ^ ^ ^ ^ ^ ^ ^ ^ ^ ^ ^ ^ ^ ^ ^ ^ ^ ^ ^ ^ ^ ^ ^ ^ ^ ^ ^ / ^ ^ / ^ ^ ] t.;.;.] ` / ^ ^ ^ ^ ^ ^ ^ L z I ` ] ] ] ] ] ] ] ] ] ] ] ] ] ] ] ] ] ] ] ] ] ] ] ] ] ] ] ] ] ] ] ] ] ] ] ] ] ] ] ] ] ] ] ] ] ] ] ] ] ] ] ] ] ] ] ] ] ] ] ] ] ] ] ] ] ] ] ] ] ] ] ] ] ] ] ] ] ] ] ] ] ] ] ] ] ] ] ] ] ] ] ] ] ] ] ] ] ] ] ] ] ] ] ] ] ] ] ] ] ] ] ] ] ] ] ] ] ] ] ] ] ] ] ] ] ] ] ] ] ] ] ] ] ] ] ] ] ] ] ] ] ] ] ] ] ] ] ] ] ] ] ] ` ] ` ^ ^ ^ ` ^ I n x z l w q q q L ` ^ I ^ / ^ ^ ^ ^ ^ ^ ^ ^ ^ ^ ^ ^ ^ ^ ^ ^ ^ ^ ^ ^ ^ ^ ^ ^ ^ ^ ^ ^ ^ ^ ^ ^ ^ ^ n _ ! < % ; - I ^ ^ ^ ^ ^ ^ ^ ^ ^ ^ ^ ^ ^ ^ ^ t R.2XwX",
"qX>XJ.d Q _ A _ ^ ^ ^ I I I I I ^ I Y L = X ; 1 ^ ^ ^ ^ ^ ^ ^ ^ ^ ^ ^ ^ ^ ^ ^ ^ ^ ^ ^ ^ ^ ^ ^ ^ ^ ^ ^ ^ ^ ^ ^ ^ ^ I ^ ^ ^ n / t.-.;.] ` / ^ ^ ^ ^ I ^ ^ I z x ` ] ] ] ] ] ] ] ] ] ] ] ] ] ] ] ] ] ] ] ] ] ] ] ] ] ] ] ] ] ] ] ] ] ] ] ] ] ] ] ] ] ] ] ] ] ] ] ] ] ] ] ] ] ] ] ] ] ] ] ] ] ] ] ] ] ] ] ] ] ] ] ] ] ] ] ] ] ] ] ] ] ] ] ] ] ] ] ] ] ] ] ] ] ] ] ] ] ] ] ] ] ] ] ] ] ] ] ] ] ] ] ] ] ] ] ] ] ] ] ] ] ] ] ] ] ] ] ] ] ] ] ] ] ] ] ] ] ] ] ] ] ] ] ] ] ] ] ] ] ] ] ] ] ` ` ^ ^ ^ ^ ^ L x x c l j , , , J _ ^ E ^ ^ ^ ^ ^ ^ ^ ^ ^ ^ ^ ^ ^ ^ ^ ^ ^ ^ ^ ^ ^ ^ ^ ^ ^ ^ ^ ^ ^ ^ ^ ^ ^ ^ ^ ^ I _ ! < % ; - I I I ^ ^ ^ ^ I ^ ^ ^ I U ^ ^ ^ t R.4X0X",
"qX>XJ.d Q _ A _ ^ ^ ^ ^ I I ^ ^ ^ I / L = X ; 1 ^ ^ ^ ^ ^ ^ ^ ^ ^ ^ ^ ^ ^ ^ ^ ^ ^ ^ ^ ^ ^ ^ ^ ^ ^ ^ ^ ^ ^ ^ ^ ^ ^ I ^ ^ ^ n / t.q.;.] ` / ^ ^ ^ ^ I ^ ^ I z x ` ] ] ] ] ] ] ] ] ] ] ] ] ] ] ] ] ] ] ] ] ] ] ] ] ] ] ] ] ] ] ] ] ] ] ] ] ] ] ] ] ] ] ] ] ] ] ] ] ] ] ] ] ] ] ] ] ] ] ] ] ] ] ] ] ] ] ] ] ] ] ] ] ] ] ] ] ] ] ] ] ] ] ] ] ] ] ] ] ] ] ] ] ] ] ] ] ] ] ] ] ] ] ] ] ] ] ] ] ] ] ] ] ] ] ] ] ] ] ] ] ] ] ] ] ] ] ] ] ] ] ] ] ] ] ] ] ] ] ] ] ] ] ] ] ] ] ] ] ] ] ] ] ] ` ` ^ ^ ^ ^ ^ L x x c l j , , , J _ ^ E ^ ^ ^ ^ ^ ^ ^ ^ ^ ^ ^ ^ ^ ^ ^ ^ ^ ^ ^ ^ ^ ^ ^ ^ ^ ^ ^ ^ ^ ^ ^ ^ ^ ^ ^ ^ I _ ! < % ; - I I I ^ ^ ^ ^ I ^ ^ I I U ^ ^ ^ t R.4XwX",
"qX>XJ.d Q _ A _ ^ ^ ^ ^ ^ ^ ^ ^ C n Y L = X ; 1 ^ ^ ^ ^ ^ ^ ^ ^ ^ ^ ^ ^ ^ ^ ^ ^ ^ ^ ^ ^ ^ ^ ^ ^ ^ ^ ^ ^ ^ ^ ^ ^ ^ I ^ ^ ^ n / t.-.;.] ` / ^ ^ ^ ^ I ^ ^ I z x ` ] ] ] ] ] ] ] ] ] ] ] ] ] ] ] ] ] ] ] ] ] ] ] ] ] ] ] ] ] ] ] ] ] ] ] ] ] ] ] ] ] ] ] ] ] ] ] ] ] ] ] ] ] ] ] ] ] ] ] ] ] ] ] ] ] ] ] ] ] ] ] ] ] ] ] ] ] ] ] ] ] ] ] ] ] ] ] ] ] ] ] ] ] ] ] ] ] ] ] ] ] ] ] ] ] ] ] ] ] ] ] ] ] ] ] ] ] ] ] ] ] ] ] ] ] ] ] ] ] ] ] ] ] ] ] ] ] ] ] ] ] ] ] ] ] ] ] ] ] ] ] ] ] ` ` ^ ^ ^ ^ ^ L x x c l j , , , L _ ^ L ^ ^ ^ ^ ^ ^ ^ ^ ^ ^ ^ ^ ^ ^ ^ ^ ^ ^ ^ ^ ^ ^ ^ ^ ^ ^ ^ ^ ^ ^ ^ ^ ^ ^ ^ ^ I _ ! < % ; - I I I ^ ^ ^ ^ I ^ ^ n I I ^ ^ ^ t R.4X0X",
"qX>XJ.d Q _ A _ ^ ^ ^ ^ ^ ^ ^ ^ C n / L = X ; 1 ^ ^ ^ ^ ^ ^ ^ ^ ^ ^ ^ ^ ^ ^ ^ ^ ^ ^ ^ ^ ^ ^ ^ ^ ^ ^ ^ ^ ^ ^ ^ ^ ^ I ^ ^ ^ n / t.q.;.] ` / ^ ^ ^ ^ I ^ ^ I z x ` ] ] ] ] ] ] ] ] ] ] ] ] ] ] ] ] ] ] ] ] ] ] ] ] ] ] ] ] ] ] ] ] ] ] ] ] ] ] ] ] ] ] ] ] ] ] ] ] ] ] ] ] ] ] ] ] ] ] ] ] ] ] ] ] ] ] ] ] ] ] ] ] ] ] ] ] ] ] ] ] ] ] ] ] ] ] ] ] ] ] ] ] ] ] ] ] ] ] ] ] ] ] ] ] ] ] ] ] ] ] ] ] ] ] ] ] ] ] ] ] ] ] ] ] ] ] ] ] ] ] ] ] ] ] ] ] ] ] ] ] ] ] ] ] ] ] ] ] ] ] ] ] ] ` ` ^ ^ ^ ^ ^ L x L z l j , , , J _ ^ L ^ ^ ^ ^ ^ ^ ^ ^ ^ ^ ^ ^ ^ ^ ^ ^ ^ ^ ^ ^ ^ ^ ^ ^ ^ ^ ^ ^ ^ ^ ^ ^ ^ ^ ^ / I _ ! < % ; - I I I ^ ^ ^ ^ I ^ ^ n I U ^ ^ ^ t R.4X0X",
"qX>XJ.d Q _ A _ ^ ^ ^ ^ ^ ^ ^ ^ C n / L = X ; 1 ^ ^ ^ ^ ^ ^ ^ ^ ^ ^ ^ ^ ^ ^ ^ ^ ^ ^ ^ ^ ^ ^ ^ ^ ^ ^ ^ ^ ^ ^ ^ ^ ^ I ^ ^ ^ I / t.-.;.] ` / ^ ^ ^ ^ I ^ ^ I z x ` ] ] ] ] ] ] ] ] ] ] ] ] ] ] ] ] ] ] ] ] ] ] ] ] ] ] ] ] ] ] ] ] ] ] ] ] ] ] ] ] ] ] ] ] ] ] ] ] ] ] ] ] ] ] ] ] ] ] ] ] ] ] ] ] ] ] ] ] ] ] ] ] ] ] ] ] ] ] ] ] ] ] ] ] ] ] ] ] ] ] ] ] ] ] ] ] ] ] ] ] ] ] ] ] ] ] ] ] ] ] ] ] ] ] ] ] ] ] ] ] ] ] ] ] ] ] ] ] ] ] ] ] ] ] ] ] ] ] ] ] ] ] ] ] ] ] ] ] ] ] ] ] ] ` ` ^ ^ ^ ^ ^ L L L c j j , , , J _ ^ L ( ^ ^ ^ ^ ^ ^ ^ ^ ^ ^ ^ ^ ^ ^ ^ ^ ^ ^ ^ ^ ^ ^ ^ ^ ^ ^ ^ ^ ^ ^ ^ ^ ^ ^ / n _ ! < % ; - I I I ^ ^ ^ ^ I ^ ^ I I U ^ ^ ^ t R.4X0X",
"qX>XJ.d Q _ A _ I ^ ^ ^ ^ ^ I I C n / L = X ; 1 ^ ^ ^ ^ ^ ^ ^ ^ ^ ^ ^ ^ ^ ^ ^ ^ ^ ^ ^ ^ ^ ^ ^ ^ ^ ^ ^ ^ ^ ^ ^ ^ ^ I ^ ^ ^ I / t.-.;.] ` / ^ ^ ^ ^ I ^ ^ I z x ` ] ] ] ] ] ] ] ] ] ] ] ] ] ] ] ] ] ] ] ] ] ] ] ] ] ] ] ] ] ] ] ] ] ] ] ] ] ] ] ] ] ] ] ] ] ] ] ] ] ] ] ] ] ] ] ] ] ] ] ] ] ] ] ] ] ] ] ] ] ] ] ] ] ] ] ] ] ] ] ] ] ] ] ] ] ] ] ] ] ] ] ] ] ] ] ] ] ] ] ] ] ] ] ] ] ] ] ] ] ] ] ] ] ] ] ] ] ] ] ] ] ] ] ] ] ] ] ] ] ] ] ] ] ] ] ] ] ] ] ] ] ] ] ] ] ] ] ] ] ] ] ] ] ` ` ^ ^ ^ ^ ^ L L x c l j , , , J _ ^ L ( ^ ^ ^ ^ ^ ^ ^ ^ ^ ^ ^ ^ ^ ^ ^ ^ ^ ^ ^ ^ ^ ^ ^ ^ ^ ^ ^ ^ ^ ^ ^ ^ ^ ^ / n _ ! < % ; - I I I ^ ^ ^ ^ I ^ ^ I I U ^ ^ ^ t R.4X0X",
"qX>XJ.d Q _ A P I I ^ ^ ^ ^ I I C n ` L = X ; 1 I ^ ^ ^ ^ ^ ^ ^ ^ ^ ^ ^ ^ ^ ^ ^ ^ ^ ^ ^ ^ ^ ^ ^ ^ ^ ^ ^ ^ ^ ^ ^ ^ n ^ ^ ^ n / t.;.;.] ` / ^ ^ ^ ^ I ^ ^ I z x ` ] ] ] ] ] ] ] ] ] ] ] ] ] ] ] ] ] ] ] ] ] ] ] ] ] ] ] ] ] ] ] ] ] ] ] ] ] ] ] ] ] ] ] ] ] ] ] ] ] ] ] ] ] ] ] ] ] ] ] ] ] ] ] ] ] ] ] ] ] ] ] ] ] ] ] ] ] ] ] ] ] ] ] ] ] ] ] ] ] ] ] ] ] ] ] ] ] ] ] ] ] ] ] ] ] ] ] ] ] ] ] ] ] ] ] ] ] ] ] ] ] ] ] ] ] ] ] ] ] ] ] ] ] ] ] ] ] ] ] ] ] ] ] ] ] ] ] ] ] ] ] ] ] ` ` ^ ^ ^ ^ ^ L x x c l j , , , L _ ^ E ( ^ ^ ^ ^ ^ ^ ^ ^ ^ ^ ^ ^ ^ ^ ^ ^ ^ ^ ^ ^ ^ ^ ^ ^ ^ ^ ^ ^ ^ ^ ^ ^ ^ ^ / n _ ! < % ; - I I I ^ ^ I ^ I ^ ^ I I U ^ ^ ^ t R.4X0X",
"qX9XJ.d Q _ A P I I ^ ^ ^ ^ ^ I C n / L = X ; 2 I ^ ^ ^ ^ ^ ^ ^ ^ ^ ^ ^ ^ ^ ^ ^ ^ ^ ^ ^ ^ ^ ^ ^ ^ ^ ^ ^ ^ ^ ^ ^ ^ n ^ ^ ^ I / t.;.;.] ` / ^ ^ ^ ^ I ^ ^ I z x ` ] ] ] ] ] ] ] ] ] ] ] ] ] ] ] ] ] ] ] ] ] ] ] ] ] ] ] ] ] ] ] ] ] ] ] ] ] ] ] ] ] ] ] ] ] ] ] ] ] ] ] ] ] ] ] ] ] ] ] ] ] ] ] ] ] ] ] ] ] ] ] ] ] ] ] ] ] ] ] ] ] ] ] ] ] ] ] ] ] ] ] ] ] ] ] ] ] ] ] ] ] ] ] ] ] ] ] ] ] ] ] ] ] ] ] ] ] ] ] ] ] ] ] ] ] ] ] ] ] ] ] ] ] ] ] ] ] ] ] ] ] ] ] ] ] ] ] ] ] ] ] ] ] ` ` ^ ^ ^ ^ ^ L x x c l j , , , L _ ^ E ( ^ ^ ^ ^ ^ ^ ^ ^ ^ ^ ^ ^ ^ ^ ^ ^ ^ ^ ^ ^ ^ ^ ^ ^ ^ ^ ^ ^ ^ ^ ^ ^ ^ ^ / n _ ! < % ; - I I I ^ ^ I I I ^ ^ I I U ^ ^ ^ t R.4X0X",
"qX;XJ.d ! _ A ! I I I ^ ^ ^ I I ^ I I _ @ ; - 2 I I I I I ^ I I ^ ^ ^ ^ I I I ^ I ^ ^ ^ ^ I I I ^ ^ ^ ^ ^ I I I I I ^ ^ ^ n / q.-.-.] ) ^ ^ ^ / ^ I ^ ^ I z x ` ] ] ] ] ] ] ] ] ] ] ] ] ] ] ] ] ] ] ] ] ] ] ] ] ] ] ] ] ] ] ] ] ] ] ] ] ] ] ] ] ] ] ] ] ] ] ] ] ] ] ] ] ] ] ] ] ] ] ] ] ] ] ] ] ] ] ] ] ] ] ] ] ] ] ] ] ] ] ] ] ] ] ] ] ] ] ] ] ] ] ] ] ] ] ] ] ] ] ] ] ] ] ] ] ] ] ] ] ] ] ] ] ] ] ] ] ] ] ] ] ] ] ] ] ] ] ] ] ] ] ] ] ] ] ] ] ] ] ] ] ] ] ] ] ] ] ] ] ] ] ] ] ` ] ` ^ n I ^ ^ L L J z c l j , , L ^ I x I ^ I ^ ^ ^ ^ ^ ^ ^ ^ ^ ^ ^ ^ I ^ ^ ^ ^ ^ ^ ^ I I I I I I ^ ^ ^ ^ I I Z n ^ ! < % - - I I I I I I ^ I ^ ^ ^ ^ U U U U e Y.4X0X",
"qX;XJ.d ! _ A ! I I ^ ^ ^ ^ I ^ ^ I I _ @ ; - 2 I I I I ^ ^ I I I ^ ^ ^ ^ I I ^ I ^ ^ ^ ^ I I I ^ ^ ^ ^ ^ ^ I I U I ^ ^ ^ n / q.-.-.] ) ^ ^ ^ ^ ^ I ^ ^ I z x ` ] ] ] ] ] ] ] ] ] ] ] ] ] ] ] ] ] ] ] ] ] ] ] ] ] ] ] ] ] ] ] ] ] ] ] ] ] ] ] ] ] ] ] ] ] ] ] ] ] ] ] ] ] ] ] ] ] ] ] ] ] ] ] ] ] ] ] ] ] ] ] ] ] ] ] ] ] ] ] ] ] ] ] ] ] ] ] ] ] ] ] ] ] ] ] ] ] ] ] ] ] ] ] ] ] ] ] ] ] ] ] ] ] ] ] ] ] ] ] ] ] ] ] ] ] ] ] ] ] ] ] ] ] ] ] ] ] ] ] ] ] ] ] ] ] ] ] ] ] ] ] ] ` ] ` ^ n I ^ ^ L L J z c l j , , L ^ I x I ^ I ^ ^ ^ ^ I ^ ^ ^ ^ ^ ^ ^ I I ^ ^ I ^ ^ ^ ^ I I I I I ^ ^ ^ ^ I I Z n _ ! < % - - I I I I I I ^ I ^ ^ ^ ^ U U U U e Y.4X0X",
"qX;XJ.d ! _ A ! I I ^ ^ ^ ^ ^ ^ ^ ^ I _ @ ; - 2 I I I ^ ^ ^ ^ I I I ^ ^ ^ ^ ^ ^ I I ^ ^ ^ ^ ^ I ^ ^ ^ ^ ^ ^ ^ ^ U I ^ ^ ^ n / q.-.-.] ) ^ ^ ^ ^ ^ I ^ ^ I z x ` ] ] ] ] ] ] ] ] ] ] ] ] ] ] ] ] ] ] ] ] ] ] ] ] ] ] ] ] ] ] ] ] ] ] ] ] ] ] ] ] ] ] ] ] ] ] ] ] ] ] ] ] ] ] ] ] ] ] ] ] ] ] ] ] ] ] ] ] ] ] ] ] ] ] ] ] ] ] ] ] ] ] ] ] ] ] ] ] ] ] ] ] ] ] ] ] ] ] ] ] ] ] ] ] ] ] ] ] ] ] ] ] ] ] ] ] ] ] ] ] ] ] ] ] ] ] ] ] ] ] ] ] ] ] ] ] ] ] ] ] ] ] ] ] ] ] ] ] ] ] ] ] ` ] ` ^ n I ^ ^ L L J z c l , , , L ^ I x ^ ^ I ^ ^ I I I I ^ ^ I I I I I I ^ ^ I I ^ ^ ^ ^ ^ ^ I I ^ ^ ^ ^ ^ I Z n ^ ! < % - - I I I ^ I I ^ I ^ ^ ^ ^ U U U U e Y.4X0X",
"qX;XJ.d ! _ A U ^ ^ ^ ^ ^ ^ ^ ^ ^ ^ I _ @ ; - 2 I I I ^ ^ ^ I I I I ^ ^ ^ ^ ^ ^ ^ I ^ ^ ^ ^ ^ ^ I ^ ^ ^ ^ ^ ^ ^ U I ^ ^ ^ n / q.-.-.] ) ^ ^ ^ ^ ^ I ^ ^ I z x ` ] ] ] ] ] ] ] ] ] ] ] ] ] ] ] ] ] ] ] ] ] ] ] ] ] ] ] ] ] ] ] ] ] ] ] ] ] ] ] ] ] ] ] ] ] ] ] ] ] ] ] ] ] ] ] ] ] ] ] ] ] ] ] ] ] ] ] ] ] ] ] ] ] ] ] ] ] ] ] ] ] ] ] ] ] ] ] ] ] ] ] ] ] ] ] ] ] ] ] ] ] ] ] ] ] ] ] ] ] ] ] ] ] ] ] ] ] ] ] ] ] ] ] ] ] ] ] ] ] ] ] ] ] ] ] ] ] ] ] ] ] ] ] ] ] ] ] ] ] ] ] ] ` ] ` ^ n I ^ ^ L L J z c l w , , J ^ I x ^ ^ I ^ ^ ^ I I I ^ ^ ^ I I I I I ^ ^ I I ^ ^ ^ ^ ^ ^ ^ I ^ ^ ^ ^ ^ ^ Z n _ ! < % - - I I I ^ I I ^ I ^ ^ ^ ^ U U U U e Y.4X0X",
"qX;XJ.g ! _ A P ^ ^ ^ ^ ^ ^ ^ ^ ^ I I _ @ ; - 2 I ^ ^ ^ ^ ^ ^ ^ I ^ ^ ^ ^ ^ ^ ^ ^ ^ ^ ^ ^ ^ ^ ^ I I ^ ^ ^ ^ ^ ^ U I ^ ^ ^ n / q.-.-.-.) ^ ^ ^ ^ ^ I ^ ^ I z x ` ] ] ] ] ] ] ] ] ] ] ] ] ] ] ] ] ] ] ] ] ] ] ] ] ] ] ] ] ] ] ] ] ] ] ] ] ] ] ] ] ] ] ] ] ] ] ] ] ] ] ] ] ] ] ] ] ] ] ] ] ] ] ] ] ] ] ] ] ] ] ] ] ] ] ] ] ] ] ] ] ] ] ] ] ] ] ] ] ] ] ] ] ] ] ] ] ] ] ] ] ] ] ] ] ] ] ] ] ] ] ] ] ] ] ] ] ] ] ] ] ] ] ] ] ] ] ] ] ] ] ] ] ] ] ] ] ] ] ] ] ] ] ] ] ] ] ] ] ] ] ] ] ` ] ` ^ n I ^ ^ L L J z c j , , , x ^ I x ^ ^ I ^ ^ I I I I ^ ^ ^ ^ ^ I I I ^ ^ ^ ^ ^ ^ ^ ^ ^ ^ ^ ^ ^ ^ ^ ^ ^ ^ ^ n _ ! < % ; - I I I ^ I I I I ^ ^ ^ ^ ^ U ^ U e Y.4X0X",
"qX;XJ.g ! _ A ! ^ ^ ^ ^ ^ ^ ^ ^ ^ I I _ @ X - 2 I I ^ ^ I ^ ^ ^ I ^ ^ ^ ^ ^ ^ ^ ^ ^ ^ ^ ^ ^ ^ ^ I I ^ ^ ^ ^ ^ ^ U I ^ ^ ^ n / q.-.-.-.) ^ ^ ^ ^ ^ I ^ ^ I z x ` ] ] ] ] ] ] ] ] ] ] ] ] ] ] ] ] ] ] ] ] ] ] ] ] ] ] ] ] ] ] ] ] ] ] ] ] ] ] ] ] ] ] ] ] ] ] ] ] ] ] ] ] ] ] ] ] ] ] ] ] ] ] ] ] ] ] ] ] ] ] ] ] ] ] ] ] ] ] ] ] ] ] ] ] ] ] ] ] ] ] ] ] ] ] ] ] ] ] ] ] ] ] ] ] ] ] ] ] ] ] ] ] ] ] ] ] ] ] ] ] ] ] ] ] ] ] ] ] ] ] ] ] ] ] ] ] ] ] ] ] ] ] ] ] ] ] ] ] ] ] ] ] ` ] ` ^ n I ^ ^ L L J z c j , , , x ^ I x ^ ^ I ^ ^ I I I I I ^ ^ ^ ^ ^ I I ^ ^ ^ ^ ^ ^ ^ ^ ^ ^ ^ ^ ^ ^ ^ ^ ^ ^ ^ n _ ! < % ; - I I I I I I I I ^ ^ ^ ^ ^ U U U e Y.4X0X",
"qX;XJ.g Q _ A P ^ ^ I ^ ^ ^ ^ ^ ^ I I _ @ X X 1 I I I I I I I ^ ^ ^ ^ ^ ^ ^ I I ^ ^ ^ ^ ^ ^ I I I ^ ^ ^ ^ I I ^ U I ^ ^ ^ n / q.-.-.-.` ^ ^ ^ ^ ^ I ^ ^ I z x ` ] ] ] ] ] ] ] ] ] ] ] ] ] ] ] ] ] ] ] ] ] ] ] ] ] ] ] ] ] ] ] ] ] ] ] ] ] ] ] ] ] ] ] ] ] ] ] ] ] ] ] ] ] ] ] ] ] ] ] ] ] ] ] ] ] ] ] ] ] ] ] ] ] ] ] ] ] ] ] ] ] ] ] ] ] ] ] ] ] ] ] ] ] ] ] ] ] ] ] ] ] ] ] ] ] ] ] ] ] ] ] ] ] ] ] ] ] ] ] ] ] ] ] ] ] ] ] ] ] ] ] ] ] ] ] ] ] ] ] ] ] ] ] ] ] ] ] ] ] ] ] ] ` ] ` ^ n I ^ ^ L L J z c j 6 , , x ^ I x ^ ^ I ^ ^ ^ ^ ^ ^ ^ ^ ^ ^ ^ ^ ^ ^ ^ ^ ^ ^ ^ ^ ^ ^ I I ^ ^ ^ ^ ^ ^ I I ^ n _ ! < % ; - I I I I I I I I ^ ^ ^ ^ U U U U e Y.4X0X",
"qX;XJ.d Q ^ A ! I I I ^ ^ ^ I I ^ I I _ @ X X 1 I I I I I I I ^ ^ ^ ^ ^ I I I I I ^ ^ ^ ^ ^ ^ I I ^ ^ ^ ^ I I I U I ^ ^ ^ n / q.-.-.-.` ^ ^ ^ ^ ^ I ^ ^ I z x ` ] ] ] ] ] ] ] ] ] ] ] ] ] ] ] ] ] ] ] ] ] ] ] ] ] ] ] ] ] ] ] ] ] ] ] ] ] ] ] ] ] ] ] ] ] ] ] ] ] ] ] ] ] ] ] ] ] ] ] ] ] ] ] ] ] ] ] ] ] ] ] ] ] ] ] ] ] ] ] ] ] ] ] ] ] ] ] ] ] ] ] ] ] ] ] ] ] ] ] ] ] ] ] ] ] ] ] ] ] ] ] ] ] ] ] ] ] ] ] ] ] ] ] ] ] ] ] ] ] ] ] ] ] ] ] ] ] ] ] ] ] ] ] ] ] ] ] ] ] ] ] ] ` ] ` ^ n I ^ ^ L L J z c j 6 , , x ^ I x ^ ^ I ^ ^ ^ ^ ^ ^ ^ ^ ^ ^ ^ ^ ^ ^ ^ ^ ^ ^ ^ ^ ^ ^ I I I ^ ^ ^ ^ ^ ^ I Z n _ ! < % - - I I I I I ^ I I ^ ^ ^ ^ U U U U e Y.4X0X",
"qX;XJ.d Q ! A ! I ^ I I I I I I x ^ Y J : X X : U I I n n n I I ^ ^ ^ ^ ^ ^ ^ ^ I I I ^ ^ ^ I I I I I ^ ^ ^ ^ I ^ n ^ ^ ^ n / t.>.>.` ) ^ ^ ^ ^ ^ n ^ ^ I z I ] ] ] ] ] ] ] ] ] ] ] ] ] ] ] ] ] ] ] ] ] ] ] ] ] ] ] ] ] ] ] ] ] ] ] ] ] ] ] ] ] ] ] ] ] ] ] ] ] ] ] ] ] ] ] ] ] ] ] ] ] ] ] ] ] ] ] ] ] ] ] ] ] ] ] ] ] ] ] ] ] ] ] ] ] ] ] ] ] ] ] ] ] ] ] ] ] ] ] ] ] ] ] ] ] ] ] ] ] ] ] ] ] ] ] ] ] ] ] ] ] ] ] ] ] ] ] ] ] ] ] ] ] ] ] ] ] ] ] ] ] ] ] ] ] ] ] ] ] ] ] ] ] ` ] ` ^ I I ^ ^ n n n z l w w w , x ^ I x ^ ^ I ^ ^ ^ ^ I I ^ ^ ^ ^ ^ ^ I I ^ ^ I I ^ ^ ^ ^ ^ ^ I I ^ ^ ^ ^ I I Z n ^ ! < % ; ; I I I ^ ^ ^ ^ I ^ ^ ^ ^ ^ ^ ^ ^ r Y.4XwX",
"qX>XJ.d Q ! A ! I ^ I I I I I I x ^ Y J : X X : U I I n n n I I I I ^ ^ ^ ^ I ^ I I I ^ ^ ^ ^ ^ ^ I I ^ ^ ^ ^ I ^ n ^ ^ ^ n / t.>.>.` ) ^ ^ ^ ^ ^ n ^ ^ I z I ] ] ] ] ] ] ] ] ] ] ] ] ] ] ] ] ] ] ] ] ] ] ] ] ] ] ] ] ] ] ] ] ] ] ] ] ] ] ] ] ] ] ] ] ] ] ] ] ] ] ] ] ] ] ] ] ] ] ] ] ] ] ] ] ] ] ] ] ] ] ] ] ] ] ] ] ] ] ] ] ] ] ] ] ] ] ] ] ] ] ] ] ] ] ] ] ] ] ] ] ] ] ] ] ] ] ] ] ] ] ] ] ] ] ] ] ] ] ] ] ] ] ] ] ] ] ] ] ] ] ] ] ] ] ] ] ] ] ] ] ] ] ] ] ] ] ] ] ] ] ] ] ] ` ] ` ^ I I ^ ^ n n n z l w w w , x ^ I x ^ ^ I ^ ^ ^ ^ I I ^ ^ ^ ^ ^ ^ I I ^ ^ I I ^ ^ ^ ^ I ^ I I ^ ^ ^ ^ I I Z n ^ ! < % ; ; I I I ^ ^ ^ ^ I ^ ^ I I ^ I ^ ^ r R.4XwX",
"qX>XJ.d Q ! A ! I U I I ^ ^ ^ ^ x ^ Y J : X X : U I I n n n ^ U I ^ ^ ^ ^ I I I ^ I ^ ^ ^ ^ ^ ^ ^ ^ ^ ^ ^ ^ I I ^ n ^ ^ ^ n / t.;.>.] ) ^ ^ ^ ^ ^ n ^ ^ I z I ] ] ] ] ] ] ] ] ] ] ] ] ] ] ] ] ] ] ] ] ] ] ] ] ] ] ] ] ] ] ] ] ] ] ] ] ] ] ] ] ] ] ] ] ] ] ] ] ] ] ] ] ] ] ] ] ] ] ] ] ] ] ] ] ] ] ] ] ] ] ] ] ] ] ] ] ] ] ] ] ] ] ] ] ] ] ] ] ] ] ] ] ] ] ] ] ] ] ] ] ] ] ] ] ] ] ] ] ] ] ] ] ] ] ] ] ] ] ] ] ] ] ] ] ] ] ] ] ] ] ] ] ] ] ] ] ] ] ] ] ] ] ] ] ] ] ] ] ] ] ] ] ] ` ] ` ^ I I ^ ^ n x x z l j q q , z ^ I x ^ ^ I ^ ^ ^ ^ I ^ ^ ^ ^ ^ ^ ^ I I ^ ^ I ^ ^ ^ ^ ^ I I ^ I ^ ^ ^ ^ ^ ^ ^ n ^ ! < % ; ; I I I ^ ^ ^ ^ I ^ ^ I I I I I ^ r Y.4X0X",
"qX9XJ.d Q ! A ! I U I I ^ ^ ^ ^ x ^ Y J : X X : U I I n n n ^ U I I ^ ^ ^ I I I ^ ^ ^ ^ ^ ^ ^ ^ ^ ^ ^ ^ ^ ^ I I ^ n ^ ^ ^ n / t.;.>.] ) ^ ^ ^ ^ ^ n ^ ^ I z I ] ] ] ] ] ] ] ] ] ] ] ] ] ] ] ] ] ] ] ] ] ] ] ] ] ] ] ] ] ] ] ] ] ] ] ] ] ] ] ] ] ] ] ] ] ] ] ] ] ] ] ] ] ] ] ] ] ] ] ] ] ] ] ] ] ] ] ] ] ] ] ] ] ] ] ] ] ] ] ] ] ] ] ] ] ] ] ] ] ] ] ] ] ] ] ] ] ] ] ] ] ] ] ] ] ] ] ] ] ] ] ] ] ] ] ] ] ] ] ] ] ] ] ] ] ] ] ] ] ] ] ] ] ] ] ] ] ] ] ] ] ] ] ] ] ] ] ] ] ] ] ] ] ` ] ` ^ I I ^ ^ n x x z l j w q , z ^ I x ^ ^ I ^ ^ ^ ^ I I ^ ^ I ^ ^ ^ ^ I ^ ^ I I ^ ^ ^ ^ I I ^ ^ ^ ^ ^ ^ ^ ^ I n ^ ! < % ; ; I I I ^ ^ ^ ^ I ^ I I I I I I ^ r Y.4X0X",
"qX>XJ.d Q ! A ! I I ^ I I I ^ ^ x ^ Y K : X X : U I I n n n ^ U ^ ^ ^ ^ ^ ^ ^ ^ ^ ^ ^ ^ ^ ^ ^ ^ ^ ^ ^ ^ ^ ^ ^ I ^ n ^ ^ ^ I / t.>.>.-.) ^ ^ ^ ^ ^ n ^ ^ I z I ] ] ] ] ] ] ] ] ] ] ] ] ] ] ] ] ] ] ] ] ] ] ] ] ] ] ] ] ] ] ] ] ] ] ] ] ] ] ] ] ] ] ] ] ] ] ] ] ] ] ] ] ] ] ] ] ] ] ] ] ] ] ] ] ] ] ] ] ] ] ] ] ] ] ] ] ] ] ] ] ] ] ] ] ] ] ] ] ] ] ] ] ] ] ] ] ] ] ] ] ] ] ] ] ] ] ] ] ] ] ] ] ] ] ] ] ] ] ] ] ] ] ] ] ] ] ] ] ] ] ] ] ] ] ] ] ] ] ] ] ] ] ] ] ] ] ] ] ] ] ] ] ] ` ] ` ^ x ^ ^ ^ x x x z l j q q , x ^ I x ^ ^ I ^ I I I I I I I I I ^ ^ ^ ^ ^ ^ ^ ^ ^ ^ ^ ^ ^ ^ ^ ^ ^ ^ ^ ^ ^ ^ ^ n ^ ! < % ; ; I I I ^ ^ ^ ^ I ^ ^ I I I I ^ ^ r Y.4XwX",
"qX>XJ.d Q ! A ! ^ I ^ I I I ^ ^ x ^ Y K : X X : U U I n n n ^ U ^ ^ ^ ^ ^ ^ ^ ^ ^ ^ ^ ^ ^ ^ ^ ^ ^ ^ ^ ^ ^ ^ ^ ^ ^ I ^ ^ ^ I / t.>.>.-.) ^ ^ ^ ^ ^ n ^ ^ I z I ] ] ] ] ] ] ] ] ] ] ] ] ] ] ] ] ] ] ] ] ] ] ] ] ] ] ] ] ] ] ] ] ] ] ] ] ] ] ] ] ] ] ] ] ] ] ] ] ] ] ] ] ] ] ] ] ] ] ] ] ] ] ] ] ] ] ] ] ] ] ] ] ] ] ] ] ] ] ] ] ] ] ] ] ] ] ] ] ] ] ] ] ] ] ] ] ] ] ] ] ] ] ] ] ] ] ] ] ] ] ] ] ] ] ] ] ] ] ] ] ] ] ] ] ] ] ] ] ] ] ] ] ] ] ] ] ] ] ] ] ] ] ] ] ] ] ] ] ] ] ] ] ] ` ] ` ^ n ^ ^ ^ x x x z l j q q , x ^ I x ^ ^ I ^ ^ I I ^ I I I I I ^ ^ ^ ^ ^ ^ ^ ^ ^ ^ ^ ^ ^ ^ ^ ^ ^ ^ ^ ^ ^ ^ ^ n ^ ! < % ; ; I I I ^ ^ ^ ^ I ^ ^ I ^ ^ ^ ^ ^ r Y.4XwX",
"qX;XJ.d Q ! A ! ^ ^ ^ ^ I I I I x ^ Y K : X % : U U ^ n n n I U ^ ^ I ^ I ^ ^ ^ I ^ I ^ ^ ^ ^ ^ I I ^ ^ ^ ^ ^ ^ ^ n ^ ^ ^ I / t.>.>.=.) ^ ^ ^ ^ ^ n ^ ^ I z I ] ] ] ] ] ] ] ] ] ] ] ] ] ] ] ] ] ] ] ] ] ] ] ] ] ] ] ] ] ] ] ] ] ] ] ] ] ] ] ] ] ] ] ] ] ] ] ] ] ] ] ] ] ] ] ] ] ] ] ] ] ] ] ] ] ] ] ] ] ] ] ] ] ] ] ] ] ] ] ] ] ] ] ] ] ] ] ] ] ] ] ] ] ] ] ] ] ] ] ] ] ] ] ] ] ] ] ] ] ] ] ] ] ] ] ] ] ] ] ] ] ] ] ] ] ] ] ] ] ] ] ] ] ] ] ] ] ] ] ] ] ] ] ] ] ] ] ] ] ] ] ] ] ` ] ` ^ x I ^ ^ x x z z l j q , , x ^ I x ^ ^ I ^ ^ ^ ^ ^ ^ ^ ^ ^ ^ ^ ^ I I ^ ^ ^ ^ I ^ I I ^ ^ I ^ I I ^ ^ ^ ^ ^ n ^ ! < % ; ; I I I ^ ^ ^ ^ I ^ ^ ^ ^ ^ ^ ^ ^ r Y.4XwX",
"qX>XJ.d Q ! A ! ^ ^ ^ ^ I I I I x ^ Y K : X % : U U ^ n n C ^ U ^ ^ I I I ^ ^ ^ I I I ^ ^ ^ I I I I I ^ ^ ^ ^ ^ ^ n ^ ^ ^ I / t.>.>.=.) ^ ^ ^ ^ ^ n ^ ^ I z I ] ] ] ] ] ] ] ] ] ] ] ] ] ] ] ] ] ] ] ] ] ] ] ] ] ] ] ] ] ] ] ] ] ] ] ] ] ] ] ] ] ] ] ] ] ] ] ] ] ] ] ] ] ] ] ] ] ] ] ] ] ] ] ] ] ] ] ] ] ] ] ] ] ] ] ] ] ] ] ] ] ] ] ] ] ] ] ] ] ] ] ] ] ] ] ] ] ] ] ] ] ] ] ] ] ] ] ] ] ] ] ] ] ] ] ] ] ] ] ] ] ] ] ] ] ] ] ] ] ] ] ] ] ] ] ] ] ] ] ] ] ] ] ] ] ] ] ] ] ] ] ] ] ` ] ` ^ n I ^ ^ x x z z l j q , , x ^ I x ^ ^ I ^ ^ ^ ^ ^ ^ ^ ^ ^ ^ ^ ^ I I I ^ ^ ^ I I I I ^ ^ I I I I ^ ^ ^ ^ ^ n ^ ! < % ; ; I I I ^ ^ ^ ^ I ^ ^ ^ ^ ^ ^ ^ ^ r Y.4XwX",
"qX>XJ.d Q ! A ! ^ I I I ^ ^ ^ ^ x ^ Y H = X ; : U U I n C C I U I I I I ^ ^ ^ I I I I I ^ ^ I I I I I I ^ I I I ^ I ^ ^ ^ I ` t.;.;.] / / ^ ^ ^ ^ I I ^ I z x ` ] ] ] ] ] ] ] ] ] ] ] ] ] ] ] ] ] ] ] ] ] ] ] ] ] ] ] ] ] ] ] ] ] ] ] ] ] ] ] ] ] ] ] ] ] ] ] ] ] ] ] ] ] ] ] ] ] ] ] ] ] ] ] ] ] ] ] ] ] ] ] ] ] ] ] ] ] ] ] ] ] ] ] ] ] ] ] ] ] ] ] ] ] ] ] ] ] ] ] ] ] ] ] ] ] ] ] ] ] ] ] ] ] ] ] ] ] ] ] ] ] ] ] ] ] ] ] ] ] ] ] ] ] ] ] ] ] ] ] ] ] ] ] ] ] ] ] ] ] ] ] ] ` ] ` ^ I I ^ ^ x x z z l j w , , x ^ I x ^ ^ I I I I I I I ^ ^ I I I I I I ^ ^ ^ ^ I I I ^ ^ ^ I I I I I I I I ^ n ^ ! < % ; ; I I I ^ ^ ^ ^ I n n I I U U I I r Y.4XwX",
"qX>XJ.d Q ! A P ^ I I I I ^ ^ ^ x ^ Y H = X ; : U U I n C C ^ I I I I I ^ ^ I I I I I I ^ ^ I I I I ^ ^ ^ ^ I I ^ I ^ ^ ^ I ` t.;.;.] / / ^ ^ ^ ^ I I ^ I z x ` ] ] ] ] ] ] ] ] ] ] ] ] ] ] ] ] ] ] ] ] ] ] ] ] ] ] ] ] ] ] ] ] ] ] ] ] ] ] ] ] ] ] ] ] ] ] ] ] ] ] ] ] ] ] ] ] ] ] ] ] ] ] ] ] ] ] ] ] ] ] ] ] ] ] ] ] ] ] ] ] ] ] ] ] ] ] ] ] ] ] ] ] ] ] ] ] ] ] ] ] ] ] ] ] ] ] ] ] ] ] ] ] ] ] ] ] ] ] ] ] ] ] ] ] ] ] ] ] ] ] ] ] ] ] ] ] ] ] ] ] ] ] ] ] ] ] ] ] ] ] ] ] ` ] ` ^ I I ^ ^ x x z z l j w , , x ^ I x ^ ^ I ^ ^ I I I I ^ ^ I I I I I I ^ ^ ^ ^ I I I I ^ ^ I I I I I I I I ^ n ^ ! < % ; ; I I I ^ ^ ^ ^ I n n I I U I I I r Y.4XwX",
"qX;XJ.d Q ! A P ^ ^ I I I I I I x ^ Y H = X ; : U U I n n n I I I I I I I I I I I I I I ^ I I I I ^ ^ ^ ^ ^ I I ^ I ^ ^ ^ I ` t.;.;.] / / ^ ^ ^ ^ I I ^ n z x ` ] ` ] ] ] ] ] ] ] ] ] ] ] ] ] ] ] ] ] ] ] ] ] ] ] ] ] ] ] ] ] ] ] ] ] ] ] ] ] ] ] ] ] ] ] ] ] ] ] ] ] ] ] ] ] ] ] ] ] ] ] ] ] ] ] ] ] ] ] ] ] ] ] ] ] ] ] ] ] ] ] ] ] ] ] ] ] ] ] ] ] ] ] ] ] ] ] ] ] ] ] ] ] ] ] ] ] ] ] ] ] ] ] ] ] ] ] ] ] ] ] ] ] ] ] ] ] ] ] ] ] ] ] ] ] ] ] ] ] ] ] ] ] ] ] ] ] ] ] ] ] ] ` ] ` ^ I I ^ ^ x x z z l j 6 , , x ^ I x ^ ^ I ^ ^ ^ I I I I ^ I I I I I I I I I I I I I I ^ ^ I I ^ ^ ^ ^ ^ I ^ n ^ ! < % ; ; I I I ^ ^ ^ ^ I n n I I U U I I e Y.4XwX",
"qX;XJ.d Q ! A P ^ ^ I I I I I I x ^ Y H = X ; : U U I n n n I I I I I I I I I I I I I ^ ^ ^ I I I ^ ^ ^ ^ ^ ^ I ^ I ^ ^ ^ I ` t.;.;.] / / ^ ^ ^ ^ I I ^ n k x ` ] ] ] ] ] ] ] ] ] ] ] ] ] ] ] ] ] ] ] ] ] ] ] ] ] ] ] ] ] ] ] ] ] ] ] ] ] ] ] ] ] ] ] ] ] ] ] ] ] ] ] ] ] ] ] ] ] ] ] ] ] ] ] ] ] ] ] ] ] ] ] ] ] ] ] ] ] ] ] ] ] ] ] ] ] ] ] ] ] ] ] ] ] ] ] ] ] ] ] ] ] ] ] ] ] ] ] ] ] ] ] ] ] ] ] ] ] ] ] ] ] ] ] ] ] ] ] ] ] ] ] ] ] ] ] ] ] ] ] ] ] ] ] ] ] ] ] ] ] ] ] ] ` ] ` ^ I I ^ ^ x x z z l j 6 , , x ^ I x ^ ^ I ^ ^ ^ I I I ^ ^ ^ I I I I I I I I I I I I I I I I ^ ^ ^ ^ ^ ^ ^ ^ n ^ ! < % ; ; I I I ^ ^ ^ ^ I I n ^ ^ U U I I e Y.4XwX",
"qX;XI.d Q E v P ^ I I I I I I I x ^ Y H : X ; : U U ^ C n n I I I I I I I I ^ ^ ^ ^ ^ ^ I ^ ^ ^ I I ^ ^ ^ ^ I I ^ I ^ ^ ^ I ` t.;.;.] / / ^ ^ ^ ^ I I ^ I z x ` ] ] ] ] ] ] ] ] ] ] ] ] ] ] ] ] ] ] ] ] ] ] ] ] ] ] ] ] ] ] ] ] ] ] ] ] ] ] ] ] ] ] ] ] ] ] ] ] ] ] ] ] ] ] ] ] ] ] ] ] ] ] ] ] ] ] ] ] ] ] ] ] ] ] ] ] ] ] ] ] ] ] ] ] ] ] ] ] ] ] ] ] ] ] ] ] ] ] ] ] ] ] ] ] ] ] ] ] ] ] ] ] ] ] ] ] ] ] ] ] ] ] ] ] ] ] ] ] ] ] ] ] ] ] ] ] ] ] ] ] ] ] ] ] ] ] ] ] ] ] ] ] ` ] ` ^ n I ^ ^ x x z c l j 6 , , x ^ I x ^ ^ I I I I I I I I I ^ ^ I I I I I I I I I I I I I I I I I ^ ^ ^ I I ^ n ^ ! < % ; ; I I I ^ ^ ^ ^ I I ^ ^ ^ I I I I e Y.4XwX",
"qX;XI.d Q E v P ^ I I I I I I I x ^ Y H : X ; : U U I n n n I I I I I I I I ^ ^ ^ I ^ ^ I ^ ^ ^ I I ^ I ^ ^ I I ^ I ^ ^ ^ I ` t.;.;.] / / ^ ^ ^ ^ I I ^ I z x ` ] ] ] ] ] ] ] ] ] ] ] ] ] ] ] ] ] ] ] ] ] ] ] ] ] ] ] ] ] ] ] ] ] ] ] ] ] ] ] ] ] ] ] ] ] ] ] ] ] ] ] ] ] ] ] ] ] ] ] ] ] ] ] ] ] ] ] ] ] ] ] ] ] ] ] ] ] ] ] ] ] ] ] ] ] ] ] ] ] ] ] ] ] ] ] ] ] ] ] ] ] ] ] ] ] ] ] ] ] ] ] ] ] ] ] ] ] ] ] ] ] ] ] ] ] ] ] ] ] ] ] ] ] ] ] ] ] ] ] ] ] ] ] ] ] ] ] ] ] ] ] ] ` ] ` ^ n I ^ ^ x x z c l j 6 , , x ^ I x ^ ^ I I I I I I I I I ^ ^ I I I I I ^ I I I I I I I I I I ^ ^ ^ ^ ^ I ^ n ^ ! < % ; ; I I I ^ ^ ^ I I ^ ^ ^ ^ I I I I r Y.4XwX",
"qX;XI.d Q E v P I I I I I I ^ ^ x ^ Y H : X ; : U I I n C C ^ U I ^ I I I I ^ ^ I I I I I I I ^ I I I I I I I I ^ I ^ ^ ^ I ` t.;.;.] / / ^ ^ ^ ^ I I ^ I z x ` ] ] ] ] ] ] ] ] ] ] ] ] ] ] ] ] ] ] ] ] ] ] ] ] ] ] ] ] ] ] ] ] ] ] ] ] ] ] ] ] ] ] ] ] ] ] ] ] ] ] ] ] ] ] ] ] ] ] ] ] ] ] ] ] ] ] ] ] ] ] ] ] ] ] ] ] ] ] ] ] ] ] ] ] ] ] ] ] ] ] ] ] ] ] ] ] ] ] ] ] ] ] ] ] ] ] ] ] ] ] ] ] ] ] ] ] ] ] ] ] ] ] ] ] ] ] ] ] ] ] ] ] ] ] ] ] ] ] ] ] ] ] ] ] ] ] ] ] ] ] ] ] ` ] ` ^ n I ^ ^ x x z c l j j , , x ^ I x ^ ^ I I I ^ ^ ^ ^ I I ^ I I I I ^ ^ ^ I I I I ^ ^ I ^ I I I I ^ ^ I I Z n ^ ! < % ; ; I I I ^ ^ ^ ^ ^ n n ^ ^ I I I I r Y.4XwX",
"qX;XI.d Q E v P I I I I I ^ ^ ^ N ^ Y H : X ; : U I I n C C ^ U ^ ^ I I I ^ ^ ^ I I I I I I I I I I I I I I I I I I ^ ^ ^ I ` t.;.;.] / / ^ ^ ^ ^ I I ^ I z x ` ] ] ] ] ] ] ] ] ] ] ] ] ] ] ] ] ] ] ] ] ] ] ] ] ] ] ] ] ] ] ] ] ] ] ] ] ] ] ] ] ] ] ] ] ] ] ] ] ] ] ] ] ] ] ] ] ] ] ] ] ] ] ] ] ] ] ] ] ] ] ] ] ] ] ] ] ] ] ] ] ] ] ] ] ] ] ] ] ] ] ] ] ] ] ] ] ] ] ] ] ] ] ] ] ] ] ] ] ] ] ] ] ] ] ] ] ] ] ] ] ] ] ] ] ] ] ] ] ] ] ] ] ] ] ] ] ] ] ] ] ] ] ] ] ] ] ] ] ] ] ] ] ` ] ` ^ n I ^ ^ x x z c l j j , , x ^ I x ^ ^ I I I I ^ ^ ^ I I ^ ^ I I I ^ ^ ^ I I I ^ ^ ^ ^ ^ I I I I I I I I Z n ^ ! < % ; ; I I I ^ ^ ^ ^ ^ n I ^ ^ I I I I r Y.4XwX",
":XeXQ.r V _ b ^ ^ ^ ^ I I I ^ ^ C I Y K = X ; = U I I n n C ^ U ^ I I I I I I ^ ^ ^ ^ ^ I I I I I I I I I I I I I I I ^ I I ` <.] ] ` / ^ ^ ^ ^ ^ I I I x x I ` ] ] ] ] ] ] ] ] ] ] ] ] ] ] ] ] ] ] ] ] ] ] ] ] ] ] ] ] ] ] ] ] ] ] ] ] ] ] ] ] ] ] ] ] ] ] ] ] ] ] ] ] ] ] ] ] ] ] ] ] ] ] ] ] ] ] ] ] ] ] ] ] ] ] ] ] ] ] ] ] ] ] ] ] ] ] ] ] ] ] ] ] ] ] ] ] ] ] ] ] ] ] ] ] ] ] ] ] ] ] ] ] ] ] ] ] ] ] ] ] ] ] ] ] ] ] ] ] ] ] ] ] ] ] ] ] ] ] ] ] ] ] ] ] ] ] ] ] ] ] ] ] ] ] ` I I ^ ^ ^ J J J c c j , , , x ^ I x ^ ^ I I I I I I I I I I I I I I I I I ^ ^ ^ ^ I I I I I ^ ^ ^ I I I I n n ^ ! < % - - n I I ^ I I ^ I n n ^ ^ I I I I r Y.4XwX",
":XeXQ.r V _ b ^ ^ ^ ^ I I I ^ I C I Y K = X ; = U I I n n n ^ U ^ ^ I I I I I I ^ ^ I ^ I I I I I I I I I I I I I I I ^ I I ` <.] ] ` / ^ ^ ^ ^ ^ I I I x x I ` ] ] ] ] ] ] ] ] ] ] ] ] ] ] ] ] ] ] ] ] ] ] ] ] ] ] ] ] ] ] ] ] ] ] ] ] ] ] ] ] ] ] ] ] ] ] ] ] ] ] ] ] ] ] ] ] ] ] ] ] ] ] ] ] ] ] ] ] ] ] ] ] ] ] ] ] ] ] ] ] ] ] ] ] ] ] ] ] ] ] ] ] ] ] ] ] ] ] ] ] ] ] ] ] ] ] ] ] ] ] ] ] ] ] ] ] ] ] ] ] ] ] ] ] ] ] ] ] ] ] ] ] ] ] ] ] ] ] ] ] ] ] ] ] ] ] ] ] ] ] ] ] ] ] ` I I ^ ^ ^ J J J c c j , , , x ^ I x ^ ^ I I I I I I I I ^ I I I I ^ I I I ^ ^ I ^ I I I I I I ^ ^ I I I I n n ^ P < % - - n I I I I I ^ I n n ^ ^ I I I I r Y.4XwX",
":XeXQ.r V _ b ^ I ^ I I I I I I C I Y K = X ; = U I I n n n I U I I I I I I I I I I I I I I ^ ^ I I ^ ^ ^ ^ I I I I I ^ I I ` <.;.] ] / ^ ^ ^ ^ ^ I I I x z n ` ] ] ] ] ] ] ] ] ] ] ] ] ] ] ] ] ] ] ] ] ] ] ] ] ] ] ] ] ] ] ] ] ] ] ] ] ] ] ] ] ] ] ] ] ] ] ] ] ] ] ] ] ] ] ] ] ] ] ] ] ] ] ] ] ] ] ] ] ] ] ] ] ] ] ] ] ] ] ] ] ] ] ] ] ] ] ] ] ] ] ] ] ] ] ] ] ] ] ] ] ] ] ] ] ] ] ] ] ] ] ] ] ] ] ] ] ] ] ] ] ] ] ] ] ] ] ] ] ] ] ] ] ] ] ] ] ] ] ] ] ] ] ] ] ] ] ] ] ] ] ] ] ] ] ` I I ^ ^ ^ J J J c c j , , , z ^ I x ^ ^ I I I ^ ^ I ^ ^ ^ I I ^ I ^ ^ I I I I I I I I ^ ^ I I ^ ^ ^ ^ ^ ^ n n ^ ! < % - - n I I I I I I I n n I ^ I I I I r Y.4XwX",
":XeXQ.r V _ b ^ I I I I I I I I C I Y K = X ; = U I I C n n I U I I I I I I I I I I I I I I ^ ^ I I ^ ^ ^ ^ I I I I I ^ I I ` <.;.] ] / ^ ^ ^ ^ ^ I I I x z I ` ] ] ] ] ] ] ] ] ] ] ] ] ] ] ] ] ] ] ] ] ] ] ] ] ] ] ] ] ] ] ] ] ] ] ] ] ] ] ] ] ] ] ] ] ] ] ] ] ] ] ] ] ] ] ] ] ] ] ] ] ] ] ] ] ] ] ] ] ] ] ] ] ] ] ] ] ] ] ] ] ] ] ] ] ] ] ] ] ] ] ] ] ] ] ] ] ] ] ] ] ] ] ] ] ] ] ] ] ] ] ] ] ] ] ] ] ] ] ] ] ] ] ] ] ] ] ] ] ] ] ] ] ] ] ] ] ] ] ] ] ] ] ] ] ] ] ] ] ] ] ] ] ] ] ` I I ^ ^ ^ J J J c c j , , , z ^ I x ^ ^ I ^ ^ ^ ^ ^ ^ ^ ^ I I ^ ^ ^ ^ I I I I I I I I ^ ^ I I I ^ ^ ^ ^ ^ n n ^ P < % - - n I I I I I I I n n I I I I I I r Y.4XwX",
":XeXQ.r V _ b ^ I I I I I I I I C I Y K = X ; = U U ^ C C C I U I I I I I I ^ ^ I I I I I I ^ ^ I ^ ^ ^ ^ ^ ^ I I I I ^ I I ` <.] ] ` / ^ ^ ^ ^ ^ I I I x z I ` ] ] ] ] ] ] ] ] ] ] ] ] ] ] ] ] ] ] ] ] ] ] ] ] ] ] ] ] ] ] ] ] ] ] ] ] ] ] ] ] ] ] ] ] ] ] ] ] ] ] ] ] ] ] ] ] ] ] ] ] ] ] ] ] ] ] ] ] ] ] ] ] ] ] ] ] ] ] ] ] ] ] ] ] ] ] ] ] ] ] ] ] ] ] ] ] ] ] ] ] ] ] ] ] ] ] ] ] ] ] ] ] ] ] ] ] ] ] ] ] ] ] ] ] ] ] ] ] ] ] ] ] ] ] ] ] ] ] ] ] ] ] ] ] ] ] ] ] ] ] ] ] ] ] ` I I ^ ^ ^ J J z c c j , , , x ^ I x ^ ^ I I I I ^ ^ ^ I I I ^ ^ ^ ^ ^ I I I I I I I I ^ ^ I I ^ ^ ^ I I I n n ^ ! < % - - n I I I ^ ^ ^ I I I I I U U U U r Y.4XwX",
":XeXQ.r V ! b ^ I I I I I I I I C I Y K = X ; = U U ^ C C C ^ I ^ ^ I I I I ^ ^ I I I ^ I I ^ ^ I I ^ ^ ^ ^ I I I I I ^ I I ` <.] ] ` / ^ ^ ^ ^ ^ I I I x x I ` ] ] ] ] ] ] ] ] ] ] ] ] ] ] ] ] ] ] ] ] ] ] ] ] ] ] ] ] ] ] ] ] ] ] ] ] ] ] ] ] ] ] ] ] ] ] ] ] ] ] ] ] ] ] ] ] ] ] ] ] ] ] ] ] ] ] ] ] ] ] ] ] ] ] ] ] ] ] ] ] ] ] ] ] ] ] ] ] ] ] ] ] ] ] ] ] ] ] ] ] ] ] ] ] ] ] ] ] ] ] ] ] ] ] ] ] ] ] ] ] ] ] ] ] ] ] ] ] ] ] ] ] ] ] ] ] ] ] ] ] ] ] ] ] ] ] ] ] ] ] ] ] ] ] ` I I ^ ^ ^ z z z c l w , , , x ^ I x ^ ^ I I I I I ^ ^ I I I ^ ^ ^ ^ ^ I I I I ^ ^ I I ^ I I I ^ ^ I I I I n n ^ ! < % - - n n I ^ ^ ^ ^ I I I I I U U I U r Y.4XwX",
":XeXQ.r V _ b ^ ^ ^ ^ ^ I I I I C I Y K = . ; = U I I n n n I I ^ ^ ^ I I I I ^ I ^ ^ ^ I I I I I I ^ ^ ^ ^ I I I I I ^ I I ` <.] ] / / ^ ^ ^ ^ ^ I I I x z I ` ] ] ] ] ] ] ] ] ] ] ] ] ] ] ] ] ] ] ] ] ] ] ] ] ] ] ] ] ] ] ] ] ] ] ] ] ] ] ] ] ] ] ] ] ] ] ] ] ] ] ] ] ] ] ] ] ] ] ] ] ] ] ] ] ] ] ] ] ] ] ] ] ] ] ] ] ] ] ] ] ] ] ] ] ] ] ] ] ] ] ] ] ] ] ] ] ] ] ] ] ] ] ] ] ] ] ] ] ] ] ] ] ] ] ] ] ] ] ] ] ] ] ] ] ] ] ] ] ] ] ] ] ] ] ] ] ] ] ] ] ] ] ] ] ] ] ] ] ] ] ] ] ] ] ` I I ^ ^ ^ x x z c l w , , , x ^ I x ^ ^ I I I I I ^ ^ I I I I ^ I ^ ^ I I I ^ ^ ^ I I I I I I I ^ I I I I n n ^ ! < % - - n n I I ^ I ^ I I I ^ I I I I I r Y.4XwX",
":XeXQ.r V _ b ^ ^ ^ ^ ^ I I I I C I Y K = . ; = U I I n n n I I ^ ^ ^ I I I ^ ^ I ^ ^ ^ I I I I I I I I I I I I I I I ^ I I ` <.] ] ` / ^ ^ ^ ^ ^ I I I x x I ` ] ] ] ] ] ] ] ] ] ] ] ] ] ] ] ] ] ] ] ] ] ] ] ] ] ] ] ] ] ] ] ] ] ] ] ] ] ] ] ] ] ] ] ] ] ] ] ] ] ] ] ] ] ] ] ] ] ] ] ] ] ] ] ] ] ] ] ] ] ] ] ] ] ] ] ] ] ] ] ] ] ] ] ] ] ] ] ] ] ] ] ] ] ] ] ] ] ] ] ] ] ] ] ] ] ] ] ] ] ] ] ] ] ] ] ] ] ] ] ] ] ] ] ] ] ] ] ] ] ] ] ] ] ] ] ] ] ] ] ] ] ] ] ] ] ] ] ] ] ] ] ] ] ] ` I I ^ ^ ^ x x z c c j , , , x ^ I x ^ ^ I I I I I ^ ^ I I I I I I ^ I I I I ^ ^ ^ I I I I I I I ^ I I I I n n ^ ! < % - - n n I I I I I I I I C ^ I I I I r Y.4XwX",
":XeXY.r R ! m E I I ^ ^ ^ ^ ^ I x I Y P = X ; ; U I I n n n I I I I I I I I I I I I I I ^ ^ I I I I I I ^ ^ ^ I I n n ^ n n / <.) ] / / ^ ^ ^ ^ ^ I I I x x n / ` ` ` ` ` ` ` ` ` ` ` ` ` ` ` ` ` ` ` ` ` ` ` ` ` ` ` ` ` ` ` ` ` ` ` ` ` ` ` ` ` ` ` ` ` ` ` ` ` ` ` ` ` ` ` ` ` ` ` ` ` ` ` ` ` ` ` ` ` ` ` ` ` ` ` ` ` ` ` ` ` ` ` ` ` ` ` ` ` ` ` ` ` ` ` ` ` ` ` ` ` ` ` ` ` ` ` ` ` ` ` ` ` ` ` ` ` ` ` ` ` ` ` ` ` ` ` ` ` ` ` ` ` ` ` ` ` ` ` ` ` ` ` ` ` ` ` ` ` ` ` ` ] ` / ^ I I ^ ^ x x z l l j , , , x ^ I x ^ ^ I I ^ ^ ^ ^ ^ I I I ^ ^ ^ I I I I I I I I I I I I I I I I ^ ^ I I n n ^ ! < % ; - n I I I I I I I n n n I I I I I t R.4XwX",
":XeXY.r R ! m ^ I I ^ I ^ ^ I I n I Y L = X ; = U I I n n n I I I I I I ^ I I I I I I I ^ ^ ^ I I I I I ^ ^ ^ I I n n ^ n n / <.-.] / / ^ ^ ^ ^ ^ I I I x x n / / / / / ` ` ` ` / / / / ` ` ` ` / / / / ` ` ` ` ` ` / / / / / / ` ` ` ` ` ` / / / / / / ` ` ` ` / / / / / / / / ` ` ` ` ` ` / / / / / / / ` / ` ` ` ` ` ` ` / / / / / / / / / / ` ` ` ` ` ` / / / / / / / ` / ` ` ` ` ` ` ` / / / / / / ` ` ` ` ` ` / / / / / / ` ` ` ` ` ` / / / / / / ` ` ` ` / / / / ` ` ` ` ] ` / ^ ^ ^ ^ ^ x x z l l j , , , x ^ I x ^ ^ I I I ^ ^ I I I I ^ ^ ^ ^ I I I I I I I I ^ I I I I I I I ^ ^ ^ I n n ^ ! < % ; - n I I I I I I I n n n I I I I I t R.4XwX",
":XeXY.r M ! m ^ I I I I I I I I n I Y P = X ; = U I I n C C ^ U I I I I ^ ^ I I I I I I ^ ^ I I ^ ^ I ^ ^ ^ I I I n n ^ n n / <.-.] ) / ^ ^ ^ ^ ^ I I I x x n / ` ` ` ` ` ` ` ` ` ` ` ` ` ` ` ` ` ` ` ` ` ` ` ` ` ` ` ` ` ` ` ` ` ` ` ` ` ` ` ` ` ` ` ` ` ` ` ` ` ` ` ` ` ` ` ` ` ` ` ` ` ` ` ` ` ` ` ` ` ` ` ` ` ` ` ` ` ` ` ` ` ` ` ` ` ` ` ` ` ` ` ` ` ` ` ` ` ` ` ` ` ` ` ` ` ` ` ` ` ` ` ` ` ` ` ` ` ` ` ` ` ` ` ` ` ` ` ` ` ` ` ` ` ` ` ` ` ` ` ` ` ` ` ` ` ` ` ` ` ` ` ` ] ` / ^ ^ ^ ^ ^ x x z l l j , , , x ^ I x ^ ^ I I I I I I I I I I I ^ I I I ^ ^ I I I I ^ ^ I I I I I I ^ ^ I I n n ^ ! < % - - n I I I ^ ^ ^ I n n ^ ^ U U U U r R.4XwX",
":XeXY.r M ! m ^ I I ^ I I I I I n I Y P = X ; = U I I n C C ^ U I I ^ ^ ^ ^ I I ^ ^ I I I ^ I I ^ ^ ^ ^ I I I I I n n ^ n n / <.-.] ) / ^ ^ ^ ^ ^ I I I x x n / ] ] ] ] ] ] ] ] ] ] ] ] ] ] ] ] ] ] ] ] ] ] ] ] ] ] ] ] ] ] ] ] ] ] ] ] ] ] ] ] ] ] ] ] ] ] ] ] ] ] ] ] ] ] ] ] ] ] ] ] ] ] ] ] ] ] ] ] ] ] ] ] ] ] ] ] ] ] ] ] ] ] ] ] ] ] ] ] ] ] ] ] ] ] ] ] ] ] ] ] ] ] ] ] ] ] ] ] ] ] ] ] ] ] ] ] ] ] ] ] ] ] ] ] ] ] ] ] ] ] ] ] ] ] ] ] ] ] ] ] ] ] ] ] ] ] ] ] ] ] ] ] ] ] ` ^ ^ ^ I I x x z l l j , , , x ^ I x ^ ^ I I I I I I I I I I I I I ^ ^ ^ ^ I I ^ ^ ^ ^ I I ^ ^ I I I ^ I I n n ^ ! < % - - n I I I ^ ^ ^ I I I ^ ^ U U U U r R.4XwX",
":XeXY.r M ! m ^ I I I I I I I ^ N I Y P = X ; = U I I n n n ^ U I ^ ^ ^ ^ ^ I I ^ ^ ^ I I I I I ^ I I I ^ ^ I I I n n ^ n n / <.) ] / / ^ ^ ^ ^ ^ ^ I I x x n / O.O.O.O.O.O.O.O.O.O.O.O.O.O.O.O.O.O.O.O.O.O.O.O.O.O.O.O.O.O.O.O.O.O.<.O.O.O.O.O.O.O.O.O.O.O.O.O.O.O.O.O.O.O.O.O.O.O.O.O.O.O.O.O.O.O.O.O.O.O.O.O.O.O.O.O.O.O.O.O.O.O.O.O.O.O.O.O.O.O.O.O.O.O.O.O.O.O.O.O.O.O.O.O.O.O.O.O.O.O.O.O.O.O.O.O.O.O.O.O.O.O.O.O.O.O.O.O.O.O.<.O.O.O.O.O.O.O.O.O.O.O.O.O.O.O.O.O.O.O.O.O.] ] ` ^ ^ I n n x x z l l j , , , x ^ I x ^ ^ I ^ ^ I I I I I I I I ^ I I I ^ ^ I ^ ^ ^ ^ ^ I I ^ ^ ^ I I I I I n n ^ ! < % - - n I I ^ ^ I I I I ^ ^ ^ I I I I r Y.4XwX",
":XeXY.r M ! m ^ ^ I I I I I ^ ^ N n Y P = X ; = U U I n n n ^ U ^ ^ ^ ^ ^ ^ I I ^ ^ I I I I I I I I I I ^ ^ I I ^ n n ^ n n / <.) ] / / ^ ^ ^ ^ ^ ^ I I x x n / ` ` ` ` ] ] ] ` ` ` ` ` ` ` ` ` ` ` ` ` ` ` ` ` ` ] ` ` ` ` ` ` ` ` ` ` ` ` ` ` ` ` ` ` ` ` ` ` ` ] ` ` ` ` ` ` ` ` ` ` ` ` ` ` ` ` ` ` ` ` ` ` ` ` ` ` ` ` ` ` ` ] ` ` ` ` ` ` ` ` ` ` ` ` ` ` ` ` ` ` ` ` ` ` ` ` ` ` ` ` ` ` ` ` ` ` ` ` ` ` ` ] ` ` ` ` ` ` ` ` ` ` ` ` ` ` ` ` ` ` ` ` ` ` ` ` ` ` ` ` ` ` ` ` ` ^ ^ I n x x x z l l j , , , x ^ I x ^ ^ I ^ ^ I I I I I ^ I I ^ ^ I I I I ^ ^ ^ ^ ^ ^ I I ^ ^ I I I I I I n n ^ E < % - - n I I ^ ^ I I I I I ^ ^ I I I I r Y.4XwX",
":XeXQ.r M ! m ^ ^ ^ I I I I ^ ^ N n Y P = X ; = U I ^ n n n I U I I ^ I ^ ^ I I I I I I ^ ^ ^ I I I I I ^ I I I ^ n n ^ n n / t.) ] / / ^ ^ ^ ^ ^ I I I x x n / I I I I I I I I I I I I I I I I I I I I I I I I I I I I I I I I I I I I I I I I I I I I I I I I I I I I I I I I I I I I I I I I I I I I I I I I I I I I I I I I I I I I I I I I I I I I I I I I I I I I I I I I I I I I I I I I I I I I I I I I I I I I I I I I I I I I I I I I I I I I I I I I I I I I I I I I I I ^ ^ I I I I x x z l l j , , , x ^ I x ^ ^ I ^ ^ I I I I ^ ^ I I ^ ^ I I I I I I ^ I ^ ^ I I I I I I ^ ^ ^ I n n ^ ! < % - - n I I ^ I I I I I I I I I I I I r Y.4XwX",
":XeXY.r M ! m ^ ^ ^ I I I I ^ ^ N I Y P = X ; = U I ^ C n n I U I I I I ^ ^ I I I I I I ^ ^ ^ I I I I I ^ ^ I I I n n ^ n n / t.) ] / / ^ ^ ^ ^ ^ ^ I I x x n / z z z z z z z z z z z z z z z z z z z z z z z z z z z z z z z z z z z z z z z z z z z x z z z z z z z z z z z z z z z z z z z z z z z z z z z z z z z z z z z z z z z z z z z z z z z z z z z z z z z z z z z z z z z z z z z z z z z z z z z z z z z z z z z z z z z z z z z z z z z x z z z z z z z z z z z z x x I I I ^ ^ ^ x x z l l j , , , x ^ I x ^ ^ I ^ ^ I I I I ^ ^ I I ^ ^ I I I I I I I I ^ ^ I I I I I I ^ ^ ^ I n n ^ ! < % - - n I I I I I I I I I I I I I I I r Y.4XwX",
"wXeXY.r R [ b E I I I I I I I I n n _ P = % ; * U U ^ C C n I I I I ^ I I I I I ^ ^ ^ ^ ^ ^ I I I ^ ^ ^ I I I I I I I U I I ` <.] ] / / ^ ^ ^ ^ ^ I n I I L L L L L L L L L L L L L L L L L L L L L L L L L L L L L L L L L L L L L L L L L L L L L L L L L L L L L L L L L L L L L L L L L L L L L L L L L L L L L L L L L L L L L L L L L L L L L L L L L L L L L L L L L L L L L L L L L L L L L L L L L L L L L L L L L L L L L L L L L L L L L L L L L L L L L L L L L L L n n n I I I I I L L J c j 6 , , , J U I x I ^ I I I I I I I I I I I I I ^ ^ I I I I ^ I I I I I I ^ ^ ^ ^ ^ I I n n _ P < % ; * L I I I I I I I I I I I I I I I e Y.4X0X",
"wXeXY.r R [ b E I I I I I I I I n n _ P = % ; * U U ^ C n n I I I I ^ ^ I I I I I I I ^ I I I I I ^ ^ ^ I I I I I I I U I I ` <.] ] / / ^ ^ ^ ^ ^ I n I I I L L I I I I I I I I I I I I I I I I I I I I I I I I I I I I I I I I I I I I I I I I I I I I I I I I I I I I I I I I I I I I I I I I I I I I I I I I I I I I I I I I I I I I I I I I I I I I I I I I I I I I I I I I I I I I I I I I I I I I I I I I I I I I I I I I I I I I I I I I I I I I I I I I I I I I I I I I I I I I I ^ I I L L J c j , , , , J U I x I ^ I I I I I I I I I I I I I ^ I I I I I ^ ^ I I I I I I ^ ^ I I I I n n _ P < % ; * L I I I I I I I I I I I I I I I e Y.4X0X",
"wXeXY.r R [ b E I I I I I I I I n n _ P = % ; * U I ^ C n n I I I I ^ ^ ^ I I I I I I I I I I I I I ^ ^ I I I I I I I U I I ` <.] ] / / ^ ^ ^ ^ I I I I I I I L I I I I I I I I I I I I I I I I I I I I I I I I I I I I I I I I I I I I I I I I I I I I I I I I I I I I I I I I I I I I I I I I I I I I I I I I I I I I I I I I I I I I I I I I I I I I I I I I I I I I I I I I I I I I I I I I I I I I I I I I I I I I I I I I I I I I I I I I I I I I I I I I I I I I I I I I I I I I ^ ^ ^ ^ L L J c j j , , , J U I x I ^ I I I I I I I I I I I ^ ^ I ^ I I I I ^ ^ ^ I I I I I I I I I I I n n ^ P < % ; * L I I I I I I I I I I I I I I I e Y.4X0X",
"wXeXY.r R [ b E I I I I I I I I n n _ P = % ; * U I I n n n I I I I I I I I I I I I I I I I I I I I I I I I I I I I I I I I / <.] ] / / ^ ^ ^ ^ I I I I I I I I I I I I I I I I I I I I I I I I I I I I I I I I I I I I I I I I I I I I I I I I I I I I I I I I I I I I I I I I I I I I I I I I I I I I I I I I I I I I I I I I I I I I I I I I I I I I I I I I I I I I I I I I I I I I I I I I I I I I I I I I I I I I I I I I I I I I I I I I I I I I I I I I I I I I I I I I I I I I I I ^ ^ L L J c j 6 , , , J U I x I ^ I I I I I I I I I I I I I I I I I I I I I I I I I I I I I I I I I n n ^ P < % ; * L I I I I I I I I I I I I I I I e Y.4X0X",
"wXeXK.r R [ b E I I I I I I I I n I _ P = % ; * U I I n n n I I I I I I I I I I I I I I I I I I I I I I I I I I I I I I I I / <.] ] / / ^ ^ ^ ^ I I I I I I I I I I I I I I I I I I I I I I I I I I I I I I I I I I I I I I I I I I I I I I I I I I I I I I I I I I I I I I I I I I I I I I I I I I I I I I I I I I I I I I I I I I I I I I I I I I I I I I I I I I I I I I I I I I I I I I I I I I I I I I I I I I I I I I I I I I I I I I I I I I I I I I I I I I I I I I I I n n I I I I I I L L J c j w , , , J ^ I x I ^ I I I I I I I I I I I I I I I I I I I I I I I I I I I I I I I I I n n _ P < % ; * L I I I I I I I I I I I I I I I e Y.4X0X",
"wXeXY.r R [ b E I I I I I I I I n I _ P = % ; * I I I n n n n I I n n n I I I I I I n n n n n n I n I I I I I I I I I I I I ^ <.] ] / / ^ ^ ^ ^ I I n I I I I I I I I I I I I I I I I I I I I I I I I I I I I I I I I I I I I I I I I I I I I I I I I I I I I I I I I I I I I I I I I I I I I I I I I I I I I I I I I I I I I I I I I I I I I I I I I I I I I I I I I I I I I I I I I I I I I I I I I I I I I I I I I I I I I I I I I I I I I I I I I I I I I I I I I I I I I I n n n I I I I I L L z c j w , , , J ^ I x I ^ I I I I I I I I I I I I I n I n n I n n n I I I I n I n n I n n n n n U P < % ; * L I I I I I I I I I I I I I I I e Y.4X0X",
"wXeXY.r R [ b E I I I I I I I I n I ^ P = % ; * I I I n n n I I I I n I n I I I I I I I n I I n I I I I I I I I I I I I I I ^ <.] ] / / ^ I ^ ^ C C n I I I I U I I I I I I I I I I I I I I I I I I I I I I I I I I I I I I I I I I I I I I I I I I I I I I I I I I I I I I I I I I I I I I I I I I I I I I I I I I I I I I I I I I I I I I I I I I I I I I I I I I I I I I I I I I I I I I I I I I I I I I I I I I I I I I I I I I I I I I I I I I I I I I I I I I I I I I I I I I I I I I I I L L z c j w , , , J ^ I x I ^ I I I I I I I I I n I I I I I I I I I n I n I I I I I I I I I n n n n _ P < % ; * L I I I I I I I I I I I I I I I e Y.4X0X",
"wXeXY.r R [ b E I I I I I I I I n I ^ P = % ; * I I I n n n I I I I n n I I I I I I I I I I n I I I I I I I I I I L I I I I ^ <.] ] / / ^ I ^ ^ C C C I I U U U I I I I I I I I I I I I I I I I I I I I I I I I I I I I I I I I I I I I I I I I I I I I I I I I I I I I I I I I I I I I I I I I I I I I I I I I I I I I I I I I I I I I I I I I I I I I I I I I I I I I I I I I I I I I I I I I I I I I I I I I I I I I I I I I I I I I I I I I I I I I I I I I I I I I I I I I I I I I ^ ^ ^ ^ L L z c j w , , # J ^ I x I ^ I I I I I I I I I n I I I I I I I I I n n I I I I I I I I I I I I n n _ P < % ; * L I I I I I I I I I I I I I I I e Y.4X0X",
",X9XI.0 Q N g P n n n n I I I n x n / K ; X : = P P n n n n n I n n n I I I n n n n I I I I I I n n I I I I I I T I I I I n ) 2.) ) ^ ^ I I I n ^ ^ ^ ^ ^ ^ ^ ^ ^ ^ ^ ^ ^ ^ ^ ^ ^ ^ ^ ^ ^ ^ ^ ^ ^ ^ ^ ^ ^ ^ ^ ^ ^ ^ ^ ^ ^ ^ ^ ^ ^ ^ ^ ^ ^ ^ ^ ^ ^ ^ ^ ^ ^ ^ ^ ^ ^ ^ ^ ^ ^ ^ ^ ^ ^ ^ ^ ^ ^ ^ ^ ^ ^ ^ ^ ^ ^ ^ ^ ^ ^ ^ ^ ^ ^ ^ ^ ^ ^ ^ ^ ^ ^ ^ ^ ^ ^ ^ ^ ^ ^ ^ ^ ^ ^ ^ ^ ^ ^ ^ ^ ^ ^ ^ ^ ^ ^ ^ ^ ^ I ^ ^ ^ ^ ^ ^ ^ ^ ^ ^ ^ ^ ^ ^ ^ ^ ^ ^ ^ ^ ^ ^ ^ ^ ^ ^ ^ ^ ^ ^ ^ ^ ^ ^ ^ ^ ^ ^ ^ ^ ^ ^ ^ ^ ^ ^ ^ I x z l l l q q # n ` I x ^ ^ I n n n I I I n n n n I I I I I I n n I I I I I I n n I I I I n n I x I P > o ; ; x n I I I I I n I I I I I I I I e Y.4X0X",
",X9XI.0 Q N g P n n n n I I I I x n / K ; X : = P P n n n n n I n n I I I I n n n n I I I I I I n n I I I I n n I I I I I n ) 2.` ` ) ^ ^ ^ ^ ^ ^ ^ ^ ^ ^ ^ ^ ^ ^ ^ ^ ^ ^ ^ ^ ^ ^ ^ ^ ^ ^ ^ ^ ^ ^ ^ ^ ^ ^ ^ ^ ^ ^ ^ ^ ^ ^ ^ ^ ^ ^ ^ ^ ^ ^ ^ ^ ^ ^ ^ ^ ^ ^ ^ ^ ^ ^ ^ ^ ^ ^ ^ ^ ^ ^ ^ ^ ^ ^ ^ ^ ^ ^ ^ ^ ^ ^ ^ ^ ^ ^ ^ ^ ^ ^ ^ ^ ^ ^ ^ ^ ^ ^ ^ ^ ^ ^ ^ ^ ^ ^ ^ ^ ^ ^ ^ ^ ^ ^ ^ ^ ^ ^ ^ ^ ^ ^ ^ ^ ^ ^ ^ ^ ^ ^ ^ ^ ^ ^ ^ ^ ^ ^ ^ ^ ^ ^ ^ ^ ^ ^ ^ ^ ^ ^ ^ ^ ^ ^ ^ ^ ^ ^ ^ ^ ^ ^ ^ ^ ^ ^ ^ ^ ^ ^ ^ ^ ^ ^ I x z z l l q q n ` ^ n ^ ^ I n n I I I I n n n n I I I I I I n n I I I I n n n n I I I I n n I x I P > o ; ; x n n I I I I n I I I I I I I I e Y.4X0X",
",X9XI.0 Q N g P I I I I I I I I x n / K ; X : = P P n n n n I I n n I I I I I I I I I I I I I I n I I I I n n n I I I I I n ^ 2.-.] ] ` ) ) ^ ^ / / / / / / / / / / / / / / / / / / / / / / / / / / / / / / / / / / / / / / / / / / / / / / / / / / / / / / / / / / / / / / / / / / / / / / / / / / / / / / / / / / / / / / / / / / / / / / / / / / / / / / / / / / / / / / / / / / / / / / / / / / / / / / / / / / / / / / / / / / / / / / / / / / / / / / / / / / / / / / / / / / / / / / / / / ^ n x x z z l q I ` ^ I ^ ^ I n n I I I I I I I I I I I I I I n I I I I n n n n n I I I I I n I x I P > o ; ; x n n I I I I n I I I I I I I I e Y.4X0X",
",X9XI.0 Q N g P I I I I I I I I x n / K ; X : = P P n n n n n I I I I I I I I I I I I I I I I n n n I I I n n n I I I I I n / 2.-.-.] ] ` ` ) ) ` ` ` ` ` ` / / / / / ` ` ` ` ` ` ` / / / / / ` ` ` ` ` ` ` / / / / / ` ` ` ` ` ` ` / / / / / ` ` ` ` ` ` ` / / ` ` ` ` ` ` ` ` ` ` ` ` ` ` ` ` ` ` ` ` ` ` ` ` ` ` ` ` ` ` ` ` ` ` ` ` ` ` ` ` ` ` ` ` ` ` ` ` ` ` ` ` ` ` ` ` ` ` ` ` ` ` ` ` ` ` ` ` ` ` ` ` ` ` / / / / / ` ` ` ` ` ` ` / / / / / ` ` ` ` ` ` ` / / / / / ` ` ` ` ` ` ` / / / ^ I n L x z z j I ` ` ^ ^ ^ I I I I I I I I I I I I I I I I n n n I I I n n n n I I I I I I I I x I P > o ; ; n n n I I I I n I I I I I I I I e Y.4X0X",
",X9XI.0 Q N g [ I I I I I I I I x n / K ; X : = P P I n n n I I I I I I I I I I I I I I I I n n I I I I I I I I U I I I I n / 2.>.>.] -.` ` ` ` ] ] ] ] ] ] ] ] ] ] ] ] ] ] ] ] ] ] ] ] ] ] ] ] ] ] ] ] ] ] ] ] ] ] ] ] ] ] ] ] ] ] ] ] ] ] ] ] ] ] ] ] ] ] ] ] ] ] ] ] ] ] ] ] ] ] ] ] ] ] ] ] ] ] ] ] ] ] ] ] ] ] ] ] ] ] ] ] ] ] ] ] ] ] ] ] ] ] ] ] ] ] ] ] ] ] ] ] ] ] ] ] ] ] ] ] ] ] ] ] ] ] ] ] ] ] ] ] ] ] ] ] ] ] ] ] ] ] ] ] ] ] ] ] ] ] ] ] ] ] ] ] ] ] ] ] ] ] ] ] ] ] ] ] ] ] ] ] / / ^ I n x z z z I ` ` ^ ^ I I I I I I I I I I I I I I I I n n I I I I I I I I I I I I I I I I I x I P > o ; ; n I I I I I I n I I I I I I I I e Y.4X0X",
",X9XI.0 Q N g [ I n I I I I I I x I / K ; X : = P P I n n n I I I I I I I I I I n I I I I I n n I I I I I I I I U I I I I n / 2.>.>.>.-.-.-.=.` ] ] ] ] ] ] ] ] ] ] ] ] ] ] ] ] ] ] ] ] ] ] ] ] ] ] ] ] ] ] ] ] ] ] ] ] ] ] ] ] ] ] ] ] ] ] ] ] ] ] ] ] ] ] ] ] ] ] ] ] ] ] ] ] ] ] ] ] ] ] ] ] ] ] ] ] ] ] ] ] ] ] ] ] ] ] ] ] ] ] ] ] ] ] ] ] ] ] ] ] ] ] ] ] ] ] ] ] ] ] ] ] ] ] ] ] ] ] ] ] ] ] ] ] ] ] ] ] ] ] ] ] ] ] ] ] ] ] ] ] ] ] ] ] ] ] ] ] ] ] ] ] ] ] ] ] ] ] ] ] ] ] ] ] ] ] ] ] ] / ^ I I I x z x I ^ ^ ^ I I n I I I I I I I I n I I I I I n n I I I I I I I I I I I I I I I I I x I P > o ; ; n I I I I I I n I I I I I I I I e Y.3X0X",
",X9XI.0 Q N g P n n I I I I I I x I / K ; X : = P P n n n n n I n I n n I I I I n n n I I I I n I I n n n n I I U I I I I n / 2.;.;.>.>.>.>.>.>.;.;.;.;.;.;.;.;.;.;.;.;.;.;.;.;.;.;.;.;.;.;.;.;.;.;.;.;.;.;.;.;.;.;.;.;.;.;.;.;.;.;.;.;.;.;.;.;.;.;.;.;.;.;.;.;.;.;.;.;.;.;.;.;.;.;.;.;.;.;.;.;.;.;.;.;.;.;.;.;.;.;.;.;.;.;.;.;.;.;.;.;.;.;.;.;.;.;.;.;.;.;.;.;.;.;.;.;.;.;.;.;.;.;.;.;.;.;.;.;.;.;.;.;.;.;.;.;.;.;.;.;.;.;.;.;.;.;.;.;.;.;.;.;.;.;.;.;.;.;.;.;.;.;.;.;.;.;.;.;.;.;.;.;.;.;.;.;.-.) / ^ ^ ^ n x I I I ^ I n n I n I n n I I I I n n n I I I I n I I n n n n I I I I n n I I I I I x I P > o ; ; n n I I I I I n I I I I I I I I e Y.3X0X",
",X9XI.0 Q N g P n n n I I I I I x I / K ; X : = P P n n n n n I n n n n n n I I n n n I I I n n I I n n n I I I U I I I I n / 2.2.2.2.>.>.>.>.>.;.;.;.;.;.;.;.;.;.;.;.;.;.;.;.;.;.;.;.;.;.;.;.;.;.;.;.;.;.;.;.;.;.;.;.;.;.;.;.;.;.;.;.;.;.;.;.;.;.;.;.;.;.;.;.;.;.;.;.;.;.;.;.;.;.;.;.;.;.;.;.;.;.;.;.;.;.;.;.;.;.;.;.;.;.;.;.;.;.;.;.;.;.;.;.;.;.;.;.;.;.;.;.;.;.;.;.;.;.;.;.;.;.;.;.;.;.;.;.;.;.;.;.;.;.;.;.;.;.;.;.;.;.;.;.;.;.;.;.;.;.;.;.;.;.;.;.;.;.;.;.;.;.;.;.;.;.;.;.;.;.;.;.;.;.;.;.;.q.-.) / / ^ ^ I I I I I I x x I n n n n n n I I n n n I I I n n I I n n n I I I n n n n n n I I I x I P > o ; ; n I I I I n n n I I I I I I I I e Y.4X0X",
"qX7XK.s K x A [ I I I I I I I I x n Y K = X ; ; I I I n n I I I n n n n n n n n n n n n n n n n n n n n n n n n I I I I I I I I I I I I I I I I I I I I I I I I I I I I I I I I I I I I I I I I I I I I I I I I I I I I I I I I I I I I I I I I I I I I I I I I I I I I I I I I I I I I I I I I I I I I I I I I I I I I I I I I I I I I I I I I I I I I I I I I I I I I I I I I I I I I I I I I I I I I I I I I I I I I I I I I I I I I I I I I I I I I I I I I I I I I I I I I I I I I I I I I I L J l l w q q n n n n n n n n n n n n n n n n n n n n n n n n n n n n n n n n n n n n n n n n I n I K & % ; ; n n I I I I I n I I I I I I I I r E.3X0X",
"qX7XK.s K x A [ I I I I I I I I x n Y K = X * ; I I I n n I I I n n n n n n n n n n n n n n n n n n n n n n n n I I I I I I I I I I I I I I I I I I I I I I I I I I I I I I I I I I I I I I I I I I I I I I I I I I I I I I I I I I I I I I I I I I I I I I I I I I I I I I I I I I I I I I I I I I I I I I I I I I I I I I I I I I I I I I I I I I I I I I I I I I I I I I I I I I I I I I I I I I I I I I I I I I I I I I I I I I I I I I I I I I I I I I I I I I I I I I I I I I I I I I I I I L z l l w w w n n n n n n n n n n n n n n n n n n n n n n n n n n n n n n n n n n n n n n n n I n I K & % ; ; n I I I I I n n I T I I I I I I r E.3X0X",
"wX7XI.s K x A [ I I I I I I I I x n Y K = X ; ; I I I n n I I I n n n n n n n n n n n n n n n n n n n n n n n n I I I I I I I I I I I I I I I I I I I I I I I I I I I I I I I I I I I I I I I I I I I I I I I I I I I I I I I I I I I I I I I I I I I I I I I I I I I I I I I I I I I I I I I I I I I I I I I I I I I I I I I I I I I I I I I I I I I I I I I I I I I I I I I I I I I I I I I I I I I I I I I I I I I I I I I I I I I I I I I I I I I I I I I I I I I I I I I I I I I I I I I I I L z l l l l z n n n n n n n n n n n n n n n n n n n n n n n n n n n n n n n n n n n n n n n n I I L K & % ; ; n I I I I I I n T T I I I I I I r E.3X0X",
"wX7XK.s K x v [ I I I I I I I I x n Y K = X ; ; I I I n n I I I I I I I I I I I I I I I I I I I I I I n I I I I I I I I I I I I I I I I I I I I I I I I I I I I I I I I I I I I I I I I I I I I I I I I I I I I I I I I I I I I I I I I I I I I I I I I I I I I I I I I I I I I I I I I I I I I I I I I I I I I I I I I I I I I I I I I I I I I I I I I I I I I I I I I I I I I I I I I I I I I I I I I I I I I I I I I I I I I I I I I I I I I I I I I I I I I I I I I I I I I I I I I I I I I I L z l l l J L I I n n I I I I I I I I I I I I I I I I I I I I I I I n I I I I I I I I I I I I I I L K & % ; ; n I I I I I I n T I I I I I T T r E.3X0X",
"wX7XK.s K x A [ I I I I I I I I x n Y K = . ; ; I I I n n I I U I I I I I I I I I I I I I I I I I I I I I I I I I I I I I I I I I I I I I I I I I I I I I I I I I I I I I I I I I I I I I I I I I I I I I I I I I I I I I I I I I I I I I I I I I I I I I I I I I I I I I I I I I I I I I I I I I I I I I I I I I I I I I I I I I I I I I I I I I I I I I I I I I I I I I I I I I I I I I I I I I I I I I I I I I I I I I I I I I I I I I I I I I I I I I I I I I I I I I I I I I I I I I I I I L L z l l J L U I I I I I I I I I I I I I I I I I I I I I I I I I I I I I I I I I I I I I I I I I I P K > % ; ; n I I I I I I n I I I I I I I I r E.3X0X",
"wX7XK.s K x A [ I I I I I I I I x n Y K = X ; ; I I I n n I I U I I I I I I I I I I I I I I I I I I I I I I I I I I I I I I I I I I I I I I I I I I I I I I I I I I I I I I I I I I I I I I I I I I I I I I I I I I I I I I I I I I I I I I I I I I I I I I I I I I I I I I I I I I I I I I I I I I I I I I I I I I I I I I I I I I I I I I I I I I I I I I I I I I I I I I I I I I I I I I I I I I I I I I I I I I I I I I I I I I I I I I I I I I I I I I I I I I I I I I I I I I I I I I I I L L z z z L I U I I I I I I I I I I I I I I I I I I I I I I I I I I I I I I I I I I I I I I I I I I P K > % ; ; n I I I I I I n I I I I I I I I r E.3X0X",
"qX7XK.s K x A [ I I I I I I I I x n Y K = X ; = I I I n n I I U I I I I I I I I I I I I I I I I I I I I I I I I I I I I I I I I I I I I I I I I I I I I I I I I I I I I I I I I I I I I I I I I I I I I I I I I I I I I I I I I I I I I I I I I I I I I I I I I I I I I I I I I I I I I I I I I I I I I I I I I I I I I I I I I I I I I I I I I I I I I I I I I I I I I I I I I I I I I I I I I I I I I I I I I I I I I I I I I I I I I I I I I I I I I I I I I I I I I I I I I I I I I I I I I L J J J L L I I I I I I I I I I I I I I I I I I I I I I I I I I I I I I I I I I I I I I I I I I I n I K > % ; ; n n I I I I I n I I I I I I I I r E.3X0X",
"qX7XK.s K x A [ I I I I I I I I x n Y K = X ; = I I I n n I I U I I I I I I I I I I I I I I I I I I I I I I I I I I I I I I I I I I I I I I I I I I I I I I I I I I I I I I I I I I I I I I I I I I I I I I I I I I I I I I I I I I I I I I I I I I I I I I I I I I I I I I I I I I I I I I I I I I I I I I I I I I I I I I I I I I I I I I I I I I I I I I I I I I I I I I I I I I I I I I I I I I I I I I I I I I I I I I I I I I I I I I I I I I I I I I I I I I I I I I I I I I I I I I I I L J J L L I I I I I I I I I I I I I I I I I I I I I I I I I I I I I I I I I I I I I I I I I I I I n I K > % ; ; n I I I I n n n I T I I I I I I r E.3X0X",
"qX7XK.s K x A [ I I I I I I I I n n U K & % ; * I I I n n I I U I I I I I I I I I I I I I I I I I I I I I I I I I I I I I I I I I I I I I I I I I I I I I I I I I I I I I I I I I I I I I I I I I I I I I I I I I I I I I I I I I I I I I I I I I I I I I I I I I I I I I I I I I I I I I I I I I I I I I I I I I I I I I I I I I I I I I I I I I I I I I I I I I I I I I I I I I I I I I I I I I I I I I I I I I I I I I I I I I I I I I I I I I I I I I I I I I I I I I I I I I I I I I I I I I I I I I I I I I I I I I I I I I I I I I I I I I I I I I I I I I I I I I I I I I I I I I I I I I I U K > % ; - n n I I I I I I I I I I I I I I e Y.4XwX",
"qX7XK.s K x A [ I I I I I I I I n n _ K & % ; * I I I n n I I I I I I I I I I I I I I I I I I I I I I I I I I I I I I I I I I I I I I I I I I I I I I I I I I I I I I I I I I I I I I I I I I I I I I I I I I I I I I I I I I I I I I I I I I I I I I I I I I I I I I I I I I I I I I I I I I I I I I I I I I I I I I I I I I I I I I I I I I I I I I I I I I I I I I I I I I I I I I I I I I I I I I I I I I I I I I I I I I I I I I I I I I I I I I I I I I I I I I I I I I I I I I I I I I I I I I I I I I I I I I I I I I I I I I I I I I I I I I I I I I I I I I I I I I I I I I I I I I I I I U K = % ; - n n I I I I I n I I I I I I I I e Y.4XwX",
"qX7XK.s K x v [ I I I I I I I I n n _ K & % ; * I I I n n I I I I I I I I I I I I I I I I I I I I I I I I I I I I I I I I I I I I I I I I I I I I I I I I I I I I I I I I I I I I I I I I I I I I I I I I I I I I I I I I I I I I I I I I I I I I I I I I I I I I I I I I I I I I I I I I I I I I I I I I I I I I I I I I I I I I I I I I I I I I I I I I I I I I I I I I I I I I I I I I I I I I I I I I I I I I I I I I I I I I I I I I I I I I I I I I I I I I I I I I I I I I I I I I I I I I I I I I I I I I I I I I I I I I I I I I I I I I I I I I I I I I I I I I I I I I I I I I I I I I I P K = % ; - n n I I I I I I I I I I I I I I e Y.4XwX",
"qX7XK.s K x A [ I I I I I I I I n n ^ K & % ; * I I I n n I I I I I I I I I I I I I I I I I I I I I I I I I I I I I I I I I I I I I I I I I I I I I I I I I I I I I I I I I I I I I I I I I I I I I I I I I I I I I I I I I I I I I I I I I I I I I I I I I I I I I I I I I I I I I I I I I I I I I I I I I I I I I I I I I I I I I I I I I I I I I I I I I I I I I I I I I I I I I I I I I I I I I I I I I I I I I I I I I I I I I I I I I I I I I I I I I I I I I I I I I I I I I I I I I I I I I I I I I I I I I I I I I I I I I I I I I I I I I I I I I I I I I I I I I I I I I I I I I I I I I U K = % ; - n n I I I I I I I I I I I I I I e Y.4XwX",
"qX7XK.s K x A [ I I I I I I I I n n I K & % ; * I I I n n I I U I I I I I I I I I I I I I I I I I I I I I I I I I I I I I I I I I I I I I I I I I I I I I I I I I I I I I I I I I I I I I I I I I I I I I I I I I I I I I I I I I I I I I I I I I I I I I I I I I I I I I I I I I I I I I I I I I I I I I I I I I I I I I I I I I I I I I I I I I I I I I I I I I I I I I I I I I I I I I I I I I I I I I I I I I I I I I I I I I I I I I I I I I I I I I I I I I I I I I I I I I I I I I I I I I I I I I I I I I I I I I I I I I I I I I I I I I I I I I I I I I I I I I I I I I I I I I I I I I I P K = % ; - n n I I I I I I I I I I I I I I e Y.4XwX",
"wX7XK.s K x A [ I I I I I I I I n n I K & % ; * I I I n n I I U I I I I I I I I I I I I I I I I I I I I I I I I I I I I I I I I I I I I I I I I I I I I I I I I I I I I I I I I I I I I I I I I I I I I I I I I I I I I I I I I I I I I I I I I I I I I I I I I I I I I I I I I I I I I I I I I I I I I I I I I I I I I I I I I I I I I I I I I I I I I I I I I I I I I I I I I I I I I I I I I I I I I I I I I I I I I I I I I I I I I I I I I I I I I I I I I I I I I I I I I I I I I I I I I I I I I I I I I I I I I I I I I I I I I I I I I I I I I I I I I I I I I I I I I I I I I I I I I I I P K > % ; - n n I I I I I I I I I I I I I I e Y.4XwX",
"wX7XK.s K x A [ I I I I I I I I n n U K & % ; * I I I n n I I U I I I I I I I I I I I I I I I I I I I I I I I I I I I I I I I I I I I I I I I I I I I I I I I I I I I I I I I I I I I I I I I I I I I I I I I I I I I I I I I I I I I I I I I I I I I I I I I I I I I I I I I I I I I I I I I I I I I I I I I I I I I I I I I I I I I I I I I I I I I I I I I I I I I I I I I I I I I I I I I I I I I I I I I I I I I I I I I I I I I I I I I I I I I I I I I I I I I I I I I I I I I I I I I I I I I I I I I I I I I I I I I I I I I I I I I I I I I I I I I I I I I I I I I I I I I I I I I I I I P K > % ; - n n n I I I I I I I I I I I I I e Y.4XwX",
"wX7XK.s K x A [ I I I I I I I I n n U K & % ; * I I I n n I I U I I I I I I I I I I I I I I I I I I I I I I I I I I I I I I I I I I I I I I I I I I I I I I I I I I I I I I I I I I I I I I I I I I I I I I I I I I I I I I I I I I I I I I I I I I I I I I I I I I I I I I I I I I I I I I I I I I I I I I I I I I I I I I I I I I I I I I I I I I I I I I I I I I I I I I I I I I I I I I I I I I I I I I I I I I I I I I I I I I I I I I I I I I I I I I I I I I I I I I I I I I I I I I I I I I I I I I I I I I I I I I I I I I I I I I I I I I I I I I I I I I I I I I I I I I I I I I I I I I P K > % ; - n n n I I I I I I I I I I I I I e Y.4XwX",
"wX;XK.s K x v { n n n n n n n n n n _ K & % ; * I I I n n n I I I I L L L L I I I I I I I I I I I I L L L L L L I I L L L L I I I I L L L L L L I I L L L L I I I I I I I I I I I I L L L L L L I I L L L L I I I I I I I I I I I I L L L L L L I I L L L L I I I I I I I I I I I I L L L L L L I I L L L L I I I I I I I I I I I I I I I I I I I I L L L L L L I I L L L L I I I I I I I I I I I I I I I I I L L L L I I I I L I I I I I I I L L L L I I I I L I I L L L L L L I I L L L L I I I I I I I I I I I I L L L L L L I I L L L L I I I I I I I I I I I I L L L L L L I I L L L L I I I I I K & % ; ; x n n I I I n n I I I I I I U I e Y.4XwX",
"wX;XK.s K L v { n n n n n n n n n n _ K & % ; * I I I n n n I I I I L L L L I I I I I I I I I I I I I I L L I I I I L L L L I I I I I I L L I I I I L L L L I I I I I I I I I I I I I I L L I I I I L L L L I I I I I I I I I I I I I I L L I I I I L L L L I I I I I I I I I I I I I I L L I I I I L L L L I I I I I L I I I I I I I I I I I I I I I I L L I I I I L L L L I I I I I L I I I I I I I I I I L L L L I I I I L L I I I I I I L L L L I I I I L L I I I I L L I I I I L L L L I I I I I I I I I I I I I I L L I I I I L L L L I I I I I I I I I I I I I I L L I I I I L L L L I I I I I K & % ; ; x n n I I I n n I I I I I I U I e Y.4XwX",
"wX;XK.s K L v { n n n n n n n n n n _ K = % ; * I I I n n n I I I I I I I I I I I I L L L L I I I I I I I I I I I I I I I I I I I I I I I I I I I I I I I I I I I I L L L L I I I I I I I I I I I I I I I I I I I I L L L L I I I I I I I I I I I I I I I I I I I I L L L L I I I I I I I I I I I I I I I I I I I I L L I L I I I I L L L L I I I I I I I I I I I I I I I I I I I I L L I L I I L I I I I I I I I I I I I I I I L I I I I I I I I I I I I I I I I I I I I I I I I I I I I I I I I I L L L L I I I I I I I I I I I I I I I I I I I I L L L L I I I I I I I I I I I I I I I I I I I I I K & % ; ; x n n I I I I I n I I I I I I I e Y.4XwX",
"wX;XK.s K L v { n n n n n n n n n n _ K = % ; * I I I n n n I I I I I I I I I I I I L L L L I I I I I I I I I I I I I I I I I I I I I I I I I I I I I I I I I I I I L L L L I I I I I I I I I I I I I I I I I I I I L L L L I I I I I I I I I I I I I I I I I I I I L L L L I I I I I I I I I I I I I I I I I I I I L L L L I I I I L L L L I I I I I I I I I I I I I I I I I I I I L L L L I I L I I I I I I I I I I I I I I I L I I I I I I I I I I I I I I I I I I I I I I I I I I I I I I I I I L L L L I I I I I I I I I I I I I I I I I I I I L L L L I I I I I I I I I I I I I I I I I I I I I K & % ; ; x n n I I I n I x I I I I I I I e Y.4XwX",
"wX;XK.s K L v { n n n n n n I I n n U K & % ; * I I n n n n I I n n n n n n n n n n x x n n n n n n n n n n n n n n n n n n n n n n n n n n n n n n n n n n n n n n x x n n n n n n n n n n n n n n n n n n n n n n x x n n n n n n n n n n n n n n n n n n n n n n x x n n n n n n n n n n n n n n n n n n n n n n n x n n n n n n x x n n n n n n n n n n n n n n n n n n n n n n n x n n n n x x n n n n n n n n n n n n n n x x n n n n n n n n n n n n n n n n n n n n n n n n n n n n n n n n x x n n n n n n n n n n n n n n n n n n n n n n x x n n n n n n n n n n n n n n n n n n n n I I I K > % ; ; x n I I I I I I x x I I I I I I e Y.4XwX",
"wX;XK.s K E v { n n n n n n I n n n I K & % ; * I I n n n n I I n n n n n n n n n n x x n n n n n n n n n n x x n n n n n n n n n n n n n n x x n n n n n n n n n n x x n n n n n n n n n n x x n n n n n n n n n n x x n n n n n n n n n n x x n n n n n n n n n n x x n n n n n n n n n n x x n n n n n n n n n n x x n n n n n n x x n n n n n n n n n n x x n n n n n n n n n n x x n n n n x x n n n n n n n n n n n n n n x x n n n n n n n n n n n n n n n n n n n n x x n n n n n n n n n n x x n n n n n n n n n n x x n n n n n n n n n n x x n n n n n n n n n n x x n n n n n n n n I I I K > % ; ; x n I I I I I I n n I I I I I I e Y.4XwX",
"wX;XK.s K E v { n n n n n n n n n n I K & % ; * I I n n n n I I n n n n n n n n n n n n n n n n n n n n n n x n n n n n n n n n n n n n n n x n n n n n n n n n n n n n n n n n n n n n n n x n n n n n n n n n n n n n n n n n n n n n n n x n n n n n n n n n n n n n n n n n n n n n n n x n n n n n n n n n n n x n n n n n n n n n n n n n n n n n n n x n n n n n n n n n n n x n n n n n x n n n n n n n n x x n n n n n x n n n n n n n n x x n n n n n n n n n n n x n n n n n n n n n n n n n n n n n n n n n n n x n n n n n n n n n n n n n n n n n n n n n n n x n n n n n n n n n I I P K > % ; ; x n I I I I I I n n I I I I I I e Y.4XwX",
"wX;XK.s K E v { n n n n n n n n n n I K & % ; * I I n n n n I I n n n n n n n n n n n n n n n n n n n n n n n n n n n n n n n n n n n n n n n n n n n n n n n n n n n n n n n n n n n n n n n n n n n n n n n n n n n n n n n n n n n n n n n n n n n n n n n n n n n n n n n n n n n n n n n n n n n n n n n n n n n n n n n n n n n n n n n n n n n n n n n n n n n n n n n n n n n n n n n n x n n n n n n n x x n n n n n n x n n n n n n n x x n n n n n n n n n n n n n n n n n n n n n n n n n n n n n n n n n n n n n n n n n n n n n n n n n n n n n n n n n n n n n n n n n n n n n n I I P K > % ; ; x n I I I I I I n n I I I I I I e Y.4XwX",
"rX-XK.z 7 N T P I I I I I I I I n n _ K & % ; * I I I n n n n I n n n n I I I I I I I I I I I I n I I I I I n n n I I I I I I n I I I I n n n n n I I I n n n n n I I I I I n n n I I I I I I n n n n I I I I I I n I I I I I I n I I I I I n n n I I I I I I n I I n n n I I I I I I I I I I I I I I I n n n I I I n n n n n I n I I I I I n n n I I I I I I n n n I I I I n n I I I I I I I I n n I I I I n n n n n n I I I I n n I I I I n n n n n n I I I I I I n n n n I I I I I I I I I I I I I I n n n I I I n n n n n I n I I I I I n n n I I I I I I n n n I I I I n n I I I I I I I I n n I K = % ; - x n n I I I I I n n n I I I I I r Y.4X0X",
"rX-XK.z 7 N T P n n I I I I n I n n _ K & % ; * I I I n n n n I n n I n I I I I I I I I I I I I n n I I I I n n I I I I I I n n I I I I n I n n I I I I n n I n n n I I I I n n I I I I I I n n n n I I I I I I n n I I I I n I n n I I I I n n I I I I I I n n I I n n n I I I I I I I n I I I I I I I n n n I I I n I n n I I n n I I I I n n I I I I I I n n n n I I I I n n I I I I n I I I n n n I I I n n I n n n I I I I n n n I I I n n I n n n I I I I I I n n n n I I I I I I n I I I I I I I n n n I I I n I n n I I n n I I I I n n I I I I I I n n n n I I I I n n I I I I n I I I n n I K = % ; - x n n I I I I I n n n n I I I I r Y.4X0X",
"rX-XK.z 7 N T P n n I I n n n n n n I K & % ; * I I I n n n I I I I I I I I n n n n n I n n I I n n I I I I I n I I I I I I I I n n I I I I I I I I I I I I I I n n I I I I I n I I I I I I I I I I I I I I I n n n I I n n n n n n I I I I I n I I I I I I I I I I I n I I I I I I n n n n n I n n I I I n I I I I I I I I I I n n I I I I I n I I I I I I I I n I I I I I n n I I n n n n n I n n I I I I n n I I I n I I n n n n I I I I n n I I I n I I n n I I I n I I I I I I n n n n n I n n I I I n I I I I I I I I I I n n I I I I I n I I I I I I I I n I I I I I n n I I n n n n n I n n I K = % ; - x n n I I I I I n n n I I I I I r Y.4X0X",
"rX-XK.z 7 N T P I n I I n n n n n n I K & % ; * U I I n n n I I I I I I I n n n n n n n n n n n n n n I I I I n I I I I I I I I n n n I I I I I I I I I I I I I n n n I I I I n I I I I I I I I I I I I I I I n n n I I I n n n n n n I I I I n I I I I I I I I I I n n I I I I I I n n n n n n n n n n I I I I I I I I I I I I n n n I I I I n I I I I I I I I I I I I I I I n I I n n n n n n I I I I I I n n I I I I I I n n I I I I I I n n I I I I I I n n I I I I I I I I I I n n n n n n n n n n I I I I I I I I I I I I n n n I I I I n I I I I I I I I I I I I I I I n I I n n n n n n n n I K = % ; - x n I I I I n n n n n n I I I I r Y.4X0X",
"rX-XK.z c N T P I I I n I I I I n n _ K = % ; * U I I n n n I I I I I I I I n n I I n n n I I I I I I I I I I I n n I I I I I I n n I I I I I I I I I I I I I I I I I I I I I I n n I I I I I I I I I I I I n n I I I I I I I I I I I I I I I I n n I I I I I I n n n I I n n n I I I n n n n I n I I I n n I I n I I I I I n n I I I I I I I I n n I I I I I I I I I I I I I I I I I n n n n I I I I I I I I I I I I I I I I n I I I I I I I I I I I I I I I n n n I I I n n n I I I n n n n I n I I I n n I I n I I I I I n n I I I I I I I I n n I I I I I I I I I I I I I I I I I n n n n I n n L K = % ; - x n I I I I I I n n n I I I I I r Y.4XwX",
"rX-XK.z c N T P I I I n I I I I n n I K = % ; * I I I n n n I I I I n n I I n I I I n n n I I I I I I I I I I I n n I I I I n n n n I I n I I I I I I I I I n n I I I I I I I I n n I I I I n n I I I I I I n n I I I n I I I I I I I I I I I I n n I I I I n n n n n I n n I n I I n n n n n I I I I I n n I I n I I I I I n n I I I I I I I I n n I I I I n n I I I I I I I I I I n n n n n I I I I I I I I I I I I I I I n n I I I I I I I I I I I I I I n n n I I I I I n n I I n n n n n I I I I I n n I I n I I I I I n n I I I I I I I I n n I I I I n n I I I I I I I I I I n n n n n I n n I K = % ; - x n I I I I I I n n n I I I I I r Y.4XwX",
"rX-XK.z c N T P I I n n I I I I n n _ K & % ; * I I I n n n n I I n n n I I I I I I n n I I I I I I n n I n I I n n I I I n n n I I I I n n n I I n I I I n n n I I n n I n I I n n I I I n n n n n n I I I I n I I n n n I I I I I n n I n I I n n I I I n n n n n I I I I I I I I I I n n I I I I I I n n I I n n I I I I n n I I n n I n I I n n I I I n n n I I I I n n I I I I I I n n I I n n I I I I I I n n I I I I I I n n I I I I I I n n I I I I I I n n I I I I n n I I I I n n I I I I I I n n I I n n I I I I n n I I n n I n I I n n I I I n n n I I I I n n I I I I I I n n I I n n I K = % ; - x n I I I I I I n n n I I I I I r Y.4XwX",
"rX-XK.z 7 N T P I I n n n I I I n n _ K = % ; * I I I n n n n I I I n n I I I I I I n I I I I I I I n n n n I I n n I I I I n n I I I I n n n I n n I I I n n n I I n n n n I I n n I I I I n n n n n n I I I n I I n n n I I I I I n n n n I I n n I I I I n n I I I I I I I I I I I I I I I I I I I I n n I I n n I I I I I n I I n n n n I I n n I I I I n n I I n n n n n n I I I I I I I I n I I I I I I n n n n n I I I I n I I I I I I n n n n n I I I I n n I I I I I I I I I I I I I I I I I I n n I I n n I I I I I n I I n n n n I I n n I I I I n n I I n n n n n n I I I I I I I I n n I K = % ; - x n I I I I I I n n n I I I I I r Y.4XwX",
"qX<XK.u 9 c v [ L L L L L L L L n I P H < % ; ; I I n n n I I I I I I I I I I I I I I I I I I I I I I I I I I I I I I I I I I I I I I I I I I I n n I I I I I I I I I I I I I I I I I I I I I I I I I I I I I I I I I I I I I I I I I I I I I I I I I I I I I I I I I I I I I I I I I I I I I I I I I I I I I I n n I I I I I I I I I I I I I I I I I I I I I I I n n n I I I I I I I I I I I I n n I I I I I I I I I I I I I I n n I I I I I I I I I I I I I I n I I I I I I I I I I I I I I I I I I I I I I I n n I I I I I I I I I I I I I I I I I I I I I I I n n n I I I I I I I I I I I I n n I K > % ; % x x n I I n x x L L L L L L L L r Y.3X0X",
"qX<XK.u 9 c v [ L L L L L L L L n I P H < % ; * I I x n n n I I I I I n I I I I I I n n I I I I I I I I I I n n I I I n I I I I I I I n I I I I n n I I I I I I I I I I I I n n I I I n I I I I I I I n I I I I I I I I I I I I I I I I I I n n I I I n I I I I I I I I I I I I I I n n I I I I I I I n I I I I I I I I I I I I I I I I I I n n I I I n I I I I n n n n I I I I I I n n I I I I n n I I I I I I I I I I I I n n n n I I I I I I I I I I I I n n I I I I I I I I I I n n I I I I I I I n I I I I I I I I I I I I I I I I I I n n I I I n I I I I n n n n I I I I I I n n I I I I n n I K > % ; % x x n I I n x x L L L L L L L L r Y.3X0X",
"qX<XK.u 9 c v [ L L L L L L L L n I I H > % ; * I I x n n n I L I I n n I I I I I n n n n I I I I I I I I n n n I I n n I I I I I I n n I I I I I I I I n n I I I I I I I n n n I I n n I I I I I I n n I I I I n n n n n n I I I I I I I n n n I I n n I I I I n I I I I I I I n n n n I I I I I I n n I I I I I I I I n n I I I I I I I n n n I I n n I I I I I I I I I I I I n n n n I I I I n I I I n n I I I I I I I n n n n I I I n n I I I I I I I n n n I I I I I I I I n n n n I I I I I I n n I I I I I I I I n n I I I I I I I n n n I I n n I I I I I I I I I I I I n n n n I I I I n n P K = % ; % x x n I I n x x L L L L L L L L r Y.3X0X",
"wX<XK.u 9 c v [ L L L L L L L L n I I H > % ; * I I x x n n I L n n n n n n n n n n n n n n n n n n n n n n n n n n n n n n n n n n n n n n n n n n n n n n n n n n n n n n n n n n n n n n n n n n n n n n n n n n n n n n n n n n n n n n n n n n n n n n n n n n n n n n n n n n n n n n n n n n n n n n n n n n n n n n n n n n n n n n n n n n n n n n n n n n n n n n n n n n n n n n n n n n n n n n n n n n n n n n n n n n n n n n n n n n n n n n n n n n n n n n n n n n n n n n n n n n n n n n n n n n n n n n n n n n n n n n n n n n n n n n n n n n n n n n n n n n n n n n n n n n I K = % ; % x x n I I n x x L L L L L L L L r Y.3X0X",
"wX<XK.u 9 x v [ L L L L L L L L n I P H > % ; * I x x x n n I L n n n n n n n n n n n n n n n n n n n n n n n n n n n n n n n n n n n n n n n n n n n n n n n n n n n n n n n n n n n n n n n n n n n n n n n n n n n n n n n n n n n n n n n n n n n n n n n n n n n n n n n n n n n n n n n n n n n n n n n n n n n n n n n n n n n n n n n n n n n n n n n n n n n n n n n n n n n n n n n n n n n n n n n n n n n n n n n n n n n n n n n n n n n n n n n n n n n n n n n n n n n n n n n n n n n n n n n n n n n n n n n n n n n n n n n n n n n n n n n n n n n n n n n n n n n n n n n n n n P K = % ; % x x n I I n x x L L L L L L L L r Y.3X0X",
"wX<XK.u 9 x v [ L L L L L L L L n I P H > % ; * I x x x n n L L x x x x x x x x x x x x x x x x x x x x x x x x x x x x x x x x x x x x x x x x x x x x x x x x x x x x x x x x x x x x x x x x x x x x x x x x x x x x x x x x x x x x x x x x x x x x x x x x x x x x x x x x x x x x x x x x x x x x x x x x x x x x x x x x x x x x x x x x x x x x x x x x x x x x x x x x x x x x x x x x x x x x x x x x x x x x x x x x x x x x x x x x x x x x x x x x x x x x x x x x x x x x x x x x x x x x x x x x x x x x x x x x x x x x x x x x x x x x x x x x x x x x x x x x x x x x x x x x n n P K = % ; % x x n I I n x x L L L L L L L L r Y.3X0X",
"qX<XK.u 9 x v [ L L L L L L L L n I P H < % ; * I L x x n n x x x x x x x x x x x x x x x x x x x x x x x x x x x x x x x x x x x x x x x x x x x x x x x x x x x x x x x x x x x x x x x x x x x x x x x x x x x x x x x x x x x x x x x x x x x x x x x x x x x x x x x x x x x x x x x x x x x x x x x x x x x x x x x x x x x x x x x x x x x x x x x x x x x x x x x x x x x x x x x x x x x x x x x x x x x x x x x x x x x x x x x x x x x x x x x x x x x x x x x x x x x x x x x x x x x x x x x x x x x x x x x x x x x x x x x x x x x x x x x x x x x x x x x x x x x x x x x x x x n n P K > % ; % x x n I I n x x L L L L L L L L r Y.3X0X",
"qX<XK.u 9 x v [ L L L L L L L L n I I H > % ; ; I x x x n n x x x x x x x x x x x x x x x x x x x x x x x x x x x x x x x x x x x x x x x x x x x x x x x x x x x x x x x x x x x x x x x x x x x x x x x x x x x x x x x x x x x x x x x x x x x x x x x x x x x x x x x x x x x x x x x x x x x x x x x x x x x x x x x x x x x x x x x x x x x x x x x x x x x x x x x x x x x x x x x x x x x x x x x x x x x x x x x x x x x x x x x x x x x x x x x x x x x x x x x x x x x x x x x x x x x x x x x x x x x x x x x x x x x x x x x x x x x x x x x x x x x x x x x x x x x x x x x x x x n n P K > % ; % x x n I I n x x L L L L L L L L r Y.3X0X",
"qX<XK.u 9 x f P n n n n n n n n n I P H < % ; * L L x x x x x x x x x x x x x x x x x x x x x x x x x x x x x x x x x x x x x x x x x x x x x x x x x x x x x x x x x x x x x x x x x x x x x x x x x x x x x x x x x x x x x x x x x x x x x x x x x x x x x x x x x x x x x x x x x x x x x x x x x x x x x x x x x x x x x x x x x x x x x x x x x x x x x x x x x x x x x x x x x x x x x x x x x x x x x x x x x x x x x x x x x x x x x x x x x x x x x x x x x x x x x x x x x x x x x x x x x x x x x x x x x x x x x x x x x x x x x x x x x x x x x x x x x x x x x x x x x x x x x x n n I K < % ; % x x n I I I n n n n n n I I L L e Y.4XwX",
"wX<XK.u 9 x f P n n n n n n n n n I P H < % ; ; L L x x x x x x x x x x x x x x x x x x x x x x x x x x x x x x x x x x x x x x x x x x x x x x x x x x x x x x x x x x x x x x x x x x x x x x x x x x x x x x x x x x x x x x x x x x x x x x x x x x x x x x x x x x x x x x x x x x x x x x x x x x x x x x x x x x x x x x x x x x x x x x x x x x x x x x x x x x x x x x x x x x x x x x x x x x x x x x x x x x x x x x x x x x x x x x x x x x x x x x x x x x x x x x x x x x x x x x x x x x x x x x x x x x x x x x x x x x x x x x x x x x x x x x x x x x x x x x x x x x x x x x n n I K < % ; % x x n I I I n n n n n n I I L L e Y.4XwX",
"wX<XK.u 9 x f P n n n n n n n n n I P H > % ; * L L x x x x x x x x x x x x x x x x x x x x x x x x x x x x x x x x x x x x x x x x x x x x x x x x x x x x x x x x x x x x x x x x x x x x x x x x x x x x x x x x x x x x x x x x x x x x x x x x x x x x x x x x x x x x x x x x x x x x x x x x x x x x x x x x x x x x x x x x x x x x x x x x x x x x x x x x x x x x x x x x x x x x x x x x x x x x x x x x x x x x x x x x x x x x x x x x x x x x x x x x x x x x x x x x x x x x x x x x x x x x x x x x x x x x x x x x x x x x x x x x x x x x x x x x x x x x x x x x x x x x x x n n I K < % ; % x x n I I I n n n n n n I I I L e Y.4XwX",
"wX<XK.u 9 x f P n n n n n n n n n I P H < % ; * L L x x x x x L x x x x x x x x x x x x x x x x x x x x x x x x x x x x x x x x x x x x x x x x x x x x x x x x x x x x x x x x x x x x x x x x x x x x x x x x x x x x x x x x x x x x x x x x x x x x x x x x x x x x x x x x x x x x x x x x x x x x x x x x x x x x x x x x x x x x x x x x x x x x x x x x x x x x x x x x x x x x x x x x x x x x x x x x x x x x x x x x x x x x x x x x x x x x x x x x x x x x x x x x x x x x x x x x x x x x x x x x x x x x x x x x x x x x x x x x x x x x x x x x x x x x x x x x x x x x x x x x n n I K < % ; % x x n I I I n n n n n n I I I I e Y.4XwX",
"qX<XK.u 9 c f P n n n n n n n n n I P H > % ; 4 L L x x n n n n x x x x x x x x x x x x x x x x x x x x x x x x x x x x x x x x x x x x x x x x x x x x x x x x x x x x x x x x x x x x x x x x x x x x x x x x x x x x x x x x x x x x x x x x x x x x x x x x x x x x x x x x x x x x x x x x x x x x x x x x x x x x x x x x x x x x x x x x x x x x x x x x x x x x x x x x x x x x x x x x x x x x x x x x x x x x x x x x x x x x x x x x x x x x x x x x x x x x x x x x x x x x x x x x x x x x x x x x x x x x x x x x x x x x x x x x x x x x x x x x x x x x x x x x x x x x x x x x n n I K > % ; % x x n I I I n n x n n n I I I I e Y.4XwX",
"qX<XK.u 9 c f P n n n n n n n n n I P H < % ; * L L x x n n n n x x x x x x x x x x x x x x x x x x x x x x x x x x x x x x x x x x x x x x x x x x x x x x x x x x x x x x x x x x x x x x x x x x x x x x x x x x x x x x x x x x x x x x x x x x x x x x x x x x x x x x x x x x x x x x x x x x x x x x x x x x x x x x x x x x x x x x x x x x x x x x x x x x x x x x x x x x x x x x x x x x x x x x x x x x x x x x x x x x x x x x x x x x x x x x x x x x x x x x x x x x x x x x x x x x x x x x x x x x x x x x x x x x x x x x x x x x x x x x x x x x x x x x x x x x x x x x x x n n I K < % ; % x x n I I I n n n n n n I I I I e Y.4XwX",
"qX<XK.u 9 c f P n n n n n n I I n I P H < % ; ; L L x x n x x x x x x x x x x x x x x x x x x x x x x x x x x x x x x x x x x x x x x x x x x x x x x x x x x x x x x x x x x x x x x x x x x x x x x x x x x x x x x x x x x x x x x x x x x x x x x x x x x x x x x x x x x x x x x x x x x x x x x x x x x x x x x x x x x x x x x x x x x x x x x x x x x x x x x x x x x x x x x x x x x x x x x x x x x x x x x x x x x x x x x x x x x x x x x x x x x x x x x x x x x x x x x x x x x x x x x x x x x x x x x x x x x x x x x x x x x x x x x x x x x x x x x x x x x x x x x x x x x x n n P K < % ; % x x n I I I n n n n n n I I I I e Y.4XwX",
"qX<XK.u 9 c f P n n n n n n I I n I P H > % ; ; L L x x x x n x x x x x x x x x x x x x x x x x x x x x x x x x x x x x x x x x x x x x x x x x x x x x x x x x x x x x x x x x x x x x x x x x x x x x x x x x x x x x x x x x x x x x x x x x x x x x x x x x x x x x x x x x x x x x x x x x x x x x x x x x x x x x x x x x x x x x x x x x x x x x x x x x x x x x x x x x x x x x x x x x x x x x x x x x x x x x x x x x x x x x x x x x x x x x x x x x x x x x x x x x x x x x x x x x x x x x x x x x x x x x x x x x x x x x x x x x x x x x x x x x x x x x x x x x x x x x x x x x n n P K < % ; % x x n I I n n n n n n n I I I I e Y.4X0X"
};
