/* XPM */
static char *door_lily[] = {
/* columns rows colors chars-per-pixel */
"64 64 167 2 ",
"   c #000000",
".  c #0E0A00",
"X  c #020709",
"o  c #030B0E",
"O  c #0E0A09",
"+  c #171301",
"@  c #11100F",
"#  c #000816",
"$  c #000F18",
"%  c #051216",
"&  c #03161B",
"*  c #07181C",
"=  c #332D05",
"-  c #3F3913",
";  c #001524",
":  c #071C21",
">  c #081E24",
",  c #0A2125",
"<  c #0C2E37",
"1  c #0E3037",
"2  c #0C303A",
"3  c #524D13",
"4  c #78721F",
"5  c #5B652D",
"6  c #6A7634",
"7  c #114351",
"8  c #2A737F",
"9  c #31957D",
"0  c #3E9978",
"q  c #7FAF5D",
"w  c #7EB05D",
"e  c #56936B",
"r  c #438875",
"t  c #499873",
"y  c #578B6A",
"u  c #6B9666",
"i  c #57A26E",
"p  c #5EA56B",
"a  c #76A860",
"s  c #998200",
"d  c #A18A00",
"f  c #A28F1E",
"g  c #8C8321",
"h  c #828631",
"j  c #88943D",
"k  c #A18F24",
"l  c #A19025",
"z  c #A69530",
"x  c #AEA42A",
"c  c #C5AF2C",
"v  c #C7B026",
"b  c #CFB82E",
"n  c #D3BB2F",
"m  c #D7BF30",
"M  c #D9C12D",
"N  c #C7C43C",
"B  c #CCC538",
"V  c #CEC93A",
"C  c #DAC130",
"Z  c #DACD36",
"A  c #D2CB39",
"S  c #DBC43B",
"D  c #EDD62E",
"F  c #E0CF34",
"G  c #E2D83B",
"H  c #E8DB39",
"J  c #E0D73C",
"K  c #83A25A",
"L  c #8AA557",
"P  c #90A854",
"I  c #8DB457",
"U  c #89B258",
"Y  c #82B25B",
"T  c #AEBC48",
"R  c #B8BB44",
"E  c #B4B946",
"W  c #BFB06B",
"Q  c #C3B46E",
"!  c #C5B671",
"~  c #C7B871",
"^  c #BFC241",
"/  c #BBC44A",
"(  c #B2C047",
")  c #0B648C",
"_  c #156987",
"`  c #1C6D84",
"'  c #106A8E",
"]  c #1E6F88",
"[  c #1B7386",
"{  c #197B86",
"}  c #177788",
"|  c #1E738C",
" . c #127B89",
".. c #026190",
"X. c #137296",
"o. c #1F7891",
"O. c #207187",
"+. c #217A86",
"@. c #207C96",
"#. c #0C898D",
"$. c #178486",
"%. c #198087",
"&. c #1A8D87",
"*. c #178688",
"=. c #188288",
"-. c #168C89",
";. c #188D88",
":. c #159089",
">. c #008394",
",. c #048891",
"<. c #259183",
"1. c #D5CEC5",
"2. c #D6CFC8",
"3. c #D6D0C7",
"4. c #D7D1C9",
"5. c #DAD4CC",
"6. c #DDD7D0",
"7. c #DED8D1",
"8. c #E4DBCD",
"9. c #E3D9C7",
"0. c #E6DED5",
"q. c #E8DFD5",
"w. c #E7DFD8",
"e. c #E8DFD8",
"r. c #E8E0CF",
"t. c #E7E0D5",
"y. c #E9E1D7",
"u. c #E7E0D8",
"i. c #EAE1D8",
"p. c #E9E2D8",
"a. c #E9E2D8",
"s. c #EAE3D9",
"d. c #EAE2D9",
"f. c #EAE3DA",
"g. c #E9E1D8",
"h. c #ECE3DA",
"j. c #EAE4D9",
"k. c #EBE4DA",
"l. c #EBE4DB",
"z. c #ECE5DB",
"x. c #ECE4DB",
"c. c #EBE4DC",
"v. c #ECE5DC",
"b. c #EDE6DC",
"n. c #EDE6DD",
"m. c #EEE7DD",
"M. c #EDE6DE",
"N. c #EEE7DF",
"B. c #EBE3DB",
"V. c #EFE8DE",
"C. c #EFE8DE",
"Z. c #F0E9DF",
"A. c #F0E7DE",
"S. c #EBE3E3",
"D. c #EBE4E3",
"F. c #EBE4E4",
"G. c #ECE5E5",
"H. c #EEE6E7",
"J. c #EDE6E6",
"K. c #EEE8E2",
"L. c #EEE7E8",
"P. c #EFE9E8",
"I. c #EFEAE9",
"U. c #F0E9E1",
"Y. c #F0EAEA",
"T. c #F2ECEB",
"R. c #F1EBEC",
/* pixels */
"y.q.q.i.i.y.i.i.q.q.q.q.q.y.y.y.i.i.i.i.V.V.i.i.V.i.i.i.i.V.K.i.y.q.q.q.y.y.q.q.q.y.q.t.i.y.i.y.i.i.i.i.i.i.i.i.i.i.i.i.i.i.i.i.",
"i.i.q.q.y.i.i.i.i.i.q.q.q.y.q.y.y.q.i.i.i.i.i.i.i.i.i.i.i.i.i.i.i.q.q.q.y.i.q.q.i.y.q.q.i.i.i.y.y.i.i.i.i.y.y.i.i.i.i.i.i.i.i.i.",
"i.i.i.q.t.i.i.i.i.i.i.q.q.q.y.y.i.i.i.i.i.i.i.V.i.i.i.i.i.i.i.i.i.i.q.q.q.y.q.q.q.q.y.q.y.y.y.i.i.t.y.i.i.i.i.i.i.i.i.i.i.i.i.i.",
"i.i.q.q.q.q.i.i.i.i.i.y.q.q.i.i.t.y.i.i.q.i.y.i.i.i.i.i.i.i.i.i.i.i.i.q.q.y.y.y.q.q.q.y.y.y.y.y.y.q.i.i.i.i.i.i.i.i.y.i.i.V.i.i.",
"i.i.i.q.q.q.y.y.y.i.y.y.8.q.t.t.q.q.q.q.q.y.y.t.y.y.i.y.y.y.y.y.i.y.y.y.q.y.q.q.q.q.q.q.q.q.q.q.q.q.q.y.y.y.i.i.y.y.y.y.i.i.i.i.",
"i.i.i.y.q.F.F.F.F.Y.Y.L.F.F.F.P.F.F.F.F.F.F.P.Y.Y.Y.K.P.F.Y.Y.Y.Y.P.F.K.P.F.F.F.F.F.F.F.F.F.F.F.F.F.F.F.F.F.P.Y.P.F.F.y.i.i.i.i.",
"i.i.q.q.q.! Q Q Q Q Q Q Q Q Q Q Q Q Q Q Q Q Q Q Q Q Q Q Q ! ~ ~ ~ ! Q Q Q W Q Q Q Q Q Q Q Q Q Q Q Q Q Q Q Q Q ! Q Q ! 8.i.i.y.i.",
"y.i.i.q.9.d d d d d d d d d d d d d d d d d d d d d d d d d s s s s d d d d d d d d d d d d d d d d d d d d d d d d d 8.w.i.i.i.",
"i.i.i.i.5.- = = = = = = = = = = = = = = = = = = = = = = = = f v v f = = = = = = = = = = = = = = = = = = = = = = = = - 5.i.i.i.i.",
"i.i.i.U.5.O                                                 k C C k                                                 O 5.V.i.i.i.",
"i.t.i.V.5.@                                                 k n n k                                                 @ 5.V.i.i.i.",
"i.i.i.V.5.O   % % % % % % % % % % % % % % % % % % % % % X   k m m k   o % % % % % % % % % % % % % % % % % % % % %   O 5.V.i.i.i.",
"i.V.i.i.5.O & ` ` ` ` ` ` ` ` ` ` ` ` ` ` ` ` ` ` ` ` [ <   l m m l   < [ ` ` ` ` ` ` ` ` ` ` ` ` ` ` ` ` ` ` ` ` & O 5.i.i.i.i.",
"i.i.i.Z.5.O & [ ` ` ` ` } { { { { { { { { { { { { { } [ <   l m m l   < [ } { { { { { { { { { { { { { { { { { } [ & O 4.i.i.i.i.",
"K.K.i.U.5.O & [ ` ` ` ` *.*.*.*.*.*.*.*.*.*.*.*.*.*.{ [ <   l m m l   < [ =.*.*.*.*.*.*.:.:.:.:.*.*.*.*.*.*.:.{ ` & O 5.V.i.i.i.",
"K.U.V.U.7.O & [ ` ` } { *.*.*.*.*.*.*.*.*.*.*.*.*.*.{ [ <   l m m l   < [ %.*.*.*.*.*.*.*.*.*.*.*.*.*.*.*.*.*.{ ] & O 5.i.i.i.i.",
"i.U.i.U.7.O & [ } ` =.:.*.*.*.*.*.*.*.*.*.*.*.*.*.:.%.[ <   l C m l   < [ { *.*.*.*.*.*.*.*.*.*.*.*.*.*.*.*.:.{ ] & O 5.i.u.i.K.",
"i.i.i.U.6.O & [ ` ` =.:.*.*.*.*.*.*.*.*.*.*.*.*.*.:.%.[ <   l m m l   < [ { *.*.*.*.*.*.*.*.*.*.*.*.*.*.*.*.:.{ ] & O 5.U.i.i.K.",
"i.i.i.U.6.O & [ ` ` =.*.*.*.*.*.*.*.*.*.*.*.*.*.*.:.=.[ <   l m m l   < [ { *.*.*.*.*.*.*.*.*.*.*.*.*.*.*.*.:.{ ] & O 5.U.i.K.i.",
"i.i.i.U.6.O & [ ` ` } } } } *.*.*.*.*.*.*.*.*.*.*.:.=.[ <   l m m l   < [ { *.*.*.*.*.*.*.*.*.*.*.*.*.*.*.*.*.{ ] & O 5.U.i.i.i.",
"i.i.i.U.6.O & [ ` ` ` ` ` ` *.*.*.*.*.*.*.*.*.*.*.*.{ [ <   l m m l   < [ %.:.*.*.*.*.*.*.*.*.*.*.*.*.*.*.*.*.{ ] & O 5.U.i.i.i.",
"i.i.i.K.5.O & [ ` ` ` ` ` } *.*.*.*.*.*.*.*.*.*.*.*.{ [ <   l m m l   < [ %.:.*.*.*.*.*.*.*.*.*.*.*.*.*.*.*.*.{ ] & O 5.U.i.i.i.",
"i.i.i.i.5.O & [ ` ` ` ` ` } =.=.*.*.*.*.*.*.*.*.*.*.{ [ <   l m m l   2 [ %.*.*.*.*.*.*.*.*.*.*.*.*.*.*.*.*.*.{ ] & O 5.i.i.i.i.",
"i.i.i.i.5.O & [ ` ` ` ` ` ` ` } *.*.*.*.*.*.*.*.*.*.{ [ <   l m m l   2 [ %.*.*.*.*.*.*.*.*.*.*.*.*.*.*.*.*.*.{ ` & O 5.i.i.i.i.",
"i.t.q.q.5.O & [ ` ` ` ` ` ` ` } *.*.*.*.*.*.*.*.*.*.%.[ 2   l m m l   < [ { *.*.*.*.*.*.*.*.*.*.*.*.*.*.*.*.:.{ ` & O 5.i.i.i.i.",
"i.y.q.i.5.O & [ ` ` ` ` ` ` ` } *.*.*.*.*.*.*.*.*.*.%.[ 2   l m m l   < [ { *.*.*.*.*.*.*.*.*.*.*.*.*.*.*.*.:.{ ` & O 5.i.i.i.i.",
"i.i.i.i.5.O & [ ` ` ` ` ` ` ` } :.*.*.*.*.*.*.*.*.:.%.[ <   l m m l   < [ { *.*.*.*.*.*.*.*.*.*.*.*.*.*.*.*.:.{ ] & O 5.y.y.i.i.",
"i.i.i.V.5.O & [ ` ` ` ` ` ` ` } *.*.*.*.*.*.*.*.*.:.%.[ <   l m m l   < [ { *.*.*.*.*.*.*.*.*.*.*.*.*.*.*.*.:.{ ] & O 5.y.t.i.i.",
"i.i.i.i.5.O & [ ` ` ` ` ` ` ` ` } } } =.*.*.*.*.*.*.{ [ <   l m m l   < [ %.:.*.*.*.*.*.*.*.*.*.*.*.*.*.*.*.*.{ ] & O 5.i.t.i.i.",
"i.y.q.i.5.O & [ ` ` ` ` } } } } } } ` %.;.*.*.;.;.*.{ [ <   l m m l   < [ %.:.;.;.*.*.;.:.*.*.*.*.*.*.*.*.*.*.{ ] & O 6.Z.i.i.q.",
"i.y.q.i.5.O & [ ` ` ` ` =.*.*.=.` ` ` *.#.*.*.#.#.:.%.[ <   l m m l   < [ %.:.#.#.*.*.#.#.*.*.*.*.*.*.*.*.*.*.{ ] & O 5.V.i.i.i.",
"y.y.q.i.5.O & [ ` ` ` ` =.*.*.=.` } ` r p <.;.i t =.{ [ <   l m m l   < [ %.:.t i ;.<.p 0 *.*.*.*.*.*.*.*.*.*.{ ] & O 5.Z.i.i.i.",
"u.y.q.i.5.O & [ ` ` ` ` *.*.*.*.` ` ..L D 9 #.Z E ) _ [ <   l m m l   < [ } ,.( Z #.9 D U >.*.*.*.*.*.*.*.*.:.{ ] & O 5.i.i.t.i.",
"q.q.q.i.5.O & [ ` ` ` ` { { { { _ r K T Z I q V ^ K y [ <   l m m l   < [ e Y ^ V q I Z T w r } { { { { { { { } ` & O 5.i.q.q.i.",
"q.q.q.i.5.O & [ [ [ [ [ [ ] ] O.' u D A A Z F A A D P X.2   l m m l   2 X.P D A A Z Z A A D u ' O.] ] ] [ [ [ [ [ & O 5.i.q.q.i.",
"q.i.t.i.5.O   , > > > > > > > , ; 5 J A A A A A A G h ; o   k m m k   o ; h G A A A A A A G 5 ; , > > > > > , , >   O 5.i.q.y.i.",
"q.i.i.i.5.O                       3 A B A A A A B A 4       k m m k       4 A B A A A A B A 3                       O 5.i.q.q.i.",
"q.i.t.V.5.O                       . . g H A A G x + .       k m m k       . + x G A A H g . .                       O 3.i.y.q.i.",
"i.i.t.i.5.O   * & & & & & & & & & & # 6 / N V / j $ & * o   k m m k   o * & $ j / V N / 6 # & & & & & & & & * * &   O 1.y.t.i.i.",
"i.i.i.i.5.O & [ ` ` ` ` ` ` ` ` ` ` ` ` ` R Z 8 ` ` ` [ <   l m m l   < [ ` ` ` 8 Z R ` ` ` ` ` ` ` ` ` ` ` ` ` [ & O 2.e.q.q.q.",
"y.i.i.i.5.O & [ } { { { { { { { { { { { } a U +.} { } [ <   l m m l   < [ } { } +.U a } { { { { { { { { { { { } [ & O 5.i.q.q.q.",
"i.i.i.i.5.O & ` { *.*.*.*.*.*.*.:.:.:.:.:.#.#.*.*.*.{ [ <   l m m l   < [ %.:.*.*.#.#.*.*.*.*.*.:.:.:.:.:.*.:.{ ] & O 5.i.u.u.w.",
"i.i.i.Z.5.O & ` { *.*.*.*.*.*.*.*.*.*.*.*.;.;.*.*.*.{ [ <   l m m l   < [ %.*.*.*.;.;.*.*.*.*.*.*.*.*.*.*.*.*.{ ] & O 5.i.q.i.e.",
"w.i.q.i.5.O & ] { *.*.*.*.*.*.*.*.*.*.*.*.*.*.*.*.*.{ [ <   l m m l   2 [ %.*.*.*.*.*.*.*.*.*.*.*.*.*.*.*.*.*.{ ] & O 7.K.u.i.i.",
"w.q.q.i.5.O & ] { :.*.*.*.*.*.*.*.*.*.*.*.*.*.*.*.*.{ [ <   l m m l   < [ %.:.*.*.*.*.*.*.*.*.*.*.*.*.*.*.*.*.{ ] & O 6.i.i.i.i.",
"u.u.q.i.4.O & ] { *.*.*.*.*.*.*.*.*.*.*.*.*.*.*.*.*.%.[ <   l m m l   < [ %.:.*.*.*.*.*.*.*.*.*.*.*.*.*.*.*.*.{ ] & O 5.K.i.i.i.",
"q.q.q.i.4.O & [ } } =.:.*.*.*.*.*.*.*.*.*.*.*.*.*.:.%.[ <   l m m l   < [ %.:.*.*.*.*.*.*.*.*.*.*.*.*.*.*.*.*.{ ] & O 6.U.i.i.i.",
"q.i.q.i.5.O & [ ` ` =.:.*.*.*.*.*.*.*.*.*.*.*.*.*.*.{ [ <   l m m l   < [ =.:.*.*.*.*.*.*.*.*.*.*.*.*.*.*.*.*.{ ] & O 5.K.u.i.i.",
"i.q.q.i.5.O & [ ` ` =.:.*.*.*.*.*.*.*.*.*.*.*.:.*.` ` [ <   l m m l   < [ { *.*.*.*.*.*.*.*.*.*.*.*.*.*.*.*.:.{ ] & O 5.i.q.u.u.",
"i.u.i.i.6.O & [ ` ` { =.=.=.*.*.*.*.*.*.*.*.=.=.{ ` ` [ <   l m m l   < [ { *.*.*.*.*.*.*.*.*.*.*.*.*.*.*.*.:.{ ] & O 5.i.i.i.i.",
"i.i.i.K.5.O & [ ` ` ` ` ` ` *.*.*.*.*.:.:.} ` ` ` ` ` [ <   l m m l   < [ %.:.*.*.*.*.*.*.*.*.*.*.*.*.*.*.*.:.{ ] & O 4.i.u.i.i.",
"i.i.u.i.5.O & [ ` ` ` ` ` } { { { { { { { } } } ` ` ` [ <   l m m l   < [ } { { { *.*.*.*.*.*.*.*.*.*.*.*.*.:.{ ] & O 4.i.u.w.i.",
"e.i.w.i.2.O & [ ` ` ` ` ` ` ` ` ` ` ` ` ` ` ` ` ` ` ` [ <   l n m l   < [ ` ` ` ` *.*.*.*.*.*.*.*.*.*.*.*.*.*.{ ] & O 5.i.i.q.u.",
"i.i.w.F.5.O & [ ` ` ` ` ` ` ` ` ` ` ` ` } ` ` ` ` ` ` [ <   l n m l   < [ ` ` ` } } } } { *.*.*.*.*.*.*.*.*.:.{ ] & O 5.i.u.q.u.",
"u.i.i.i.6.O & [ ` ` ` ` ` ` ` ` ` ` ` ` ` ` ` ` ` ` ` [ <   l m m l   < [ ` ` ` ` ` ` ` { *.*.*.*.*.*.*.*.*.*.{ ] & O 5.i.u.i.u.",
"i.i.i.K.6.O & [ ` ` ` ` ` ` ` ` ` ` ` ` ` ` ` ` ` ` ` [ <   l m m l   < [ ` ` ` } } } } } } =.*.*.:.*.*.:.=.} } [ & O 5.i.i.i.i.",
"i.i.i.U.7.O & ` ` ` ` ` ` ` ` ` ` ` ` ` ` ` ` ` ` ` ` [ <   l m m l   < [ ` ` ` ` ` ` ` ` ` { =.=.=.=.=.=.{ ` ` ` & O 5.i.u.q.q.",
"e.i.i.i.5.O * o.[ [ [ [ [ [ [ [ [ [ [ [ [ [ [ [ [ [ [ @.2   l m m l   2 @.[ [ [ [ [ [ [ [ [ [ [ [ [ [ [ [ [ [ [ o.* O 4.i.u.q.u.",
"i.i.q.i.5.O o 7 7 7 7 7 7 7 7 7 7 7 7 7 7 7 7 7 7 7 7 7 >   l m m l   > 7 7 7 7 7 7 7 7 7 7 7 7 7 7 7 7 7 7 7 7 7 # O 4.y.q.q.u.",
"i.q.q.i.5.@                                                 k m m k                                                 @ 5.i.q.q.i.",
"i.i.i.U.5.O                                                 k m m k                                                 O 5.i.u.i.q.",
"w.i.i.i.5.O                                                 k m m k                                                 O 5.i.q.i.i.",
"q.q.q.i.t.z k l k k k k k k k k k k k k k k k k k k k k k k c n n c k k k k k k k k k k k k k k l l l k k k k k k k z q.i.i.u.q.",
"q.q.q.i.r.S M C C C C C C C C C C C C C C C C C C C C C C C n b b n C C C C C C C C C C C C C C C C C C C C C C C M S y.i.i.i.u."
};
