/* XPM */
static char *splash[] = {
/* columns rows colors chars-per-pixel */
"96 96 12 1 ",
"  c #550B2A",
". c #0A5217",
"X c #08145B",
"o c #C81C64",
"O c #14B532",
"+ c #919016",
"@ c #F7F51F",
"# c #2C20B3",
"$ c #168C89",
"% c #30E9CD",
"& c #EBE8E4",
"* c white",
/* pixels */
"&&&&&&%%%&&&&&&&&&&&&&&&&&&&&&&&&&&&&&&ooo   &&&&&&&&&&&&&&&&&&&&&&&&&&&&&&&&&@@@@@@@@@******@@@",
"&&&&&&%%%&&&&&&&&&&&&&&&&&&&&&&&&&&&&&&ooo   &&&&&&&&&&&&&&&&&&&&&&&&&&&&&&&&&@@@@@@@@@******@@@",
"&&&&&&%%%&&&&&&&&&&&&&&&&&&&&&&&&&&&&&&ooo   &&&&&&&&&&&&&&&&&&&&&&&&&&&&&&&&&@@@@@@@@@******@@@",
"&&&$$$%%%&&&&&&&&&&&&&&&&&&&&&ooooooooo      &&&&&&@@@&&&&&&&&&&&&&&&&&&&&&&&&@@@@@@@@@@@@@@@@@@",
"&&&$$$%%%&&&&&&&&&&&&&&&&&&&&&ooooooooo      &&&&&&@@@&&&&&&&&&&&&&&&&&&&&&&&&@@@@@@@@@@@@@@@@@@",
"&&&$$$%%%&&&&&&&&&&&&&&&&&&&&&ooooooooo      &&&&&&@@@&&&&&&&&&&&&&&&&&&&&&&&&@@@@@@@@@@@@@@@@@@",
"&&&$$$$$$&&&&&&&&&%%%&&&&&&&&&&&&&&&      &&&&&&&&&@@@&&&&&&&&&&&&&&&&&&&&&@@@@@@@@@++++++++++++",
"&&&$$$$$$&&&&&&&&&%%%&&&&&&&&&&&&&&&      &&&&&&&&&@@@&&&&&&&&&&&&&&&&&&&&&@@@@@@@@@++++++++++++",
"&&&$$$$$$&&&&&&&&&%%%&&&&&&&&&&&&&&&      &&&&&&&&&@@@&&&&&&&&&&&&&&&&&&&&&@@@@@@@@@++++++++++++",
"&&&&&&$$$$$$&&&&&&%%%&&&&&&&&&&&&&&&&&&&&&&&&&&&&&&@@@&&&&&&&&&&&&&&&&&&&&&&&&@@@@@@+++++++++&&&",
"&&&&&&$$$$$$&&&&&&%%%&&&&&&&&&&&&&&&&&&&&&&&&&&&&&&@@@&&&&&&&&&&&&&&&&&&&&&&&&@@@@@@+++++++++&&&",
"&&&&&&$$$$$$&&&&&&%%%&&&&&&&&&&&&&&&&&&&&&&&&&&&&&&@@@&&&&&&&&&&&&&&&&&&&&&&&&@@@@@@+++++++++&&&",
"&&&&&&&&&&&&&&&%%%%%%&&&&&&&&&%%%%%%%%%&&&&&&@@@&&&@@@@@@@@@@@@@@@++++++&&&&&&&&&@@@+++&&&&&&&&&",
"&&&&&&&&&&&&&&&%%%%%%&&&&&&&&&%%%%%%%%%&&&&&&@@@&&&@@@@@@@@@@@@@@@++++++&&&&&&&&&@@@+++&&&&&&&&&",
"&&&&&&&&&&&&&&&%%%%%%&&&&&&&&&%%%%%%%%%&&&&&&@@@&&&@@@@@@@@@@@@@@@++++++&&&&&&&&&@@@+++&&&&&&&&&",
"&&&&&&&&&&&&&&&%%%%%%&&&&&&&&&%%%&&&&&&&&&&&&@@@@@@@@@@@@@@@@@@+++++++++&&&&&&&&&@@@&&&&&&@@@@@@",
"&&&&&&&&&&&&&&&%%%%%%&&&&&&&&&%%%&&&&&&&&&&&&@@@@@@@@@@@@@@@@@@+++++++++&&&&&&&&&@@@&&&&&&@@@@@@",
"&&&&&&&&&&&&&&&%%%%%%&&&&&&&&&%%%&&&&&&&&&&&&@@@@@@@@@@@@@@@@@@+++++++++&&&&&&&&&@@@&&&&&&@@@@@@",
"&&&&&&%%%%%%%%%%%%%%%%%%%%%&&&&&&&&&&&&&&&&&&&&&@@@@@@@@@@@@+++&&&&&&&&&&&&&&&&&&&&&&&&&&&++++++",
"&&&&&&%%%%%%%%%%%%%%%%%%%%%&&&&&&&&&&&&&&&&&&&&&@@@@@@@@@@@@+++&&&&&&&&&&&&&&&&&&&&&&&&&&&++++++",
"&&&&&&%%%%%%%%%%%%%%%%%%%%%&&&&&&&&&&&&&&&&&&&&&@@@@@@@@@@@@+++&&&&&&&&&&&&&&&&&&&&&&&&&&&++++++",
"&&&&&&&&&%%%%%%%%%%%%%%%$$$%%%%%%&&&&&&&&&&&&&&&@@@@@@+++++++++&&&&&&&&&&&&&&&&&&&&&&&&&&&&&&&&&",
"&&&&&&&&&%%%%%%%%%%%%%%%$$$%%%%%%&&&&&&&&&&&&&&&@@@@@@+++++++++&&&&&&&&&&&&&&&&&&&&&&&&&&&&&&&&&",
"&&&&&&&&&%%%%%%%%%%%%%%%$$$%%%%%%&&&&&&&&&&&&&&&@@@@@@+++++++++&&&&&&&&&&&&&&&&&&&&&&&&&&&&&&&&&",
"&&&&&&&&&&&&&&&$$$$$$$$$$$$&&&&&&&&&&&&&&&&&&&&&&&&&&&&&&++++++&&&&&&&&&&&&&&&&&&&&&&&&&&&&&&&&&",
"&&&&&&&&&&&&&&&$$$$$$$$$$$$&&&&&&&&&&&&&&&&&&&&&&&&&&&&&&++++++&&&&&&&&&&&&&&&&&&&&&&&&&&&&&&&&&",
"&&&&&&&&&&&&&&&$$$$$$$$$$$$&&&&&&&&&&&&&&&&&&&&&&&&&&&&&&++++++&&&&&&&&&&&&&&&&&&&&&&&&&&&&&&&&&",
"&&&&&&&&&&&&&&&$$$$$$&&&&&&&&&&&&&&&&&&&&&&&&######&&&&&&++++++&&&&&&&&&&&&&&&&&&&&&&&&&&&OOOOOO",
"&&&&&&&&&&&&&&&$$$$$$&&&&&&&&&&&&&&&&&&&&&&&&######&&&&&&++++++&&&&&&&&&&&&&&&&&&&&&&&&&&&OOOOOO",
"&&&&&&&&&&&&&&&$$$$$$&&&&&&&&&&&&&&&&&&&&&&&&######&&&&&&++++++&&&&&&&&&&&&&&&&&&&&&&&&&&&OOOOOO",
"&&&&&&&&&&&&$$$$$$%%%&&&&&&&&&&&&&&&&&&&&&&&&###&&&&&&&&&&&&&&&&&&OOO&&&&&&&&&&&&&&&&&&OOOOOO...",
"&&&&&&&&&&&&$$$$$$%%%&&&&&&&&&&&&&&&&&&&&&&&&###&&&&&&&&&&&&&&&&&&OOO&&&&&&&&&&&&&&&&&&OOOOOO...",
"&&&&&&&&&&&&$$$$$$%%%&&&&&&&&&&&&&&&&&&&&&&&&###&&&&&&&&&&&&&&&&&&OOO&&&&&&&&&&&&&&&&&&OOOOOO...",
"&&&%%%$$$&&&$$$$$$&&&&&&&&&&&&&&&&&&&&&&&&###&&&&&&&&&&&&&&&&&&&&&OOO&&&&&&&&&&&&&&&OOO.........",
"&&&%%%$$$&&&$$$$$$&&&&&&&&&&&&&&&&&&&&&&&&###&&&&&&&&&&&&&&&&&&&&&OOO&&&&&&&&&&&&&&&OOO.........",
"&&&%%%$$$&&&$$$$$$&&&&&&&&&&&&&&&&&&&&&&&&###&&&&&&&&&&&&&&&&&&&&&OOO&&&&&&&&&&&&&&&OOO.........",
"&&&$$$$$$&&&&&&&&&&&&&&&&&&&&&&&&&&&&&&&&&###&&&&&&&&&&&&&&&&&&&&&OOOOOOOOO&&&&&&&&&&&&...&&&OOO",
"&&&$$$$$$&&&&&&&&&&&&&&&&&&&&&&&&&&&&&&&&&###&&&&&&&&&&&&&&&&&&&&&OOOOOOOOO&&&&&&&&&&&&...&&&OOO",
"&&&$$$$$$&&&&&&&&&&&&&&&&&&&&&&&&&&&&&&&&&###&&&&&&&&&&&&&&&&&&&&&OOOOOOOOO&&&&&&&&&&&&...&&&OOO",
"%%%$$$&&&&&&&&&&&&&&&&&&&&&&&&&&&&&&&&&&&&###&&&&&&&&&&&&&&&&&&&&&OOOOOOOOO&&&&&&&&&&&&&&&&&&...",
"%%%$$$&&&&&&&&&&&&&&&&&&&&&&&&&&&&&&&&&&&&###&&&&&&&&&&&&&&&&&&&&&OOOOOOOOO&&&&&&&&&&&&&&&&&&...",
"%%%$$$&&&&&&&&&&&&&&&&&&&&&&&&&&&&&&&&&&&&###&&&&&&&&&&&&&&&&&&&&&OOOOOOOOO&&&&&&&&&&&&&&&&&&...",
"&&&&&&&&&&&&&&&&&&@@@&&&&&&###&&&&&&&&&&&&###&&&&&&&&&&&&OOOOOOOOOOOOOOOOOOOOO&&&&&&&&&&&&&&&&&&",
"&&&&&&&&&&&&&&&&&&@@@&&&&&&###&&&&&&&&&&&&###&&&&&&&&&&&&OOOOOOOOOOOOOOOOOOOOO&&&&&&&&&&&&&&&&&&",
"&&&&&&&&&&&&&&&&&&@@@&&&&&&###&&&&&&&&&&&&###&&&&&&&&&&&&OOOOOOOOOOOOOOOOOOOOO&&&&&&&&&&&&&&&&&&",
"&&&OOO&&&&&&@@@@@@+++&&&&&&###&&&&&&&&&&&&&&&&&&&&&&&&&&&&&&OOOOOOOOOOOOOOOOOOOOOOOOOOOOOO&&&&&&",
"&&&OOO&&&&&&@@@@@@+++&&&&&&###&&&&&&&&&&&&&&&&&&&&&&&&&&&&&&OOOOOOOOOOOOOOOOOOOOOOOOOOOOOO&&&&&&",
"&&&OOO&&&&&&@@@@@@+++&&&&&&###&&&&&&&&&&&&&&&&&&&&&&&&&&&&&&OOOOOOOOOOOOOOOOOOOOOOOOOOOOOO&&&&&&",
"OOOOOO&&&&&&&&&++++++&&&&&&###&&&&&&&&&&&&%%%%%%&&&&&&&&&&&&&&&OOOOOOOOOOOOOOOOOOOOO&&&&&&&&&&&&",
"OOOOOO&&&&&&&&&++++++&&&&&&###&&&&&&&&&&&&%%%%%%&&&&&&&&&&&&&&&OOOOOOOOOOOOOOOOOOOOO&&&&&&&&&&&&",
"OOOOOO&&&&&&&&&++++++&&&&&&###&&&&&&&&&&&&%%%%%%&&&&&&&&&&&&&&&OOOOOOOOOOOOOOOOOOOOO&&&&&&&&&&&&",
"&&&&&&&&&&&&&&&&&&&&&&&&&&&###&&&&&&&&&%%%$$$$$$&&&&&&&&&&&&&&&OOOOOOOOOOOO......&&&&&&&&&&&&&&&",
"&&&&&&&&&&&&&&&&&&&&&&&&&&&###&&&&&&&&&%%%$$$$$$&&&&&&&&&&&&&&&OOOOOOOOOOOO......&&&&&&&&&&&&&&&",
"&&&&&&&&&&&&&&&&&&&&&&&&&&&###&&&&&&&&&%%%$$$$$$&&&&&&&&&&&&&&&OOOOOOOOOOOO......&&&&&&&&&&&&&&&",
"&&&&&&&&&&&&&&&######&&&######&&&&&&&&&&&&&&&$$$$$$&&&&&&&&&OOOOOOOOOOOO......&&&&&&&&&&&&&&&&&&",
"&&&&&&&&&&&&&&&######&&&######&&&&&&&&&&&&&&&$$$$$$&&&&&&&&&OOOOOOOOOOOO......&&&&&&&&&&&&&&&&&&",
"&&&&&&&&&&&&&&&######&&&######&&&&&&&&&&&&&&&$$$$$$&&&&&&&&&OOOOOOOOOOOO......&&&&&&&&&&&&&&&&&&",
"&&&&&&&&&&&&&&&&&&&&&&&&######&&&&&&&&&&&&&&&&&&$$$&&&&&&&&&OOOOOOOOO......&&&&&&&&&&&&&&&&&&&&&",
"&&&&&&&&&&&&&&&&&&&&&&&&######&&&&&&&&&&&&&&&&&&$$$&&&&&&&&&OOOOOOOOO......&&&&&&&&&&&&&&&&&&&&&",
"&&&&&&&&&&&&&&&&&&&&&&&&######&&&&&&&&&&&&&&&&&&$$$&&&&&&&&&OOOOOOOOO......&&&&&&&&&&&&&&&&&&&&&",
"&&&@@@@@@@@@&&&&&&&&&&&&######&&&&&&&&&&&&&&&&&&&&&&&&&&&OOOOOOOOOOOO......&&&&&&&&&&&&&&&&&&&&&",
"&&&@@@@@@@@@&&&&&&&&&&&&######&&&&&&&&&&&&&&&&&&&&&&&&&&&OOOOOOOOOOOO......&&&&&&&&&&&&&&&&&&&&&",
"&&&@@@@@@@@@&&&&&&&&&&&&######&&&&&&&&&&&&&&&&&&&&&&&&&&&OOOOOOOOOOOO......&&&&&&&&&&&&&&&&&&&&&",
"&&&&&&&&&@@@+++&&&&&&#########&&&######&&&&&&&&&&&&ooo&&&&&&&&&OOO.........&&&&&&&&&&&&oooooo&&&",
"&&&&&&&&&@@@+++&&&&&&#########&&&######&&&&&&&&&&&&ooo&&&&&&&&&OOO.........&&&&&&&&&&&&oooooo&&&",
"&&&&&&&&&@@@+++&&&&&&#########&&&######&&&&&&&&&&&&ooo&&&&&&&&&OOO.........&&&&&&&&&&&&oooooo&&&",
"&&&++++++++++++&&&&&&###############&&&&&&&&&&&&&&&ooo&&&&&&&&&OOO...&&&&&&&&&&&&&&&&&&oooooo   ",
"&&&++++++++++++&&&&&&###############&&&&&&&&&&&&&&&ooo&&&&&&&&&OOO...&&&&&&&&&&&&&&&&&&oooooo   ",
"&&&++++++++++++&&&&&&###############&&&&&&&&&&&&&&&ooo&&&&&&&&&OOO...&&&&&&&&&&&&&&&&&&oooooo   ",
"&&&&&&+++&&&&&&&&&##################&&&&&&&&&&&&oooooo      &&&OOO...&&&&&&&&&&&&&&&&&&         ",
"&&&&&&+++&&&&&&&&&##################&&&&&&&&&&&&oooooo      &&&OOO...&&&&&&&&&&&&&&&&&&         ",
"&&&&&&+++&&&&&&&&&##################&&&&&&&&&&&&oooooo      &&&OOO...&&&&&&&&&&&&&&&&&&         ",
"&&&&&&&&&&&&&&&&&&#####################&&&&&&&&&&&&&&&ooo   &&&OOO...&&&&&&&&&ooo&&&&&&   &&&&&&",
"&&&&&&&&&&&&&&&&&&#####################&&&&&&&&&&&&&&&ooo   &&&OOO...&&&&&&&&&ooo&&&&&&   &&&&&&",
"&&&&&&&&&&&&&&&&&&#####################&&&&&&&&&&&&&&&ooo   &&&OOO...&&&&&&&&&ooo&&&&&&   &&&&&&",
"&&&&&&&&&&&&#####################XXXXXXXXXXXX&&&&&&&&&ooo&&&&&&&&&&&&&&&&&&&&&ooo&&&&&&ooo&&&&&&",
"&&&&&&&&&&&&#####################XXXXXXXXXXXX&&&&&&&&&ooo&&&&&&&&&&&&&&&&&&&&&ooo&&&&&&ooo&&&&&&",
"&&&&&&&&&&&&#####################XXXXXXXXXXXX&&&&&&&&&ooo&&&&&&&&&&&&&&&&&&&&&ooo&&&&&&ooo&&&&&&",
"&&&&&&#####################XXXXXXXXXXXX###XXXXXX&&&&&&&&&&&&&&&&&&&&&&&&&&&oooooo&&&&&&&&&&&&&&&",
"&&&&&&#####################XXXXXXXXXXXX###XXXXXX&&&&&&&&&&&&&&&&&&&&&&&&&&&oooooo&&&&&&&&&&&&&&&",
"&&&&&&#####################XXXXXXXXXXXX###XXXXXX&&&&&&&&&&&&&&&&&&&&&&&&&&&oooooo&&&&&&&&&&&&&&&",
"&&&&&&&&&&&&&&&############XXXXXX&&&&&&&&&&&&&&&&&&&&&&&&&&&&&&&&&&&&&&&&&&oooooo&&&&&&&&&&&&&&&",
"&&&&&&&&&&&&&&&############XXXXXX&&&&&&&&&&&&&&&&&&&&&&&&&&&&&&&&&&&&&&&&&&oooooo&&&&&&&&&&&&&&&",
"&&&&&&&&&&&&&&&############XXXXXX&&&&&&&&&&&&&&&&&&&&&&&&&&&&&&&&&&&&&&&&&&oooooo&&&&&&&&&&&&&&&",
"&&&&&&&&&&&&&&&&&&######XXXXXX&&&&&&&&&&&&&&&&&&&&&&&&&&&&&&%%%&&&&&&&&&oooooooooooo&&&oooooo&&&",
"&&&&&&&&&&&&&&&&&&######XXXXXX&&&&&&&&&&&&&&&&&&&&&&&&&&&&&&%%%&&&&&&&&&oooooooooooo&&&oooooo&&&",
"&&&&&&&&&&&&&&&&&&######XXXXXX&&&&&&&&&&&&&&&&&&&&&&&&&&&&&&%%%&&&&&&&&&oooooooooooo&&&oooooo&&&",
"&&&&&&ooo&&&&&&&&&&&&###XXX&&&&&&&&&&&&&&&&&&&&&&&&&&&&&&%%%%%%&&&&&&&&&ooooooooo            &&&",
"&&&&&&ooo&&&&&&&&&&&&###XXX&&&&&&&&&&&&&&&&&&&&&&&&&&&&&&%%%%%%&&&&&&&&&ooooooooo            &&&",
"&&&&&&ooo&&&&&&&&&&&&###XXX&&&&&&&&&&&&&&&&&&&&&&&&&&&&&&%%%%%%&&&&&&&&&ooooooooo            &&&",
"&&&      &&&&&&&&&&&&XXXXXX&&&&&&&&&&&&&&&######&&&&&&&&&$$$$$$&&&ooooooooo               &&&&&&",
"&&&      &&&&&&&&&&&&XXXXXX&&&&&&&&&&&&&&&######&&&&&&&&&$$$$$$&&&ooooooooo               &&&&&&",
"&&&      &&&&&&&&&&&&XXXXXX&&&&&&&&&&&&&&&######&&&&&&&&&$$$$$$&&&ooooooooo               &&&&&&",
"      ooo&&&&&&&&&&&&XXX&&&&&&&&&&&&XXXXXXXXX###&&&&&&&&&&&&&&&&&&&&&&&&ooo      ******   &&&&&&",
"      ooo&&&&&&&&&&&&XXX&&&&&&&&&&&&XXXXXXXXX###&&&&&&&&&&&&&&&&&&&&&&&&ooo      ******   &&&&&&",
"      ooo&&&&&&&&&&&&XXX&&&&&&&&&&&&XXXXXXXXX###&&&&&&&&&&&&&&&&&&&&&&&&ooo      ******   &&&&&&"
};
