/* XPM */
static char *wall_self_port[] = {
/* columns rows colors chars-per-pixel */
"256 256 255 2 ",
"   c black",
".  c #3B391D",
"X  c #443D24",
"o  c #34493C",
"O  c #4B441B",
"+  c #494727",
"@  c #5A542D",
"#  c #595536",
"$  c #534F2E",
"%  c #755B29",
"&  c #645B36",
"*  c #69572B",
"=  c #5A633A",
"-  c #7B642C",
";  c #696339",
":  c #776937",
">  c #726A36",
",  c #6F501F",
"<  c #3B555A",
"1  c #505C47",
"2  c #586850",
"3  c #686847",
"4  c #746C45",
"5  c #7A7649",
"6  c #6A7559",
"7  c #777958",
"8  c #6B6F4C",
"9  c #455D64",
"0  c #4D6669",
"q  c #566D6A",
"w  c #5B7477",
"e  c #536E74",
"r  c #67786C",
"t  c #757D65",
"y  c #647B7B",
"u  c #677B77",
"i  c #717F74",
"p  c #675D48",
"a  c #886A2A",
"s  c #856A32",
"d  c #86753A",
"f  c #926F2E",
"g  c #825D27",
"h  c #857B47",
"j  c #847C54",
"k  c #837E62",
"l  c #7A8359",
"z  c #798467",
"x  c #6C837C",
"c  c #6B8377",
"v  c #738474",
"b  c #748A7C",
"n  c #7A8C7C",
"m  c #768678",
"M  c #7C927D",
"N  c #79947C",
"B  c #758A69",
"V  c #89824C",
"C  c #888658",
"Z  c #948C5A",
"A  c #978B52",
"S  c #868A65",
"D  c #938D64",
"F  c #899469",
"G  c #979869",
"H  c #82947D",
"J  c #87977A",
"K  c #979A74",
"L  c #848B75",
"P  c #A39C6B",
"I  c #A39D73",
"U  c #9CA26D",
"Y  c #9CA376",
"T  c #8EA070",
"R  c #A7A16C",
"E  c #A6A778",
"W  c #B3AC7A",
"Q  c #B8B47D",
"!  c #ABAC75",
"~  c #A29158",
"^  c #C2BA7E",
"/  c #5B7883",
"(  c #456782",
")  c #657D82",
"_  c #6C8383",
"`  c #6B8787",
"'  c #718683",
"]  c #748B83",
"[  c #7B8D84",
"{  c #748C8B",
"}  c #798E8B",
"|  c #748688",
" . c #7C9384",
".. c #76938B",
"X. c #7C948B",
"o. c #7D9A8C",
"O. c #789485",
"+. c #758D93",
"@. c #7B9593",
"#. c #7D9A94",
"$. c #7E9B9A",
"%. c #799496",
"&. c #7FA294",
"*. c #7C98A7",
"=. c #839584",
"-. c #839B85",
";. c #8B9C85",
":. c #83958A",
">. c #849C8B",
",. c #8B9C8B",
"<. c #899687",
"1. c #929D8B",
"2. c #839D93",
"3. c #8A9E92",
"4. c #829E9A",
"5. c #839794",
"6. c #899588",
"7. c #85A18C",
"8. c #8BA38D",
"9. c #8AA488",
"0. c #92A38D",
"q. c #96A88C",
"w. c #85A294",
"e. c #8BA494",
"r. c #8CAA94",
"t. c #85A39B",
"y. c #8AA59B",
"u. c #87A99B",
"i. c #8CAB9C",
"p. c #86A894",
"a. c #93A593",
"s. c #93AB95",
"d. c #92A59A",
"f. c #92AC9B",
"g. c #9AAD9B",
"h. c #9AAA94",
"j. c #8EB09D",
"k. c #94B29D",
"l. c #9BB39D",
"z. c #98B297",
"x. c #A8A984",
"c. c #B3AE85",
"v. c #BCBB8B",
"b. c #B7B587",
"n. c #A2B49D",
"m. c #A9B69A",
"M. c #B8B896",
"N. c #A8AE91",
"B. c #829DA4",
"V. c #829EB5",
"C. c #85A3A3",
"Z. c #89A6A3",
"A. c #8CABA3",
"S. c #85A2AB",
"D. c #89A6AB",
"F. c #8DACAB",
"G. c #86A9A5",
"H. c #92ADA3",
"J. c #92AEAB",
"K. c #9AADA1",
"L. c #8EB1A3",
"P. c #8EB1AB",
"I. c #94B3A4",
"U. c #9AB5A3",
"Y. c #9BBAA5",
"T. c #94B3AB",
"R. c #9AB6AB",
"E. c #96B9AB",
"W. c #9BBBAC",
"Q. c #95B8A5",
"!. c #8DABB3",
"~. c #8AA7B6",
"^. c #91AEB4",
"/. c #94B3B3",
"(. c #9CBBB3",
"). c #99B7B7",
"_. c #8EB1B4",
"`. c #A2BDAC",
"'. c #A4B8A4",
"]. c #A1BDB5",
"[. c #B5B8A5",
"{. c #AD9B8F",
"}. c #C2BC87",
"|. c #C2BF92",
" X c #C2B7A4",
".X c #BCC294",
"XX c #9EC1B3",
"oX c #9EC1AD",
"OX c #A4C1AD",
"+X c #AAC3AD",
"@X c #A3C2B2",
"#X c #A9C7B7",
"$X c #B4CAB5",
"%X c #B6CBB5",
"&X c #C7C48D",
"*X c #C8C696",
"=X c #D2CD99",
"-X c #C8C8AA",
";X c #CACAB4",
":X c #D5D6BA",
">X c #D3D0B1",
",X c #E1DFAC",
"<X c #D6CDC4",
"1X c #DAD1C7",
"2X c #DDD5CC",
"3X c #DFD8CE",
"4X c #D7D0C7",
"5X c #DFD8D0",
"6X c #DFD7D0",
"7X c #CFC8C0",
"8X c #E0D7CE",
"9X c #E1D9CF",
"0X c #E0D7D0",
"qX c #E5DDD4",
"wX c #E8DFD6",
"eX c #E7DFD8",
"rX c #E8DFD8",
"tX c #E7E0D6",
"yX c #E8E1D7",
"uX c #E7E0D8",
"iX c #EAE1D8",
"pX c #EBE1D8",
"aX c #E9E2D8",
"sX c #E9E2D9",
"dX c #EBE2D9",
"fX c #EAE3D9",
"gX c #EAE2D9",
"hX c #EAE2DA",
"jX c #ECE3DA",
"kX c #EBE4DA",
"lX c #EBE4DB",
"zX c #E9E5DA",
"xX c #ECE5DB",
"cX c #EDE4DB",
"vX c #EDE5DB",
"bX c #EDE6DC",
"nX c #EDE7DD",
"mX c #EEE7DD",
"MX c #EDE6DE",
"NX c #EBE3DB",
"BX c #EFE8DE",
"VX c #EFE8DE",
"CX c #F0E7DE",
"ZX c #F0E9DF",
"AX c #F0E9DF",
"SX c #E1E0C4",
"DX c #EEE7E0",
"FX c #EFE8E0",
"GX c #F0E7E0",
"HX c #F1EAE1",
"JX c #F1EAE2",
"KX c #F4EFE9",
"LX c #F6F1E9",
"PX c #F8F2EA",
"IX c #99B4C1",
/* pixels */
"cXqXqXqXqXyXcXwXyXcXcXcXcXyXcXcXcXcXtXcXtXqXtXyXcXyXcXcXcXyXqXqXqXcXyXqXyXqXwXqXqXqXqXwXqXqXqXqXqXqXqXqXqXqXqXyXwXcXcXqXwXcXcXcXcXcXcXcXyXtXyXcXcXtXcXyXcXtXuXcXuXFXHXVXFXcXcXcXcXyXVXtXcXcXVXHXcXFXVXcXcXcXcXcXVXcXcXcXqXyXcXtXcXcXcXcXcXcXcXcXHXDXcXVXcXtXyXtXyXcXqXwXqX8XqXqXqXyXqX8XqXqXqXcXcXqXcXyXqXyXyXqXyXqXyXqXqXyXyXwXqXqXcXqXqXcXyXqXqXqXyXqXqXtXtXtXcXcXtXtXyXqXtXcXqXqXcXtXcXyXcXcXyXqXcXcXcXcXcXcXHXVXHXcXcXcXcXcXcXcXyXcXVXcXcXcXtXcXcXcXcXcXcXcXtXcXcXcXcXcXcXcXcXcXcXcXcXcXqXqXtXcXcXcXcXcXcXcXwXcXqXwXcXqXtXFX",
"cXcXqXqXqXwXqXqXqXwXyXyXwXwXwXcXcXqXyXqXqXqXtXtXtXyXcXcXcXcXcXqXqXqXwXyXyXqXqXwXqXqXyXyXyXwXqX8XqXqXqXwXqXqXqXyXyXyXcXcXwXyXyXyXtXcXcXcXcXcXcXqXtXcXcXcXqXqXuXcXcXFXHXFXVXVXcXcXcXcXHXqXtXtXyXcXcXVXVXHXVXcXyXcXyXcXVXqXyXyXcXcXyXcXtXcXVXHXcXcXFXHXcXcXcXyXcXcXyXwXwXcXcXqX8XqXwXqXqXqXyXqXqXcXwXqXwXwXqXqXqXwXqXwXwXqXqXwXyXyXqXqXcXqXcXcXqXqXwXqXqXqXcXqXtXcXcXcXtXqXqXtXtXcXcXyXcXcXwXqXyXwXcXwXcXcXcXcXcXcXHXyXcXcXcXcXcXHXcXyXcXqXcXcXcXcXcXcXyXyXtXcXcXcXtXcXcXcXcXcXcXcXcXcXcXcXcXcXcXqXyXVXcXcXtXcXyXyXcXcXcXwXcXtXcXHX",
"cXcXcXwXcXwXqXqXqXqXwXcXyXqXqXqXcXyXcXyXtXtXcXtXtXtXtXcXcXcXHXcXqXqXqXcXyXcXqXqXqXqXqXyXqXwX8X8XqXqXqXqXwXwXwXyXcXyXqXwXcXcXcXqXqXtXcXcXcXcXVXcXcXcXcXcXqXcXHXHXcXHXHXHXHXHXZXcXtXcXcXqXqXqXcXcXVXcXHXHXHXVXcXcXVXcXyXqXcXcXtXcXcXcXcXcXcXHXcXcXcXDXFXVXZXcXqXqXwXcXqXqXcXcXwXqX8X2X8XqXqXqXwXcXqXqXyXcXcXcXqXcXwXqXqXqXcXqXqXqXqXwXcXwXyXyXcXwXwXqXqXcXcXcXcXcXtXtXyXyXcXyXtXcXyXyXyXyXyXyXcXcXcXcXyXcXcXcXVXVXcXcXcXcXcXVXcXHXcXcXcXtXcXVXcXtXcXVXcXtXcXcXHXVXcXcXcXtXcXcXyXcXcXVXcXcXcXcXcXcXcXcXqXqXcXcXcXqXyXqXyXyXcXVXcXcX",
"cXcXyXcXyXyXqXqXqXqXqXcXqXqXcXcXcXyXcXcXcXcXcXqXyXqXtXtXcXcXcXcXtXqXqXqXyXqXqXwXyXwXqXqXqXqX8XwXqXqXwXqXcXyXyXwXqXcXcXyXcXwXqXqXtXyXcXcXcXcXcXcXcXtXcXZXcXcXcXcXcXcXFXcXHXHXHXcXcXtXtXcXcXyXcXcXcXcXcXVXHXHXyXVXHXcXcXcXcXcXyXyXcXcXcXcXHXcXcXcXDXHXHXVXcXVXcXcXcXqXqXcXcXcXwXwX2X8XyXyXcXyXqXyXyXyXwXcXcXyXcXcXcXqXcXqXqXqXcXcXqXcXcXwXyXqXcXcXqXcXyXqXqXqXqXyXtXcXcXtXcXcXcXyXcXcXyXqXqXcXcXyXcXcXcXcXcXtXVXcXcXcXcXcXcXcXZXZXcXcXcXcXcXcXcXcXcXcXcXcXcXcXHXcXyXcXcXcXtXcXcXcXcXcXcXcXcXtXyXyXcXcXcXtXqXcXcXcXcXcXcXcXyXyXcXcX",
"cXcXyXwXyXCXwXqXqXqXqXyXqXwXcXwXcXcXtXtXyXcXyXcXcXqXcXtXyXcXcXcXcXcXcXqXyXcXcXyXqXqXcXwXqXqXqXqXqXqXqXwXwXwXwXyXcXwXcXwXcXcXqXqXtXtXqXyXyXcXqXcXcXcXVXHXZXyXcXcXcXqXqXqXcXcXcXcXcXqXtXqXtXcXcXcXHXqXqXcXcXVXcXcXVXVXVXcXcXcXcXcXcXcXcXcXVXcXcXcXcXFXcXcXVXHXZXcXcXqXcXcXqX8XqXqXwXqXyXwXwXyXyXyXqXcXwXwXcXcXcXcXcXyXwXqXqXwXqXcXqXcXCXyXcXcXwXqXyXwXqX2X2X3XqXqXcXcXcXtXcXyXyXcXcXyXcXqXqXcXcXcXcXqXcXtXcXcXcXcXcXcXVXcXcXcXZXcXtXcXcXtXcXyXyXcXcXcXtXtXyXcXcXcXcXcXcXyXcXcXcXcXVXZXqXcXcXcXcXcXcXVXcXcXcXcXcXcXcXcXcXcXcXqXcXVX",
"cXcXcXcXqXcXcXwXqXqXqXqXwXqXwXqXqXcXqXtXyXcXcXcXcXcXcXcXcXcXcXcXVXcXcXqXcXcXcXqXqXqXqXcXqXqXqXqXqXqXqXqXwXqXqXqXcXqXwXcXwXyXyXcXcXyXqXqXtXyXqXyXqXqXcXcXyXcXcXqXqXqXcX3XqXcXcXcXcXyXuXcXcXcXtXcXcXcXcXcXcXcXVXcXVXcXcXcXVXVXcXcXyXcXVXcXZXcXVXcXcXcXcXcXcXcXcXcXcXcXcXyX8X2X2XqX8XwXyXwXyXqXwXyXqXqXwXcXcXwXwXcXcXqXqXqXyXwXwXyXwXqXcXqXqXwXwXqXcXqX8XqX8X2X2XqXtXtXtXtXcXcXcXcXcXyXcXqXqXyXcXcXqXqXqXcXcXcXcXcXcXyXcXcXcXcXcXcXcXcXcXqXqXqXqXqXqXtXcXyXqXyXqXyXcXcXcXcXcXcXcXVXVXcXcXcXcXcXcXyXcXcXcXcXcXcXcXcXcXcXVXcXcXcXqXcX",
"cXcXcXcXcXcXcXwXcXcXwXqXwXqXqXwXqXtXtXtXqXyXcXcXVXVXcXcXFXcXcXqXcXcXHXcXcXcXcXqXyXqX2XcXcXcXwXqXqX8XqXqXqXyXwXcXcXcXwXqXwXcXwXyXcXqXyXqXqXqX8XqXcXcXtXcXtXyXcXqXtXqXHXqXqXtXcXcXcXcXcXFXFXcXcXcXcXcXcXtXyXcXcXcXcXcXVXcXcXcXcXcXtXtXcXcXHXcXcXcXcXcXcXcXcXcXcXcXcXcXyXqXtXqX8XqXqXqXqXwXqXqXqXwXcXwXqXwXyXwXqXqXcXqXwXwXcXqXwXyXcXyXcXwXwXqXwXtXqXcX8XqXqXqXqXqXcXcXcXqXyXcXcXtXtXtXcXcXyXtXtXcXqXqXqXtXcXcXyXcXyXqXcXcXcXcXcXcXyXqXqXqXqXcXyXwXqXyXqXqXqXcXcXcXcXcXHXcXcXcXcXHXZXcXcXcXcXcXcXcXcXcXcXcXcXcXZXwXcXcXcXcXcXcXtXcX",
"cXcXcXcXcXcXyXcXyXCXcXwXwXqXqXwXqXtXtXqXyXcXcXcXcXyXtXcXcXcXcXcXqXcXHXFXqXqXcXcXcXqXqXqXqXqXqXqXqXqXqXqXqXyXcXyXqXqXyXqXqXwXcXyXcXcXcXyXwXwXcXcXqXcXcXqXyXcXcXcXcXZXcXqXtXcXcXcXcXcXcXuXcXHXVXZXVXVXcXcXyXcXcXcXcXcXcXcXcXcXcXtXcXtXqXtXcXcXcXcXcXcXcXcXcXcXyXcXcXcXyXyXyXqXqXcXqXqXqXqXqXqXqXqXyXwXqXcXyXyXwXwXwXwXqXqXqXqXyXyXqXcXwXqXwXqXqXtXtXcXqX2X8XqXqXqXcXcXtXqXtXqXcXcXcXcXqXcXtXyXcXcXqXqXcXcXcXcXtXcXcXqXwXcXcXcXcXcXcXcXqXqXqXcXcXwXqXqXcXwXcXcXcXcXcXVXHXVXcXcXcXVXcXVXcXcXcXcXcXcXcXcXcXcXcXcXCXcXcXcXcXcXcXcXcXZX",
"HXFXHXcXuXcXcXyXcXqXyXyXwXqXqXqXqXqXqXcXqXtXcXcXyXcXcXcXcXcXcXcXuXcXcXcXcXtXuXcXcXcXyXqXcXwXwXqXwXqXqXqXqXqXqXwXqXqXqXyXqXcXcXyXwXcXqXwXcXyXcXwXcXqXqXcXcXyXZXcXcXcXqXtXcXcXcXcXcXcXuXqXcXHXHXVXHXZXqXyXcXcXcXcXcXcXcXcXcXcXcXVXcXcXcXqXqXcXcXcXcXVXcXcXcXcXcXcXcXcXqXyXtXcXyXqXtXqXcXqXqXwXwXyXyXqXcXwXwXyXqXqXwXwXqXwXqXqXwXyXwXcXwXqXqXqXwXyXtXcXcXqX2X8XqXqXqXyXtXyXcXqXqXqXyXcXtXcXcXcXcXcXcXcXcXcXcXtXqXyXyXcXcXcXcXcXcXcXwXwXqXqXcXcXcXcXcXqXcXcXcXyXcXcXyXZXcXcXcXVXcXcXcXcXcXcXcXcXcXcXcXcXcXcXcXcXcXwXcXyXcXcXcXcXcXcX",
"HXcXFXHXFXHXcXyXcXqXqXqXwXyXwXwXqXqXyXtXyXqXcXcXcXcXcXcXcXcXcXcXcXcXqXqXcXcXuXHXcXcXcXtXyXwXwXqXqXqXqXqXqXwXqXqXcXqXqXyXyXcXyXyXqXyXcXwXcXwXcXcXcXtXcXcXqXcXcXcXcXcXcXcXVXcXcXcXcXcXcXcXcXcXFXHXHXVXtXcXcXtXqXcXHXcXcXcXcXtXcXZXcXtXcXyXqXqXcXcXcXcXZXcXcXcXcXqXcXcXcXyXcXcXcXqXqXcXqXwXwXwXqXwXqXqXwXwXqXcXcXqXqXqXqXqXqXqXyXwXcXqXwXcXyXyXcXcXqXcXcXcXqXqXcXqXqXcXqXqXcXyXqXtXyXqXqXyXcXcXcXcXcXtXyXcXcXqXqXqXqXqXcXcXcXcXcXcXcXcXyXcXcXcXcXcXwXcXwXcXcXcXcXtXcXVXcXcXcXVXcXqXyXcXcXVXcXcXcXcXcXcXcXcXcXcXcXcXcXcXcXcXcXcXcXVX",
"cXcXcXcXFXFXcXcXCXHXcXqXyXwXwXqXqXtXtXqXcXqXcXcXcXcXcXcXcXFXcXcXcXcXqXqXFXuXcXHXVXcXVXcXqXqXqXwXwXwXqXqXqXwXyXwXcXcXCXcXcXcXcXqXwXcXwXcXwXqXcXcXyXcXqXtXqXqXcXcXcXcXtXyXcXcXcXcXcXuXcXcXcXKXHXcXcXHXVXcXcXcXcXcXcXHXcXcXcXyXcXcXVXcXqXtXtXqXyXcXcXcXcXcXcXcXcXyXcXVXcXcXcXcXcXcXqXcXqXqXqXqXwXqXqXwXwXwXyXyXcXqXwXwXqXqXqXqXwXqXwXwXwXqXwXwXwXtXqXcXcXyXyXwXqXqXwXyXyXcXcXcXqXcXtXcXtXyXcXcXqXtXcXcXyXqXtXtXtXqXyXwXcXcXcXcXcXCXcXcXcXcXcXcXcXcXwXyXqXqXwXcXcXcXFXcXVXcXVXcXZXcXcXcXcXcXVXcXcXcXcXcXcXtXcXcXZXcXcXcXcXyXyXcXcXHX",
"cXcXcXcXcXtXcXcXcXcXcXcXyXqXqXqXyXqXqXyXyXyXqXqXcXcXcXcXuXcXcXcXHXcXuXuXcXcXcXHXFXcXcXcXcXqXqXqXqXqXqXyXyXyXcXwXqXcXyXtXqXyXcXcXtXyXyXcXwXqXcXyXcXcXcXyXcXcXyXqXyXcXcXcXtXtXcXcXcXcXyXcXcXcXcXcXcXcXcXcXcXcXcXcXcXcXcXcXcXcXcXcXcXyXqXqXyXtXqXcXcXtXcXwXtXcXcXcXcXcXcXVXVXcXcXtXcXcXtXqXqXqXqXqXqXcXwXwXqXyXcXqXcXwXwXqXwXwXcXcXcXcXwXqXqXqXqXcXcXwXqXyXcXyXqXcXwXwXcXcXyXcXwXyXqXyXcXyXwXcXqXcXcXcXcXqXqXwXcXcXqXyXyXcXcXcXcXVXyXyXyXcXcXtXqXcXcXtXtXtXcXtXqXcXcXVXcXcXcXcXZXcXcXyXqXtXcXcXcXcXcXcXcXcXcXcXZXcXcXcXcXcXcXcXcXHX",
"cXcXcXcXcXcXcXtXtXyXyXwXyXqXqXqXwXwXqXyXyXyXtXcXtXcXcXqXcXcXcXcXcXcXcXeXcXcXeXDXcXcXcXcXcXyXqXqXwXqXqXcXqXqXqXyXqXcXcXcXqXcXcXtXtXcXcXwXwXyXqXyXwXcXcXqXcXcXyXyXyXyXwXqXyXcXcXtXtXcXcXcXcXcXcXcXcXcXcXcXcXcXcXcXcXcXcXHXcXcXVXcXcXqXcXtXyXcXcXtXqXcXcXcXcXcXcXcXcXcXZXcXcXVXcXcXcXcXyXqXqXwXqXqXwXcXqXqXqXqXcXyXcXyXcXqXqXcXyXyXwXyXwXwXqXqXcXyXyXwXqXqXwXcXcXqXcXyXcXyXyXyXcXcXwXqXqXyXcXcXwXwXcXcXqXqXqXwXqXqXcXcXcXwXcXcXcXVXcXcXcXcXcXcXcXtXcXtXtXtXyXcXqXqXcXHXZXZXcXcXcXcXcXcXqXcXcXcXZXVXcXcXHXcXcXcXHXcXtXcXqXcXcXtXqXcX",
"cXcXcXcXcXVXcXcXqXcXqXqXyXwXwXqXqXwXqXcXyXqXtXqXqXcXcXcXcXcXqXcXcXcXcXuXcXcXcXcXcXuXuXcXcXyXqXqXqXqXqXqXqXqXwXcXyXtXcXcXcXcXcXtXqXtXcXwXqXcXwXcXcXwXwXqXcXyXcXyXyXqXcXyXcXcXqXqXcXcXcXcXcXcXcXVXHXcXcXcXcXcXcXcXcXcXcXcXVXHXcXVXcXqXtXyXcXyXqXcXyXyXyXwXcXcXcXcXcXcXcXqXcXcXcXVXZXcXcXwXyXyXwXwXcXwXqXqXyXyXwXwXwXcXcXyXcXcXwXwXqXqXwXwXqXqXwXwXqXyXwXwXcXwXcXcXwXyXcXyXyXcXyXcXqXwXyXwXcXqXcXyXcXcXqXqXqXwXqXqXcXcXcXcXcXyXqXcXVXcXcXcXcXcXcXcXcXtXcXtXqXcXcXcXVXcXHXVXHXHXyXcXcXcXtXcXcXyXcXVXcXtXVXcXcXcXcXcXcXcXcXcXcXcXcXHX",
"cXcXcXcXcXcXcXcXqXqXqXqXqXwXyXqXqXyXqXyXqXqXqXcXcXcXcXqXqXcXcXcXcXcXcXuXcXcXcXcXcXcXcXcXcXcXwXqXqXqXqXqXwXwXqXqXyXtXcXtXtXcXtXyXqXqXyXCXwXqXyXyXwXcXwXyXcXcXcXcXqXqXqXtXcXcXcXtXtXqXqXtXyXqXtXcXcXcXcXcXcXcXcXVXqXcXcXcXcXcXcXHXVXqXqXqXcXcXcXcXyXcXcXcXcXcXyXcXcXqXcXyXcXcXVXcXVXVXcXcXwXwXqXqXcXcXwXyXcXcXcXyXqXqXcXcXqXcXcXwXqXqXqXqXqXqXqXqXqXwXcXyXwXqXqXyXqXcXcXwXcXwXcXcXcXcXcXyXqXwXwXcXcXyXqXqXqXyXqXqXwXyXwXcXcXcXcXcXVXcXcXcXcXcXcXcXtXcXtXqXqXcXcXcXVXcXcXtXcXVXcXqXtXtXcXtXcXyXqXcXcXcXcXVXcXcXcXcXcXcXcXcXcXcXcXcX",
"VXcXcXcXcXcXcXcXyXqXqXqXyXqXqXwXqXqXqXqXqXqXtXcXcXcXcXcXtXcXcXtXtXcXcXcXcXcXcXcXcXcXqXuXcXcXyXqXqXqXqXqXwXqXqXqXyXqXyXyXyXcXtXyXcXqXyXwXqXqXcXyXcXyXwXcXcXcXcXcXqXqXqXcXtXcXcXcXcXqXqXcXcXtXqXcXcXcXcXcXcXcXcXcXcXtXcXyXcXcXtXcXHXcXcXcXcXcXcXcXyXqXcXcXyXqXcXqXtXcXcXcXqXVXcXcXyXcXcXcXqXyXqXwXqXwXwXyXwXcXcXyXcXqXwXcXwXcXcXwXwXqXqXqXqXqXqXwXwXqXqXwXqXwXqXcXwXcXcX8XqXqXcXyXyXwXcXqXqXcXqXcXcXyXqXqXqXqXqXqXwXyXwXyXcXcXcXcXZXcXcXcXcXcXcXcXcXyXtXcXcXcXcXcXcXcXcXcXqXHXcXtXcXcXqX3XcXVXqXyXcXqXcXcXcXVXcXcXcXcXcXHXcXtXcXcX",
"HXHXHXHXcXcXcXcXyXtXcXcXcXwXyXqXqXqXqXqXqXqXyXyXtXcXcXcXyXcXcXtXtXqXcXFXcXcXcXqXqXcXqXqXcXcXcXqXqXqX8XqXwXwXwXyXyXqXtXtXtXcXcXcXqXqXyXqXwXyXcXcXqXwXcXcXcXwXcXyXqXqXqXyXcXcXcXcXcXtXtXcXtXtXtXtXcXcXcXcXtXcXcXcXVXcXcXtXcXVXcXcXVXVXHXVXcXtXtXcXcXcXyXtXyXqXcXqXqXcXcXcXcXcXcXcXqXtXcXqXyXcXtXqXqXqXcXwXyXcXyXwXcXqXcXyXwXcXcXqXqXqXqXwXqXqXqXqXqXqXqXqXcXcXcXcXqXyXcXqXqXcXcXwXyXcXcXwXyXwXcXcXcXcXcXyXyXyXcXcXcXcXyXcXcXcXcXcXcXcXcXcXcXcXcXcXcXtXcXcXcXcXcXcXcXcXcXcXtXVXVXtXtXtXcXqXqXcXcXZXcXtXcXcXcXcXcXtXVXcXcXVXcXcXcXcX",
"cXHXHXHXHXFXFXFXcXeXcXqXqXqXyXwXyXwXyXqXqXqXqXqXyXcXcXcXcXcXcXcXcXcXcXcXcXcXcXcXuXcXqXcXHXFXcXqXtXqX8XqXqXqXqXyXcXqXtXcXqXcXcXtXqXqXtXcXyXyXyXyXqXqXyXwXwXcXwXcXyXqXqXqXyXyXtXyXcXcXyXcXtXtXcXcXcXcXVXcXqXcXcXcXcXVXcXcXcXcXcXuXcXcXcXVXcXcXcXcXcXcXcXcXcXtXqXcXcXcXcXcXcXcXtXcXqXcXcXcXcXcXcXtXtXcXcXqXqXtXcXyXwXyXyXcXcXcXcXqXqXyXcXcXwXqXqXqXyXwXqXcXyXqXyXcXyXyXcXwXqXcXwXwXwXyXqXwXcXcXcXcXyXwXqXyXcXcXcXcXyXcXcXwXwXcXwXcXcXyXyXcXwX;X8XcXcXcXcXcXcXcXcXHXcXtXcXcXcXcXVXtXtXcXyXcXcXcXwXcXcXtXtXcXcXcXcXqXcXcXcXcXcXcXcXVX",
"cXcXcXcXHXcXcXcXcXcXcXwXqXqXqXqXwXwXyXqXqXwXqXqXqXtXyXyXcXcXcXcXcXcXcXcXcXFXDXcXcXuXuXcXcXcXuXqXqXqXqXqXqXqXqXqXcXcXtXcXcXcXcXcXyXyXqXwXqXqXqXqXyXcXyXqXcXcXyXqXqX8XqXqXqXcXyXcXcXcXcXcXcXcXcXcXcXcXcXcXcXcXcXcXcXcXHXcXcXcXcXtXqXyXuXcXcXcXVXcXcXtXcXcXcXqXcXcXqXcXHXHXcXcXcXcXcXcXtXtXcXcXcXcXcXqXcXqXqXcXcXcXwXwXcXyXcXwXqXqXwXwXwXyXyXwXqXqXqXwXqXyXyXwXcXyXwXwXqXqXqXqXcXcXqXyXqXqXyXyXcXyXwXqXqXyXcXcXwXqXwXwXqXyXwXcXcXcXcXcXcXcXwX8XcXCXcXVXHXZXcXcXcXVXVXcXcXcXcXcXcXcXcXyXqXwXcXcXyXyXtXcXtXcXcXqXcXqXcXcXcXcXyXcXcXcX",
"cXcXFXcXcXHXcXcXcXcXcXcXwXqXqXcXqXqXqX8XqXqXqXcXqXqXqXtXtXcXcXcXqXqXuXcXcXHXcXcXcXcXcXcXcXcXeXqXqXqXqXqXqXqXcXyXqXqXtXcXtXyXcXcXqXcXqXqXqXqXqXqXqXwXyXwXwXwX8XqXwXwXqXqXcXcXcXyXcXcXtXyXcXcXtXcXtXcXcXcXcXcXcXuXcXcXcXVXcXVXcXcXtXyXqXcXyXcXcXcXcXcXcXcXcXcXcXcXcXcXPXHXcXcXcXcXcXcXcXqXcXcXcXcXcXqXcXcXqXyXcXcXqXwXyXcXyXqXqXyXwXqXqXwXcXwXwXcXqXqXqXqXyXcXcXcXcXqXqXqXqXyXwXcXwXZXqXqXqXyXcXyXwXyXqXwXwXyXcXcXyXqXyXcXcXcXcXcXyXyXyXcXcXcXcXcXcXcXcXcXcXcXcXVXcXcXcXcXcXcXcXtXtXqXcXwXcXcXcXqXqXtXcXcXcXcXcXcXcXtXcXyXcXcXcXVX",
"FXFXDXHXcXcXcXcXHXcXcXcXcXcXcXcXqXqX2XqX8XqXqXyXcXqXqXqXqXcXcXyXqXtXcXuXcXcXcXcXcXqXeXcXcXcXuXqXcXqXqXqXqXqXyXcXcXtXqXcXcXqXqXqXyXtX8XwXqXqXqXqXqXcXwXyXwXyXqXqXcXwXqXqXqXqXcXyXcXcXcXyXcXyXcXcXcXcXcXcXcXcXcXcXcXcXcXcXcXVXcXtXcXcXyXqXtXcXcXVXcXcXVXcXtXcXcXcXuXcXFXuXuXcXcXcXtXtXcXyXyXcXcXcXcXtXcXyXcXcXcXcXcXwXwXcXyXqXqXqXqXyXqXcXcXwXwXcXwXqXqXqXqXqXqXqXcXwXwXqXyXcXyXcXyXwXyXqXwXcXyXyXyXwXqXwXqXqXqXqXyXyXqXqXyXcXcXwXyXqXyXcXcXyXcXcXcXcXtXcXcXyXVXVXuXcXcXtXtXqXcXcXqXyXwXqXqXwXwXyXcXtXcXcXcXZXVXcXcXyXcXyXcXcXVXHX",
"cXFXHXHXcXcXuXcXcXcXuXyXcXwXyXcXwXqX2XqXqXwXqXyXcXtXqXqXqXtXqXyXtXuXcXcXcXcXcXcXcXqXcXcXcXcXcXeXuXuXqXqXqXqXqXcXcXcXcXcXcXtXtXqXcXcXqXwXqXqXqXwXqXcXyXcXwXwXyXqXqXyXyXtXtXcXcXyXcXcXtXtXcXcXcXcXyXcXcXVXcXVXcXcXtXtXtXcXuXcXcXcXwXqX8XqXcXcXcXZXVXVXZXcXcXcXVXcXcXcXqXuXcXqXyXqXtXtXqXtXqXqXcXcXcXcXtXtXcXyXqX8XqXqXqXyXcXqX2XqXqXcXqXqXqXwXyXcXcXcXwXcXqXqXqXqXcXcXqXqXwXqXqXwXwXcXyXqXqXwXwXyXcXqXyXqXwXqXqXqXqXqXwXqXwXwXyXcXqXqXcXcXyXwXqXcXcXcXqXyXcXcXVXVXcXqXqXqXqXqXcXqXqXqXcX8X2XyXqXqXyXcXcXcXcXcXHXcXcXcXcXcXtXcXcXHX",
"cXcXFXcXcXcXqXqXrXqXqXqXwXyXcXcXqX2XqXqXwXqXqXyXyXcXqXqXqXtXqXqXqXcXcXqXyXcXcXcXcXcXcXcXcXcXtXqXqXwXqXqXqXqXyXqXqXqXcXcXcXcXyXqXqXyXqXwXyXqXqXqXqXcXcXcXcXcXqXqXqXqXqXqXqXyXcXyXcXtXqXtXcXcXqXcXVXcXcXcXcXcXtXcXcXqXqXuXuXcXcXcXcXqXqXqXcXcXcXcXcXcXcXcXZXcXVXVXcXcXcXqXtXcXcXyXcXtXtXcXqXyXyXqXcXcXtXtXyXqXwX8XqXwXqXcXwXqXwXqXqXqXqXqXqXwXwXqXcXcXqXqXqXwXqXqXcXcXqXqXqXqXwXcXqXqXwXcXwXwXcXwXwXyXcXcXcXqXyXqXwXqXyXqXyXcXqXqXqXqXqXcXqXqXqXwXcXcXyXyXtXcXVXHXcXqXqXqXcXqXyX3X3XqXyXyXqXcXcXyXcXcXcXHXcXqXcXcXcXcXcXcXtXcXcXVX",
"cXcXcXcXcXcXqXwXcXyXqXwXwXcXcXqXqXqXyXcXcXqXqXwXqXqXqX8X8XqXqXqXqXqXcXcXcXcXcXcXcXcXcXqXcXcXqXqXqXqXqXqXqXqXqXqXqXqXyXcXcXyXcXwXwXqXqXqXwXcXqXqXcXcXcXqXwXyXyXwXqXwXqXqXyXyXcXcXcXcXtXcXcXcXcXcXcXcXcXcXtXcXqXqXtXcXtXqXcXyXcXcXcXcXqXyXyXcXcXcXcXcXcXcXcXcXcXcXcXVXcXcXcXcXcXcXtXtXtXqXqXcXcXqXcXcXtXtXyXqXqX2X2XqXyXwXyXqXyXyXwXwXyXyXqXyXqXqXqXwXyXwXqXqXqXqXqXyXqXqXqXyXqXqXqXqXyXcXcXcXcXcXqXqXqXqXqXqXwXyXcXqXqXqXwXyXcXcXqXwXcXcXqXwXqXyXcXcXcXcXqXqXcXHXcXqXqXcXVXcXtXyXqXqXqXyXwXyXyXqXtXcXcXZXcXwXcXcXcXcXqXtXcXcXtXVX",
"cXcXcXcXcXcXcXyXqXcXqXqXwXqXqXqXwXwXcXcXqXqXqXyXqXqXqXwXqXqXqXqXwXyXyXcXcXcXcXyXyXwXcXqXcXcXqXcXcXwXqXqXqXwXyXqX8XqXqXqXcXyXyXyXcXwXqXqXqXqXcXqXcXcXqXcXwXyXcXwXqXqXqXqXyXcXcXcXcXyXcXcXyXcXcXcXqXqXcXcXcXcXcXcXqXqXcXcXtXqXtXcXqXcXyXcXcXcXcXcXcXcXcXcXcXcXtXcXcXcXcXcXcXtXyXcXcXcXqXqXqXcXcXqXcXtXtXyXcXqX2X2XqXcXcXqXqXqXwXyXqXqXcXcXcXqXyXcXcXyXwXcXwXqXqXqXcXCXqXqXcXqXqXqXqXqXyXcXyXcXwXyXcXwXqXqXqXwXwXqXqXcXwXqXyXqXcXwXqXyXcXcXcXqXqXcXcXcXyXwXcXwXcXVXcXtX3XqXcXcXqXqXqX2X2XqXyXcXwXyXcXcXcXcXcXcXcXcXyXqXqXcXqXqXqXVX",
"HXFXFXDXcXqXwXcXwXwXqXcXqX2X8XqXqXqXcXyXqXqXqXqXqXqXqXqXyXyXqX8XqXqXqXtXyXyXyXyXyXqXqXqX8XqXqXyXwXwXwXqXqXqXqXqX2X2X8XqXcXyXwXcXcXcXwXwXqXyXcXqXcXwXwXcXcXcXcXcXqXwXqXwXqXqXqXqXyXcXyXyXtXqXqXcXcXtXcXtXtXqXcXcX8X2XcXcXqXqXyXyXyXyXcXcXcXcXcXcXcXtXcXcXcXcXcXcXcXcXZXcXVXcXcXtXcXcXcXcXcXHXyXtXtXcXtXqX3X2X8XqXcXqXyXcXqXqXyXqXqXqXqXcXcXqXyXcXcXqXyXqXqXyXyXqXcXyXcXyXwXqXcXcXyXcXcXcXyXcXcXyXcXcXqXwXcXwXyXyXqX2XcXyXqXqXqXcXyXwXqXqXyXyXqXwXwXyXqXwXcXwXcXcXcXyXqX3XqXcXtXcXcXqXqXqXqXqXyXcXcXcXcXcXcXcXZXqXqX2XqXcXqXqXtXcX",
"cXDXFXcXcXcXwXyXwXqXqXwXqXqXcXyXqXyXcXyXwXyXqXqXwXyXqXqXqXqXwXqXwXqX3XqXyXyXyXcXwXqX<XwXqX2XqXwXwXyXcXcXqXqXqXqXqXqXqXwXwXwXqXyXwXcXcXqXyXyXqXqXwXwXyXwXwXcXqXcXcXwXqXwXqXqXqXqXwXyXqXqXqXqXqXqXqXcXtXcXcXqXcXcXcXyXcXcXyXyXVXcXcXqXcXcXcXcXcXcXcXcXcXcXtXtXtXtXcXcXcXcXyXcXcXcXcXVXcXcXcXcXtXcXyXtXqXtXqX3XcXqXcXqXcXwXqXqXqXqXwXqXqXcXcXyXcXyXwXwXqXwXyXwXyXwXqXqXyXcXqXcXcXcXcXcXcXcXcXyXwX2XqXcXwXwXwXcXyXyXqXyXqXyXyXcXcXcXwXqXqXqXwXwXcXcXwXcXcXcXHXqXcXcXtXtXtXqX2XqXcXcXtXyXqXwXqXqXqXcXcXcXcXcXcXcXcXqXqXqXqXyXcXcXyXcX",
"FXDXuXcXcXcXwXqXqXqX2X2XwXqX2XwXcXcXcXwXcXcXyXqXcXcXyXqXqXqXqXcXcXqXqXqXqXqXqXyXyXcXcXqXcXcXqXqXwXcXcXcXqXqXqXqXqXqXqXqXcXqX8XqXyXyXcXqXcXcXyXqXwXwXqXwXcXcXcXcXcXwXwXqXwXyXwXqXqXqXqXqXqXqXtXyXtXqXtXcXcXcXcXcXcXyXcXcXtXyXcXcXyXyXcXcXcXcXcXcXcXcXcXcXcXcXqXtXqXqXcXcXyXcXcXyXcXcXHXcXtXtXcXcXcXqXtXcXcXcXyXyXcXyXcXqXqXwXwXwXcXqXqXcXyXqXqXqXyXcXqXqXyXqXqXcXqXyXyXqXyXyXcXcXcXcXcXcXcXcXyXqXyXyXyXcXyXwXyXyXqXcXqXqXqXcXcXyXyXwXqXqXwXwXcXcXyXqXyXqXcXcXcXcXyXtXcXcXcXqXqXqXcXcXqXcXqXqXyXyXcXqXqXcXcXcXcXqXwXqXcXcXcXcXcXcX",
"cXtXtXtXcXcXqXqXcXcXqXqXwXqX2XqXqXqXcXcXcXyXtXqXqXtXyXyX2X8XqXqXyXwXqXqXqX2X8XqXqXqXqXwXqXtXyXqXqXyXqXyXqXqX8XqXqXqXqXqXyXqXqXqXwXyXcXcXyXcXwXqXwXqXyXyXwXqXwXCXqXqXqXqXwXyXyXqXqXqXqXqXqXqXwXwXyXwXqXcXcXcXcXcXcXwXcXcXcXcXwXwXqXwXcXcXyXyXcXcXcXcXcXtXcXcXcXcXcXqXtXcXqXqXqXqXcXyXcXcXcXyXqXtXcXcXyXyXqXqXcXcXyXcXcXyXqXyXqXqXqXqXqXcXyXwXqXqXyXyXqXqXqXwXyXcXcXyXcXyXyXtXcXcXyXcXcXcXcXcXcXcXcXqXtXtXcXcXtXqXyXcXqXyXwXqXyXyXwXyXyXqXcXcXcXqXwXcXyXcXcXcXcXcXcXcXcXyXcXqXqXcXcXcXtXcXtXtXcXqXwXqXqXcXcXcXcXcXcXcXcXtXcXqXqXcX",
"qXtXqXqXtXcXcXcXcXcXrXcXyXyXwXqX8XqXwXyXwXwXcXtXqXqXcXcX8X2XqXcXyXyXwXqXqXqXqXqXqXqXwXqXqXtXcXtXqXqXcXyXqXqXqXyXcXwXqXqXqXwXqXqXqXqXqXwXwXqXqXcXwXqXwXwXyXyXyXyXqXqXqXqXyXwXqXqXqXwXyXqXqXqXqXyXqXqXyXcXyXyXyXcXcXqXqXcXcXyXwXwXyXwXwXcXcXcXcXcXcXtXcXcXcXcXcXcXcXcXtXqXqXqXcXVXtXtXcXcXcXcXcXtXtXcXyXcXcXtXyXcXcXcXyXyXqXqX8XqX8XyXwXcXcXcXyXyXqXyXyXyXcXcXyXqXcXcXyXyXyXcXyXcXwXwXqXqXcXqXyXcXqXcXcXcXyXcXcXqXcXcXcXyXqXqXwXwXwXwXcXcXwXcXcXyXcXcXwXcXcXcXcXcXcXcXcXcXtXyXqXcXcXqXyXcXqXqXqXqXqXqXqXqXyXcXcXcXcXcXcXcXqXyXqXcX",
"cXcXcXqXqXcXcXrXcXcXcXcXwXyXqXqXqXqXwXwXqXqXtXcXqXyXtXcXyXqX2X8XwXcXwXyXqXqXqXqXqXqXwXwXwXyXqXqXcXcXwXqXwXyXcXqXqXcXyXcXwXyXyXqXqXqXqXqXqXqXyXyXqXcXwXqXwXyXyXqXwXqXqXqXwXyXyXyXcXqXqXqXqXqXyXcXwXqXqXcXwXyXyXqXcXwXcXyXwXqXwXcXwXyXwXqXcXcXyXtXtXtXcXcXcXcXcXcXcXcXcXyXcXcXtXtXcXcXcXtXcXcXVXcXcXcXcXtXtXqXyXyXyXyXwXcXqXqXqXqX8X8XqXyXcXcXqXqXtXtXcXyXcXqXqXqXyXcXcXcXtXtXtXtXwXwXwXwXyXcXtXqXqXcXcXcXyXcXcXyXcXtXcXyXqXqXqXyXqXqXqXwXqXqXcXcXqXqXqXwXcXcXcXcXcXcXcXyXyXcXcXtXyXyXyXyXyXtXcXyXqX8XqXqXwXcXcXcXyXcXyXyXtXcXyXcX",
"VXcXcXtXcXcXcXcXcXcXHXcXqXqXqXyXyXyXwXyXqXqXtXcXtXyXyXtXcXqXqXqXqXqXqXcXqXqXqXqXqXqXqXwXwXqXqXyXqXqXqXqXcXwXwXqXqXqXcXwXyXyXqXqXqXwXqXyXqXwXqXqXwXqXcXcXcXwXqXyXyXwXqXqXqXqXcXcXyXwXqXqXwXqXqXqXqXqXqXcXyXcX2X1X8XqXyXyXcXyXyXwXyXcXyXwXqXcXtXqXtXcXcXcXcXcXcXyXcXtXcXcXcXtXcXcXyXcXcXtXcXVXcXHXcXyXcXyXqXqXtXqXqXwXwXqX8XqXwX8XqXqXwXwXyXyXqXqXyXcXcXyXtXqXqXwXcXcXcXcXcXqXqXcXwXqXqXyXcXcXcXqXtXqXtXcXcXcXcXcXcXtXcXcXqXqXwXyXqXqXqXqXqXyXcXcXwXwXwXwXcXwXcXcXcXtXtXcXcXcXcXcXyXcXqXcXcXcXcXyXqX2XqXqXyXcXcXcXqXyXyXyXcXtXtXcX",
"tXcXqXcXcXqXcXcXcXcXcXcXyXqXqXwXcXcXcXcXwXcXyXqXyXyXyXtXyXqXqXqXqXqXqXcXwXqXqXqXqXqXqXqXqXyXqXqX2XqXqXqXwXqXyXqXqXqXyXwXqXcXqX8XqXqXqX8XcXcXcXcXcXcXcXcXcXyXcXcXqXqXqXqXqXqXyXcXcXcXwXyXqXqXqXwXyXwXqXwXcXqXqX8X2XqXyXyXcXyXyXqXcXcXcXcXcXqXcXcXcXcXcXcXcXyXcXcXcXcXcXyXcXcXVXcXcXcXtXcXcXcXcXcXcXcXcXtXtXyXqXqXcXwXqXyXqXqXcXcXcXcXwXyXcXcXqXtXcXcXtXqXqXwXqXqXyXyXtXcXcXcXtXcXcXwXqXqXqXqXyXqXtXqXyXcXcXcXyXcXcXcXtXtXuXtXqXcXwXqXwXqXqXyXwXwXcXcXcXcXcXyXcXcXyXqXqXcXcXcXcXcXcXcXqXtXtXcXcXyXqXqXqXqXyXcXcXcXcXqXqXcXcXcXqXcX",
"tXuXtXcXFXcXcXcXcXcXcXcXcXcXcXyXqXcXyXcXcXcXcXqXcXcXtXcXyXcXcXqXqXqXcXcXcXwXqXqX8X8X8X2X2X8X8X8XqX8XqXwXwXwXwXqXqXqXqXqXqXqXtXqXqXqXqXqXcXcXcXcXcXcXcXFXcXcXcXcXtXcXqXqXqXqXqXuXeXrXcXcXcXeXqXqXqXqXwXyXcXyXwXyXyXqXyXyXqXwXcXcXwXcXwXwXcXcXcXcXVXZXcXcXcXcXcXcXcXcXcXqXcXcXcXcXcXcXcXyXcXcXcXcXcXcXcXcXcXcXcXcXyXcXcXyXwXqXqXcXcXcXcXqXtXcXqXqXcXcXcXqXqXqXtXyXcXyXcXcXcXcXyXtXyXcXyXqXqXqXyXwXtXtXyXcXyXyXcXcXyXcXtXtXuXcXyXqXqXcXyXwXqXqXcXcXyXcXcXyXcXqXcXyXcXwXyXyXcXcXyXcXcXtXtXtXyXyXcXcXcXyXqXcXqXcXcXcXcXqXyXcXcXyXqXcX",
"cXcXcXHXHXcXcXcXcXcXcXcXcXcXcXcXyXqXyXyXyXqXcXcXcXcXcXcXyXcXcXtXqXqXwXcXqXqXtX2X8XqX8X2X1X1X1X2X8X8XqXqXwXqXqXqXcXcXqXqXqXqXtXcXqXtXcXcXcXcXqXcXcXcXcXFXcXcXcXuXcXcXcXqXcXuXqXqXqXqXqXcXcXcXqXqXqXqXqXcXcXcXqXyXyXqXqXqXqXqXqXcXwXwXcXcXcXcXqXcXcXcXcXcXcXcXcXcXcXcXcXqXtXyXtXcXcXcXcXcXcXcXcXtXcXqXtXcXcXcXcXcXqXtXqXtXqXqXqXqXcXcXqXqXtXcXqXqXcXcXcXyXtXtXcXcXcXcXcXcXcXcXcXtXwXqXyXwXqX8XqXcXqXwXqXwXyXyXcXyXyXcXyXtXyXcXyXqXyXcXqXqXcXqXqXyXcXwXyXcXcXqXcXcXcXcXwXyXcXcXyXcXcXcXtXcXcXtXyXyXcXcXqXtXqXyXqXcXcXwXcXwXcXcXcXcX",
"FXHXHXFXcXFXcXcXDXqXuXcXcXcXcXcXcXcXcXcXcXwXyXqXqXcXuXcXcXqXqXqXcXcXyXqXqXcXcXqXqXqX2X2X2X2X2X1X2X8XqX2XqXwXqXwXqXqXyXwXcXtXyXtXqXyXyXqXuXcXcXcXcXFXcXcXcXFXcXcXcXDXFXcXcXcXuXuXqXqXqXcXcXrXqXqXwXyXwXwXwXyXqXwXqXyXqXqXqXqXcXwXqXwXcXqXqXcXyXyXVXcXcXcXcXcXtXcXcXyXtXcXyXtXcXcXcXcXtXcXcXcXqXtXyXqXtXcXcXcXtXqXqXtXqXtXqXyXcXyXqXcXcXyXqXcXcXtXcXtXcXcXcXcXcXcXcXcXtXtXcXcXcXcXcXcXwXyXqXqXqXcXqXqXyXwXqXyXwXqXyXyXtXyXcXtXyXcXcXcXqXqXcXwXwXyXqXqXwXcXwXqXcXcXcXcXcXwXqXcXcXcXcXcXcXcXcXcXcXtXyXcXcXyXqXcXyXyXcXcXqXqXqXqXqXZX",
"cXcXcXHXFXcXuXcXuXcXcXcXcXcXcXcXcXcXcXcXcXcXcXcXcXtXuXtXtXqXqXqXcXcXqXcXyXyXyXcXtXyX8X2XqX8X2X8X2XqX8X8XqXqXqXqXwXwXwX8XqXcXcXtXqXyXcXqXqXuXFXcXuXcXFXuXqXcXcXqXcXcXcXcXcXcXcXqXqXrXqXrXcXcXcXqXqXyXwXqXqXqXqXqXqXwXyXqXqXqXqXqXqXwXqXqXqXcXcXcXcXcXcXcXcXcXcXtXcXcXcXcXcXqXcXcXcXqXcXcXcXcXcXqXqXcXtXcXtXcXtXcXtXcXcXtXyXwXwXqXqXqXcXcXcXyXcXcXcXcXcXcXcXcXyXcXcXcXcXcXyXcXyXyXqX8XcXwXqXcXcXyXwXqXwXcXwXqXqXqXqXtXtXyXcXcXyXyXqXcXcXcXcXyXcXqXqXqXcXwXqXwXcXcXcXcXcXcXqXqXVXcXcXcXcXcXcXcXcXcXcXtXcXcXcXcXcXyXcXcXyXyXyXqXqXZX",
"cXcXcXcXcXuXuXqXuXHXHXcXcXcXcXcXcXcXyXyXyXcXcXcXcXuXuXtXcXtXqXqXqXqXqXcXcXcXyXqXcXcXyX8X8XqXyXqXqXqXqX2XqXwXqXyXwXwXwXqXqXyXcXqXqXtXcXcXqXqXcXcXcXcXcXcXcXcXcXcXqXuXuXcXuXcXFXcXcXcXqXqXcXcXcXcXcXcXqXqXqXqXwXwXqXqXyXqXqXqXqXqXqXqXcXcXwXqXyXcXcXcXcXcXcXcXcXcXqXcXcXqXcXcXcXyXcXcXcXcXcXcXcXcXtXtXcXtXtXqXtXqXqXcXcXtXqXqXwX8X2XqX2XcXcXyXcXqXcXcXqXtXtXcXcXcXcXcXcXcXcXcXcXtXqXqX2XqXcXyXcXcXyXqXqXyXwXyXwXyXqXtXqXtXtXtXyXyXtXyXyXyXyXcXwXqXyXqXwXcXcXcXcXcXcXcXcXcXcXqXcXcXcXcXcXcXcXcXcXcXcXcXcXtXcXcXcXcXcXcXcXyXqXcXyXcX",
"FXcXcXcXcXcXuXcXcXcXVXHXcXcXcXcXcXcXcXcXcXcXcXyXtXtXuXuXcXcXqXqXyXqXqXqXcXcXyXcXcXqXcXcXcXtXyXcXyXqXqX8XqXqXqXqXqXqXwXwXwXcXyXqXqXqXqXuXuXcXcXcXcXcXqXFXDXcXcXDXHXDXcXcXcXcXFXHXHXcXqXrXcXcXcXqXcXcXcXcXqXqXwXyXyXqXqXqXqXqXqXqXqXyXcXcXcXcXcXcXcXcXcXcXcXcXcXtXyXcXcXqXtXcXcXyXcXcXcXcXcXcXcXcXcXtXtXtXcXtXcXcXcXcXcXtXqXyXcXqXqXcXqX8XcXcXcXcXcXcXyXcXyXtXcXtXcXcXcXcXcXcXcXcXcXcX8XqXcXyXcXcXcXqXqXqXyXcXqXyXyXtXqXcXyXtXtXcXyXyXcXcXyXcXcXqXwXcXcXwXcXcXyXcXcXcXcXyXcXyXcXcXcXcXcXVXcXcXcXcXcXcXcXcXcXcXcXcXcXcXcXcXcXcXyXcX",
"cXcXcXcXcXqXcXcXtXcXcXcXcXcXcXcXcXcXcXcXcXyXcXcXtXcXcXcXtXqXqXcXcXqX8XyXcXcXcXcXcXqXqXcXyXqXcXcXqXwXqX2X8XcXqXqXqXqXqXqXcXqX8XyXqXyXyXtXcXcXcXcXcXuXcXcXcXDXDXcXcXDXcXcXcXcXcXcXcXcXcXqXuXqXcXcXuXcXcXcXcXcXqXtXcXyXqXqXyXqXqXqXqXqXqXyXcXcXcXyXyXcXyXcXVXcXcXqXcXcXyXcXcXcXtXqXcXcXcXcXcXcXcXcXcXyXcXtXcXyXtXcXcXcXcXcXwXwXcXcXyXcXcXqXqXqXyXcXyXcXcXcXtXtXcXyXtXqXcXcXcXuXuXcXcXyXcXyXcXqXyXyXyXqXcXcXtXtXyXyXyXcXyXqXqXqXqXqXcXyXyXyXtXcXyXcXqXqXyXyXcXqXwXyXcXcXwXqXcXcXcXcXcXcXVXVXcXcXcXtXtXcXcXcXcXcXcXcXyXqXcXyXcXcXcXcX",
"cXcXcXcXqXqXHXqXqXcXcXVXcXcXcXcXcXcXcXcXyXtXcXcXcXcXcXtXtXcXcXcXtX3XqXqXcXcXcXcXcXyXtXcXtXqXqXqXqXyXqX2X2XqXqXqXqX8XqXcXwX2XtXqXqXtXcXyXtXcXcXcXcXcXcXcXcXFXFXeXcXcXcXDXDXcXqXqXuXFXDXcXuXcXcXcXcXcXcXcXcXcXcXqXyXcXtXyXcXqXqXtXqXqXyXcXcXcXcXcXyXcXcXcXVXcXcXqXyXcXcXcXwXcXcXqXcXyXcXcXcXcXcXcXcXcXcXcXqXqXcXyXcXtXcXcXyXqXcXyXcXcXwXwXqXqXqXqXcXcXcXcXyXcXcXqXtXcXcXcXtXtXcXcXcXcXqXqXcXcXyXyXcXyXtXcXqXqXyXqXcXyXqXyXwXwXyXyXtXtXtXcXcXtXyXtXtXcXwXwXcXyXwXqXqXqXyXcXcXcXyXcXcXcXcXcXcXcXcXcXcXcXcXcXcXyXcXyXcXcXcXcXqXcXcXcX",
"cXcXcXtXqXcXcXqXcXcXcXcXcXcXqXcXcXVXcXcXVXcXcXcXcXcXcXcXtXtXcXqXtXcXcXcXcXcXcXcXcXyXyXtXtXcXqXqXqXyXcXqX2XqXqX2XwXqXwXwXwXyXcXcXqXcXyXcXcXyXcXcXcXcXcXcXFXcXcXFXcXFXFXcXcXDXcXcXcXcXcXFXDXcXeXqXqXcXcXcXcXcXtXtXqXcXcXcXcXtXqXqXyXqXqXqXyXtXcXcXcXcXcXcXcXcXcXcXcXwXcXyXqXqXcXcXcXcXcXcXcXyXqXqXcXcXcXcXcXcXtXcXcXtXcXcXcXcXcXyXcXcXwXcXwXqXqXyXqXcXyXwXyXcXcXcXtXcXtXtXcXtXtXcXcXcXcXwXqXcXtXtXcXqXyXcXqXqXtXqXwXcXqXqXqXwXcXcXtXtXtXcXcXtXtXtXcXcXwXqXyXyXyXcXyXqXqXcXcXtXcXcXtXcXcXcXcXcXcXcXcXcXtXuXcXcXcXcXcXcXcXcXtXtXcXcX",
"cXcXyXcXcXyXqXyXcXcXZXcXcXtXqXcXcXcXVXcXcXVXcXcXcXcXcXcXcXqXcXcXtXcXtXyXcXcXyXcXcXtXqXcXqXqXqXqXwXyXwXqXqX8X8X2X8XqXqXcXyXyXqXcXqXyXqXcXcXyXtXcXcXcXcXcXcXcXcXDXcXcXcXcXqXcXDXHXcXuXuXcXFXcXcXqXqXFXcXcXVXcXcXcXqXyXcXcXcXqXtXcXyXwXqXqXyXcXcXcXyXcXcXcXcXcXcXcXcXqXcXqXwXqXqXyXcXcXcXcXqXqXtXcXcXcXcXtXcXyXtXcXcXcXyXcXyXcXwXyXwXcXcXwXcXyXyXcXyXwXcXcXcXcXcXcXcXcXcXtXcXtXqXtXqXqXyXcXwXyXqXqXwXyXqXqXqX8XqXqXcXyXyXwXyXyXtXcXyXtXtXqXtXcXyXyXcXyXwXyXqXyXyXyXcXyXqX8XqXqXcXcXcXcXcXyXcXcXcXcXcXcXcXcXcXcXcXcXcXyXtXtXcXcXtXcX",
"cXcXcXqXyXqXtX8XqXyXcXcXcXtXyXcXcXtXcXcXcXcXcXcXcXcXcXVXcXtXtXcXtXcXcXtXcXcXyXcXcXcXqX2X1XqX2XqXyXqX8XqXqXqX8X2X2XqXcXqXwXcXcXqXtXqXtXcXcXcXcXyXcXHXcXuXcXcXcXcXuXcXcXFXcXHXcXcXcXcXqXcXcXDXcXcXFXHXFXcXcXcXqXtXtXtXcXcXcXqXcXcXyXqXyXqXcXVXcXZXcXcXcXcXcXyXcXcXqXwXyXqXwXqXtXcXtXcXcXcXyXyXcXcXcXqXcXcXyXcXcXcXcXtXcXcXyXwXyXqXyXyXyXqXqXcXcXcXcXcXcXcXcXyXcXyXqXcXcXcXcXcXqXqXwXqXqXcXwXqXtXyXwXyX8X8XyXqXqXqXyXcXcXyXcXcXcXcXtXtXtXqXqXcXcXyXtXwXwXyXwXyXqXqXyXqXcXqXcXcXcXtXtXtXcXcXcXcXtXyXcXcXcXcXcXcXwXcXcXcXyXcXyXcXtXcX",
"cXcXcXtXqXyXcXcXyXqXcXyXcXyXcXyXqXqXtXcXcXcXcXcXtXcXcXcXcXcXcXcXcXcXtXqXyXcXcXcXcXyXcX4X7X8X8XqX2XqXqXqXqXqX8X2X2XqXyXcXyXyXyXqXyXcXyXcXyXcXcXcXcXcXcXcXcXFXHXcXcXcXcXcXcXcXcXqXeXcXcXcXcXFXcXcXcXcXcXHXcXcXuXqXqXcXtXcXcXcXtXtXyXcXcXqXqXHXcXcXcXHXVXcXcXcXcXcXcXcXyXwXqXyXqXcXcXcXcXyXcXcXtXtXtXqXyXcXcXcXcXtXcXcXcXcXcXyXcXwXcXcXyXqXwXcXcXqXqXyXcXcXtXcXtXqXcXcXcXcXtXcXcXcXcXcXcXyXqXqXtXyXwXyXcXcXcXcXyXtXqXcXcXqXwXcXcXcXcXyXtXcXtXtXcXcXyXyXyXqXqXcXqXqXcXcXyXwXqXcXcXyXtXyXqXqXtXtXcXcXqXtXcXcXyXcXcXcXcXcXcXcXcXcXcXVX",
"cXcXqXtXcXcXtXcXVXcXcXcXcXqXtXcXtXtXtXcXcXcXcXuXcXcXcXcXyXcXcXcXcXcXcXtXcXtXcXuXtXyXtXyXcXqXqX8X1X8XqXqXqX8X8X8X2X2XqXcXyXtXqXqXqXyXqXcXqXyXcXtXcXFXcXcXcXcXFXcXcXDXcXDXcXcXFXcXcXuXcXcXcXcXcXcXcXuXcXHXHXcXcXqXqXuXqXcXuXuXcXtXcXcXcXcXcXcXcXqXcXVXHXcXcXcXcXyXcXcXcXcXqXyXqXcXcXcXcXcXtXtXcXqXcXcXyXcXcXyXyXyXcXcXyXcXcXcXqXcXcXqXqXqXcXqXcXtXqXtXtXcXcXtXqX3XcXcXyXtXqXtXqXyXwXqXqXyXwXqXqXtXyXcXcXcXcXcXwXcXqXqXyXcXcXyXcXyXcXcXcXcXcXcXcXcXcXcXcXyXtXcXtXwXcXyXcXqXqXcXcXyXcXcXqXqXyXtXyXyXcXcXcXcXcXuXcXcXcXcXcXcXcXcXcXVX",
"cXcXyXcXcXcXcXVXcXcXcXcXHXcXqXqXcXtXcXcXcXtXcXuXcXuXuXcXyXcXcXyXcXcXcXcXcXcXcXcXtXcXqXqXwXwX8X8X2X2X<X8XwX8XqX8X2X1XqXwXcXyXyXqXqX8X8XcXqXqXqXqXqXcXcXcXDXFXHXcXcXcXcXcXFXcXcXcXcXcXeXuXcXcXcXcXcXcXuXcXcXHXcXFXcXuXqXqXqXuXcXqXyXcXcXyXtXcXwXcXcXcXVXcXcXcXyXcXyXyXwXcXyXqXyXcXcXcXyXyXcXcXcXcXtXcXcXqXqXwXCXcXtXtXcXcXcXcXqXcXyXqXwXqXyXqXcXcXqXqXtXyXcXqXqXtXtXtXyXcXqXqXqXqXyXqXqXqXyXqXqXqXtXcXyXyXcXcXyXwXcXyXwXyXcXyXqXqXcXcXcXcXcXcXcXcXcXyXyXcXtXcXcXcXyXqXwXyXqXyXwXqXcXcXtXcXtXtXcXcXcXcXcXcXcXtXtXtXcXcXcXcXcXcXyXcX",
"cXcXcXcXcXcXcXcXVXcXcXqXcXVXcXtXcXtXcXcXcXtXuXcXcXcXqXqXqXcXyXyXyXcXcXcXcXcXyXcXcXcXcXqXqXqXqX8X2X2X2X1XqXqXqX8X8XqX8XqXqXqXqXqXqXqXqXwXyXyXqX2XqXcXcXcXcXcXcXcXcXcXFXcXDXcXcXFXcXuXuXqXqXcXDXcXcXcXcXcXFXHXHXcXcXuXcXcXuXcXcXcXcXcXcXcXcXZXqXqXwXqXcXcXcXcXcXcXqXqXqXwXcXyXcXcXyXcXcXtXcXcXcXcXyXcX7X;XcXqXqXyXtXtXcXyXwXcXqXqXwXqXqXqXyXqXqXcXtXqXqXyXcXcXqXtXcXcXcXcXqXqXqXyXqXqXqXwXqXqXtXcXqXcXtXwXcXcXcXwXyXwXqXqXqXqXqXtXcXcXyXtXtXcXcXcXcXcXcXcXcXcXcXcXwXcXyXwXyXqXwXcXcXcXcXcXcXcXcXcXcXcXtXcXcXcXcXcXcXcXcXcXtXcXcXcX",
"cXcXcXcXcXVXcXVXcXcXcXcXcXtXcXcXyXqXtXcXtXcXqXcXuXcXcXtXtXcXtXcXcXcXcXcXcXyXtXcXcXcXcXqXqXyXyXqX8XqX8X2XqXqXqXqXqXqX2X2XqXwXyXwX8X8X2XwXqXcXqXqXqXcXcXqXcXcXcXcXcXcXcXDXHXDXDXcXcXcXuXcXcXcXDXuXcXHXHXcXcXcXcXHXqXcXcXDXcXcXcXcXcXcXcXtXcXcXqXqXqXwXcXcXcXcXZXVXcXcXqXyXcXwXcXcXcXwXcXcXcXcXcXyXqXqXcXcXcXcXtXqXyXcXyXtXqXwXqXcXwXwXqXyXwXqXwXcXyXtXtXcXcXqXcXcXyXcXcXtXqXqXqXqXqXqXqXqXwXqXtXcXqXtXcXyXyXqXcXcXcXwXqXcXcXwXqXqXtXcXyXtXtXtXcXcXcXcXcXcXcXcXcXyXwXcXyXyXwXqXwXcXcXcXcXcXcXcXtXyXcXcXtXcXcXcXcXcXcXcXVXcXcXcXcXcX",
"cXcXcXVXVXcXVXcXcXcXcXcXtXtXcXcXcXqXtXtXcXqXuXcXuXcXcXcXyXqXtXtXcXqXqXcXcXyXtXuXcXcXtXqXuXqX3XqXtXtX8XqXqX8XqXqXqXqXqX8X2XqXwX8X8X8X8XqXqXqXqXcXcXcXcXqXqXcXcXcXcXuXuXcXcXDXFXcXcXFXcXcXDXcXcXcXcXFXDXDXDXcXcXcXFXDXcXcXcXcXcXcXcXZXcXcXtXyXwXyXwXcXcXcXcXcXcXcXcXqXcXcXwXqXcXwXcXcXcXcXcXtXyXqXtXcXyXcXcXyXcXcXyXqXyXyXqXqXqXcXcXqXqXwXcXyXyXyXcXtXyXcXcXcXcXtXyXcXcXcXcXyXcXyXcXcXwXqXyXqXtXcXqXqXqXyXwXyXcXcXwXcXqXqXqXyXqXqXyXyXyXcXcXcXcXcXcXcXcXcXcXcXcXcXcXwXcXyXqXqXqXqXwXcXcXcXyXtXcXyXyXcXcXcXcXcXcXcXcXcXcXcXcXcXcXVX",
"cXcXcXcXcXcXcXcXcXtXqXqXqXcXcXcXyXcXcXtXtXyXcXcXcXqXcXcXtXtXtXtXcXtXcXqXcXcXqXqXqXtXtXqXcXtXqXqXqXtXcXqXqXqXqXqXqXqXqXqX2X2X2X2X2X8XqX8XqXqXyXyXqXqXtXqXcXcXqXqXcXcXqXuXDXcXcXcXHXcXcXDXcXcXcXcXcXcXcXFXcXHXHXHXcXcXcXcXcXcXcXFXFXFXcXcXtXqXtXyXcXyXcXcXqXqXcXcXcXyXcXcXcXcXqXyXqXqXcXcXcXcXqXtXcXcXqXtXcXcXcXcXcXyXqXyXyXwXqXqXqXqXqXqXqXyXcXcXcXtXtXtXtXqXqXcXwXcXcXcXtXtXyXyXwXyXwXqXqXyXwXcXcXwXqXwXwXcXyXwXcXqXyXqXqXwXcXcXyXwXcXyXyXwXcXcXcXcXcXcXcXcXcXtXyXcXqXtXwXcX8XqXyXcXcXtXyXyXcXcXcXtXcXtXcXcXcXcXcXcXcXcXyXcXcXcX",
"cXVXcXcXcXcXVXcXcXqXyXwXyXcXcXcXcXcXcXcXcXcXcXcXqXqXqXqXtXcXtXtXcXtXcXcXVXcXcXtXqXqXcXtXcXqXqXtXqXtXtXqXqX2XqXqXqXqXqXqXqX8X8X8X8XqXqXqXqXqXqXqXqXqXyXcXtXcXqXuXcXcXcXcXDXcXcXcXcXcXcXcXcXcXcXcXcXuXcXHXFXDXHXcXDXHXcXcXHXHXcXcXcXcXVXcXuXuXcXcXtXqXqXyXqXqXyXyXcXcXcXcXcXqXyXyXqXcXqXtXqXqXtXcXyXtXtXtXcXcXyXyXcXcXcXyXyXwXqXqXcXyXwXwXqXqXcXyXyXqXcXtXtXcXqXwXcXyXqXtXyXyXyXyXqXqXyXwXqXcXyXqXqXcXcXqXqXqXyXcXcXyXqXcXwXqXwXcXcXcXyXcXqXqXcXcXcXVXcXcXcXyXcXcXcXqXyXyXyXcXqXqXyXwXtXyXtXqXcXcXcXcXcXcXcXcXcXcXtXcXcXcXHXcXcXcX",
"cXVXcXcXVXcXcXcXcXcXcXwXcXCXcXcXyXqXyXtXcXcXcXcXtXcXtXtXyXcXtXcXcXyXyXcXcXtXtXtXtXtXcXcXtXqXtXcXtXtXqXqXyX2X2XqXqXqXqXqXqXqX8XqX2XqXqXqXqXqX8XqXyXcXqXqXtXcXcXuXuXqXcXcXcXFXcXcXcXcXcXcXcXcXcXcXcXcXcXHXHXHXDXcXcXcXcXFXFXcXFXHXHXHXcXcXcXcXZXcXcXtXqXwXcXqXqXwXyXwXwXwXqXcXqXyXqXqXcXcXcXcXqXyXcXtXyXyXcXcXtXtXtXcXcXcXyXwXyXcXqXqXqXqXqXyXwXcXqXtXyXyXtXcXcXcXcXyX2XqXcXcXtXyXwXwXwXwXwXqXyXqXwXyXcXqX8XqXwXwXyXqXqXyXcXcXqXqXqX2XqXcXqXyXcXcXcXcXcXcXcXcXyXcXcXqXcXcXcXcXyXqXcXcXcXqXqXcXqXqXcXcXcXcXcXcXcXtXtXcXcXcXcXcXtXVX",
"cXcXcXcXcXcXcXcXcXcXcXZXcXcXcXwXqXcXcXcXcXcXcXtXcXcXVXVXcXcXtXtXqXtXZXcXtXtXcXcXcXcXcXcXcXcXyXtXtXyXqXyX2X1X2XqXqXqXqX2XqXwXqX8X8XqXqXqXqXqXwXqXyXtXqXcXtXtXuXcXcXcXqXqXcXcXcXcXcXcXcXcXcXcXFXcXcXFXFXDXDXDXcXcXcXcXcXcXcXcXHXHXHXFXcXcXDXcXcXVXcXcXcXcXcXcXwXqXqXyXyXwXwXcXqXqXcXqXtXtXyXqX3XtXcXcXcXyXyXcXyXtXcXqXtXcXwXqXwXyXwXqXwXyXwXqXqXtXtXqXcXcXcXcXcXcXqXyXyXtXqXcXcXyXcXyXqXcXqXqXqXwXwXqXcXcXqXqXwXwXqX8XqXyXcXcXcXqX8X2X2XqXcXcXwXcXcXcXcXcXcXyXcXtXcXcXcXcXyXcXyXqXcXcXcXcXqXyXcXqXtXqXcXtXcXtXcXcXcXtXcXtXcXcXcXZX",
"cXcXcXcXcXcXcXcXcXcXcXcXcXcXcXcXcXVXtXtXcXcXcXcXcXcXcXcXcXyXqXqXyXyXcXcXcXcXcXcXtXcXcXcXcXcXtXqXqXtXyXyX8X7X2XqXqXqXqXqX8XqXyXqX2X8XqXqXqXqXqX8XqXtXcXcXtXtXcXcXcXcXcXqX2XqXcXcXcXcXcXcXuXDXDXDXcXcXHXHXcXcXcXcXcXcXFXcXcXHXDXuXcXuXDXHXDXcXtXcXcXcXcXcXcXqXqXcXcXyXcXwXwXcXtXqXtXcXcXyXtXqXqXcXcXcXcXcXtXyXcXcXtXtXqXyXcXyXyXqXqXqXwXcXwXqXqXqXcXtXcXcXcXcXcXcXcXcXqXcXqXqXcXcXcXcXyXyXwXqXqXwXqXwXwXyXyXwXcXcXqXqX8X8XqXqXcXqXyXcXwXcXcXcXyXcXcXcXcXcXcXtXcXyXcXcXqXqXwXwXyXqXcXcXcXqXqXtXqXtXqXcXcXcXcXtXcXcXcXqXcXtXyXcXcXcX",
"cXcXcXcXcXcXcXcXcXcXZXcXcXVXcXcXcXcXcXcXcXcXcXcXcXcXyXcXyXqXqXqXcXcXtXcXcXcXcXcXyXcXcXcXcXtXtXyXcXcXqXqXcXqXqXqXcXyXyXyX8XwXyXcXqXqXqXqXqXqXqXqXqXqXcXqXyXcXqXcXcXuXcXFXcXcXcXcXcXcXcXcXcXcXcXcXFXcXFXHXcXFXHXHXcXFXHXFXcXcXcXcXFXcXcXFXHXVXcXcXcXcXcXcXcXqXqXyXqXqXyXCXcXcXcXcXcXcXcXcXcXcXcXcXcXtXcXtXtXqXyXyXtXcXcXcXqXyXcXyXqXqXwXcXyXqXyXqXqXcXcXcXcXcXcXcXcXcXtXqXqXqXcXyXqXcXqXyXyXqXqXwXyXqXyXcXqXqXyXcXqXqX8XqXqXqXqXqXqXqXcXcXcXyXyXcXyXcXcXcXcXyXqXcXcXcXyXqXyXcXwXqXcXyXcXqXqXqXqXtXqXcXcXcXtXtXcXcXcXcXcXcXcXcXcXVX",
"FXFXFXcXcXVXcXcXcXcXcXcXcXcXcXcXuXyXtXcXcXcXcXcXcXcXtXcXcXcXcXtXtXcXyXtXyXyXcXcXcXcXcXcXcXtXcXcXyXcXqXqXqXyXcXwXqXwXwXcXyXyXyXwXyXcXcXcXqXqXqXqXqXqXyXqXqXqXqXtXqXcXcXtXcXcXtXyXcXcXcXcXcXcXcXcXcXcXcXFXHXFXcXHXHXFXHXcXcXcXFXcXcXcXVXcXcXcXcXcXcXyXcXcXcXcXyXqXwXwXcXcXcXcXVXVXcXVXVXcXcXcXcXcXcXcXcXtXqXtXqXyXcXcXcXcXcXcXqXyXcXqXqXqXqXwXqXqXqXcXcXcXyXcXcXqXcXcXcXqXwXcXqXqXyXqXqXqXwXwXqXqXyXcXcXcXqXqXqXcXtXqXqXcXtXtXqXqXqX8XqXqXcXcXyXwXcXqXwXcXcXqXyXtXqXtXtXtXyXcXyXqXcXyXcXyX3XqXyXcXcXtXcXcXcXcXtXcXcXcXcXFXcXcXcXFX",
"HXcXcXcXVXFXFXHXcXFXcXcXcXcXcXcXcXcXtXtXcXcXcXcXcXtXcXcXcXcXtXtXtXtXcXtXtXqXcXcXcXcXcXcXcXtXqXtXqXyXqXwXqXqXwXcXwXqXcXqXcXcXcXcXyXyXwXcXcXcXcXcXqXqXcXqXqXqXqXqXqXcXcXcXcXcXcXcXVXFXuXcXuXcXuXcXcXcXDXHXFXFXcXcXHXcXHXDXFXcXcXuXcXcXcXcXcXcXcXcXcXcXcXcXyXcXcXyXcXcXcXcXcXcXcXcXcXcXVXcXcXVXVXcXZXVXcXcXtXyXcXcXqXcXtXcXcXcXtXtXcXqXqXqXqXyXqXwXcXcXcXqXqXqXqXwXqXcXcXcXyXcXqX2XyXcXqXqXqXyXqXqXqXcXqXcXtXtXqXcXcXtXcXcXcXcXcXcXqX8XqXwXcXcXcXcXcXcXcXcXcXwXqXqXyXtXtXqXyXyXtXqXqXqXcXcXtXcXqXtXcXcXyXcXcXZXtXcXVXHXcXcXcXcXcXcX",
"HXHXFXFXFXFXFXFXcXcXDXFXFXcXcXcXuXcXyXcXcXcXcXcXcXcXcXcXcXtXcXcXtXqXtXcXcXqX2XyXcXcXcXyXcXcXtXtXcXcXcXqXqXqXqXqXqXyXwXqXqXcXcXcXcXcXcXyXcXcXCXcXqXqXqXqXqXqXqXqXtXtXtXcXcXqXcXcXcXcXcXcXcXcXcXcXcXcXcXDXcXcXcXcXcXFXcXcXHXcXcXcXcXtXcXHXcXcXcXyXcXcXcXcXcXcXyXcXcXqXqXcXcXcXcXcXcXcXtXcXcXcXcXcXcXcXcXqXqXtXcXcXcXcXcXcXcXcXcXcXyXyXwXqXcXyXcXwXyXcXcXwXqXcXqX2XqXyXcXqXqXyXcXqXcXcXqXqXqXqXwXwXcXqXqXyXcXcXqXtXcXtXqXcXcXcXcXcXCXqXqXcXqXcXcXcXcXcXcXcXyXyXqX3XqXtXqXtXqXcXqXqXtXtXqXqXtXyXcXcXcXcXcXcXcXcXcXcXcXVXcXHXcXuXcXcX",
"cXcXFXFXFXFXFXFXDXFXHXFXFXcXcXcXcXcXcXcXcXcXVXcXcXcXcXcXcXtXcXcXcXqXyXcXcXqXqXtXcXcXtXyXcXcXcXtXcXcXcXcXqXqXqXqXqXqXyXqXqXwXwXcXcXcXyXwXwXcXcXcXcXcXqXqXqXyXyXqXqXyXtXcXcXcXVXHXcXFXFXcXcXcXcXcXcXcXcXqXcXcXcXcXcXHXcXcXFXcXcXcXcXcXcXcXcXcXcXcXcXtXqXcXcXcXqXyXcXwXqXqXcXyXyXcXcXcXcXcXcXcXVXZXcXVXcXyXcXcXcXcXcXcXcXcXcXtXtXyXcXcXyXcXcXcXcXcXcXcXcXcXcXcXcXcXcXyXwXwXwXwXyXcXcXqXqXcXqXqXcXcXqXqXcXyXcXtXcXcXqXtXcXqXcXcXcXcXcXcXyXqXqXcXqXwXcXcXcXcXwXqXqX2XqXtXqXtXtXqXqXcXyXqXqXcXcXtXcXcXcXcXcXVXcXcXcXcXcXcXHXHXuXcXcXFX",
"HXcXHXHXFXFXHXcXFXHXDXHXHXFXcXcXqXtXcXcXcXcXcXcXqXcXcXcXcXcXtXcXqXqXtXcXcXcXtXqXcXtXcXcXcXcXcXcXqXyXcXcXqXqXcXcXqXqXyXyXyXyXqXcXcXcXyXyXwXcXcXcXcXcXcXcXqXyXcXcXqXyXtXcXVXcXcXcXVXcXcXcXHXcXcXcXcXcXcXcXcXcXcXcXcXcXHXHXcXqXcXcXcXcXyXVXVXcXcXcXcXcXqXwXcXqXqXcXqXcXqXqXyXcXcXcXcXcXVXcXcXcXHXZXHXcXcXcXcXcXVXcXcXtXcXcXcXqXyXyXtXcXcXZXcXcXcXcXcXcXcXcXcXwXqXwXcXcXwXwXwXwXqXcXwXyXwXcXcXcXcXcXwXcXcXcXcXcXcXcXcXcXcXcXcXtXcXcXcXcXCXcXcXqXqXwXyXyXcXcXcXqXqXqXtXyXqXqXcXcXqXqXqXqXqXcXcXcXcXcXcXcXcXcXcXcXcXcXcXcXVXcXcXcXcXFX",
"GXHXDXFXVXHXHXFXFXcXcXDXcXcXFXFXcXcXcXcXcXcXtXcXcXcXcXcXcXcXtXtXcXcXcXcXcXcXcXtXtXcXcXcXcXcXcXtXcXtXtXcXtXyXqXyXyXyXcXcXyXyXcXwXcXcXcXcXtXtXyXyXqXqXqXcXcXwXcXcXcXyXyXqXqXtXqXtXcXcXHXcXcXcXcXcXcXcXDXFXcXHXcXuXcXcXcXHXcXcXVXcXcXcXcXcXVXcXcXcXcXcXcXcXcXqXqXqXqXqXcXcXcXqXcXcXcXcXcXcXVXyXcXyXcXVXcXVXcXcXHXcXcXcXcXcXcXcXtXyXyXcXcXcXcXcXcXcXcXcXcXcXcXcXqX2XqXcXcXcXqXyXqXqXcXwXqXqXyXcXDXcXcXcXuXcXcXuXcXcXcXcXcXcXcXcXcXyXyXcXVXVXcXcXcXcXyXcXcXcXcXqXqXqXyXwXqXyXyXcX2XqXcXqXcXcXqXqXtXtXcXtXqXcXcXcXcXcXHXcXcXcXcXcXuXcX",
"GXcXFXFXFXFXHXFXFXFXcXcXFXFXHXFXcXHXHXcXcXcXcXcXcXtXtXcXcXcXcXcXtXyXcXcXqXwXyXtXtXcXcXcXcXcXcXyXyXqXcXcXcXyXqXqXqXqXtXcXtXqXyXcXcXcXcXcXyXtXyXcXqX8XyXcXcXyXyXtXcXcXtXqXqXtXcXcXcXcXqXcXcXFXcXcXFXHXDXcXcXcXcXcXHXcXcXcXcXcXcXcXcXcXcXcXVXcXcXqXqXyXcXcX8XqXwXqXcXwXqXcXcXqXcXcXcXcXcXcXcXcXcXyXyXcXcXcXVXcXVXcXHXHXcXcXcXcXcXyXcXtXyXcXVXZXcXcXcXcXcXcXcXcXyXqXyXwXcXcXyXqXqXqXcXcXwXcXyXcXcXcXcXuXcXcXcXuXcXcXcXcXcXyXcXcXcXcXyXqXqXcXcXVXcXcXcXtXqXyXtXqXqXqXqXqXyXwXyXcXqXyXwXqXyXcXtXtXcXyXtXtXcXcXcXcXcXVXHXcXcXcXcXDXcXDX",
"DXcXFXFXFXFXLXHXFXFXcXcXcXFXFXHXHXcXcXcXcXcXcXcXcXyXcXcXcXtXVXyXcXqXqXwXqXqXqXtXtXcXcXtXtXcXtXcXcXyXtXcXcXcXcXtXqXqXtXcXyXqXqXyXcXcXcXcXcXyXcXcXtXqXtXcXcXcXcXtXcXcXtXqXqXtXcXcXcXcXqXuXuXcXcXcXFXFXcXcXcXcXuXcXcXFXVXcXcXcXcXcXcXcXcXcXcXcXcXcXcXcXqX8XqXcXqXcXyXcXqXqXcXwXyXcXcXcXcXcXcXcXcXyXqXcXZXVXHXZXcXHXFXVXHXVXcXcXVXVXcXqXqXcXcXcXcXcXcXcXcXyXcXcXcXcXcXcXyXyXcXcXcXqXqXcXcXcXcXcXcXcXcXcXFXFXuXcXcXcXcXcXcXcXcXcXcXcXcXcXtXcXcXcXcXcXcXcXqXcXcXcXcXcXwXwXyXwXqXyXcXcXqXtXqXyXcXqXqXcXcXcXcXcXcXcXcXcXcXcXcXcXcXFXcXDX",
"cXcXcXFXFXHXHXHXHXHXcXcXcXcXDXcXHXcXcXcXcXcXcXcXcXcXcXcXcXtXtXcXtXyXqXqXqXqXtXtXyXcXcXtXcXcXcXcXcXtXqXtXcXyXcXcXcXtXcXcXqXqXqXqXcXqXcXcXcXcXyXyXcXcXcXcXcXcXtXqXtXtXcXcXtXqXVXcXZXFXcXcXeXuXcXcXcXcXcXHXcXFXcXcXcXcXcXHXcXVXcXtXcXVXHXcXcXcXyXcXcXyXqXqXcXyXcXyXwXwXcXwXwXqXwXcXcXcXyXcXcXcXcXcXqXcXVXcXcXZXcXcXDXDXHXcXVXVXVXcXcXqXqXcXcXcXcXcXcXcXcXcXyXcXcXcXcXcXcXcXcXcXcXcXqXcXCXyXcXcXcXcXcXFXFXcXcXFXcXcXcXcXcXcXcXcXcXcXcXcXyXcXcXcXcXcXcXcXtXtXtXcXcXcXcXcXcXcXcXcXyXcXqXcXyXtXtXtXcXcXcXcXcXtXqXtXcXcXcXHXFXcXcXcXDXDX",
"cXVXcXFXHXHXDXcXHXHXcXcXcXcXcXcXHXcXFXcXcXcXcXcXcXcXcXcXyXtXtXqXqXcXcXqXqXqXyXcXcXcXcXcXcXtXcXcXcXcXcXcXcXyXqXqXcXcXcXcXyXqXqXqXqXcXcXcXcXcXcXcXcXcXcXcXuXcXcXcXcXcXcXcXcXcXcXcXcXcXcXcXqXcXFXcXcXFXFXcXcXuXcXcXcXcXcXcXcXcXcXcXcXcXcXcXcXcXcXcXcXqXyXcXqXqXqXwXyXqXyXcXcXwXqXcXcXyXyX2XyXcXcXcXcXcXcXyXcXcXcXcXcXcXFXcXcXVXVXcXcXcXyXyXqXcXcXcXcXcXVXVXcXqXyXcXcXcXcXcXcXcXcXcXyX2XcXcXcXcXcXcXcXcXcXFXDXcXcXcXcXcXcXcXcXcXcXcXcXcXcXcXcXcXcXcXcXcXtXcXyXcXcXcXwXyXwXqXcXcXcXqXqXcXyXcXcXcXcXcXcXcXqXqXtXtXcXtXcXcXHXDXcXcXcXcX",
"DXcXcXDXDXDXcXFXcXcXcXDXcXcXFXHXHXcXcXcXcXFXcXtXqXtXcXcXtXtXcXcXcXyXqXqXcXcXcXtXtXcXqXtXtXcXcXyXcXcXcXcXcXcXcXqXqXqXtXyXcXqXcXyXqXcXcXcXcXcXqXtXcXcXcXuXuXcXcXcXcXcXcXtXcXcXyXtXqXcXcXcXcXcXcXuXuXcXcXcXcXcXcXcXFXVXcXcXcXcXVXcXcXtXqXVXcXyXcXyXqXqXqXqXyXcXcXcXcXcXcXwXcXcXcXcXyXcXqXqXyXcXyXcXcXqXtXcXcXcXcXcXDXcXcXcXcXcXFXVXcXcXcXcXqXyXcXVXcXcXcXcXZXHXcXcXcXcXcXcXcXcXcXcXHXcXcXcXcXHXHXFXcXcXcXFXDXcXcXcXcXcXcXcXcXcXcXcXqXcXcXcXcXcXcXcXcXcXqXcXcXcXcXcXcXcXcXyXyXcXcX2XqXcXyXcXcXtXcXcXcXcXqXuXcXcXcXcXuXcXcXcXHXHXcXHX",
"cXcXcXcXcXcXcXDXcXcXcXDXcXcXcXHXcXcXcXqX5XcXcXcXcXcXcXcXcXqXcXcXcXcXuXqXuXqXcXcXtXcXcXcXyXtXtXtXqXqXcXcXHXHXZXVXcXqXcXyXcXqXtXcXcXcXcXcXcXVXtXqXqXcXcXtXcXcXtXtXyXcXcXcXcXqXqXtXcXcXcXcXFXcXcXeXcXqXcXcXqXqXcXcXVXHXcXcXHXcXcXcXcXVXZXcXyXwXcXyXqXyXyXwXcXyXcXyXcXcXyXcXcXcXcXcXqXwXcXqXqXcXqXcXcXcXcXVXcXHXcXcXcXcXuXcXcXcXcXcXFXcXqXcXwXyXcXFXHXHXcXHXcXcXcXFXHXcXFXcXcXHXcXcXcXcXcXqXcXcXHXFXHXcXcXcXcXFXcXcXcXcXcXVXcXcXcXcXVXcXqXcXcXcXcXcXHXcXcXcXqXcXcXcXcXcXcXyXcXwXcXyXqXyXcXcXtXcXtXcXcXcXuXuXuXcXcXcXcXeXuXcXcXHXcXHX",
"cXcXcXcXcXcXcXcXcXcXcXcXcXcXcXcXFXHXcXDXcXcXcXcXcXcXcXcXcXcXqXcXcXcXuXcXuXqXcXcXtXtXyXyXcXcXcXtXqXqXqXcXcXcXVXcXcXcXcXcXcXqXcXcXcXcXcXcXcXHXcXyXcXtXcXcXcXcXtXtXtXcXcXtXcXyXcXtXtXcXcXcXcXcXcXFXcXcXcXcXyX8XqXtXtXVXcXcXVXcXcXcXcXyXtXyXyXwXyXqXcXwXqXqXwXcXcXcXcXcXyXyXcXcXwXyXcXwXcXqXqXqXcXcXyXcXcXcXcXHXHXDXcXcXcXcXcXcXcXcXcXcXqXcXcXcXcXcXHXHXcXFXHXcXcXcXcXcXcXcXcXcXcXcXcXcXcXcXcXFXcXcXHXHXHXcXcXcXcXcXVXKXcXcXcXcXcXcXcXcXcXqXVXcXcXcXcXcXVXqXcXVXcXcXcXqXtXcXcXyXyXcX2XqXcXqXtXcXqXcXcXcXcXuXqXqXuXcXcXcXcXqXDXFXFXHX",
"cXcXcXDXcXcXcXcXDXcXcXcXcXcXcXcXcXcXcXcXFXDXcXcXcXcXcXcXcXcXcXcXcXcXcXcXcXcXcXcXtXcXtX2XqXcXcXcXcXtXtXcXcXcXcXZXcXcXcXtXcXqXcXcXtXcXqXcXcXcXcXcXcXcXcXcXcXtXqXtXtXcXqXyXcXcXtXcXuXuXqXcXcXcXcXFXHXcXcXcXcXqXtXcXcXcXcXVXHXcXtXyXcXyXqXtXqXcXcXqXwXcXyXwXqXwXcXcXcXcXcXcXqXwXcXyXqXqXqXyXcXqXwXcXcXcXcXcXcXVXFXHXcXHXFXcXuXHXFXcXcXcXcXcXcXcXCXcXcXcXHXcXcXcXHXFXuXcXcXcXcXcXcXcXcXcXcXcXcXcXcXFXHXuXHXFXFXFXFXcXcX3X7XcXcXcXcXcXcXcXyXqXtXcXZXcXcXZXHXtXcXcXcXcXcXcXtXqXqXwXyXwX2XqXcXcXqXtXtXcXcXcXFXcXqXqXcXcXcXcXcXcXcXcXcXHX",
"cXcXcXcXcXcXqXeXcXcXFXDXcXDXHXFXcXDXcXcXcXDXDXcXcXcXcXcXcXcXcXHXcXFXcXcXcXcXcXcXcXcXcXtXtXtXcXcXcXcXcXcXcXcXVXcXtXZXVXcXcXtXcXqXqXcXqXcXcXcXcXcXHXcXcXcXcXcXcXcXtXcXcXtXcXcXcXtXcXcXcXcXcXcXcXFXcXcXqXqXcXcXyXtXcXcXcXcXHXZXVXcXHXcXyXcXqXcXcXqXqXcXcXqXwX8XqXcXcXcXcXcXwXqXqXcXqXqXqXcXcXyXyXcXcXcXcXcXcXcXcXFXHXHXHXDXDXFXHXHXcXcXwXyXCXcXHXeXcXqXcXFXcXcXFXHXDXcXuXcXcXHXDXDXcXuXcXcXcXcXcXcXDXDXHXFXHXHXHXVXcX2XqXVXcXqXHXcXtXcXcXcXqXcXyXcXVXcXHXqXyXqXtXcXqXtXqXqXqX8XqXwX2X8XcXqXqXyXcXcXcXcXcXcXcXcXFXcXcXcXqXuXFXcXcXHX",
"cXcXcXcXHXcXcX5XeXcXcXcXDXcXcXcXDXcXcXDXcXcXcXDXcXcXcXcXcXcXHXDXcXFXHXcXcXcXcXcXcXtXcXcXcXqX2XcXcXcXyXcXcXcXtXqXqXcXZXcXcXqXcXyXcXcXVXVXcXVXcXcXcXcXcXVXcXtXtXcXcXcXcXcXcXcXcXyXqXcXHXcXcXFXcXHXHXcXcXcXCXcXtXtXuXcXcXcXcXcXcXcXcXyXqXcXcXcXyXqXqXqX2XqXqXqXqXqXcXyXwXcXwXqXqXqXyXyXcXqXyXcXcXcXcXcXcXcXcXcXcXcXFXFXDXDXcXcXFXHXcXcXcXcXcXcXcXcXqXHXHXcXDXcXFXDXHXFXcXFXcXcXcXcXcXcXqXFXFXFXHXFXFXHXcXHXHXHXHXcXcXcXHXcXcXqX3XcXcXcXcXcXcXyXqXcXcXqXcXqXqXyXyXyXtXcXqXcXqX2XqXqX8X2XcXtXcXqXcXcXcXcXcXcXcXFXFXcXFXFXcXqXcXcXcXcX",
"HXcXcXFXDXcXcXcXDXcXcXcXcXcXDXcXDXcXcXcXcXqXcXcXcXcXcXcXcXcXFXFXcXcXFXcXcXDXcXcXHXcXcXcXcXHXtXqXcXcXcXcXcXcXqXqXtXcXtXqXcXcX3XcXcXtXcXcXDXcXcXcXqXFXHXcXcXHXcXuXtXcXcXcXcXcXqXcXcXcXcXcXcXHXcXHXHXcXcXcXcXcXqXqXuXcXwXyXcXcXcXcXyXqXtXcXcXcXcXyXcXqXqX2XqX8XqXqXyXcXyXyXyXyXyXyXyXyXcXcXcXcXyXcXcXcXyXcXcXcXcXcXcXcXcXcXcXcXcXFXcXcXFXKXcXcXtXcXHXDXFXcXHXHXFXcXcXcXHXHXHXcXDXcXcXcXcXcXFXcXHXPXHXHXcXHXFXFXFXcXFXcXcXcXcXcX2XcXcXcXcXqXqXqXqXqXcXcXqXcXcXcXcXcXcXtXcXcXqXqXqXcXqX;X4XcXcXuXtXcXcXcXcXDXDXDXcXcXcXcXHXFXcXcXcXcX",
"FXqX2XcXcXFXcXcXDXcXcXFXHXcXcXcXFXDXFXcXcXuXqXqXcXcXHXcXcXuXFXHXHXHXFXHXHXHXcXcXcXcXcXFXcXcXcXqXqXcXcXcXcXtXcXcXcXcXtXtXcXcXqXtXcXcXcXcXFXFXcXFXFXFXcXcXcXHXFXcXcXcXcXFXcXcXcXeXuXcXcXcXcXcXcXHXFXcXcXcXcXcXuXcXcXcXqXcXcXcXcXyXtXyXVXcXcXtXVXcXqXqXqX8XqX8X8XqXqXcXcXwXyXcXyXcXqXqXcXqXqXtXyXqXqXcXtXcXcXcXcXcXcXcXVXcXcXcXcXcXcXcXcXVXcXVXHXHXHXHXcXHXFXHXHXHXcXcXcXHXFXFXHXFXFXcXFXcXFXFXFXPXHXHXHXHXHXcXFXuXcXHXHXcXcXcXVXtXcXtXcXcXtXcXZXcXqXcXVXVXHXHXcXcXyXyXcXyXcXcXtXyXtXqX;XtXcXcXcXcXuXcXcXcXDXFXcXcXcXHXFXFXDXcXDXcX",
"cXcXcXcXcXcXuXcXcXcXcXcXcXqXcXFXcXcXcXcXcXcXqXuXuXFXHXcXcXcXFXHXFXHXFXHXDXcXHXHXcXcXcXcXDXcXcXcXcXuXyXcXcXcXcXcXcXcXVXcXcXcXcXqXcXcXcXHXcXcXcXHXcXcXcXcXcXHXHXcXcXuXcXHXcXcXcXcXcXcXcXcXcXcXcXcXcXHXcXeXqXcXcXFXcXuXyXcXwXyXcXcXqXtXcXcXcXtXyXcXqXqX8XqXqXqXqXqXqXwXyXwXqXwXcXcXcXqXcXyXtXtXqXtXcXcXcXcXcXcXqXqXtXcXcXcXcXFXcXcXcXcXcXtXcXcXcXHXHXHXFXHXHXDXcXHXFXcXcXcXFXFXcXcXDXDXFXcXFXHXHXDXHXHXHXHXHXHXHXcXHXHXHXFXcXcXqXtXcXcXcXcXcXVXcXcXcXcXcXcXVXcXcXyXyXyXyXcXqXtXtXcXcXcX2XqXcXqXtXcXcXcXcXFXcXcXcXcXcXFXcXcXFXcXcXcX",
"cXcXcXcXcXcXcXcXuXDXcXFXHXuXcXcXFXuXqXcXcXcXcXcXcXcXcXFXHXqXuXcXuXcXDXHXFXHXHXKXHXcXcXcXcXDXcXcXcXcXtXcXcXyXcXcXcXVXVXHXHXcXcXtXqXcXcXcXcXDXcXcXFXcXcXcXDXFXHXHXcXcXcXcXFXcXqXcXHXcXeXcXcXHXcXcXcXcXcXcXFXHXcXHXcXHXcXwXcXyXwXqXqXcXyXcXcXcXcXcXcXtXqXqXqXqXqXyXcXwXqXqXqXwXqXyXwXyXwXqXqXqXqXwXqXqXcXcXcXcXcXcXtXcXcXcXcXcXcXcXcXtXcXcXuXcXcXHXHXHXcXHXFXFXcXDXFXFXHXcXcXHXcXcXcXFXFXHXFXHXcXDXcXcXFXHXcXHXDXcXHXHXcXHXcXcXVXyXcXHXtXcXVXcXVXHXZXcXyXtXcXVXcXyXqXqXcXcXyXqXtXtXqXcX2XqXcXcXqXqXcXcXcXcXcXcXcXcXcXFXcXcXcXcXcXDX",
"uXqXuXcXcXcXuXcXcXcXcXcXDXFXcXDXcXcXcXcXcXcXcXcXcXcXcXuXcXcXcXcXDXHXFXcXcXFXHXDXDXHXHXFXFXcXuXcXcXcXtXcXqXqXcXcXcXcXZXcXcXcXVXVXqXtXcXcXcXcXcXcXHXcXcXcXcXcXHXDXcXcXcXcXHXFXcXcXuXcXqXuXuXcXcXFXcXcXcXcXcXcXcXFXcXFXcXqXqXqXqXqXyXcXcXcXcXcXcXyXcXcXZXcXqXqX8XqXwXqXwXqXqXqXqXqXqXqXqX2X2XqXqXqXqXqXqXqXcXcXcXcXcXcXyXcXcXcXcXcXcXtXZXcXqXcXcXcXcXHXHXHXFXcXFXcXcXcXFXcXcXcXcXDXcXcXDXFXHXcXcXcXcXDXHX5XqXHXcXuXcXHXcXcXHXcXcXcXcXVXcXcXqXcXZXVXVXZXVXcXyXcXcXcXtXcXtXyXyXtXqXqXqXcX2XtXcXqXqXqXcXcXcXcXcXcXcXcXFXHXDXcXcXcXcXcX",
"cXcXuXcXcXcXcXcXcXcXcXuXHXcXcXHXcXcXcXcXcXcXcXeXcXuXqXuXcXcXcXHXcXcXFXHXHXcXFXHXDXHXcXcXFXcXcXuXqXcXcXcXtXcXcXtXcXcXcXcXcXcXHXcXZXtXcXcXcXcXcXcXcXcXcXcXcX                                                                                                                                                                                                            HXHXFXDXKXcXcXDXcXHXcXHXcXDXHXcXHXcXHXcXcXcXHXDXcXcXHXHXcXcXcXHXcXqX2XcXcXcXcXcXcXcXcXcXcXcXcXtXcXcXcXcXtXcXcXqXqXcXtXqXcXcXcXcXcXcXcXDXcXFXFXDXFXcXcXcXcX",
"uXcXcXcXcXcXcXcXcXcXcXcXcXcXcXFXHXFXcXcXcXcXcXyXqX8XqXwXqXqXcXCXCXHXHXcXHXcXcXcXcXDXcXcXcXcXcXcXcXcXuXqXcXcXcXtXcXcXcXcXcXcXDXDXcXcXqXcXcXcXcXcXcXDXcXDXcX                                                                                                                                                                                                            HXHXHXLXPXcXcXcXcXcXcXHXHXFXDXHXcXDXHXHXcXcXcXcXcXcXFXcXuXqXqXcXcXcXcXcXcXcXcXcXcXcXcXcXcXcXcXcXcXcXcXcXcXcXyXcXqXqXcXtXcXcXcXcXDXcXFXDXDXcXuXcXFXDXuXcXcX",
"cXcXcXcXqXcXcXcXcXcXcXcXDXDXcXcXDXHXHXcXFXcXtXcXqX2X8XcX8X2XqXqXHXcXHXFXcXFXDXcXcXFXFXcXFXcXcXcXcXcXcXcXcXcXtXcXcXcXcXcXFXcXDXcXcXVXqXqXGXcXcXcXcXcXFXcXcX                                                                                                                                                                                                            HXFXcXFXHXFXDXcXcXcXDXHXcXDXFXFXcXHXcX4XuXcXcXHXFXcXuXcXHXcXcXHXVXcXZXHXcXyXcXZXVXVXVXcXcXcXcXcXqXtXcXcXcXcXqXcXtXqXcXcXuXcXcXcXFXcXDXDXDXcXqXDXcXcXcXqXcX",
"uXcXtXcXcXcXcXcXcXcXcXcXcXDXcXcXDXcXeXcXDXDXcXcXwXqXqXcXqXqX2XqXcXcXcXHXcXcXHXcXcXFXFXFXHXHXFXFXcXcXcXcXcXcXcXcXcXcXcXcXcXFXFXHXcXFXcXqXqXDXcXcXcXcXcXcXcX                                                                                                                                                                                                            HXHXHXHXHXHXDXHXcXDXHXHXHXHXDXHXHXHXqXcXLXDXHXHXFXHXuXuXcXHXHXFXcXqXVXVXHXcXcXZXVXVXHXcXcXcXcXcXyXqXcXcXcXcXcXcXtXqXtXcXtXcXFXDXFXcXcXFXHXDXcXcXcXcXcXcXuX",
"tXcXcXqXqXcXuXcXcXDXcXcXDXcXDXcXcXcXcXDXcXDXcXcXqXqXqXqXqXqXqXqXcXcXcXcXqXqXcXcXFXcXcXHXHXcXcXDXFXcXcXcXcXcXcXcXcXcXcXcXcXcXHXHXcXcXcXcXqXcXcXcXcXcXcXcXFX                                                                                                                                                                                                            HXHXFXFXHXcXHXFXcXFXcXHXLXHXFXHXHXHXHXHXHXcXHXFXFXHXcXqXcXFXHXcXcXcXcXVXHXHXcXcXcXcXcXcXcXcXcXcXcXcXVXcXcXcXcXcXcXqXqXqXuXcXcXcXDXcXcXcXcXcXcXcXFXcXqXcXFX",
"cXtXyXcXcXcXcXcXcXcXcXcXcXcXcXFXcXuXcXcXcXFXqXqXcXyXtXtXqXqXqXcXyXqXeXcXcXcXcXcXcXuXcXHXHXHXFXcXDXcXcXcXcXcXcXcXuXqXcXFXcXFXcXcXcXHXcXcXcXqXcXuXcXcXcXcXcX                                                                                                                                                                                                            HXHXHXcXHXuXHXFXHXcXcXcXHXcXHXcXHXFXcXDXcXcXHXHXFXFXcXcXDXcXcXcXuXcXcXcXZXVXHXcXcXcXcXVXVXcXcXVXcXcXcXcXcXcXcXcXcXcXqX2XuXcXcXcXcXFXcXcXcXcXcXFXcXuXcXcXHX",
"cXuXcXcXcXcXcXcXcXcXcXcXcXcXFXcXqXcXcXcXcXcXcXcXcXcXcXcXyXqXtXcXqXqXcXtXcXcXcXcXHXcXHXFXHXHXHXHXHXDXcXcXcXcXcXcXuXcXcXcXcXcXcXcXcXcXcXcXcXqXcXcXcXcXcXZXcX            >.X.X.w.-.U.H.'.H.i.2.B.-.f.y.H.g.>.f.f.r.s.2.2.e.>.>.e.7.k.l.e.w.4.i.k.w.k.y.I.i.>.e.i.f.e.i.r.r.I.I.r.i.2.R.i.i...w.A.A.8.w.#.w.8.f.w.I.`.i.y.T.i.y.R.t.U.8.%.R.A.e.7.T.F./.J.B.B.            HXcXcXHXHXHXHXHXHXHXcXcXcXcXFXHXHXHXHXHXcXcXHXHXHXcXcXFXcXcXcXcXcXcXcXcXcXZXcXcXcXuXtXFXFXcXcXcXcXcXcXcXcXcXcXcXcXVXqX3XcXuXcXDXcXFXcXFXDXcXDXHXcXcXcXcXcX",
"uXcXcXcXcXcXcXcXcXcXcXcXcXcXcXcXqXcXFXDXcXcXcXcXyXcXqXcXcXcXqXcXuXqXcXcXqXcXHXFXHXHXcXFXHXHXFXHXHXHXHXcXcXcXcXcXcXcXcXcXcXqXcXDXcXcXHXFXHXcXuXcXcXcXcXwXcX            X.3.y.t.i.e.#.k.H.4.8.%.#.e.l.2.d.f.>.f.f.8.s.k.U.Q.s.8.f.f.f.s.8.>.4.i.e.>.o.w.i.w.r.r.>.w.7.w.w.o.w.w.7. .%.w.i.i.@...I.R.`.(.F.F.w.e.i.T.I.H.W.U.e.f.y.`.k.e.C.T.f.o.R.T.T.A.H.4.            cXcXcXHXHXHXFXHXHXHXcXcXcXHXHXHXHXHXcXFXcXcXcXcXHXcXcXFXHXcXcXFXcXcXcXcXVXVXcXcXcXcXuXFXFXFXcXcXcXcXcXcXcXcXcXcXcXcXtXqXcXcXcXFXcXcXcXcXcXcXcXDXcXcXcXeXeX",
"uXcXcXcXcXcXcXcXcXcXDXDXuXDXDXcXcXFXcXcXcXcX8X2X8XtXyXcXcXqXqXuXcXuXqXcXqXqXcXFXFXcXcXFXcXHXFXHXHXDXFXcXcXcXcXcXcXcXcXcXFXcXcXcXcXcXcXcXcXcXcXqXZXyXqX2X8X            >.H.t.t.A.y.w.>.f.X.4.s.y.2.y.s.>.y.w.o.r.f.w.w.i.2.2.e.f.r.s.k.k.r.t.t.r.e.e.>.e.>.o.7.f.i.i.u.w.O...o.w.w.o.o.p.i.t.{ w.w.>.>.W.A.D.J.e.i.W.Q.U.R.I.i.f.OXH.f.e.A.f.4.e.A.T.A.y.t.            cXcXDXHXHXHXFXDXHXHXcXcXFXcXDXFXKXcXcXDXcXcXDXcXcXcXDXHXHXcXcXDXcXcXcXcXcXcXuXcXcXcXcXcXcXHXHXcXuXFXHXcXcXqXcXcXqXcXcXqXcXDXcXcXFXcXcXcXcXcXcXcXcXeXcXcXDX",
"uXqXcXcXDXcXcXcXcXcXcXcXcXcXcXcXcXcXcXcXHXcX;X8X8XcXVXcXcXcXcXcXcXcXcXqXqXqXcXcXcXcXcXcXcXcXcXHXHXHXFXcXcXcXcXcXcXcXcXcXcXcXDXqXcXcXcXcXcXuXcXqXtXqXqX8X8X            8.y.H.>.w.2.J.f.7.U.2.>.f.f. .w.k.w.O.O.o.i.A.y.e.i.A.w.>.7.s.s.-.s.s.4.I.k.H.I.e.>.2.7.>.t.t.A.I.I.A.S.#.2.i.i.2.p.L.T.r.w.7.X.w.r.w.y.e.e.I.OX7.Q.U.2.U.$XR.W.I.i.e.y.f.y.R.y.A.A.            cXcXcXHXHXHXcXcXKXLXHXcXqXcXKXHXHXHXDXDXcXcXHXcXcXcXDXcXcXcXFXFXcXcXcXcXcXqXcXcXcXcXuXcXHXcXFXcXcXHXHXcXcXcXcXyXtXqXqX3XqXFXFXcXDXcXcXFXcXFXcXcXcXqXcXcXHX",
"cXcXFXcXcXcXcXcXcXcXcXcXcXuX2XcXcXuXcXFXcXcX2X2X2XcXVXHXFXcXcXcXcXcXqXqXqX3XqXcXcXDXcXcXHXDXFXHXFXHXHXDXcXHXcXcXcXuXcXcXuXcXcXcXcXcXHXFXFXcXuXqX2XyXcXwXcX            7.o.w.2.-.#.2.f.H.e.H.y.X.4.C.o.t.i.y.O.7.w.w.2.7.i.Q.I.i.e.-.f.s.>.8.t.A.I.y.H.A.t.t.o.>.f.e.w.w.w.o.o.#.i.i.i.w.e.r.L.I.Q.i.r.w. .H.e.w.r.y.#Xf.`.I.4.W.@XI.W.I.i.8.H.Q.y.W.t.T.I.            cXcXcXcXcXHXFXcXDXHXHXHXqXqXHXcXcXFXHXHXcXcXcXcXHXcXFXcXcXcXqXFXcXcXcXcXqXcXFXHXFXcXcXcXHXcXcXFXcXDXcXDXuXuXcXcXcXcXcXqXqXcXcXcXcXcXcXcXFXcXqXqXcXuXcXuXcX",
"cXcXHXFXcXFXcXuXcXcXcXcXuXcXqXuXuXuXcXcXqXcXCX2XqXqXqXcXHXcXFXFXcXcXcXcXqXqXuXqXcXcXcXcXcXcXcXcXcXHXHXFXFXDXFXcXuXcXcXcXcXcXcXDXcXGXGXFXFXcXqXqXuXcXcXcXyX            2.$.@.$.8.8.>.e.I.i.-.7.>.2.%.4. .e.i.A.o.O.O.X.2.i.I.A.i.i.f.w.R.f.i.J.y.H.y.T.A.#.t.>.e.2.>.r.f.r.r.f.k.I.j.i.i.w.j.L.L.i.I.r.i.w.2.A.t.A.y.W.#XW.4.y.W.#.J.U.f.f.e.4.(.T.A.F.T.J.            cXeXFXFXcXDXLXcX4XcXHXHXcXuXcXcXcXDXDXcXHXHXHXHXDXHXcXcXcXcXcXcXcXcXcXcXcXcXDXcXHXcXqXcXDXcXcXcXcXcXcXFXqXcXcXcXcXcXcXyXqXcXcXcXcXcXcXcXcXcXqXqXqXuXuXcXcX",
"cXcXcXcXFXcXcXcXcXcXcXcXcXqXyXwXqXuXqXuXuXqXcXqXqXcXeXcXcXuXDXHXHXcXcXcXcXeXqXeXcXcXcXcXDXcXuXcXDXcXcXDXcXDXHXHXDXcXcXcXcXcXqXqXeXcXHXDXcXcXcXuXcXcXuXuXcX            { 2.r.2.#.o.r.r.e.i.r.r.7.>.e.2.t.7.k.>.$.e.N o.w.r.k.i.S.t.i.r.y.U.y.F.D.i.U.I.T.A.i.f.e.n 2 8 8 7 z t v >.A.P.t.i.j.w.y.u.I.i.j.t...t...i.7.i.W.2.4.U.y.%.R.e.y.f.R.R.T.i.y.A./.t.            cXcXDXcXHXcXcXHXqXqXHXHXDXHXHXcXcXFXcXcXcXDXHXHXDXDXcXcXcXcXcXcXcXcXVXFXFXHXFXHXHXHXcXcXFXHXcXFXcXcXcXcXtXtXcXcXcXcXcXcX3XyXcXcXcXcXcXcXcXcXcXuXuXqXqXcXuX",
"cXcXcXcXcXcXcXcXcXeXcXcXcXqXcXcXcXcXqXcXcXcXqXqXqXcXcXcXcXDXcXFXcXHXDXcXcXcXcXuXeXqXcXcXDXcXcXcXcXcXcXcXDXcXcXFXcXcXcXcXcXcXrXcXrXqXcXcXFXcXqXqXqXcXcXcXcX            +.{ 8.l.i.2...2.i.r.r.i.k.>.%.y.t.y.i.7.4.t.7.O.7.w.r.k.r.t.w.r.-.e.H.4.!.D.C.i.i.T.I.e.t p $ . . X $ & # # z s.E.i.I.k.7.A.I.i.#.w.u.w.#.i.i.H.t.A.y.8.{ %.e.e.y.H.@XJ.C.w./.T.S.#.            uXcXcXcXqXFXcXHXHXcXqXcXHXHXFXHXFXDXFXcXHXPXLXHXFXcXHXDXqXqXcXuXcXFXFXcXcXHXcXHXcXcXcXcXcXHXcXcXcXcXcXcXcXtXcXcXcXcXcXcXcXcXyXcXcXcXcXuXcXcXcXcXuXqXqXqXcX",
"cXcXcXcXFXcXcXcXcXqXcXVXcXcXcXcXcXFXcXqXuXuXcXqXqXuXcXcXcXcXFXcXDXcXHXFXHXDXcXcXeXqXeXuXcXcXcXcXcXcXHXHXHXFXcXcXcXcXcXcXcXcXcXGXHXHXcXcXcXuXuXcXqXqXcXcXcX            X.%...8.'.9.>.{ %.C.r.w.S.w.o.S.4.S.t.2.e.2.e.O.>.r.8.k.7.i.e.y.>.2.H.i.T./.B.B.y.k.f.z @ + @ $ $ . X @ @ & 3 3 t g.I.E.k.t.w.i.o.t.L.t.t.t.C.w.A.H.r.>.{ w.H.A.I.`.U.*.S.R.T.#.4.B.            cXcXcXcXcXcXcXHXHXHXqXqXHXHXcXcXcXDXHXcXFXHXHXHXHXFXFXcXDXHXHXFXcXHXcXcXDXFXFXcXcXcXeXcXcXFXFXcXcXcXcXcXVXqXcXcXcXcXcXcXqXqXcXcXcXcXcXcXcXcXcXuXuXcXcXqXcX",
"cXcXcXcXcXcXuXcXcXcXFXcXqXqXtXqXqXqXcXcXqX2XcXqXqXcXqXcXcXcXcXcXcXcXcXcXcXcXcXcXcXqXqXqXuXcXcXcXcXcXcXFXFXFXFXcXcXcXcXcXcXcXGXcXGXGXcXcXcXcXcXcXcXcXcXcXcX            4.>.4.X.2.H.z.l.e.%.4.w.e.J.o.t.t.4.y.e.e.y.e.7.w.r.e.7.7.2.i.e.o.4.w.e.I.A.4.2.i 6 8 & + @ @ $ @ @ @ & 3 4 h 7 & # f.t.i.y.y.y.o.&.i.t.o.i.2.i.I.H.i.2.f.I.4.U.OX+X*.B.@X@Xt.S.C.#.            cXcXHXcXcXcXcXqXcXFXcXFXHXHXcXDXHXuXcXHXcXcXFXcXHXDXeXcXHXcXFXLXcXcXcXcXcXDXcXcXHXFXcXuXcXDXFXcXqXcXZXcXVXtXcXcXcXcXcXcXqXqXcXqXcXcXFXcXcXcXuXuXcXcXuXcXcX",
"cXcXuXcXuXqXuXcXuXFXFXqX5XtXtXtXtX2XqXqXuXcX2XqXuXqXcXcXFXcXcXcXcXcXcXcXuXcXcXcXcXcXuXqXqXqXuXcXFXcXHXcXcXHXHXcXcXuXcXcXcXcXcXcXcXcXcXcXHXcXcXcXuXcXcXcXcX            4.$.r.f.#.+.*.w.-.i.w.#.O.2.I.>.i.y.t.e.i.i.2.i.i.-.r.>.8.e.2.i.2.$.S.t.T.2.:.t & + $ $ $ & @ * ; ; C G F Z 5 j 5 X 8 f.e.r.I.I.w.i.I...i.A.A.i.i.i.2.l.R.4.U.'.H.B.%.T.W.L.S.!.t.4.            qXcXcXcXcXcXcXqXqXcXDXFXFXHXDXcXHXcXeXuXcXcXFXcXFXcXuXHXHXcXHXHXcXGXcXcXcXcXDXcXcXFXcXcXcXFXcXcXcXcXcXcXcXtXcXcXcXcXcXcXyXqXcXcXcXcXcXcXcXcXqXcXcXcXcXFXFX",
"cXuXcXcXuXcXcXqXcXcXqXqXtXtXqXqXqXcXqXqXuX2X4X5XcXuXcXcXcXcXFXcXcXcXcXcXcXcXcXcXcXFXcXuXqXqXqXqXcXcXFXDXDXDXcXcXcXcXcXuXuXcXcXcXcXcXcXqXtXcXqXcXuXqXqXcXFX            >.*.y.9.2.t.$.*.+.%.T.e.2.X.i.i.i.H.t.i.f.i.y.f.U.7.>.w.w.w.#.#.A.w.A.4.t.y.m $ ; . # @ & @ & h h V C = 4 5 j 5 > ; + L OXk.w.I.w.E.k.t.E.A.T.A.#.o.w.W.t.i.U.y.A.w.A.R.I.A.)./.D.4.            qXcXcXcXcXcXcXcXtXVXVXcXcXcXcXqXcXcXcXuXcXcXcXHXcXcXcXcXHXcXFXHXDXHXDXDXcXcXcXcXDXFXHXDXcXHXcXcXcXcXqXcXcXqXcXcXcXcXcXuXtXqXcXcXcXcXcXcXcXcXcXcXcXcXuXuXcX",
"cXcXcXuXcXcXcXcXwXyXcXqXtX3X2XtXtXqXcXyXqXqXcXeXcXcXcXFXDXuXuXcXeXcXcXcXcXcXcXcXcXcXcXcXcX8XqXqXqXwXcXcXFXFXcXcXcXcXDXFXuXeXcXcXcXwXqXwXcXqXqXcXcXuXcXuXcX            k.w.%.e.7.>.w.t.C.t.$.i.8.>.o.i.e.e.w.H.I.r.i.e.I.y.] 7.I.X.#.#.4.y.i.t.:.t @ & & + 3 @ 4 @ > h V S 7 4 h h V 5 > 4 ; # ,.w.o.L.L.W.i.T.E.A.W.D.C.w.I.I.i.S.w.A.!.A.F.i.i._.)./.!.4.            cXcXuXcXcXZXVXcXcXcXcXVXcXVXcXtXHXcXcXcXcXcXcXcXcXuXcXuXcXcXFXcXcXcXFXHXcXcXcXHXHXDXcXFXDXFXcXcXcXcXcXcXcXcXcXcXcXcXcXVXVX3XqXVXcXtXtXcXcXcXcXcXcXDXcXqXcX",
"cXuXuXqXuXcXqXqXyXwXcXcXqX8XqXcXqXqXyXwXcXqXqXcXqXcXcXuXcXcXqXqXcXFXcXcXcXcXuXcXcXcXcXcXHXqXqXqXqXqXcXcXcXcXcXHXDXcXcXFXcXqXuXcXqXwX2XqXqXqXqXcXcXuXcXcXqX            w.e.7.#.S.y.o.o.y.H.C.y.k.f.e.w.e.8.w.i.y.o.i.o.S.C.{ w.U.4.t.i...S.t.i.i + @ > @ & 3 @ ; & 4 G D z F G h G Z C : ; # + # N u.L.L.i.A.T.F.A.T.~.t.S.S.W.A.S.T.).~.!.A.T.A./.F.F.A.t.            qXFXcXuXcXVXHXcXcXcXVXHXcXcXcXcXcXuXcXFXFXFXDXeXcXcXDXuXcXcXcXcXcXcXcXcXDXFXcXcXHXHXDXcXcXeXcXcXcXcXuXcXcXcXcXcXcXcXqXtXcXqXqXcXtXcXtXtXcXcXcXVXcXcXFXcXcX",
"cXcXqXqXuXqXqXqXqXwXcXcXqX2XyXyXqXcXcXcXqXqXuXuXcXcXcXcXcXcXcXuXcXFXcXcXcXcXcXuXcXDXcXcXcXcXqXqXqXqXqXcXcXcXHXFXcXcXcXcXcXuXqXqXcXwX8XqXyXqXqXtXqXDXcXcXcX            w.%.w.r.u.$.t.2.X.e.f.t.H.f.f.y.y.e.t.y.2.2.t.4.4.>.{ i.I.t.o.t.2.y.w.i.# + > ; ; ; 8 3 * : C G G E E K Z 5 : h h 5 ; $ $ 6 7.p.L.&.I.L.P.T.t.S.u.S.!.(.S.S.(./.F.^.T.E.T.S.C.!.G.A.            cXcXFXcXtXqXcXcXcXcXcXcXcXVXcXcXcXcXHXcXcXcXcXcXcXcXHXcXcXcXcXuXcXHXcXcXcXFXcXcXDXFXDXcXcXHXcXuXcXcXcXcXcXcXcXcXcXyXtXVXcXcXtX3XtXcXcXcXcXcXcXcXcXcXcXcXcX",
"cXcXqXqXuXqXwXqXqXyXcXcXqX1XqXqXqX8XyXcXcXcXqXcXcXcXcXcXcXcXcXcXcXcXcXFXcXcXcXcXuXcXFXcXqXcXqX8X2XqXqXqXqXuXcXFXcXcXHXDXcXcXqXqXcXyX<X8XcXqXyXtXqXcXHXFXcX            i.w.&.w.j.i.@.{ %.o.i.w.H.i.f.y.H.i.t.y.e.i.S.S.o.7.#.Q.k.e.#.C.2.y.2.n $ O ; : : : 5 C C Z I b.&X>X&Xv.E Z V V > 5 ; $ ; 4 t w.L.L.L.A.T.T.$.S.t.S.).(.B.F.(.).F.!./.E.(.T.A.S.!.t.            cXcXFXcXcXcXyXVXcXcXtXcXcXqXHXcXcXFXFXFXcXcXHXcXcXFXDXHXcXcXcXcXcXcXcXcXcXcXuXcXHXcXcXDXFXFXeXcXcXcXqXuXcXcXcXqXqXqXcXVXcXcXcXqXqXtXcXcXcXcXcXcXcXcXcXcXcX",
"cXuXeXqXqXqXwXqXqXyXyXyX3X4X8XqX3XcXcXqXcXqXqXuXcXcXcXcXcXcXFXcXcXuXcXFXcXFXcXuXcXcXcXcXcXcXqXqXqXqXcXcXcXcXcXcXHXcXcXcXcXcXuXqXwXwX2XqXqXyXcXcXcXcXFXcXqX            p.Q.7.7.w.u.i.{ +.#.t.r.I.r.w.y.f.f.F.i.i.I.~.C.y.%.S.Q.r.r.t.S.#.A.r . O ; 7 h C C j D Z G E *X*X>X=X*X*X! C C V h C = # = # n L.E.L.A.P.A.$.F.t.F./.(.S./.(./.!.F.).E.XXT.T.t.F.2.            HXcXcXFXHXcXcXcXZXcXcXcXyXcXcXcXcXcXFXFXcXcXcXHXcXcXHXcXcXcXcXcXFXcXcXcXcXcXcXFXcXcXeXcXDXDXuXcXDXcXuXcXcXcXcXcXcXqXcXcXcXyXcXqXtXcXcXcXcXcXcXcXcXcXcXcXcX",
"cXqXqXqXqXyXwXwXqXqXqXwXqXqXqXqXqX2XqXcXcXcXcXuXcXuXuXuXcXcXcXcXcXrXqXcXVXcXcXtXcXFXZXcXcXcXyXtXcXcXcXcXFXcXcXcXcXDXcXcXFXcXcXcXcXyXqXcXcXcXcXcXcXcXcXcXcX            k.>.o.o.w.u.r.w.@.4.t.i.r.7.w.f.I.A.A.i.I.T.!.(.i.$.f.k.k.k.t.$.C.X.+ + 8 6 S C Z D Z c.E Q &X=X*X=X,X=X=X*X! C V C C C = @ ; 3 r.oXT.P.T.i.w.A.&.t.F.T.~.^.T.A._.A.C.(.(.(.I.E.E.#.            HXcXcXcXcXcXZXcXcXyXyXcXtXcXcXcXcXqXcXcXcXHXqXqXcXcXcXcXcXcXcXcXcXuXuXcXuXcXcXFXcXqXcXDXFXcXcXuXcXcXcXcXcXFXcXqXcXcXcXqXuXcXcXqXtXcXcXcXcXyXcXcXcXcXcXyXZX",
"yXwXyXcXwXwXqXyXyXqXqXqX8XqXqXwXqX2XqXqXtXcXcXcXcXcXcXcXcXcXcXcXcXcXqXcXHXcXcXVXqXtXcXZXcXtXcXcXqXcXcXcXVXcXcXcXHXLXcXFXcXcXcXcXcXyXyXqXcXcXcXcXcXcXcXcXcX            7.O.2.2.4.w.p.r.4.t.t.w.2.2.S.A.I.C.o.i.i.i./.I.$.I.r.r.i.i.t.#.i.z $ 8 t z F F F E ! x.b.*X|.*X=X=X*X&X,X=Xv.G C C C l l 4 & & z I.T.E.P.i.r.w.t.G.F.F.).^.F.S.D.F.2././.T.E.T.T.A.            cXcXcXtXcXVXcXVXcXcXtXcXcXcXcXcX3X2X2XcXcXcXuXqXcXqXcXcXcXcXqXqXuXuXuXcXcXcXcXFXcXcXcXcXFXcXcXcXcXcXcXcXcXFXcXcXcXtXcXyXtXtXcXqXcXVXcXcXcXyXcXcXcXcXcXcXZX",
"wXyXcXqXyXyXqXqXqXqXqXqXqX8XwXyXcXcXcXqXtXcXqXcXDXFXcXDXcXFXFXcXcXcXqXcXcXyXcXcXcX3XcXcXcXcXtXqXcXcXcXcXVXZXcX2X5XcXcXcXcXcXrXcXcXcXcXcXcXcXcXuXtXcXFXcXFX            8.i.A.#.S.y.w.w.X.#.y.A.A.A.F.A.A.A.w.i.>.i.T.$.A.I.7.y.w.t.t.y.I.z 8 t S F K K K Y x.x.b.c.v.&X=X=X&X=X=X*Xv.G Z l 3 3 5 C C & 3 8.p.L.T.w.i.A.&.L.t.F././.F._.S.F.F.F./.S.F.T.A.y.            tXcXcXtXqXqXcXZXcXVXcXyXcXtXqX3XcXqX2X2XqXuXcXcXcXqXVXHXcXcXqXqXcXcXqXcXcXcXcXcXcXFXcXcXcXcXcXcXHXcXcXcXcXqXqXcXcXcXqXcXuXcXtXqXcXcXcXcXyXtXtXcXcXcXcXtXcX",
"yXyXcXcXqXwXwXyXwXqXqXyXwXqXqXcXcXyXcXyXtXcXuXcXDXcXcXcXcXcXcXcXcXcXcXcXcXyXcXcXcXqXqXcXcXcXqXqXtXqXtXcXcXVXcXcXqXuXcXuXcXcXcXcXcXcXcXcXcXcXcXtXuXcXcXcXFX            >.A.E.i.A.J.t.7.#.w.i.A.i.i.k.i.T.A.J.T.e.w.i.#.(.I.y.f.w.2.i.i.7.6 6 z S S K K K x.x.c.v.c.&X|.*X=X&X=X|.v.*XE C C 5 5 5 @ 4 j @ t w.L.T.i.A.t.w.L.A.t.t.T.F.S.S.S.F.F.C.(.A.A.T.t.            tXcXtXqXqXqXqXVXcXcXcXcXcXHXcXtXcXcXcXcXcXqXqXcXcXcXcXcXcXcXHXqXqXuXcXHXcXcXcXFXcXFXcXcXcXcXcXcXcXcXcXcXcXcXuXqXqXcXVXcXqXyXyXqXqXcXcXcXcXcXcXcXcXcXqXyXcX",
"cXyXcXcXwXcXyXwXyXyXqXcXcXqXyXcXcXtXtXcXcXyXuXcXcXcXDXcXcXFXFXcXuXcXcXcXcXcXcXcXcXcXcXcXVXcXyXcXqXqXqXtXcXcXcXcXcXcXcXqXuXFXcXcXyXcXcXcXcXcXtXtXcXcXcXcXcX            w.y./.I.y.H.2.w.i.I.A.i.r.i.r.>.2.S.F.P.A.E.t.#.oXI.I.I.e.>.r.L.N 6 t S S F K Y Y E E c.v.M.v.v.|.v.b.b.v.b.v.c.G Z C 7 C 5 # ; 3 7 ,.A.A.(.t.2.w.u.).y.y.A.(.F.t.A.S.F.A.J.(.T.T.A.            cXyXyXqXqXcXyXtXcXcXqXqXcXHXcXtXcXcXcXcXcXqXcXcXcXcXcXVXcXcXVXcXqXcXcXcXcXcXcXcXcXHXFXDXcXcXuXcXHXcXHXHXDXFXcXcXyXqXcXZXtXqXqXqXyXyXcXcXyXcXVXcXcXcXcXcXcX",
"cXcXcXcXyXcXcXyXwXyXwXcXyXqXcXcXcXtXcXcXcXcXcXcXcXcXcXcXuXcXcXcXcXcXcXcXyXqXqXcXcXcXcXcXyXcXcXyXcXcX8XqXcXcXcXcXcXrXcXcXuXcXcXcXcXcXcXcXcXcXqXtXcXcXcXFXFX            i.#.!.T.w.f.e.D.2.i.A.A.A.i.t.t.r.e.S.!.S.L.(.2.Q.A.I.R.I.e.u.I.6 7 7 S D S K Y K Y K E v.v.|.v.v.c.v.|.&X&Xc.E D F S D ; C C 5 5 8 h.W.E.T.S.i.w.t.T.J.y.C.S.(.T.r.F.A.i./.F.J.(.A.            qXcXcXtXqXqXqXqXqX8XqXqXqXqXcXqXcXqXyXcX8XqXcXqXcXcXcXcXVXcXZXVXcXHXcXcXcXcXcXcXcXcXcXcXcXcXcXcXFXcXcXcXFXcXcXcXcXcXcXqXcXyX8X2XcXcXcXcXcXcXVXVXcXHXcXcXyX",
"cXyXcXyXyXcXcXcXcXcXcXqXtXqXqXqXcXqXcXcXqXwXuXcXcXcXcXcXcXcXcXcXcXcXcXcXcXtXcXcXcXcXcXyXyXcXcXqXqXqXcXqXwXcXcXcXcXcXcXcXqXcXcXcXcXcXcXcXcXcXqXcXcXHXcXcXcX            W.X.S.^.A.i.f.I./.i.j.i.A.Q.I.i.$.k.Q.F./.2.W.W.W.A.k.i.].r.A.i.6 k z S F S K K K K K E c.&Xv.v.b.c.b.c.v.|.v.G C C C 8 C 5 8 8 8 8 z XXW.i.F.A.e.A.i.I.F.F.F.T.A.w.A.F.F.^.D.A.#XT.            2XqXwXwXqXqXqXcXqX2X8XqXqXcXcXcXqXtXyX3XqXqXqXqXqXcXcXcXVXcXcXcXcXcXcXcXcXcXcXcXcXcXHXcXcXcXcXcXcXtXcXVXZXVXcXcXcXcXcXcXcXqXwX1XqXZXcXcXcXcXVXVXcXZXZXcXcX",
"cXcXcXqXyXcXcXcXyXcXcXqXtX3XtXqXyXyXyXyXcXcXuXcXcXuXcXcXcXcXcXeXcXcXtXqXqXtXtXcXcXtXcXcXcXcXcXyXyXyXqXcXyXcXcXcXeXcXcXcXcXcXcXcXcXcXcXcXcXcXuXcXcXcXcXcXcX            Q.e.X.B.A.w.r.i.T.I.i.i.#.t.Q.Q.i.@.L.i.I.C.I.XXW.A.i.o.W.W.i.>.6 t S F S S Y Y Y F K K b.b.x.c.E x.x.x.M.|.&Xc.G l C 5 7 3 3 & & t t A.A.T.T.I.i.t.y.t.D.S./.T.i.$.A.A.A./.!.A.(.T.            qXqXcXqXqXqXcXcXcX2X8XcXqXyXcXyXtXcXcXcXHXqXtXtXtXcXcXcXcXVXcXtXcXcXcXyXcXVXcXHXDXHXHXcXcXcXcXcXFXtXcXcXcXVXcXcXcXcXcXcXyXwXqXqXqXyXqXcXcXcXcXcXcXcXcXcXcX",
"cXcXVXqXcXcXcXcXcXcXcXtXcXcXcXcXcXcXcXqXyXqXcXcXcXuXcXcXcXcXcXcXeXcXcXcXtXcXcXtXcXcXcXcXVXcXqXcXcXcXcXcXcXcXqXwXcXcXeXqXeXcXcXcXcXuXcXcXuXqXHXcXcXcXcXcXcX            f.e.r.w.$.y.y...` #.i.i.w.%.$.t.k.i.#.I.i.A.i.W.I.T.I.2.w.I.i.>.6 7 S F S K E Y F S D x.c.v.v.v.b.x.N.x.b.M.b.! E C C 5 h 4 ; & @ 8 z I.A.A.A.A.i.i.t.t.S.S.D.(.T.4.A.I.A.(.F.F.A.T.            qXqXcXyXqX8XqXqXcXqXwXcXCXqX8X2XcXcXHXHXVXcXqXtXcXqXtXqXcXcXcXcXcXtXcXtXcXVXcXHXHXHXHXFXcXcXcXFXcX2XqXqXcXcXcXcXcXcXcXqXqXwXwXyXqXqXtXyXcXcXyXcXtXcXHXHXcX",
"yXyXcXcXcXcXcXcXyXcXcXqXcXcXcXcXcXyXcXyXyXcXqXuXcXcXuXuXcXcXcXcXcXyXcXcXcXcXcXtXtXtXcXqXyXyXcXqXqXcXcXcXcXcXyXyXcXcXcXcXeXeXcXcXcXcXcXeXqXcXcXcXcXcXcXcXcX            U.o.7.Q.o.%.%.f.I.W.W.C.4.H.y.C.7.k.i.L.A.A.w.T.i.(.i.w.2.w.r.>.2 6 S l F K K F S k D K x.b.x.x.b.x.x.x.v.W ! v.v.E C C C C & + + 8 ,.I.L.t.i.t.t.w.u.S.S.D.^.F.A.A.R.A.F.].).W.F.T.            qXqXwXcXcXqX2XcXcXqXwXqXcXcXyXqXqXVXcXcXHXtXqXqXcXcXcXqXyXcXcXcXcXcXcXcXHXcXFXHXHXHXHXHXFXcXcXcXcXcXqXqXVXcXcXVXZXcXtXtXwXqXqXwXqXyXcXcXtXcXcXcXcXcXcXcXcX",
"cXcXcXVXVXcX2XqXcXcXcXcXcXcXcXcXcXcXyXcXcXqXcXcXcXcXuXuXcXcXcXrXqXcXyXyXcXcXcXcXcXtXcXcXqXyXcXcXqXcXcXCXcXyXyXcXcXcXcXcXcXcXcXqXcXcXcXqXcXFXcXcXcXcXcXcXcX            U.s.M N r.I.w.2.i.OXQ.i.2.y.S.A.R.k.i.i.i.T.t.I.@XA.t.o.A.w.r.m 3 7 7 S K G C F S 8 5 C I Z j C ~ Z G E v.b.Q ! &XQ C Z C C : O $ 3 ;.i.A.t.u.#.t.%.#.Q.t.B.!.D.A.T.W.S.F.#X(.I.S.).            wXyXqX8XcXqXqXcXcXqXqX8XqXcXwXcXqXqXqXqXcXtXcXVXtXtXtXcXtXcXcXcXVXHXcXtXcXcXcXcXcXcXHXFXFXcXcXqXuXyXcXcXcXVXcXtXcXtXcXtXyXqXqXqX2XqXcXyXtXyXcXcXcXcXHXcXcX",
"cXtXyXcXcXyXqXcXcXcXcXcXcXtXcXcXcXcXyXyXcXuXtXuXuXcXuXtXcXcXqXqXcXcXyXtXqXcXcXtXcXcXcXcXcXcXcXcXcXcXcXcXcXcXqXqXuXuXuXcXcXcXcXcXcXqXcXHXcXqXqXcXPXHXcXcXcX            e.f.e.#.2.w.i.I.OXI.s.Q.W.Q.T.i.H.W.i.i.y.T.w.I.@Xi.w.i.F.A.9.8 3 3 3 C K K S F G 8 5 V h 5 5 C P ~ Z x.&Xc.Q c.v.v.R C 5 C Z 5 ; & S y.i.i.i.t.t.t.#.u.I.S.C.C.A.T.T.$.A.(.(.4.S.T.            qXqXcXqXcXqXcXcXyXcXqX3X8XqXqXyXyXqXqX7X8X8XqXqX8X3XqXcXcXcXqXqXcXZXcXcXyXcXtXuXqXqXcXcXcXcXtXuXqXcXcXcXcXHXcXqXqXcXcXyXqXqXtXcXqXqXcXcXcXcXyXcXcXcXVXVXcX",
"cXcXcXcXcXcXVXcXcXcXcXcXqXqXtXcXcXcXqXqXcXyXtXtXtXcXcXcXcXtXcXcXcXcXcXcXcXcXtXcXcXcXcXcXcXcXcXcXcXcXcXcXcXtXtXqXqXqXtXcXcXtXqXqXqXqXcXcXcXcXcXuXHXHXcXcXcX            2.f.>.w.>.>.f.s.r.#.o.>.@XOXW.H.e.W.i.I.A.A.w.W.W.t.e.W.!.(.L 3 8 = 1 3 7 S l 7 D C D 7 6 8 6 6 L x.G E v.c.b.b.M.c.R 5 C Z C 5 & $ 7 >.A.I.u.L.w.t.t.S.w.A.A.J.J.W.4.$.T.^.J.o.T.D.            cXcX1XqXcXqXyXcXqXyX2XqXcXcXyXqXcXqXcXqX2X2XcXcXcXcXwXcXcXcXwXcXcXyXcXcXyXqXqXqXcX3XqXcXcXcXcXtXcXHXcXcXqXrXcXcXcXyXqXcXtXqXqXtXqXqXcXcXcXcXcXyXcXcXZXVXcX",
"cXcXcXqXcXcXcXcXcXcXcXcXcXcXcXcXcXcXcXyXcXtXcXtXyXcXcXtXtXcXyXcXcXtXcXcXtXcXHXcXtXcXtXtXcXcXcXcXcXcXcXcXcXcXtXyXqXtXcXcXcXtXcXqXqXcXcXcXuXuXcXcXcXDXcXcXcX            { +.U.e.7.I.W.i.4.o.7.i.k.W.W.@Xi.W.H.I.I.w.i.@XA.t.w.T.F.H.>.6 1 2 o o 6 8 t 3 S Y J t 6 6 1 1 1 7 x.K c.c.W W c.G C 4 C Z h ; @ & & -.A.A.L.G.u.u.A.A.t.#.T.C.T.T.X.C.T.A.w.y.T.B.            cXcX2XqXqXyXcXwXcXcXqXqXcXtXyXtXcX2XyXcXcXcXyXqXcXcXcXcXcXcXcXcXqXyXcXcXcXcXcXcXZXqXqXyXcXcXcXcXcXVXFXcXHXcXcXVXcXcXtXtXtXtXqXqXtXqXqXcXcXqXcXqXtXcXVXcXcX",
"qXcXyXyXcXcXcXcXcXcXcXcXcXtXtXyXtXcXcXcXtXqXqXcXcXcXcXtXyXyXtXcXcXcXcXcXcXcXcXcXyXcXcXcXcXcXcXtXcXcXcXcXcXcXcXtXqXtXqXcXcXtXcXcXtXqXcXFXHXcXcXcXcXuXcXcXcX            I.w.5.A.#XoX@XI.2.f.8.s.l.y.oXXXW.`.i.W.I.i.Q.I.y.4.w.A.I.I.i.=.2 2 o o 1 2 F T Y Y F 7 7 z 2 1 z 7 7 K K ! E ! ! Z C V D h 4 & j ! j m L.t.t.G.A.t.t.i.A.t.H.A.W.A.#.A.T.I.f.J.S.B.            8XcXcXcXqXqXqXqXcXcXcX2XqXcXcXcXcXyXcXcXcXcXcXqXqXqXcXcXcXcXqXcXqXcXcXcXcXcXcXcX8XqXcXcXcXcXcXcXcXcXDXHXFXHXFXZXcXcXcXcXcXtXtXqXtXqXqXcXcXcXtXcXqXqXcXcXcX",
"wXyXqXcXyXyXtXyXcXqXtXyXcXqXtXcXcXcXcXyXqXcXtXcXcXcXtXcXtXtXcXcXtXcXqXtXcXyXcXcXcXcXcXHXcXcXyXcXcXcXtXcXcXcXcXcXtXtXqXtXcXcXtXtXcXtXcXcXcXDXuXcXuXcXcXuXcX            #Xf.w.7.7.z.$XI.k.I.I.r.e.i.I.W.U.T.i.OXk.W.w.i.i.S.I.t.i.I.I.>.z 6 6 6 6 2 B c.v.Y l 6 z F S K E Y G K ! R R W W Z Z Z D 5 8 j x.M.c.=.t.t.t.w.A.A.t.t.T.T.S.A.T.#.t.A.I.A.A.S.S.4.            3XqXqXtXqXqX8XqXyXqXcXqXcXcXyXVXCXwXcXcXcXcXcXcXqX2XqXyXcXyXcXyXcXcXqXcXcXcXZXcXqXcXcXcXcXcXcXcXtXtXcXFXFXcXHXcXqXcXcXcXtXcXVXyXtXyXqXqXcXcXtXcXcXqXqXcXcX",
"wXqXyXcXcXyXyXyXcXtXtXcXyXqXqXcXcXcXqXtXqXcXyXqXtXcXcXcXtXcXcXtXcXtXuXqXqXtXcXcXcXcXcXcXcXcXcXcXcXcX2XcXcXcXcXcXqXqXtXuXcXuXcXVXcXtXcXcXcXcXDXcXcXuXcXcXuX            W.@Xk.7.-.+X@Xj.oXe.i.W.I.i.S.f.Q.i.Q.Q.Q.i.#.I.A.!.p.t.r.I.A.m z F F B 6 6 G }.W c.F B l F K T K x.&Xv.b.}.R ^ W I Z S I D S E &Xc.E n.G.#.A.A.A.T.4.t.I.T.F.I.#.#.t.I.j.I.t.C.A.o.            tXtXqXqXyXwXcXcXyXqXqXqXtXcXcXZXcXcXcXcXcXcXcXcXyXwXqXqXqXcXcXcXcXwXqXcXcXcXcXcXcXcXcXcXcXcXcXcXcXuXcXHXFXFXVXZXcXcXtXqXtXZXVXVXcXcXqXqXcXcXcXqXcXcXqXqXcX",
"tXqXyXyXcXyXcXwXqXqXcXcXqXqXcXqXcXcXcXcXyXcXqXqXqXqXcXtXtXcXcXqXqXcXcXuXcXcXcXcXcXcXVXcXcXcXcXcXcXcXcXcXcXcXcXuXqXtXcXuXqXcXcXcXFXHXFXcXHXHXcXcXcXyXyXZXcX            U.f.s.i.i.$Xr.k.W.r.7.i.I.#.#.Q.I.i.OXQ.Q.t.A.Q.^.S.w.i.k.i.i.L z F K l 6 7 Y W c.c.Y F F F G G E b.^ &X=X&XQ }.W c.D E c.J F x.*Xv.x.N.P.t.&.P.F.T.L.u.I.T.E.r.>.w.i.i.A.#.L.W.t.#.            cXcXtXcXcXqXtXcXcXcX3X2XqXyXcXcXyXcXcXcXcXcXtXcXcXcXqXqXcXcXcXcXcXcXyXcXyXtXcXcXcXcXyXyXcXcXcXtXcXcXVXHXcXcXcXcXcXcXcXcXZXcXcXVXcXcXqXqXqXcXcXcXqXyXyXwXyX",
"cXcXcXyXyXqXqXcXcXqXqXqXqXqXtXqXcXcXtXcXyXcXcXtXtXtXyXtXcXcXcXqXqXcXeXuXcXcXcXcXHXcXcXcXcXcXcXcXcXcXcXcXcXcXcXcXqXqXcXqXuXcXcXeXuXcXcXcXcXHXHXcXcXcXtXcXcX            (.T.T.A.f.#Xk.I.Q.y.i.7.7.7.f.f.i.OXk.A.k.A.T.I.J.S.I.i.OXI.U.L F B F F z z c.Q ! v.E Y G F F ! c.^ ^ &X&XQ Q R R W G E c.Y c.K J v.x.n.T.L.&.A.P.A.T.L.L.T.I.w.w.w.t.t.o.U.#XS.t.2.            cXcXcXtXcXcXcXqXyXcXcXqXqXqXcXcXcXcXcXcXcXcXcXtXqXqXqXyXcXyXcXcXcXcXcXcXqXyXcXcXcXqXyXcXcXcXcXcXcXcXcXcXcXcXcXcXcXcXcXcXcXcXcXVXcXcXcXqXtXcXcXtXcXqXqXcXqX",
"cXcXcXqXcXqX2XcXwXyXqX8XyXqXqXcXcXcXtXcXyXcXcXcXtXcXtXqXcXcXyXtXtXcXqXqXcXcXcXHXVXcXcXcXcXcXcXcXcXcXcXtXcXcXyXcXcXqXqXcXcXcXcXFXcXcXuXcXcXcXcXcXqXqXcXcXcX            (.T./.A.U.#XU.U.I.A.w.i.i.H.k.8.s.9.y.C.W.H.(.T.S.J.I.A.@XT.Q.H S F F F z S Q Q W b.c.Y E G F G E W Q Q Q R E E E E 5 D ,X.XE c.K &Xx.I.T.A.u.A.A.S.A.A.A.T.I.w.w.2.#...I.].S.>.w.2.            yXcXcXtXqXyXcXcXyXyXqXqXcXcXqXcXcXcXqXyXcXqXcXcXqX3XqXcXqXqXcXcXcXyXcXcXcXyXqXwXqXqXcXcXcXqXcXcXyXcXcXcXcXVXcXcXcXcXcXcXcXcXcXcXcXVXVXHXcXcXcXqXcXwXqXyXcX",
"cXcXcXcXcXtXqXyXcXqXqXqXqXtXcXqXqXqXcXtXqXcXcXcXcXtXqXqXcXcXtXyXcXcXuXqXuXcXcXcXcXcXyXcXcXcXcXcXcXcXcXcXcXcXqXcXcXqXqXcXcXcXDXcXcXcXuXqXcXuXcXFXcXqXcXcXcX            T.W.T.A.W.#Xl.Q.H.t.A.A.y.k.U.W.Q.k.A.i.oXA.T.T.D.T.I.F.(.W.W.e.z F T D 7 F Q Q E W }.E E U G G F G G G I ! E I Z h ; D ,XE S E M.v.q.L.L.u.A.t.A.t.u.L.t.A.i.w.e.2.o.i.).t.A.i.i.o.            cXcXcXyXtXtXtXcXcXcXHXcXtXcXtXqXcXcXcXtXtXcXcXcX8XqXqXqXqXcXVXcXcXqXcXcXyXcXyXqXyXcXqXcXqXqXyXcXtXcXcXcXcXHXcXcXcXcXcXcXcXcXqXcXcXcXcXcXcXcXcXqXqXcXcXcXcX",
"cXyXcXcXcXcXqXcXqXwXcXcXyXtXqXcXcXqXyXyXcXyXcXcXqXtXtXcXcXcXcXcXcXcXuXcXuXqXcXcXcXcXcXcXcXcXcXcXcXcXcXcXcXcXcXcXcXcXqXqXcXcXcXcXcXcXFXcXqXqXqXqXcXcXcXcXcX            ).J.T.(.`.`.`.s.Q.^.~.J.s.Q.#X@X#X#X(.Q.W.A./.^.T.W.I.C.(.OX@XT.z l G S 7 E v.! E E b.c.G G G G G G G G Y K ~ h d h * D M.x.b..X.Xx.Q.A.L.w.L.t.t.t.i.A.y.y.Q.w.w.w.B.D.4.t.A.J.A.o.            cXcXcXcXtXtXtXtXcXcXcXcXcXtXcXyXtXcXyXtXqXtXtXcXcXqXtXcXtXyXcXcXcXcXcXcXcXyXqXqXqXyXyXyXcXtXtXqXtXtXcXqXtXcXcXcXcXcXcXcXcXcXqXcXcXcXcXcXcXHXcXqXqXcXcXcXcX",
"yXcXcXtXcXcXyXyXwXcXqXyXyXqXqXwXqXcXqXtXtXtXqXcXqXcXcXcXyXcXcXcXyXqXcXqXtXuXcXcXcXcXcXcXcXcXcXcXcXcXcXcXcXcXcXcXcXcXcXuXuXcXcXcXcXFXcXcXcXcXuXcXcXyXcXcXcX            A.)./.R.W.OXI.k.l.oXW.l.k.W.A.A.I.#X#X(.W.I.W.^.T.R.Q.y.J.W.@XXX7.3 F S z .X&X! }.b.K E E G U G U G ~ G K V d d h d : x.M.*X.X.Xx.s.(.A.w.i.A.t.i.u.T.I.y.t.I.i.I.*.S.$.#.F.!.S.t.>.            qXcXcXcXcXqXqXqXyXcXcXyXyXcXcXtXtXtXqXyXtXyXyXyXyXqXcXcXyXqXqXqXcXcXyXyXyXtXwXqXqXcXyXcXcXcXcXqXtXcXtXcXqXcXcXcXcXcXcXcXcXcXcXcXcXtXcXcXqXcXHXcXcXcXcXcXcX",
"yXcXyXcXqXcXwX2XcXwXqXwXqXqXwXwXtXtXqXtXcXcXyXcXcXtXqXqXyXtXcXyXcXqXqXqXtXcXcXcXyXwXcXcXcXcXcXcXcXcXcXcXuXcXcXcXcXcXcXcXqXuXcXcXcXcXcXcXcXcXcXDXcXcXcXcXqX            A.^.T.I.E.$Xf.y.I.R.A.t.A.A.W.OX(.^.#X(.W.@X@X/.A.U.W.W.F.i.W.W.T.8 7 z F E K 6 z E K E K K E Y G U G C h h h s - : j N.M.-X&XI C l.W.t.w.i.u.j.u.L.I.I.S.y.i.E.F.A.4.$.A.~.*.4.T.2.            qXcXHXHXcXqXqXyXqXqXcXcXcXcXtXqXcXtXtXcXcXcXqXqXcXcXwXcXcXcXqXqXcXcXyXyXyXqXqXqXqXcXCXcXtXcXtXcXtXcXtXtXtXcXcXcXcXcXqXcXcXcXcXcXcXtXcXcXcXcXcXcXHXZXcXtXcX",
"yXwXqXcXcXwXcX2XqXwXqXcXcXqXwXwXcXqXqXyXtXtXcXtXyXcXyXyXtXqXtXcXqXyXtXcXcXyXyXyXqXcXcXcXcXcXcXcXcXcXqXcXcXcXcXcXcXcXcXDXcXcXcXcXcXuXcXcXcXcXuXcXcXcXcXcXqX            R.~.D.T.W.@X#Xe.%.#.4.J.T.R.(.f.I.^.(.(.W.#X#XW.H.w.y.W.W.I.R.`.T.H ; z F K 6 t 7 S D E I G E ! F G G h d d d s : h ; S K K D h G Q.W.t.o.#.u.p.L.A.I.P.F.i.I.T.T.A.F.S.S.S.S.(.).X.            qXcXcXcXcXqXqXcXcXqXqXyXqXtXtXqXtXcXyXcXyXyXqXqXyXcXwXqXcXcXcXcXqXqXcXcXcXwXqXqXqXqXqXyXyXcXcXcXcXcXtXyXcXcXcXcXcXcXcXcXcXcXcXHXcXcXcXcXcXtXtXcXcXcXcXVXcX",
"wXqXyXwXcXcXqXqXqXcXcXcXcXwXqXqXyXcXcXcXcXtXtXtXtXyXcXcXtXtXqXqXtXtXyXcXcXyXyXyXqXcXyXyXcXcXcXcXcXtXcXcXcXcXcXcXcXcXDXFXcXcXcXcXcXcXuXcXcXcXcXcXcXcXqXcXcX            T.^.~.F.E.I.Q.+XH.H.T.J.A.C.F.W.T.R.R.].W.(.H.#XR.f.e.w.U.I.W.@XW.H % 4 p ; % s : : - h ! I G I G V h d d d d d d : * C |.G d V s.T.Q.w.t.7.o.t.u.u.I.T.W.L.I.i.L.A.T.S.V.!.T.].I.X.            cXcXcXcXcXqXqXqXyXyXqXqXqXqXcXyXcXcXcXcXyXcXwXwXqXyXqXcXyXwXcXyXcXwXwXyXqXqXqXqXqXqXyXcXcXcXcXcXcXtXyXcXcXcXcXcXcXcXcXcXcXcXcXcXVXcXcXcXcXcXcXqXyXcXcXcXVX",
"qXqXyXcXcXcX8XcXwXwXwXcXcXcXqXqXqX3XqXcXqXtXtXyXyXcXyXtXtXqXtXqXyXyXtXcXyXqXtXqXcXcXwXyXcXcXcXcXcXcXcXcXcXcXcXcXcXcXcXFXHXcXcXcXcXFXHXcXcXcXcXcXVXcXyXcXyX            H.A.^.D.A.W.I.U.].^.e.y.C.t.!./.(.W.@X(.W.W.2.I.W.U.k.I.i.y.W.W.I.L * & ; * s - s - - s h R W I V a d d d d V d d d - Z W A d I i.W.k.j.i.u.t.t.w.i.T.I.j.r.e.I.i.T.T.S.~.T.).).R.%.            uXcXcXcXqXqXwXqXcXcXqXqXyXyXtXqXcXcXcXcXyXcXqXyXqXqXqXqXqXqXqXyXqXwXwXqX2XqXwXqXqXqXcXcXcXcXcXcXtXyXcXtXcXcXtXcXcXcXcXcXcXcXcXcXcXcXcXVXcXcXtXtXtXcXtXcXcX",
"qXcXyXcXwXcXyXcXyXwXqX2XqXcXyXyXqXqXqXtXqXcXcXcXcXyXtXqXyXtXtXcXyXyXyXcXtXtXcXyXwXyXqXwXcXcXcXcXcXcXcXHXHXcXFXHXHXcXcXHXFXHXHXcXcXFXFXFXHXcXuXcXVXcXcXtXcX            I.R.~.~.t.I.W.W.E.T.f.f.i.t.F.(.(.(.@XW.I.f.Q.i.I.i.k.i.I.f.i.W.W.m @ * : & - : : - % s - d Q ! V d - h A d h V h : h G E h A K A.oXj.y.i.L.u.w.r.D.F.L.r.7.w.A.u.T./.F.^./.(.IX(.4.            uXcXcXcXyXqXyXqXqXqXqXqXcXcXcXcXtXcXyXtXtXqXcXqXqXyXqXqXqXqXqXcXqXcXwXyXqXqXwXcXqXwXyXcXcXcXcXcXcXtXyXcXcXcXcXcXcXZXcXcXcXcXcXcXcXcXcXcXcXyXcXqXqXtXcXcXcX",
"cXcXuXcXcXcXcXqXyXcXyXwXwXwXwXyXqXwXyXyXcXcXwXwXyXcXqXcXwXqXwXqXyXyX8X1XyXcXrXyXwXqXwXwXyXtXtXcXcXcXcXcXDXcXHXcXDXcXcXcXcXFXcXHXcXcXcXcXVXcXcXFXDXcXcXcXcX            W.(.T.S.t.y.W.T./.(.t.4.C.I.4.F.(.(.W.T.A.r.Q.Q.W.f.f.i.I.Q.i.W.I.>.p % j 7 7 F 8 4 h * - : V G G h C Z V a d > 5 5 K c.A A ~ q.W.@XT.t.I.p.p.r.w.B.F.i.y.2.w.L.w.A.^.F.!.E.).).IXS.            cXcXyXcXcXqXqXqXqXqXqX8XyXcXqXwXcXcXcXyXcXqXcXyXqXcXyXqXqXqXqXcXyXcXcXwXyXqXqXyXwXqXwXcXcXyXyXcXqXcXyXcXcXcXcXcXcXcXcXcXcXcXqXqXyXcXcXcXcXcXqXqX2XtXcXcXcX",
"eXqXqXcXcXyXqXcXyXtXyXqXcXqXwXwXqXqXqXwXwXyXcXcXcXcXwXwXwXwXwXqXqXqXqXqXcXcXcXyXyXwXwXyXyXcXcXcXcXcXHXcXcXqXcXHXHXcXcXcXcXqXcXFXcXcXcXcXuXcXHXFXeXcXcXcXcX            (.].H.!.S.T.i.I.(.W.T.A.t.I.H.y.f.9.i.P.C.r.Q.W.W.I.I.R.A.W.i.I.f.>.& % C j D D K K j 4 @ > : d f - V P d a - 5 D Y W P A A G k.XXW.P.A.p.w.r.i.T.).P.u.t.A.y.i.j.H.!.F.T.E._.~./.$.            wXcXcXcXqXqXqXqXwXwXqXqXyXqX2XqXcXcXcXyXcXqXwXwXwXqXwXqXqXqXqXcXcXqXcXcXqXqXqXqXqXcXwXyXcXcXyXwXqXcXcXyXqXcXcXcXcXcXcXcXyXwXcXqXqXwXcXcXcXcXcXyXqXtXcXcXtX",
"qXqXqXqXqXtXcXqXqXqXcXwXqXyXqXwXyXyXcXtXyXcXyXyXyXqXcXyXcXcXwXwXqXwXyXcXyXyXyXqXwXqXwXyXcXcXcXcXcXHXVXcXcXcXcXFXDXqXcXuXuXuXcXuXcXcXcXDXcXcXcXcXuXcXDXcXcX            ).I.F.T.F.y.I.i.i.i.i.A.t.o.r.e.2.>.e.#.w.y.T.W.W.I.T.@XA.T.w.i.I.>.& @ 7 D G N.Y E ! Z V * % - a - d V - s 5 E E ! &XP ~ A z L.(.L.F.i.#.t.i.Q.W.(.L.A.A.t.S.i.W.A.F.F.F././.V.S.%.            wXyXcXyXqXwXqXqXqXqXqXqXqXqXqXcXqXcXcXyXcXqXyXqXqXqXcXwXqXwXcXcXyXwXqXwXcXqXqXyXqXqXcXcXcXyXwXcXcXcXcXVXcXyXtXcXcXcXcXyXyXcXyXcXyXwXcXqXcXcXwXcXyXqXcXcXcX",
"uXqXqXqXyX8XqXqXqXwXcX8XqXyXqXwXcXcXyXtXcXcXcXcXwXcXwXcXcXyXwXwXqXqXuXcXqXqXcXqXqXqXqXwXyXyXcXcXZXHXHXcXcXHXHXHXcXuXcXcXuXcXuXcXcXcXcXDXcXDXcXcXuXuXcXcXcX            R.H.w.D.L.t.f.W.t.A.i.i.F.T.w.>.o.$.k.w.i.I.A.W.W./.I.W.I.I.r.f.I.e.7 @ @ h d A ~ ~ R G V - a : > ; - - * : E ! ! c.b.D Y 3./ I.XXE.E.A.t.$.T.oXW.).I.i.A.t.S.T.E.L.A.F.P./.A.S.S.@.            yXqXqXyXwXcXcXyXqXqXqXwXcX8X2XqX8XqXyXyXwXcXcXwXqXqXqXqXcXwXcXyXwXwXwXcXcXqXqXqXqXqXwXcXwXcXwXwXyXcXtXcXcXcXqXqXcXqXcXyXcXcXqXqXcXcXqXqXyXwXqXqXyXtXcXcXcX",
"uXcXtXcXcXtX8XqXqXqXqXqXqXqXqXqXcXqXqXtXqXcXyXcXcXyXqXcXcXcXcXcXwXcXuXcXcXcXyXqXqXqXqXqXqXcXcXVXcXcXcXcXcXcXHXcXuXuXuXuXeXcXcXqXuXcXcXcXcXcXcXcXcXFXFXcXFX            W.(.2.B.!.A.4.R.(./.i.f.S.S.R.y.w.e.w.k.i.R.T.f.U./.I.I.H.Q.f.T.i.-.e.m + * s f f a a A h a f d : : % % * G ! Q W &XG D h.y.w ..Q.(.E.A.I.t.F.(.W./.E.i.S.T.A.T.W.I.A.F.P.T.A.y.A.%.            2XqX2XqXwXwXwXwXyXyXqXqXwXqX8X8XqXwXyXyXyXcXcXyXcXcXqXyXqXwXyXcXwXcXqXcXwXcXyXyXqXwXqXqXqXqXwXwXwXtXqXqXqXyXcXcXcXcXcXqXcXcX8XqXcXcXwXcXwXqXqXqXtXcXcXcXcX",
"qXqXqXqXcXcXyXqXqX8X2XqXqXqXqXcXcXqXqXcXuXqXqXcXcXcXcXcXcXwXcXcXwXqXcXcXqXqXyXcXyXqXqXqXcXcXcXcXcXcXcXcXHXcXHXcXcXuXuXuXcXcXcXuXqXqXcXcXcXcXcXcXFXFXFXcXcX            W.@XW.i.~.J.H.f.U.).D.F.(.~.^.`.4.r.e.e.s.H.J.I.I.!.A.I.i.l.I.A.f.y.t.y.8 @ & s g a a : s s a a - % % * h c.E R Q x.K q.e.r.y w { @.I.I./.A.S.F.XX_.t.i.#.T.T.(.XXA.A.A./.i.A.A.T.#.            2XcXqX8XqXqXyXyXcXwXqXqXqXqXqXqXwXqXcXqXqXyXwXcXqXwXcXwXqXwXyXyXqXcXcXcXcXcXcXyXqXqXqXqXqXqXwXwXqXqXqXtXqXqXqXcXqXcXcXqXcXcXcXcXcXcXyXcXcXwXqXqXcXcXcXcXcX",
"qXqXqXqXcXyXcXyXwX2XqXyXyXyXwXyXqXqXcXcXuXcXqXrXcXrXrXrXqXcXqXrXcXqXcXyXcXyXyXcXtXtXcXtXcXcXcXcXDXcXcXcXcXFXFXuXcXuXuXcXuXqXqXcXeXuXcXFXcXcXuXuXcXcXcXcXcX            W.T.W.(.A.#.t.H.e.s.w.S.%.D.4.).`.t.I.#.l.f.A.W.T.~.i.I.I.f.H.r.W.A.A.2.i $ @ g g g f f s a a - * % ; C E ! R E x.q.l.s.r.8.b q 3._ ) t.E.E.P.!.I.E.i.y.o.A.(.XXI.T.A.t.A.A.t.D.T.$.            qXwXcXyXqXqXcXyXcXyXqX8XqX8XqXqXqXqXcXqX2XqXwXcXwXwXyXwXwXqXqXqXqXcXcXwXcXcXqXqXqXyXwXwXqXqXqXqXqXqXwXwXwXwXwXwXqXcXcXcXcXcXcXcXuXcXwXwXwXyXwXqXqXyXcXcXVX",
"qXqXqXcXcXqX8XqX8XyXqXcXyXcXqXwXqXcXuXcXuXcXcXcXcXcXrXqXcXcXcXrXqXqXcXcXcXcXcXqXcXcXtXqXqXuXeXcXcXcXHXcXcXcXFXcXcXqXcXcXcXuXcXcXeXqXcXcXcXDXcXcXcXcXuXHXcX            Q.W.F.J.W.I.w.*.F.H.4.2.t.4.H.A.].T.A.I.k.H.A.Q.H.S.A.T.A.A.f.`.H.C.y.y u p * f s s a f f f f % ; > Z E E E E K ;.n.k.l.r.7.,.u n n. .w { I.I.L.t.Q.i.y.w.W.@XW.I.J.A.C.A.A.t.D.T.#.            yXqXqXwXcXqXwXqXqXcXqXqXqXqXwXqXqXqXqXqXqXqXqXwXcXyXcXwXwXqXqXqXwXqXwXqXyXcXqXqXqXqXyXyXwXqXqXqXqXqXqXqXqXqXqXqXwXcXcXcXcXcXcXuXcXcXcXcXqXqXqXqXcXcXyXcXcX",
"qXrXqXcXcXqX2X8X8XqXwXyXyXqXwXyXqXqXuXcXcXcXcXcXcXrXeXqXqXcXcXcXrXyXcXcXcXyXwXqXcXcXqXqXcXcXuXcXcXcXcXcXuXcXFXFXcXcXcXcXuXuXqXcXcXcXcXuXcXFXcXcXcXcXcXqXqX            k.I.T.V.S.F.S.r.t.W.].S.7.y.F.#XC.(.y.I.I.A.F.Q.F.D.F.I.i.A.I.I.i.f.>.w ] 6 * g % s a f f a a : C E E U E E Y L l.n.'.d.>.q.=.b >.d.,.3.y w $.i.w.W.I.i.i.T.T.f.I.S.T.t.T.H.i.F.T.%.            qXqXqXcXyXwXcXyXyXwXqXwXwXcXcXwXqXqXqXwXqXqXqXqXwXwXwXqXyXwXqXwXqXqXwXcXwXqXqXqX8XqXqXqXqXqXqXtXqXqXqXqXcXyXqXqXcXcXcXyXcXcXyXqXqXcXyXqXqXqXqXqXqXtXcXcXcX",
"qXqXqXqXeXqX8X8XqXqXqXwXqXqXqXwXcXuXuXcXuXcXuXcXcXrXqXqXqXqXqXqXcXcXcXcXcXcXqXyXyXcXcXtXcXcXcXcXcXcXqXcXcXuXcXcXqXcXuXcXuXuXcXcXFXcXeXuXcXcXcXcXcXcXcXqXcX            r.k.Q.H.S.~.*.4.w.e.W.#X4.A.!.W.W.H.T.$.i.J.F.T.!.D.S.t.C.A.f.e.i.f.w y b m 3 O O , % a f g - ; G E U E E Y z e.'.U.l.-.-.s.q :.u e.d.,.e._ w X.7.Q.I.t.A.t.X.H.t.A.W.A.T.I.A.D.F.%.            cXyXqXqXqXyXcXwXqXwXcXcXwXqXqXcXyXyXcXyXqXqXqXqXqXwXqXqXwXwXqXyXqXcXyXqXqXyXwXqXqXqXqXqXqXqXqXtXyXqXqXqXqXyXqXqXwXcXcXcXqXqXyXyXyXqXwXwXcXqXqXcXqXqXcXcXqX",
"rXqXqXqXqXwXyXqXwXqXqXqXqXqXyXqXcXcXqXuXqXuXqXqXrXrXqXqXqXqXcX2XqXwXwXcXqXqXyXcXyXqXyXyXqXeXcXcXcXcXuXcXcXuXcXcXcXuXuXcXcXuXFXFXcXqXuXqXuXuXuXcXcXcXcXcXcX            e.z.Q.l.l.k.r.2.w.2.p.U.(.S./.F.(.T.(.i.w.t.T.^.B.t.C.C.e.i.A.t.>.` 0 ] m v u J 7 4 & - - - 5 C E E Y Y U K m s.n.l.r. .8.b ] l.x { h.e.d.d.,.{ y  .w.L.I.#.y.i.i.#XA.y./.A.F.t.S.#.            wXwXqXqXqXqX8XqXqXqXwXyXwXqXqXwXcXyXwXcXqXqXyXwXqXqXqXwXqXqXqXqXcXcXcXqXqXyXwXwXqXqXqXqXqXqXtXqXqXqXqXqXqXqXqXqXqXyXyXyX1X2X2XyXyXyXqXwXqXqXqXyXcXtXqXcXcX",
"qXqXqXqXrXqXyXqXqXqXqXcXqXcXcXyXcXcXwXwXwXcXqXqXqXwXwXqXqXqXcXqXwXqXqXyXqXqXwXqXqXqXwXcXqXyXwXyXcXcXqXqXcXcXcXqXuXcXcXcXcXcXcXFXHXFXuXcXcXqXcXqXqXcXcXcXcX            f.w.I.I.I.i.t.F./.T.#.8.k.H.J.^.T.(.T.#.@.W.T.B.w.i.D.A.i.F.2.O.r._ x b x i u '.'.K D G Z D G E E U Y G K v q.n.z.8.-.,.-.u 3.l.:.e [  .f.g.q.;.:._ ) @.4.t.I.w.W.@Xt.J.T.A.4.i.I.>.            yXcXwXwXwXqXqXqXyXqXyXwXwXqXqXqXqXwXwXwXqXqXqXqXqXqXcXcXcXcXcXcXcXcXcXqXqXqXqXqXqXqXqXqXqXqXwXqXqXqXwXqXrXwXqXqXyXyXwXwXcXqXqXqXqXwXyXyXcXqXyXqXqXcXcXyXcX",
"qXqXqXqXcXcXcXcXqXqXyXqXqXyXcXwXcXyXwXqXqXwXcXcXyXwXqXqXqXqXqXqXqXqXqXqXyXwXwXqXqXcXcXqXqXyXwXqXqXcXcXeXrXcXcXqXuXcXuXuXcXcXcXcXcXcXcXuXcXcXcXcXcXcXcXcXcX            i.e.w.I.I.A.t.!.~.T.H.w.l.f.$.F./.#XT.w.k.I.J.S.W.^.F.T.A.O.O.e.>.u n v x z i n.'.x.G G K T Y U Y G Y N.n w h.n.q.-.O.8.u  .l.g.,.u y y r.f.d.;.;.v } y _ e.y.e.I.2.y.H.H.2.e.W.I.w.            cXwXwXcXwXcXqXqXqXqXwXwXqXwXwXqXqXqXqXqXqXqXtXqXyXtXcXcXcXcXcXcXcXDXcXeXuXqXuXqXqXqXqXqXqXqXwXqXqXcXqXqXqXqXqXqXqXwXwXwXqXcXcXwXqXwXqXwXcXcXcXwXqXcXcXcXwX",
"uXqXqXtXcXcXcXcXcXqXyXqXqXyXqX8XqXyXwXqXyXcXcXcXqXwXqXqXwXwXqXyXwXqXqXqXwXwXqXqXqXqXwXqX8XyXyXwXqXqXqXqXrXeXeXcXuXcXuXcXcXcXcXuXcXcXqXuXFXcXqXcXcXrXcXeXcX            T.W.f.8.7.l.Q.I.I.A.e.t.I.`.4.B.).(.#XI.w.H.H.I.^.S.f.y._ ..I.8.[ x N x v B r '.$X%XN.K F G F G E x.-X;.v u n.h.h.-.-. .x ,.'.l.d.:.b ) w.s.8. .H n [ :.] ] e.t.$.%.e.w.w.e.W.A.T.2.            yXyXqXcXwXwXwXyXqXyXqXqXqXwXwXwXwXyXqXqXwXyXcXcXcXtXtXcXcXcXcXcXcXcXcXcXeXuXcXqXqXqXqXqXqXwXwXqXqXqXqXcXqXqXqXqXyXwXwXwXqXyXyXwXwXqXqXqXwXyXwXcXwXcXcXcXqX",
"qXqXcXcXcXcXcXcXyXcXcXqXqXyXqXqXyXwXqXwXqXqXcXcXwXcXqXqXqXwXwXyXwXwXqXqXwXqXwXcXcXqXqXqXqXqXqXcXqXqXqXqXcXrXqXcXcXuXcXFXuXcXcXcXcXcXqXqXqXcXqXqXeXqXqXqXqX            J.(.`.Q.l.z.I.^.W.T.s.`.I.@XT.2.F.^.#Xf.i.I.i.~.S.t.A.{ ] I.e.8._ b N v v v v [.%X$X[.N.K x.M. X-X:XN.v [ x '.m.z.-.>.[ n q.h.U.U.2.u :.>.9.9.J N N  .[ ' _ _ { { O.e.i.t.t.t.S.W.#.            yXcXcXwXqXcXcXyXqXwXqXqXqXwXwXcXyXqXyXcXcXcXcXqXqXtXuXcXFXcXcXcXcXuXcXHXeXuXcXcXcXqXqXqXqXqXqXqXqXqXqXrXrXcXqXyXyXqXqXwXqXqXqXwXwXqXqXqXwXyXqXcXqXqXqXcXcX",
"qXqXuXcXuXcXcXcXcXcXcXwXqXqXcXwXqXcXyXqXqXqXwXyXcXyXyXqXqXwXyXqXwXwXqXqXyXqXwXqXqXqXqXqXqXwXyXcXcXcXwXqXqXqXqXqXcXcXcXcXcXcXcXuXFXcXFXuXcXqXqXqXqXqXqXqXqX            s.I.`.@XR.I.OX#X].(.f.Q.OXQ.].f.y.!.@Xw.A.T./.!.t.D.%.] e.e.d.] c N  .x v v =.M.%X$Xb.M.1.N.*X-XSXm.n ;.v d.n.m.d.-.-.` >.l.s.g.f.2.w :.e.7.9.-.H -.N ;.[ _ } w ` e.f.t.t.w.#.J.H.v             yXyXyXyXqXcXcXcXcXcXqXwXwXqXqXwXcXcXcXwXwXcXcXcXqXyXyXuXcXcXcXcXcXqXeXcXHXqXcXcXcXqXqXtXqXqXqXqXqXcXcXcXqXrXqXwXwXyXqXwXyXqXqXwXyXqXqXqXqXqXqXwXyXwXyXcXcX",
"qXqXuXqXqXcXVXcXVXVXcXtXqXqXyXwXqXyXcX8XyXcXcXwXcXwXcXcXcXcXwXqXqXqXcXqXqXqXcXcXcXwXcXwXyXcXcXqXcXcXqXqXqXqXqXeXqXuXcXcXHXcXcXcXcXFXcXcXuXcXcXcXcXeXcXcXcX            H.).).).F.S.D.W.%X)./.W.#X#XW.H.H.T.I.f.L.A./.S.#.%.X.8.e.e.>.u n  .x u N v =.M.1X;XM.x.;.N.&X:X[.n d.-.m l.h.h.q.-.] O.e.f.d.q.f._ e X.e.8.9.-.M J H J 1.b ' X.%.>.e.4.i.o.D.F.2.[             cXcXqXcXwXqXqXcXcXcXqXqXyXqXqXqXwXcXwXqXcXZXcXcXcXtXcXcXcXcXcXcXcXDXuXcXcXHXcXcXcXuXqXqXqXqXqXqXqXqXcXcXcXqXqXqXqXqXqXqXcXwXqXqXwXqXqXwXwXqXqXqXcXcXyXwXcX",
"qXuXqXqXuXcXVXcXcXHXcXuXuXqXcXcXuXcXcXtXyXyXcXwXcXqXyXcXcXcXyXyXqXqXrXrXqXcXcXyXyXyXyXcXcXqXqXqXqXcXcXcXcXcXuXqXqXqXqXuXcXcXcXcXuXcXcXuXcXuXHXcXcXcXcXcXcX            U.(.T.H.i.I.A.B.(.#X).(.`.`.U.I.k.(.A.i.i.A.%._ _  .e.d.d.d.] N H ] b b ,.v 8.+X:X-XN.h.[.-X:X;XH e.-.N n n.s.q.;. .x >.8.f.d.3.3.w e _ s.h.s.J M -.H -.;.,.] x 2.[ { 4.y.2.F.t.t.=.            yXcXqXwXcXwXyXcXyXyXqXcXyXtXtXqXcXyXcXyXyXyXqXcXCXcXcXcXcXcXcXuXqXcXDXDXcXDXDXcXcXcXuXqXuXcXqXqXqXqXqXqXqXqXqXqXqXtXtXqXyXyXyXqXwXqXwXqXqXqXqXqXyXcXcXcXcX",
"qXuXuXcXcXtXcXcXtXcXcXcXcXqXcXcXuXtXcXtXyXtXcXwXyXwXqXwXcXwXwXwXwXqXqXqXeXcXqXyXcXyXcXyXqXqXqXwXwXcXcXcXcXqXcXcXqXqXqXqXuXcXcXcXcXcXcXqXeXuXeXcXcXqXcXcXcX            +XI.U.r.I.i.w.4.C.(.#XT.R.f.s.f.l.W.L.k.t.{ b =. .,.e.f.e.>.:.] J b n e.:.v h.:X;X[.M.-X-X;X>X1.-.8.-.H =.n.s.8.J x x -.>.d.e.e.v 0 w %.l.z.s.8.-.J H H =.=.,.} ' ,._ ` y.A.F.S.A.b             yXcXcXwXqXyXyXyXyXwXyXcXcXyXtXqXqXyXqXcXyXcXqXyXqXyXyXuXcXcXcXcXcXuXcXHXcXuXcXcXcXcXcXcXeXqXuXuXuXuXcXqX5X2XqXqXqXtXcXcXqXqXcXwXqXyXcXqXqXyXqXqXcXyXyXcXcX",
"5XqXuXcXqXcXcXcXtXqXcXcXuXcXcXcXcXqXtXcXyXyXcXyXwXyXyXcXwXqXyXyXqXqXqXqXqXrXcXtXtXyXcXcXqXqXqXqXqXqXcXeXqXuXuXcXuXcXcXcXcXcXuXcXcXFXcXuXqXcXcXqXqXcXcXeXcX            %X@XR.R.l.U.U.f.e.j.W.U.].U.e.I.OX@Xi.{ y X.>.>.8.d.d.3.>.>.3._ -.H O.W.x v '.:X[.h.>X-X-X-XN.;.8.-.s.<.1.n.s.>.=.w >.>.-.,.>.<.q w ) y.z.s.z.l.9.N b b x w q y ' b e.{ X.A.A.S.i.2.            qXcXyXqXqXwXcXqXwXcXcXcXyXcXyXqXqXqXyXwXcXcXcXcXwXqXcXcXqXuXuXcXcXcXcXFXcXcXcXcXcXcXcXcXqXcXcXuXqXuXcXcXqX2XqX8XqXqXtXcXcXcXqXcXyXcXwXqXqXyXyXyXcXcXcXcXcX",
"qXqXqXqXuXcXcXtXcXqXyXcXcXcXcXcXcXcXcXcXtXtXcXcXqXcXcXyXqXyXcXcXqXqXqXrXqXqXqXcXcXqXyXZXqX2X2XqXwXyXuXuXqXcXcXqXqXcXcXcXHXuXcXcXuXcXcXcXuXcXcXeXcXcXcXcXrX            OXQ.T.T.OXOXOXi.U.i.k.y.R.`.H.I.@X$X2.y >.s.>.e.d.d.d.>.e.2.>.X.x 8.e.g.0 =.;X:XN.N.>X-X-XM.L 8.>.-.z.v i n -.-.H O.,.-.,.=.,.i w ] | U.s.s.'.s.9.b =.>.x 0 0 w x v n [ y @.T.B.W.]             cXqXqXyXqXqXqXwXqXcXcXtXyXcXtXqXqXqXyXcXcXcXcXcXwXqXcXcXcXcXcXcXcXcXDXcXcXHXcXFXcXcXuXcXuXcXcXqXqXqXqXqXuXqXqXcXtXqXqXcXyXtXqXcXcXcXyXqXwXqXwXqXqXqXcXcXcX",
"2XqXqXcXcXcXcXcXcXcXcXuXcXcXcXcXcXcXyXcXqXqXcXcXcXqXwXcXqXcXyXcXyXqXqXqXqXrXqXtXVXyXcXcXyX2X2XqXcXcXcXcXcXcXcXqXcXcXcXcXcXcXcXcXcXuXcXcXcXcXcXcXcXcXcXcXcX            OXl.].T.$XOXQ.f.k.I.8.I.J.R.H.e.W.].+.] s.7.:.f.X.y.e.3.e.2.:.[  .8.8.,.9 ,.;X;Xx..X:X>X;XJ -.8.>.-.s.u q y w u N >.>.,.=.:.=.u { ] e.l.8.l.z.-. .,.,.] u x v r u [ 1.<.x y C.S.T.'             qXcXyXqXqXcXcXqXqXyXyXtXcXcXyXtXqXqXwXcXyXyXwXyXyXyXyXcXqXcXcXcXcXcXcXcXcXcXcXcXFXcXcXcXDXcXuXcXqXeXqXuXqXqX2X8XcXcXqXyXtXtXqXqXcXcXyXqXcXyXqXqXtXqXcXcXcX",
"3XqXtXcXcXcXcXcXcXcXcXuXtXcXcXcXcXcXcXcXcXyXyXcXcXqXcXqXtXtXcXqXqXcXqXqXqXuXqXcXcXtXqXcXcX6X2X5XcXcXcXcXHXFXcXFXHXHXHXHXHXcXuXcXcXqXuXcXcXcXcXcXcXqXcXDXFX            OXk.].).+XOXf.k.Q.W.y.OXA.t.w.e.e.y.{ X.w.7.>.e.{ y.,.2.2.%.] >.e.>.h. .0 =.+X>X1.-X:X:X1.m r.,. .-.8.q d.e.>. .o.X.>.>.3.,.,.) 2.:.l.f.n.Q.e.] >.-.[ -.;.d.d.h.1.,.=.1.d.] ) 2.A.}             yXyXwXqX8XqXqXqXqXwXqXqXcXcXqX8X8XqXqXqXcXcXcXcXcXcXcXcXcXcXcXcXcXcXcXcXFXcXuXcXFXFXcXcXcXcXcXuXqXuXuXqX5XqX2X8XqXqXcXqXqXqXtXqXcXcXcXyXcXyXqXcXqXqXcXZXcX",
"qXqXqXcXqXcXcXcXyXtXyXcXtXtXcXcXcXcXcXcXcXcXcXcXcXyXtXtXcXcXcXcXVXcXcXuXuXqXqXcXcXcXcXeXFXuXqXqXcXqXuXHXcXcXFXHXcXHXHXHXHXFXDXFXcXqXcXuXcXcXcXcXcXcXDXFXFX            `.+XW./.l.f.U.e.`.y.y.OXA.>.e.r.e.2.) %.e.8.>.:.+.d.3.2.5.{ 7.e.2.:.'.u x n n.:XN.-X>X[.v 8.-.-. .9.H w d.,.X.o. .o.7.=.3.d.%.] h.g.n.'.l.f.X.,.,. .>.>.f.K.d.g.n.n.n.g.f.f.X.y t.]             qXtXwXqXqX8X2XqXwXyXqXqXwX8XqXqXqXqXqXyXcXcXcXcXcXcXcXcXcXcXcXcXcXcXcXDXFXeXcXcXcXcXcXcXcXqXcXcXcXcXqXqXqXqXqXcXcX8XqXqXqXqXqXqXqXcXyXcXcXyXcXcXcXqXtXcXcX",
"qXqXqXqXcXyXqXcXqXtXqXcXcXqXqXcXcXcXcXqXcXcXqX8XqXqXqXqXcXcXcXcXcXcXcXcXcXcXqXqXcXcXcXqXcXHXcXcXqXqXcXHXcXcXHXHXcXHXHXHXDXFXFXFXcXcXcXcXcXcXcXcXcXcXcXcXcX            T.W.OX!.].H.%.T.R.$.H.C.H.t.T.U.I.} _ 2.8.8.%.X.+.d.3.3.3.,.8.:.3.,.'.w 1.n :.;XM.M.M.m J 9.-. .-.9.m b d.2.X.o. .e.,.:.:.3.{ ,.+X#X'.l.e.d.=.,.=.>.,.3.'.Z.d.g.s.g.l.k.f.f.d.' | {             qXcXcXqXqX8X2X2X8XqXwXqXqX8XqXwXyXqXqXwXqXqXtXtXyXcXcXcXcXcXcXcXcXcXcXcXFXcXcXcXFXFXDXcXcXcXcXuXqXcXcXuXqXuXcXqXcXqX<X7XwXcXtXtXtXqXqXqXtXcXcXcXcXqXcXcXqX",
"yXqXcXtXqXtXcXcXcXcXtXyXcXqXyXtXcXcXcXcXyXyXqXqX2XtXqXqXcXtXcXcXcXcXcXcXuXcXuXcXcXcXcXFXcXDXFXcXqXcXFXHXcXcXcXDXcXHXHXHXDXFXDXcXcXHXcXFXcXuXcXcXcXcXHXcXcX            W.(.`.(.A.#X@XH.%.~.4.e.U.(.W.@Xi.] } 8.r.>.X.[ X.d.5.d.2.>.X.:.:.3.3.q d.,.v ;X[.=.u H 9.-.=.H n c n 8.s.8.O.X.e.e.8.:.] } ] '.$X'.n.e.3.n <. .>.8.8.f.4.5.s.e.8.f.e.e.e.y.e.y.) u             yXyXqXqX2XqX2X2X1X8XqXqXqXqXqXwXyXwXyXqXyXyXtXqXyXyXtXcXcXcXcXcXcXcXcXcXcXFXcXcXFXcXFXcXDXcXcXcXuXqXcXcXuXqXcXcXqXqXqX<XqXqXyXyXtXqXtXcXcXcXqXcXcXyXcXcXqX",
"cXcXcXcXcXcXcXcXcXcXcXcXqXyXcXtXtXcXcXtXyXcXqX8X2X3XqXtXcXtXcXcXcXcXcXuXcXuXcXuXuXcXcXcXcXcXcXcXcXcXcXcXDXcXcXLXFXFXcXcXcXcXDXcXcXDXcXDXcXcXcXcXcXcXcXHXHX            Q.I.T.).I.i.k.U.H.^.r.8.K.J.4.W.2.] >.>.7.>.X. .=.3.X.8.y.[ :.>.' '.[ r d.g.y :.y < b J ;.,.H v N 7.r.7.7.7. .>.d.d.d.X.` ] :.$X+X'.d.:.x =.0.>.r.7.q.[ :.-.9.8.s.s.f.e.f.f.i.e.2.w             cXyXqXqX8X2X8XqX2X2XqXqXqXqXqXqXqXyXyXqXwXcXtXtXyXqXyXcXcXtXcXcXcXcXcXcXcXcXcXcXcXcXcXcXcXFXcXuXuXuXcXcXcXcXcXqXqXwXwXqX2X8XqXqXtXqXtXcXVXVXcXcXcXcXVXcX3X",
"yXyXCXcXcXcXyXcXcXcXtXqXqXtXcXcXyXcXtXtXcXcXqX2X2XqXcXqXtXqXqXcXcXcXcXuXuXcXcXcXcXcXcXrXuXcXcXcXcXcXcXcXFXHXHXHXFXFXcXcXcXcXcXcXcXcXcXuXcXDXcXcXcXcXcXcXHX            U.I.#.C./.y.C.^.~.4.e.R.R.C.H.A.}  .>.O.7.>.%.X.:.e.5.y.2.] ;.} _ `.q q a.h.v 9 q u J J ;.-.c >.r.7.7.-.8.8.>.2.f.g.,.` _ =.d.$Xe.>.u _ y ,.-.r.8.8.[ [ =.H 8.f.s.d.g.e.e.e.y.w.4.u             cXyXqXqXqXqXqXqX8XqXqXqXqXqXwXqXqXqXwXcXcXcXcXtXtXtXcXcXcXcXcXcXcXuXuXcXcXcXcXcXcXFXcXcXDXFXcXcXuXcXcXuXcXcXuXyXcXcXqXcXqX2X3XqX3XqXqXqXcXcXcXcXcXqXcXcXqX",
"wXcXZXcXcXZXcXcXtXcXcXcXcXZXVXtXqXyXcXyXqXqX2X8XqXcXqXyXwXqXqXyXcXcXcXcXqXcXcXcXcXcXcXqXcXDXcXcXcXcXDXcXcXHXHXDXcXcXcXcXHXcXcXuXcXFXHXcXcXcXHXHXHXcXcXcXcX            r.Q.T.t.4.J.y.4.C.f.f.l.H.J.C.J.{ } >.8.7.w.%.X.>.3.>.y.2.] >._ 2.n.q 0 u N u q r J 8.,.m m e.s.8.8.7.8.8.8.} :.l.K.>./ ' d.`.`. .u ) ) y n  .s.8.:.' >.N 9.r.s.s.d.e.f.f.e.e.2.2.u             qXqXqX8XqXqXqXqXqXqXqXqXqXqXqXqXqXqXqXwXcXcXcXyXwXcXcXyXcXVXcXqXyXtXcXcXtXcXcXcXqXcXcXcXcXcXcXcXcXcXcXcXcXcXuXeXqXqXyXqXqXqXcXqXqXqXuXqXcXuXcXcXcXcXqXqXqX",
"yXcXcXcXcXcXcXcXcXcXHXcXcXcXtXcXcXqXwXcXcX8XqXwXqXyXqXcXqXqXwXwXqXcXcXcXcXcXtXcXcXcXrXqXcXcXcXcXcXcXcXqXcXFXcXcXHXFXHXcXcXHXcXcXDXHXHXcXHXHXcXHXHXcXcXcXcX            s.z.I.@X).e.8.k.U.l.l.`.).y.A.J.[ [ >.>.-.>.X.X. .5.e.y.2.' X._ `.l.0 n w w c 9 v H b n =.d.g.d.8.7.8.>.q.,.} 2.h.U.>.) ] d.%Xy.b y _ i v b d.8.>.x >.=.H -.8.s.8.s.f.d.d.f.d.3.e.x             qXqXqXqXqXqXqXqXqXwXqXqXqXqXqXqXqXqXqXqXqXqXqXyXyXyXcXtXyXqXcXcXcXuXcXcXqXcXDXcXuXcXFXcXcXcXHXcXcXcXcXcXcXuXcXcXqXqXqXqX2XqXqXqXeXqXuXqXqXcXqXcXyXqXqXqXwX",
"yXqXyXcXcXyXcXcXqXcXZXcXcXyXyXyXcXqXqXcXyXcXcXyXqXcXcXcXqXqXcXyXqXcXtXcXcXcXcXcXcXcXcXeXcXcXcXcXcXcXcXqXcXcXcXcXcXHXKXcXuXcXDXcXcXHXcXcXHXcXcXHXFXFXcXcXcX            U.k.s.z.OX#X`.`.W.W.`.].A.i.F.A. .X.>.] -.>.X.X.X.5.3.H.>.{ ) >.%Xl.0 n e.3.J 9 u q r v ,.s.d.s.8.8.7.=.q.,.} d.n.U.:._ { g.'.:.x e { ' m :.8.-.X.` 3.H ,.8.8.8.s.f.s.q.q.y.e.3.2.u             qXqXqXtXcXqXqXwXqXqXqX8XwXqXqX8XqXqXqXqXqXqXqXqXcXqXwXqXqXqXqXqXcXqXqXcXtXcXuXcXFXcXcXcXcXcXcXcXcXcXcXcXcXcXcXqXqXqXqXcXqXqXqXqXrXcXqXqX2XqXqXqXyXwXqXqXcX",
"yXqXwXwXcXqXcXqXqXcXcXcXcXcXcXqXcXcXcXyXcXqXqXcXcXyXyXyXqXqXwXqXqXqXtXcXcXcXcXeXcXcXeXeXrXcXcXcXcXcXuXcXcXcXcXcXcXcXeXqXcXcXcXHXcXDXcXHXcXcXFXHXHXFXFXFXcX            w.OXk.s.l.OX`.U.W.(.W.R.C.R.J.H. .X.o.` O. .X.X.5.5.3.f.2._ w d.$X3.q N ,.d.H 9 r r v z X.h.g.g.8.9.=.8.,.=.%.d.n.K.<.{ { g.=.X.w e } u y -.>.8.` o.,.=.,.d.8.7.8.s.d.h.d.f.2.2.y.u             qXtX2XqXqX8XqXyXwXqXqX2X2XqXqXqXqXqXqXqXqXqXqXqXqXqXqXqXqXyXqXtXqXqXtXcXcXcXcXcXcXuXcXcXcXcXcXcXcXcXcXuXcXcXcXcXcXcXqXqXqXqXqXqXqXcXqXqX2X;XuXqXqXqXqXqXqX",
"wXcXqXqXwXqXqXcXcXtXcXcXcXcXtXtXcXcXcXcXcXyXqXcXcXyXyXcXqXqXqX8X2XqXyXcXcXcXyXcXqXqXcXqXcXcXcXeXrXcXcXuXcXcXcXcXcXqXuXcXcXcXcXFXcXcXcXcXcXFXcXDXcXcXDXcXcX            e.J.@Xz.s.s.U.@XI.R.f.R.#XT.A.A.X.t.O.{ )  .X...X.5.3.e.>._ { '.$Xv r -.r.h.r w c q r c ' q.n.s.8.7.7.>.,. .X.d.U.l.=.[ { g.<._ e / _ e ] >.e.{ _ >. . .8.>.7.8.g.g.f.s.f.d.,.>.2.u             cXtXqX3X2XqX2XqXwXqXqX8X2XqXqXqXqX8XqXwXqXwXqXqXqXqXqXqXyXqXqXtXcXcXqXcXVXcXcXcXqXqXcXcXcXcXcXuXuXcXcXFXFXcXcXcXcXqXqXqXqXqXcXqXqXqX5XqXqX2X2X8X8X7X;XqXqX",
"wXyXcXyXyXcXcXcXcXcXqXcXtXcXcXcXcXyXcXyXyXtXqXqXyXcXyXcXqXqXqX8XqX2X8XyXcXcXcXcXqXqXqXrXcXcXcXcXcXcXcXcXcXqXuXcXcXcXuXFXFXcXcXDXHXFXcXcXDXHXcXcXcXcXDXcXcX            h.I.J.T.l.n.l.l.f.f.s.f./.J.R.H. .w.X.] / O.] ] 2.2.3.d.2.u e.$X`.q r ,.2.h.r  .] q r u N g.'.d.7.7.w.X.>.] X.8.U.l.=.,.{ J.q.{ e / / ] q.7.{ { >.X.[ ,.,.-.,.d.n.g.g.f.s.e.s.U.d.u             cXcXcXcXqXqXtXqXqXqXqXqXqXwXyXqXcXqX8XwXwXqXqXqXwXwXwXyXqXqXqXqXcXcXyXqXyXtXcXqXqXuXqXcXcXcXcXcXuXcXcXcXcXcXcXDXHXcXcXcXqXqXcXeXcXqXuXuXqXcXcXqX2X7X7X2XqX",
"wXqXcXcXcXcXtXcXtXtXcXcXcXcXcXcXcXyXyXcXtXyXqXwXqXyXcXyXqXqXqXwXqXqXqXyXcXcXcXcXeXqXqXcXcXcXcXcXcXcXcXcXcXcXcXcXcXcXcXFXcXFXFXDXFXcXcXcXHXHXDXcXcXHXHXHXcX            U.l.U.I.i.9.k.`.W.W.T.J.^.H.W.H.n w.w.O._ ] N _ %.2.5.8.3.u `.%X4.0 v >.3.;.u =.7.O.] -.8.d.n.s.7.8.} :.:.] %.e.l.'.[ =.X.t.'.e.e / / X.-._ ) >. .X.;.,.-.q.d.n.h.f.f.d.,.8.g.g.f.v             cXcXuXcXtXqXyX3X2XqXyXqXqXqXyXcXcXcXqXwXyXwXwXwXqXyXqXqXqXqXqXqXyXqXcXqX8XqX8XqXqXtXcXcXyXcXcXcXcXcXcXcXcXcXFXcXcXFXFXcXcXqXuXqXqXuXcXuXcXcXcXcXqXcX0X2XqX",
"wXcXcXcXyXcXcXcXcXVXVXqXcXcXcXcXcXyXcXcXtXyXyXyXwXcXqXqXcXwXqXcXyXcXcXwXcXcXcXqXrXcXcXqXqXcXcXcXcXcXcXcXqXuXuXcXFXcXHXcXcXHXHXHXcXcXcXcXcXcXuXqXcXcXHXFXcX            I.U.z.OXW.R.W.Q.k.U.).IX!.I.U.2.} e.w.X._ ] N _ +.3.2.>.2.] $X#X_ q n >.e.=.x n -.8.8.-. .8.h.9.8.8. .>.>.] X.e.'.#Xt.| 1.%.`.:.y } _ X.{ ) ` X.o.s.,. .-.8.g.q.d.d.d.d.d.q.d.f.d.i             qXuXuXcXuXqXqXcX2X2XcXqXqXqXqXqXqXcXyXyXwXyXcXcXyXyXqXqXwXqXqXqXcXqXyXyXcXqXqXqXqXqXcXqXyXcXcXcXcXcXcXcXcXcXcXcXcXcXFXcXcXcXuXqXcXcXqXqXqXqXuXeXqXqXqXcXcX",
"qXyXcXcXqXcXcXcXcXcXcXcXtXcXcXtXcXcXcXcXcXcXcXcXyXqXyXcXqXwXqXqXcXwXcXcXyXcXcXqXrXcXeXcXcXcXcXcXDXcXcXcXcXqXuXcXDXcXcXuXHXHXHXHXcXuXcXcXuXuXcXuXcXFXHXFXcX            `.].`.l.Q.].W.f.f.H.A.J.R.f.U.%.X.2.r.2.] _ ] x { 3.y.s. .%.$Xe.0 q ] ;.=.v u c -. .>.X.>.q.;.8.e. .:.>.>. .X.e.l.`.U.X.:.} t.' _ ` #.o.{ @...w.s.7. .>.=.,.:.,.,.1.d.d.d.q.,.d.d.i             qXqXqXqXqXqXqXqXqXqXwXyXqXwXqXqXqXqXcXyXyXcXyXcXyXcXcXCXCXcXqXqXqXqXqXqXqXqXyXqXqXcXqXyXyXcXcXcXtXcXuXcXuXcXcXcXHXHXFXcXcXcXcXcXuXcXcXcXeXqXuXcXqXqXrXrXcX",
"qXwXwXcXqXcXcXcXcXcXcXcXcXyXtXcXcXtXtXcXcXcXcXcXcXqXwXwXwXqXwXqXqXcXcXqXcXcXcXcXcXcXcXqXcXcXcXcXqXcXcXcXcXeXqXcXcXuXeXqXqXcXcXcXcXcXqXqXuXcXcXcXcXcXcXcXcX            d.#XH.H.I.I.2.2.8.4.^./.i.Q.I.{ X.o.e.2.>.x x x X.>.e.f.] X.%Xc 0 w e [ n x x v ;.>.d.e. .=.-.,.8.X.>.>.=. .X.2.>.f.n.q.,.,.) ) _ ` X.#.....8.9.w...8.-.-.=.,.q.b d.h.d.8.,.d.d.q.m             qXqXuXuXqXqXtXqXqXqX8XqXwXqXqXqXqX8XqXwXqXcXcXwXcXcXcXcXcXcXcXqXqXqXyXtXcXVXqXqXqXqXtXqXqXqXqXcXcXuXqXuXcXcXFXcXcXcXcXcXcXcXuXcXcXqXqXcXcXeXuXuXqXqXeXcXcX",
"wXwXqXwXcXqXtXcXcXcXtXcXcXcXcXqXcXcXqXcXcXcXcXyXqXqXqXqXqXqXyXyXqXqXcXcXcXcXCXcXqXeXcXcXcXcXcXcXqXrXFXcXuXcXcXcXuXqXqXuXeXcXqXqXuXuXcXcXcXuXcXcXcXDXFXcXcX            =.#X`.y.y.I.I.).H.S.S.y.f.`.2.| =.>.w.2.w.] y v { X.>.f.] 4.+X0 q y e ) c b x n ;.-.s.d.>.>.>.,.8.>.>.:.:.[ X.>.>.] X.'.,.>.:.e { ` X.] e.8.;.>.o.7.=.-.-.:.d.,.=.d.q.d.q.,.d.,.q.m             cXcXcXqXcXcXyXcXqXqXqX2XqXqXwXcXwXqXqXqXqXcXcXcXyXyXcXcXcXcXcXcXyXqXqXtXcXtXqXqXqXqXqXtXtXuXcXuXcXuXcXcXcXcXDXcXcXuXcXuXeXuXqXqXqXqXuXuXuXqXuXeXeXqXqXqXcX",
"cXrXcXcXcXcXtXcXcXcXqXcXcXcXcXcXqXqXcXcXyXtXyXyXcXcXcXcXtXqXtXyXqXqXqXcXcXcXcXcXuXcXqXcXcXuXcXFXcXeXcXcXcXDXcXcXuXqXqXqXcXcXcXcXqXFXFXFXcXcXcXDXcXDXcXFXHX            =.$X%XI.y.U.+Xf.>.e.`.I.e.e.{ _  .2.>.w.2. .w x b X. .i._ H.U.9 u x w u c  .u v ,.8.d.3.>. .,.8.8.>.X.>.>.] } X.d.,.) e.U.=.,.w _ X.{ s.8.>.=.J ;.N -.,.:.:.a.=.<.h.q.d.q.d.d.1.q.m             cXuXcXuXcXqXqXuXqXqXqX8X2XqXwXqXcXcXwXqXyXyXcXcXcXcXtXyXcXcXcXcXcXcXqXtXqXqXuXuXqXuXuXqXqXcXcXqXqXuXcXcXcXcXcXDXDXcXcXcXuXuXcXqXqXqXcXcXcXcXqXqXeX6XqXqXcX",
"cXcXrXcXeXcXcXyXcXcXcXcXcXcXcXcXtXtXtXcXcXtXtXcXtXtXcXcXcXyXtXtX8XqXqXqXqXeXcXqXcXcXqXuXuXuXcXcXFXcXcXcXFXcXcXcXcXcXqXuXcXFXcXcXuXcXcXcXcXcXcXcXcXcXcXcXcX            d.%X$Xl.U.`.s.f.`.#XQ.f.2.7.| _ ] >.>.>.2.>.w y v X. .e._ R.{ < c =._ w ] X.x n s.s.s.3.=. .>.8.8.o...>.>.] ' X.d.s.=._ `.'.<._ e _ / { r. .N n v -.8.>.:.:.a.=.<.q.d.d.d.d.;.q.d.m             qXqXuXqXuXcXtXuXuXqXqXqXqX2XqX1XcXqXqXqXwXcXcXqXqXtXtXqXtXcXqXqXcXcXuXqXqXuXcXuXuXqXqXcXqXuXuXqXcXcXcXcXcXDXcXcXcXcXcXcXeXqXqXcXqXuXeXcXuXqXqXqXcXqXqXqXqX",
"cXcXrXrXcXcXcXcXcXcXVXcXcXcXcXcXcXcXtXtXcXqXtXcXcXqXcXcXcXcXcXcXqXqXrXqXcXrXcXcXuXcXeXcXuXcXuXuXuXcXFXDXcXcXcXcXcXcXuXcXcXcXuXeXqXFXHXFXcXcXcXcXcXcXcXcXcX            X.+X$XI.i.k.'.`.l.8.y.Q.W.f.| { { 8.>.X.X.2.y u b { X.i.` I.w 0 H H r x :.X._ =.l.8.d.>. .] >.8.8.>...>.>.2._ ..:.h.;.] y.#Xd.] w e w / ] H N b H -.>.,. .:.3.[ :.1.d.d.d.8.,.d.d.v             cXcXqXqXqXcXcXcXuXqXqX2XqXqXqXqX2XqXqXqXqXqXqXqXqXqXtXtXcXVXqXqXcXcXeXqXqXcXuXqXcXcXuXFXqXuXqXqXuXcXuXuXcXDXcXcXcXcXcXeXqXqXcXcXcXcXcXqXqXcXeXqXcXcXcXqXrX",
"cXcXrXeXcXcXyXyXqXcXcXcXcXcXcXcXcXcXcXyXqXcXcXcXHXtXcXcXcXcXcXcXqXcXqXqX2XrXrXuXuXuXcXcXcXcXcXHXcXqXcXcXuXcXcXcXcXcXcXuXuXcXuXcXcXFXHXHXcXcXcXcXcXuXcXuXcX            =.U.].i.k.s.s.s.2.f.`.W.@Xe.' ' ] 8.>.X.%.%._ y b ] X.s._ %.w q -.-.w  .:.[ x ,.d.8.;.,.-. .-.8.8.X.O.>.>.>.| ` X.,.d.>.} '.d.] ;.y e ( { 8.>.N ] ] J J  .:.,.[ <.1.,.d.d.,.,.1.d.v             cXuXqXuXuXqXqXcXuXqXqXqXqXyXqXqXqXqXcXcXcXqXqXqXqXqXtXcXqXtXcXtXqXcXqXqXqXqXqXqXqXuXuXcXqXcXuXcXuXcXcXqXcXcXcXcXcXcXcXcXcXcXcXcXcXqXqXuXcXcXuXqXcXcXcXcXcX",
"qXcXqXqXeXcXqXyXcXtXtXcXcXcXcXcXcXcXcXtXtXcXcXcXcXcXcXyXcXcXqXqXcXwXcXqX6XqXcXcXqXcXuXqXqXqXuXHXcXqXuXcXcXcXqXcXcXcXcXuXcXcXcXcXcXcXcXHXcXcXcXcXuXcXcXcXcX            ,.'.`.T.H.s.s.U.U.I.i.W.C.>.' ] >.-.o.X.%.%.u u b ] X.>._ 5.q u ,.e.e [ >. .x =.8.>.>.>. .-.8.e.8.X.] >.>.>.X.' } >.e.8.:.l.3.y ,.' e ( ` 9.O.c b N N =.1.d.:.[ :.<.d.e.e.,.;.,.1.z             uXqXqXuXqXcXcXuXqXqXqXqXqXwXcXqXqX2X8XcXqXqXcXcXcXyXqXqXqXtXcXtXcXcXcXcXqXqXcXqXuXuXcXcX5XuXcXcXcXcXcXcXcXcXcXcXcXqXuXcXFXcXqXqXqXqXuXuXqXuXcXcXcXcXeXeXcX",
"qXcXqXqXrXcXuXcXcXtXcXcXcXcXcXqXtXtXcXcXuXcXcXuXcXcXqXqXqXwXqXqXcXqXcXqXrXcXcXqXcXcXuX2XqXcXcXqXqXuXcXcXcXFXcXcXcXcXcXuXcXcXcXcXuXqXuXcXuXcXcXcXuXuXqXcXcX            e.9.I.I.R.W.`.y.O.e.OXt.o.>.] ] 9.-.X.X.%.%.u u b ] X.o.X.2.q u ,.8.e _ :. .x b 8.>.-.>.>. .>.8.>.` >.>.e.e.>._ X.e.=.;.g.l.e.w  .' ) / >.7. .N N x [ ,.,.,.<.=.,.:.a.e.,.1.,.1.q.L             cXcXcXuXqXcXuXqXqXcXqXcXqXqXcXcXqXqXqXqXqXqXqXVXcXqXqXcXuXqXtXcXcXcXcXqXqXqXcXcXqXcXcXcX5XuXcXcXFXcXcXcXcXcXcXcXcXcXcXHXFXFXFXFXcXqXuXqXuXqXqXcXcXcXcXeXcX",
"eXcXqXcXcXeXcXcXcXqXqXuXuXcXcXcXcXcXcXuXcXcXcXcXcXcXqXcXcXrXcXrXrXrXqXqXuXqXeXqXqXqXcXrXqXcXcXqXqXqXcXcXDXcXuXcXcXcXqXuXcXcXcXuXqXuXcXcXcXcXcXcXuXqXqXcXcX                                                                                                                                                                                                            cXcXcXqXcXqXqXqXuXcXuXqXqX5X2XcXcXuXqXcXcXqXcXuXqXqXqXqXcXqXqXcXuXcXcXcXqXqXqXqXcXcXqXcX2XcXcXcXcXuXcXcXcXcXcXcXcXDXDXcXcXcXcXFXcXqXuXcXcXcXuXcXcXuXcXcXcX",
"qXrXqXqXqXqXuXcXcXqXqXqXqXuXqXcXcXcXuXcXcXuXcXcXcXqXqXqXrXcXrXcXcXeXqXqXqXuXqXqXqXqXeXcXqXcXuXqXuXqXqXuXcXuXeXcXcXcXcXcXHXFXuXeXqXuXcXuXuXcXcXcXcXcXuXcXcX                                                                                                                                                                                                            cXqX5XqXcXcXcXqXqXcXcXqXqXqXuXqXqXcXuXqXqXuXuXcXcXqXqXqX2XqXqXqXcXcXcXuXqXqXuXqXuXqXqXcX2XcXcXcXcXcXcXuXqXcXFXcXcXFXcXcXcXcXcXcXcXcXcXcXcXcXcXuXcXcXcXqX5X",
"qXqXqXqXqXqXqXuXqXqXuXcXqXcXcXuXcXcXuXcXqXuXcXqXqXqXuXqXqXrXqXqXcXrXqXqXcXcXuXcXcX0XqXHXeXcXcXqXuXcXcXcXcXcXcXcXcXcXcXHXFXcXqXqXcXuXuXuXcXcXHXcXqXcXuXcXcX                                                                                                                                                                                                            cXcXuXcXcXuXcXuXqXcXqXqXuXFXFXcXqXqXuXqXqXcXuXcXcXcXqXqXqX5X5XqXqXcXcXcXcXuXcXcXqXcXcXuXqXcXcXuXcXcXcXcXcXHXcXuXDXcXcXDXHXqXcXcXcXcXcXcXcXuXcXcXcXcXcXqXqX",
"rXcXcXqXqXqXqXqXuXqXqXcXuXuXuXqXuXqXqXcXqXcXcXuXqXuXcXuXqX0XqXqXcXcXqXcXcXcXcXcXcXqXcXcXcXcXcXcXuXqXcXcXcXcXcXcXcXcXcXDXcXcXcXcXcXuXuXuXqXqXcXcXqXqXcXuXcX                                                                                                                                                                                                            cXcXcXcXcXqXuXcXqXcXqXcXcXcXuXcXuXqXcXqXcXcXqXcXcXcXuXqX5XqXqXqXuXqXcXcXcXcXeXuXcXcXcXqXqXcXcXHXFXcXcXcXFXFXcXcXDXcXcXcXFXcXuXuXuXcXuXcXcXcXcXcXcXcXcXuXuX",
"cXcXcXqXqXqXqXqXuXuXqXqXqXcXuXuXcXuXcXcX2XcXcXcXcXcXcXuXqXqXqXcXqXcXuXcXqXqXcXcXqXqXeXqXeXqXqXcXuXqXuXcXcXcXcXcXcXcXDXcXcXDXcXuXcXcXuXuXqXqXqXcXcXcXcXcXcX                                                                                                                                                                                                            uXcXcXcXcXuXcXqXuXcXcXuXcXqXqXcXcXcXqXuXqXuXqXqXuXqXcXcXuX5XqXqXqXqXqXcXcXcXcXcXcXFXHXqXqXDXHXPXcXcXcXuXcXcXcXcXcXcXcXFXDXcXcXcXcXuXcXcXcXcXcXuXcXcXcXqXuX",
"eXqXcXqXqXqXqXqXcXcXqXuXcXcXcXcXqXcXFXcXFXcXuXuXcXcXcXcXqXqXcXcXcXcXrXcXcX5XeXqXuXqXcXqXqXcXuXqXqXqXqXuXcXcXFXFXcXcXuXcXcXcXcXcXcXcXHXcXuXcXcXqXcXcXFXcXuX                                                                                                                                                                                                            cXcXqXcXuXqXcXqXcXqX7XcXcXcXcXuXuXcXuXuX2XuXcXcXHXuXeXeXqXqXqXrXqX2X2XqXcXuXDXHXcXcXcXqXuXcXcXcXeXcXcXcXcXcXcXcXHXcXDXcXcXcXDXcXuXcXuXcXcXcXcXuXcXuXcXcXFX",
"qXqXqXuXqXqXqXcXcXcXcX2XqXuXcXcXqXuXqXqXuXcXuXqXqXqXuXcXcXeXqXqXcXqXrXrXcXcXqXcXcXcXcXqXuXcXeXqXqXuXqXcXcXcXcXuXuXcXcXcXcXqXqXcXcXcXcXuXcXqXqXqXqXuXcXcXcXcXDXcXcXqXcXcXuXcXcXqXuXqXcXcXuXcXcXcXcXcXcXcXcXFXcXcXcXcXcXcXqXuXcXcXcXcXFXuXcXcXcXqXcXcXcXcXcXcXqXcXcXcXcXcXqXuXcXuXuXuXqXrXrXqXrXcXcXuXcXcXcXcXcXcXcXcXHXFXcXcXcXcXcXcXcXFXcXcXcXqXqXcXcXcXcXqXrXrXcXcXcXcXuXqXqXqXqXuXqXcXeX[.qXcXcXuXuXcXuXqXqXcXcXqXHXFXcXqXcXqXqXqXqXcXqXqXqXqXcXcXcXcXcXcXcXcXcXcXcXcXcXcXcXqXcXFXcXcXDXFXcXeXuXcXcXcXcXcXuXcXcXcXcXcXcXqXeXuX",
"qXuXcXcXuXuXuXqXcXcX5XqXqXqXqXuXcXcX2XcXuXuXcXqXqXqXeXeXeXrXcXcXqXeXqXqXqXcXuXcXcXcXcXcXcXuXeXqXqXcXcXcXuXcXqXqXcXcXcXcXeXqXqXqXqXcXcXuXcXuXqXqXqXuXuXFXHXcXcXGXcXcXrXqXqXcXuXuXqXqXqXqXuXcXcXcXcXHXcXFXFXcXcXcXcXcXcXcXcXcXcXcXcXcXHXcXcXcXcXeXqXqXuXcXcXuXcXqXcXcXcXcXqXuXcXcXqXeXqXqXcXcXrXcXcXuXcXcXcXcXcXFXcXcXHXcXcXcXcXcXcXcXcXcXHXFXHXFXcXFXFXcXcXcXcXrXqXqXcXcXcXcXqXqXqXuXqXcXcXqXqXcXuXcXcXcXcXcXqXqXuXcXcXFXFXqXcXcXcXcXeX0X2X7XqXqXqXqXcXFXuXcXcXcXcXcXuXcXcXcXcXeXuXcXcXcXDXuXqXcXcXcXcXcXuXcXcXcXcXcXcXcXcXuXeXcX",
"cXuXuXqXuXuXcXcXcXuXqXqXqXqXqXqXuXqXqXqXqXcXuXcXuXqXqXuXqXqXrXcXqXcXrXrXqXcXcXcXcXcXcXcXcXcXcXqXqXcXcXcXcXcXcXuXuXcXqXqXqXcXuXeXqXcXFXcXqXqXqXqXuXcXcXcXcXHXcXqXcXcXrXeXqXuXuXqXqXqXqXqXuXcXcXcXuXHXHXcXcXFXHXcXqXcXuXqXcXcXcXcXcXFXcXDXcXcXcXuXuXcXqXcXcXuXcXcXcXcXFXFXcXqXqXcXqXcXeXqXcXcXcXcXcXcXcXcXcXcXcXcXcXcXFXFXcXcXcXcXcXcXFXcXFXHXFXFXcXcXHXcXcXrXrXqXqXqXcXcXcX5XqXuXcXcXcXcXuXcXeXqXuXuXuXcXcXcXqXeXqXqXuXcXcXcXcXcXcXrXcXqXcXcXcXqXeX2X5XuXcXcXqXcXuXcXcXcXcXuXeXcXcXcXcXcXFXcX5XuXcXcXDXcXcXcXcXcXcXcXcXuXcXcXcXqX",
"qXuXuXuXuXqXqXcXcXuXqXqXeXqXqX5XqXqXuXqXcXqXqXcXcXuX5XcXrXqXqXrXcXqXqXqXqXeXcXcXuXcXcXcXcXcXcXcXuXcXcXcXuXqXqXqXuXqXuXqXqXuXcXcXqXcXuXuXqXuXcXqXqXqXcXHXcXcXHXcXcXcXcXcXeXcXcXuXqXcXcXqXqXuXcXFXcXcXcXcXcXHXcXcXqXqXcXqXcXcXcXcXcXcXcXcXcXuXeXcXcXcXcXcXcXuXqXcXuXcXuXcXcXuXuXqXqXqXqXqXqXcXcXqXcXcXcXcXqXcXcXuXcXcXcXFXcXcXcXcXcXcXcXcXcXcXHXcXcXcXuXcXuXqXqXqXqXrXuXcXDXcXcXqXqX2XqXeXuXtXqXeXeXcXuXcXcXcXcXeXqXqX5XcXcXcXqXqXqXrXqXeXrXrXqXqXeXcXuXqXuXcXqXcXcXcXcXuXcXuXuXuXcXcXcXcXcXcXuXcXcXcXDXDXcXcXcXcXcXcXcXuXcXeXuXcX",
"cXcXcXqXqXcXqXqXcXqX2XqXcXqXqXqXqXuXqXqXqXuXcXuXuXcXcXcXqXcXqXcXcXcXcXrXeXcXcXcXcXcXcXcXcXcXcXcXqXqXqXqXqXqXqXuXcXqXuXcXcXqXuXcXcXcXcXcXuXuXcXuXuXuXcXcXFXFXcXDXHXcXcXcXcXcXuXcXuXqXuXcXuXuXcXFXcXcXcXcXFXDXcXcXcXcXcXcXcXcXcXcXuXcXcXcXcXcXcXeXcXcXcXcXqXqXqXuXcXuXuXcXcXcXcXuXcXqXqXeXqXcXcXrXcXcXcXcXcXuXcXcXcXcXcXFXcXFXcXcXcXcXcXcXcXcXcXFXcXVXcXcXcXwXqXqXqXqXqXcXcXcXcXcXcXqXqXcXuXcXqXqXcXcXcXuXcXqXqXuXqXqXcXqXqXuXcXcXqXrXqXqXeXqXqXqXcXqXqXcXcXqXqXcXcXuXcXcXcXqXqXqXqXuXcXcXcXcXcXcXcXcXcXcXcXFXcXcXcXcXcXcXcXeXcXcX",
"cXcXeXqX0XqXqXqXqXcXrXcXrXqXqXqXqXuXuXqXuXcXcXcXcXqXqXqXqXrXrXcXrXqXcXcXcXrXcXcXcXuXcXcXcXcXcXqXqXqXqXqXrXqXqXqXqXqXuXcXcXuXcXcXcXcXcXcXuXcXcXcXuXuXcXcXcXcXDXcXcXcXcXcXcXcXrXcXcXuXuXcXcXqXuXcXcXuXFXcXcXcXcXHXcXcXcXcXcXcXcXcXqXuXcXHXcXcXcXDXcXqXeXrXqXqXcXrXuXcXcXcXcXuXuXcXcXcXuXqXcXcXcXcXcXyXtXyXcXtXcXcXcXuXcXcXcXcXcXcXcXcXcXcXDXcXcXcXcXcXcXcXcXrXcXqXqXeXuXuXcXcXcXcXcXcXcXeXqXqXcXeXrXqXcXcXqX2XqXqXqXuXuXqXuXcXcXqXqXuXcXqXqXqXuXuXcXFXqXcXcXuXcXqXrXcXcXcXcXqXqXqXqXcXuXuXcXcXcXcXcXcXcXcXcXcXcXcXcXcXcXcXrXqXcXcX",
"qXqXqXqXqXqXqXqXqXrXqXqXqXqXcXcXqXqXqXqXcX5XqXuXqXqXqXqXrXrXqXcXcXcXcXeXcXqXqXuXuXcXuXeXcXcXqX2XqXeXqXqXqXqXqXqXqXqXuXuXcXcXuXcXcXcXcXcXcXcXcXcXcXuXcXcXcXcXcXrXcXcXqXcXcXcXcXrXcXcXcXcXqXqXcXcXcXqXcXDXcXcXcXcXHXFXcXuXcXcXuXcXqXqXcXcXcXcXcXFXeXcXcXcXcXcXrXcXcXcXcXcXcXuXuXqXcXcXcXuXuXcXqXcXcXtXtXcXcXtXcXuXcXcXcXcXFXcXcXcXcXcXcXcXcXcXcXcXcXcXcXcXcXcXrXrXrXeXuXqXcXcXcXcXuXcXqX2X5XqXcXcXqXcXcXcXcXqXqXcXqXqXqXuXcXcXqXqXcXcXcXuXuXuXcXeXrXcXqXqXcX5XqXqXqXDXcXcXcXqXqXqXcXcXqXuXuXcXcXcXcXDXHXcXcXcXDXcXcXcXcXcXrXqXeXcX",
"qXqX6XcXcXqXcXrXqXqXqXcXrXqXcXqX6XuXqX6XuXuXqXqXcXqXqXcXcXqXqXeXcXrXqXeXqXcXcXcXuXqXcXcXcXeXqXqXqXrXqXrXqXcXqXqXuXuXcXcXuXqXqXuXcXqXcXcXcXcXcXcXcXuXuXcXcXcXcXcXcXrXqXqXcXcXcXcXcXuXcXcXqXqXuXcXFXqXuXcXcXcXcXcXcXDXDXcXuXcXuXcXcXqXcXcXcXcXcXcXcXcXcXcXcXcXcXcXcXcXcXcXcXcXqXuXcXFXcXqXuXeXqXcXcXtXqXqXtXcXcXqXcXcXcXcXFXcXuXcXcXcXcXcXcXcXcXcXcXcXcXcXcXcXcXrXeXcXcXuXHXcXcXcXcXcXcXqX5XcXcXcXcXqXqXcXcXcXcXcXcXcXuXuX5X2XqXqXqXcXcXuXuXcXuXqXqXcXuXcXqX2XqXcXcXcXcXcXqXcXqXqXqXqXeXcXcXcXcXuXFXcXcXFXcXcXcXcXuXcXcXcXcXrXcXcX",
"cXcXcXcXqXqXrXcXcXqXeXqXrXcXrXqXqXcXqX2XqXcX5XqXuXqXeXcXeXrXqXeXqXrXrXrXrXrXcXcXcXqXcXcXcXqXqXqXrXrXqXrXeXcXqXqXuXqXqXuXqXqXqXcXqXqXcXcXuXqXqXcXuXuXcXcXcXcXcXcXcXcXqXqXqXcXcXcXcXcXcXuXcXcXcXcXFXqXeXFXcXcXcXcXcXcXcXDXcXcXcXcXcXuXcXcXcXcXcXcXcXcXeXeXrXrXcXcXcXuXcXcXcXuXqXqXcXcXcXqXqXuXuXcXcXcXtXtXqXtXuXcXcXcXuXcXDXcXcXcXcXcXcXFXcXcXFXcXeXcXcXcXcXcXrXGXcXcXFXFXFXcXcXcXqXuXcXcXuXcXcXcXcX6XqXuXcXuXcXcXcXcXcXcXqX5XeXcXcXcXqXcXcXuXcXcXqXcXcXcXqXqXcXcXrXcXcXeXqXcXqXeXqXqXuXcXcXcXcXuXeXcXcXcXcXcXDXcXcXcXcXcXcXcXrXcX",
"cXqX2XqXrXrXqXrXcXcXcX2X4XcXrXcXcXtXcXcXuXcXqXqXcXcXuXuXeXrXqXqXcXcXrXcXcXqXeXqXqXuXeXcXcXrXrXqXcXrXqXqXqXqXqXqXqXuXqXqXqXqXuXcXcXqXcXcXqXqXqXuXqXqXcXuXcXcXcXcXcXcXcXqXqXrXcXcXcXcXcXcXcXcXcXcXHXqXcXHXFXcXuXcXeXcXcXcXcXcXcXcXcXcXuXcXcXcXcXcXcXcXcXqXeXeXqXrXeXuXcXuXcXcXqXqXuXuXcXuXuXuXuXuXuXcXcXcXcXcXuXqXcXuXcXDXcXcXHXFXcXcXcXDXuXcXcXeXcXcXcXcXcXcXcXDXcXrXqXcXcXcXcXuXcXcXcXcXuXcXcXrXcXcXqXcXqXuXcXcXuXqXqXqXFXHXcXuXcXcXuXuXuXcXFXcXcXuXcXcXqXqXqXrXqXqXcXqXeXuXuXcXuXcXcXcXcXcXcXqXcXcXcXcXcXcXcXcXcXcXcXcXcXcXcXcX",
"rX0XqXqXrXqXrXqXcXcXqXcXqXrXrXeXcXuXcXqXqXqXrXqXeXcXcXeXuXqXqX6XqXqXcXeXeXrXqXqXcXqXqXcXrXqX0XqXcXrXqXqXqXqX2XqXqXqX5XqXuXqXcXcXuXqXcXcXcXcXcXcXuXcXcXcXFXDXcXuXcXcXcXcXcXeXcXcXuXcXcXuXcXeXcXDXFXqX5XcXuXuXqXcXcXcXcXcXFXcXcXcXuXcXcXuXcXcXuXcXcXcXcXcXeXcXcXeXcXcXcXcXcXcXcXqXuXuXuXcXcXcXcXuXcXcXcXcXuXcXcXqXcXqXuXuXcXcXcXcXcXcXcXcXqXqXcXqXqXcXcXcXcXcXFXcXcXcXcXuXqXcXqXuXcXcXcXcXqXeXeXcXcXcXDXcXqXcXcXcXcXqXqXuXuXuXqXuXuXuXcXuXqXcXcXcXqXcXuXqXqXqXqXcXeXqXrXcXqXrXcXcXcXcXcXcXFXcXcXcXcXcXcXcXcXuXuXuXuXeXeXcXcXcXqXrX",
"cXrXqXcXrXqXcXrXeXrXcXqXrXcXrXqXcXuXuXcXqXcXcXrXqXeXcXqXqXqXqXqXqXqXuXqXqXuXqXqXqXqXcXcXcXqX0X2XqXqXqXqXqXcX2XqXqXqXqXqXuXqXcXcXuXcXcXcXcXuXuXcXcXcXcXcXcXcXcXuXcXcXqXqXqXuXeXcXcXuXcXcXcXqXqXcXFXcX2XcXqXuXqXcXcXcXDXcXDXHXcXcXcXcXHXFXuXcXcXuXcXuXqXcXeXcXcXcXcXDXcXcXcXcXcXqXqXuXuXqXcXcXcXqXuXcXcXcXuXuXcXuXuXcXcXcXqXqXqXqXqXcXcXcXcXcXqXcXcXcXcXcXcXcXcXcXcXuXqXuXqXuXqXuXqXcXcXcXuXeXcXcXcXcXcXcXcXcXHXcXcXFXuXuXuXcXcXuXuXuXuXuXcXuXqXcXuXcXcXuXqXqXqXrXqXcXqXrXcXqXeXeXcXcXcXcXcXuXcXHXcXcXcXcXcXcXuXqXqXuXeXqXeXcXuXcX",
"cXcXqXcXqXeXrXcXcX0X0XqXcXcXqXqXcXuXuXeXcXuXcXcXqXqXqXqXcXcXqXqX2XuXcXcXuXcXuXqXqXeXcXcXHXcXqX0XqXqXqXqXqXcXqXqXqXcXuXqXqXqXqXuXcXcXeXuXcXcXcXuXcXFXcXqXuXqXcXcXcXqXqXqXqXcXcXcXDXcXuXcXqXqXuXcXFXHXqXcXuXuXuXcXcXcXcXcXcXFXcXcXcXcXcXcXcXcXcXqXuXqXqXcXcXcXcXcXcXeXcXcXcXcXcXqXqXcXuXqXuXcXcXqXuXcXcXcXcXcXqXuXuXcXcXcXqXqXcXqXrXcXcXqXeXcXrXcXFXcXcXcXcXcXDXcXcXcXcXcXcXqXuXeXuXuXuXqXqXqXeXcXcXcXcXcXcXcXcXHXHXHXFXcXcXcXtXuXuXqXtXqX2XuXuXuXcXcXcXcXuXqXeXqXqXrXcXrXqXqXqX2XqXcXqXcXqXuXuXDXcXcXqXuXqXeXqXqXcXuXuXcXuXcXuXcX",
"cXcXcXqXcXcXrXcXqXeXqXqXeXeXcXcXcXqXqXqXqXqXcXcXcXrXeXcXuXcXuX7X2XcXcXcXuXqXqXuXcXcXqXqXcXcX2XqXqXcXqXqXrXcXcXcXuXuXuXuXuXqXqXuXcXqXcXcXuXcXcXcXqXcXHXuXcXqXqXqXcXcXuXcXcXcXcXcXcXcXcXcXqXqXuXqXcXFXcX5XcXuXqXcXcXFXcXcXHXHXcXcXcXcXcXcXcXcXcXcXcXuXuXcXqXqXcXFXcXeXeXeXrXqXcXqXqXeXcXeXeXcXcXcXqXcXcXcXuXeXqXuXcXcXcXcXcXcXcXrXcXqXqXqXcXqXqXcXcXcXcXuXcXFXcXeXHXuXcXcXcXcXcXqXqXcXuXuXqXuXuXcXcXcXcXcXcXcXcXcXcXcXcXFXcXcXcXcXcXuXqXqXqXqXuXqXqXuXcXcXcX2XeXcXqXqXcXqXqXqXcXcXqXqXqXqXqXcXqXuXcXqXqXqXqXuXqXuXuXuXcXuXqXcXcXcX",
"cXcXeXcXcXcXcXqXDXrXrXeXrXrXcXcXeXcXqXqXqXqXcXcXrXcXcXqXcXuXcXqX5XeXqX5XqXcXcXuXcXuXqXuXqXqXcXqXqXqXqXqXqXqXcXcXuXuXuXcXuXqXcXuXcXuXqXuXcXuXcXcXqXcXFXcXcXDXcXcXcXuXcXcXcXcXcXcXcXcXcXuXcXqXqXcXcXFX2XqXDXuXuXcXcXcXDXHXHXHXFXcXcXeXcXcXcXcXuXuXcXuXuXcXuXuXcXcXcXqXcXcXcXcXuXqXcXqXcXcXeXcXcXqXqXcXcXcXcXcXcXuXtXcXcXcXcXcXqXqXrXrXcXqXcXcXqXeXqXeXcXeXuXcXcXcXcXqXcXcXcXcXuXuXqXcXcXcXcXuXcXuXcXcXcXcXcXcXcXcXcXcXcXcXcXuXcXcXcXcXeXqXcXcXqXcXcXuXcXcXcXuXqXcXqXqXcXcXrXqXqXqXcXeXqXqXcXqXuXFXuXcXcXcXqXqXcXqXqXeXuXqXqXuXuXFX",
"cXcXqX0XqXqXcX2X7XeXqXqXcXcXcXcXqXcXcXqXqXqXuXcXeXcXcXeXcXcXcXqXqXcXcXqXqXcXuXqXuXuXcXcXqXqXcXcXcXrXcXcXcXcXcXcXcXcXcXcXuXcXcXcXcXuXcXuXcXcXcXcXcXcXcXuX2XqXqXcXuXcXcXuXcXcXHXHXDXcXcXcXcXcXqXcXcXcX2XcXHXHXcXcXuXcXcXFXFXHXHXDXDXcXcXcXcXuXqXqXcXcXcXcXcXcXcXcXcXcXcXcXcXcXqXqXcXcXeXcXcXqXcXcXqXuXcXuXuXFXcXqXcXcXcXcXFXcXcXDXqXcXcXrXcXrXrXeXuXcXcXuXuXuXuXcXcXcXcXuXcXcXuXcXqXqXcXcXqXcXuXcXcXuXcXqXeXcXrXcXcXcXcXcXuXqXcXcXuXcXuXuXuXuXqXqXcXcXcXqXqXuXqXcXrXrXeXcXcXqXqXqXqXqXqXqXqXqXuXcXuXqXqXcXqXqXqXuXcXeXcXuXqXqXqXuX",
"cXcXDXHXqXqXqXqX5XqXcXuXcXeXcXcXcXcXuXuXcXcXqXcXcXcXcXcXqX5XqXqXcXcXcXcXuXcXuXcXcXFXuXqXqXcXcXeXuXcXcXcXcXcXcXcXcXcXcXcXcXcXcXcXcXuXqXuXcXcXqXcXHXcXDXDXuXqXqXcXuXuXcXcXcXcXDXFXcXDXcXcXcXcXcXqXcXuXcXFXFXDXDXcXcXcXcXcXcXcXrXHXFXeXcXcXuXqXuXcXuXcXcXcXcXcXcXcXcXcXrXqXcXcXqXuXcXcXuXcXcXuXcXcXcXuXeXcXcXuXqXcXcXcXcXqXuXcXqXcXcXqXqXqXqXcXcXcXcXcXuXuXqXcXFXcXcXcXcXuXcXcXcXqXqXqXcXcXuXuXuXuXuXuXuXqXqXcXcXcXcXuXuXuXcXFXcXcXcXcXcXuXcXuXcXcXcXqXuXuXqX2XcXcXqXuXqXqXcXuXqXqXqXqXqXqXcXcXqXuXeXqXqXqXqX5XqXuXqXqXcXuXuXqXqXcX",
"cXcXuXcXqXeXcXcXcXcXFXcXDXcXqXcXcXcXcXcXcXcXuXcXcXcXcXcXuXqXqXcXqXqXcXcXcXcXcXcXuXcXcXcXcXcXcXcXqXcXcXuXcXeXqXcXcXcXcXcXuXqXcXcXqXcXuXeXuXcXcXcXcXcXcXqXuXcXqXqXqXqXcXcXqXcXcXqXcXcXcXcXcXcXcXcXcXcXDXHXFXcXcXcXcXeXcXcXcXcXDXcXcXqXcXuXcXqXcXcXuXcXtXcXcXcXcXcXcXuXcXcXcXcXuXqXcXcXcXcXcXcXcXuXuXcXcXcXcXcXcXqXcXcXcXcXqXcXcXqXcXcXrXcXqXqXcXcXuXcXuXqXuXuXcXcXFXcXuXeXcXcXcXcXqXuXcXcXcXcXcXcXcXcXqXqXqXrXrXcXcXcXcXcXcXcXcXcXcXcXcXuXcXcXcXcXcXqXuXqXqX2XuXcXqXqXuXqXqX5XqXqXuXqXqXcXcXuXuXcXuXcXqXqXqXcXcXcXuXuXqXuXcXeXcXcX",
"cXqXuXqXqXqXcXeXuXcXcXcXcXDXcXqXcXcXcXcXcXcXcX2XqXuXcXuXqXcXFXqXqXcXcXcXHXcXcXcXeXqXcXHXFXcXcXHXuXuXcXuXeXuXqXcXcXcXcXuXcXqXqXuXqXcXcXqXcXcXcXcXcXcXuXuXcXcXqXqXuXeXuXcXcXcXcXcXcXcXcXcXcXcXcXFXcXcXcXcXcXFXcXcXuXqXcXcXcXcXDXcXHXcXuXcXuXuXcXcXuXcXcXcXcXuXqXcXcXuXuXcXqXqXcXcXcXcXcXcXuXeXcXcXuXqXcXcXqXcXcXcXcXcXcXcXqXcXcXcXcXqXqXqXcXcXqXqXuXcXuXuXqXcXcXcXcXcXeXeXcXcXcXcXcXuXcXcXcXcXcXcXcXcXrXrXeXcXcXeXuXcXcXcXcXuXuXcXcXcXcXcXcXcXcXcXcXcXcXuXqXcXcXuXqXqXcXqXqX5XqXqXqXqXcXqXuXqXuXqXcXcXcXcXuXcXuXuXqXuXcXcXcXcXcXDX",
"uXcXcXuXqXqXcXcXcXcXcXFXcXcXcXuXcXcXHXcXuXcXcXuXqXcXcXcXqXqXcXuXqXcXcXuXuXuXuXuXcXuXcXcXcXcXcXHXcXqXuXuXuXuXcXuXcXcXcXcXcXuXqXqXqXuXcXqXcXcXuXcXcXcXuXqXqXuXcXcXcXcXcXcXcXFXcXHXcXcXcXcXcXcXcXcXcXDXcXcXuXcXFXcXcXcXcXcXcXeXcXcXcXcXuXuXqXcXcXcXcXuXcXcXcXcXcXeXcXuXuXcXcXcXcXHXeXcXcXuXcXcXcXcXcXcXuXcXqXcXcXcXcXcXHXcXtXqXqXuXqXeXqXqXcXcXeXqXqXqXqX5XqXcXuXcXDXFXcXcXcXcXcXcXcXuXuXuXeXcXcXcXcXqXcXcXcXcXcXHXcXqXuXcXcXcXcXcXcXcXcXcXcXcXcXcXFXcXcXcXcXcXcXuXqXqXqXqXuXcXqXqXqXcXcXcXeXqXuXuXcXcXcXcXcXcXcXqXqXuXcXcXcXcXuXcX",
"uXcXqXuXcXcXcXcXcXcXqXqXcXcXcXcXcXcXcXFXcXuXuXeXqX5XqXqXqXqXuXcXeXcXcXuXuXcXcXqXcXcXcXcXcXcXuXcXcXuXuXcXcXcXcXcXcXuXcXcXuXcXcXcXcXcXcXcXcXuXuXcXcXcXcXcXcXuXcXuXqXuXqXqXqXcXcXuXcXFXcXuXcXcXcXcXcXcXcXuXcXcXcXcXcXcXrXeXcXcXcXcXuXcXHXuXqXcXcXuXuXuXuXcXcXuXqXcXcXcXuXcXuXuXcXcXcXcXcXcXcXcXcXuXcXuXqXuXuXcXcXcXcXcXcXcXcXqXqXqXqXuXqXqXqXcXeXuXqXqXqXqX5XqXcXcXcXDXcXcXcXcXcXcXcXcXFXcXcXuXqXqXuXcXcXcXqXqXcXqXcXuXuXcXuXuXuXuXuXcXcXcXcXcXcXcXcXFXcXuX5XcXuXqXqXqXuXqXqXcXqXqXcXcXuXcXcXuXcXqXqXcXcXqXcXcXcXcXcXuXcXcXcXcXcXHX",
"qXcXqXcXcXcXcXcXcXcXcXuXcXcXcXuXcXcXqXcXuXHXuXuXuX2XqXqXqXcXqXcXcXqXcXcXcXqXqXuXeXqXcXqXqXqXuXqXcXcXcXcXcXcXuXuXcXcXcXeXqXcXcXcXuXcXcXcXcXcXcXcXHXcXcXcXFXcXcXcXuXqXcXqXqXcXcXcXcXcXcXuXFXcXcXcXcXuXcXcXcXuXuXqXqXcXcXqXrXcXcXcXcXcXHXcXcXuXeXuXeXqXuXcXcXcXcXcXcXcXcXuXcXuXeXeXeXcXcXuXcXcXcXqXuXcXcXeXcXcXcXcXeXeXqXcXcXcXcXqXcXqXqXqXqXcXcXcXcXcXuXqXqXqXcXcXcXcXcXcXcXcXcXcXcXcXHXcXeXcXqXqXcXcXcXcXcXcXqXqXuXuXcXcXcXcXVXcXtXcXcXcXcXuXcXcXcXDXcXuX2XHXcXcXqXqXuXeXqXcXtXcXcXuXuXcXcXcXqXcXeXqXcXcXcXqXcXuXcXuXHXqXqXcXcXHX",
"qXcXcXcXcXcXuXqXcXcXcXcXcXcXcXcXuXuXuXcXcXcXqXcXuXqXqXqXqXqXqXcXqXqXqXcXcXuX2XqXqXqXcXHXcXuXcXuXuXcXcXuXcXuXqXqXcXcXrXeXeXqXqXeXcXcXcXcXcXcXuXcXcXcXcXcXcXcXcXcXcXcXcXcXcXcXcXcXcXcXcXcXFXcXcXcXcXcXcXcXcXcXcXcXcXcXcXcXcXcXcXcXcXHXcXcXHXFXcXcXeXcXcXuXcXcXcXcXtXcXyXtXcXcXrXeXrXqXeXcXcXcX2XcXcXrXcXcXcXcXcXuXuXuXcXcXcXcXcXcXuXcXqXeXcXcXuXcXcXcXcXqXqXrXrXqXrXcXcXcXqXcXcXcXDXcXFXcXuXuXqXcXcXcXcXcXcXuXqXqXcXuXuXFXcXuXFXcXcXcXcXcXcXuXcXuXqXuXcXcXqXHXcXqXqXqXqXqXtXcXcXcXtXtXuXtXcXqXqXqXuXqXcXcXcXcXcXqXqXcXuXuXqXcXcXFX",
"uXcXuXcXqXqXuXuXuXuXcXcXcXcXcXcXcXqXcXcXcXqXuXqXqXuXcXqXqXrXcXqXrXqXqXqXcXcXcXqXqXqXcXcXFXqXcXcXcXcXcXuXcXcXcXqXqXeXeXqXeXqXcXcXcXFXcXuXcXcXcXDXcXcXcXcXcXcXcXcXcXcXcXcXcXcXcXcXcXcXcXcXcXuXcXuXcXFXcXcXcXcXcXcXcXcXcXcXcXcXcXcXcXcXcXFXFXHXHXDXcXFXcXcXcXcXcXcXqXqXtXtXcXcXeXcXcXrXcXcXcXcXcXcXcXcXcXcXcXcXcXcXcXcXcXcXcXqXqXuXqXcXuXqXuXcXqXcXcXuXcXcXeXcXrXrXcXqXqXuXqXcXcXcXcXcXcXHXcXcXuXcXcXcXcXcXcXcXcXqXqXqXcXcXcXqXuXcXuXcXcXcXcXuXcXcXcXcXuXuXuXuXcXcXcXcXcXcXqXqXcXcXcXcXuXuXuXqXqXqXqXqXuX5XeXcXcXqXcXcXcXcXcXcXcXHX",
"cXcXcXcXcXuXuXcXuXcXcXcXFXFXcXcXcXqXqXcXcXqXcXqXqXuXuXcXcXcXqXqXqXqXeXcXqXcXcXqXqXcXcXqXqXuXqXuXcXcXqXcXcXqXcXuXqXcXeXqXeXcXuXcXcXcXcXcXcXuXcXcXuXcXcXcXcXqXqXuXcXcXqXrXrXrXcXcXcXcXcXcXcXuXuXcXcXcXcXcXcXqXcXcXuXcXcXcXrXcXcXcXcXcXcXDXHXcXcXcXcXcXcXcXcXcXcXcXqXqXcXtXqXcXcXeXcXcXrXqXeXqXqXcXcXcXeXrXrXrXcXcXcXcXcXcXcXcXqXqXHXcXcXqXqXqXqXcXeXcXrXcXqXqXrXqXqXcXcXqXqXcXuXqXcXcXqXcXuXqXcXcXcXcXcXcXcXcXFXFXcXcXFXcXuXqXqXcXuXcXcXcXcXcXcXcXFXcXcXcXuXcXcXcXcXuXcXcXqX2XqXcXVXcXqXqXqXuXqXqXqXqXqXuXqXuXqXuXcXcXcXcXuXcXcXcX",
"eXcXFXuXuXHXuXuXuXcXcXcXcXcXcXcXcXcXuXcXqXqXuXeXqXqXqXrXqXrXqX0XqXqXqXDXcXqXcXqX2XcXcXuXeXcXcXcXqXuXqXqXHXcXqXcXcXDXcXcXrXqXcXqXuXcXcXcXcXqXqXuXcXcXuXcXuXqXcXuXqXuXcXcXqXrXqXrXeXcXcXcXcXqXqXcXcXcXcXcXqX6XuXcXuXeXcXqXqXrXcXcXcXDXFXHXHXcXuXcXcXcXcXcXcXcXcXcXcXcXcXcXqXcXcXcXrXcXcXqXuXuXcXcXcXqXrXrXqXcXuXcXcXuXcXcXcXqXqXuXcXcXcXqXqXqXuXrXeXcXqXcXrXcXcXqXqXeXqXqXcXqXcXcXqXqXqXqXqXcXFXVXcXcXFXcXFXcXHXDXcXHXFXHXcXcXuXuXuXqXqXqXcXuXuXcXcXcXcXuXcXcXFXcXcXuXcXHXcXqXyXqX8XqXcXcXqXqXqXqXqXqXuXuXuXuXqXcXcXcXcXuXcXqXcXHX",
"cXuXcXcXcXDXcXcXcXcXcXcXqXuXcXcXHXcXcXcXcX2XqXcXqXqXqXeXrXqXqXcXqXeXuXuXqXcXcXqX5XuXcXcXuX5XqXqXqXcXcXcXcXcXcXFXcXcXGXcXcXqXuXcXqXcXcXcXcXcXDXcXcXcXuXcXcXuXcXuXqXqXcXcXcXqXcXcXcXcXuXuXqXqXqXuXcXcXHXcXqXuXqXcXcXqXcXcXrXrXrXeXcXcXcXcXcXcXcXcXcXcXDXFXcXcXcXcXcXHXVXcXqXyXcXeXrXqXcXcXuXcXcXcXcXeXqXrXeXcXcXcXuXcXcXcXuXqXqXuXqXuXcXqXcXcXcXrXqXcXcXcXcXcXrXcXqXqXqXuXqXqXqXcXuXuXeXqXcXFXcXcXcXcXcXuXcXFXcXcXFXFXHXHXcXVXcXuXuXuXuXuXcXcXuXcXcXcXcXuXcXFXFXcXqXcXcXcXcXcXyXqXqXqXqXcXuXqXqXqXqXqXcXqXqXcXqXuXeXqXcXcXcXcXcXHX",
"rXqXcXcXGXcXcXcXcXqXqXcXcXyXqXqXqXrXcXcXqXqXqXqXqXqXcXqXqXqXrXcXqXqXuXqXcXuX5XqXcXcXcXcXqXcXcXqXcXuXcXcXqXuXcXDXcXcXcXFXuXcXqXcXcXqXcXcXcXuXqXuXcXDXcXeXcXqXqXuXcXcXcXcXcXqXqXqXcXeXqXcXqXqXqXqXrXcXGXqXqXcXuXuXeXuXcXcXrXqXeXcXcXcXcXcXcXcXcXcXuXcXDXcXcXcXcXrXcXHXHXcXcXcXuXcXcXuXqXqXcXqXrXcXcXqXqXrXcXcXuXcXuXuXcXqXqX2XqXqXcXuXcXuXcXuXcXcXeXrXrXrXcXqXqXrXqX2X2XqXcXqXqXqXrXrXeX2XcXcXcXHXcXuXuXuXuXcXcXFXFXFXHXHXHXDXcXcXcXuXqXuXuXeXcXcXFXcXcXqXcXcXcXcXuXqXcXcXcXcXcXuXqX5XqXcXcXuXqXqXuXqXcXqXqXcXqXqXuX5XqX5XqXqXuXFX",
"cXcXcXqXqXcXcXcXuXqXqXqXcXqXqXqXqXqXeXeXrXcXqX2XqX2XqXcXqXqXrXqXcXcXcXuXcXqX5XqXqXqXqXcXuXcXcXFXFXcXDXcXcXcXcXcXcXcXcXcXFXcXcXcXcXcXFXcXcXcXuXuXcXDXeXcXcXcXqXeXuXcXcXcXcXqXqXqXeXqXuXqXqXuXcXcXcXqXcXqXcXcXcXcXcXcXcXcXrXqXqXcXcXcXcXcXGXcXcXFXcXcXeXcXcXcXcXcXcXcXHXHXcXcXqXcXcXuXqXcXcXqXqXcXcXeXrXcXcXcXcXuXcXcXqXqXqXqX2XqXcXqXcXcXcXcXcXeXqXqXcXqXrXrXqXrXeXqXqXqXwXqXqXqXcXeXqXqXqXqXcXFXDXuXuXuXuXcXcXHXHXHXHXHXHXFXcXFXFXcXcXuXqXcXDXcXHXHXcXcXFXcXcXcXcXqXuXuXcXcXqXcXqX5XqXcXcXcXqXqXuXqXcXcXcXcXcXqXqXqXqXqXcXqXqXcX",
"eXcXrXqXcXcXcXcXcXqXqXqXyXcXqX2X2XqXqXqXcXrXqXcXuXcXqXqXqXqXqXcXeXcXqXeXcXqXuXcXcXqXqXeXcXqXqXcXcXDXFXcXcXcXcXqXcXcXcXuXcXFXcXcXFXHXHXHXcXHXLXFXHXcXcXcXqXqXuXuXqXqXqXqXqXrXrXqXqXqXuXuXqXqXcXcXrXcXGXeXcXcXcXcXcXcXcXcXeXcXcXcXcXcXcXcXcXuXcXFXFXFXDXcXcXcXcXDXcXcXcXcXcXcXqXcXqXuXcXqXqXeXqXrXcXcXcXcXcXcXcXqXqXqXcXcXqXcXcXqXcXuXqXuXeXcXcXqXcXqXqXqXcXqXqXcXcXrXrXwXqXqXqXqXrXqXrXeXqXqXcXHXcXqXuXqXcXcXFXHXHXHXHXHXDXDXFXFXHXHXHXcXuXcXDXcXFXFXHXDXHXDXcXcXHXcXqXcXqXqXuXcXqXcXcXuXqXcXqXqXqXcXqXuXcXcXqXcXcXqXqXqXuXcXcXHX",
"cXcXcXcXcXqXuXcXcXqXcXwXcXcX2XqXqXqXqXcXrXcXcXcXqXqXuXqXqXqXrXcXqXqXcXcXcXcXuXcXeXqXcXqXcXcXeXqX2XcXcXDXcXcXcXqXHXcXcXuXDXcXcXcXFXPXHXHXFXHXHXFXHXqXqX0XcXqXqXcXuXqXqXqXqXqXqXqXqXqXqXuXuXqXcXcXrXcXcXcXcXcXcXcXcXcXcXcXcXcXeXcXeXcXcXcXcXcXuXcXcXcXDXDXcXcXcXcXcXcXcXcXcXcXcXcXcXeXcXcXcXcXcXeXcXcXcXeXeXcXcXcXcXuXcXFXqXqXcXqXcXcXuXuXuXcXcXrXeXcXeXcXcXqXqXqXrXqXyXqXqXqXyXqXqXqXrXqXqXqXcXcXFXcXcXcXcXcXcXHXHXHXcXHXFXHXHXHXHXHXDXcXcXuXcXcXcXcXcXcXcXcXcXcXFXHXeXcXcXcXcXeXqXqXcXcXcXuXuXuXuXcXqXqXqXcXcXcXcXqXcXqXqXqXqXcX",
"cXcXcXeXcXqXqXcXcXcXuXwXyXyXqXcXqXqXqXqXqXrXcXqXqXuXeXuXqXqXcXcXqXqXcX2X7XqXcXqXqXcXqXqXcXcXcXqXqXqXcXcXcXuXqXuXqXcXFXuXcXcXcXcXFXHXLXHXLXFXFXFXcXcXqX2XcXcXcX2X2XqXuXqXqX2XqXqX0XqXcXqXqXcXqXqXqXcXcX0XcXFXcXcXcXDXcXcXcXcXcXcXcXcXcXqXqXcXcXcXcXcXcXcXFXcXcXcXcXcXcXcXcXcXcXcXcXqXqXcXrXrXcXrXqXcXrXwXcXcXcXuXqXuXcXFXcXqXqXuXuXqXcXcXqXcXcXqXqXqXcXcXqXcXcXqXqXrXqXqXqXqXqXcXcXqXcXcXeXuXcXcXcXcXuXcXcXqXqXcXcXFXHXDXHXFXDXcXcXGXGXHXcXcXcXDXcXcXcXcXcXcXcXcXcXHXcXcXcXHXcXcXFXFX2XqXcXcXqXuXuXuXqXcXuXcXcXuXcXqXqXuXuXqXqXcX",
"cXrXqXqX6XqXqXDXHXqXqXqXcXqXcXcXcXqXcXrXqXqXqXqXuXqXuXqXqXcXcXcXcXqXqXqXqXcXtXcXcXcXrXqXcXcXcXcXcXcXcXcXcXcX5XcXqXFXHXqXuXuXcXDXHXHXHXHXcXFXcXcXcXcXcXDXcXcXcXqXqXcXqXqXqXrXcXqXrXcXqXcXcXqXcXcXcXcXcX2XcXcXcXcXcXcXcXuXcXeXcXcXrXqXcXcXcXcXcXcXcXcXuXVXFXFXcXDXcXHXcXeXqXcXcXcXcXqXuXcXcXqXqXrXcXcXqXcXcXcXcXcXcXuXFXuXcXqXqXqXqXcXcXcXcXcXuXqXqXqXcXHXHXcXeXqXqXqXqXqXqXqXqXcXcXqXeXqXqXqXuXcXcXuXcXcXcXqXeXcXHXcXDXcXHXHXcXcXHXDXDXDXcXcXeXcXDXuXuXcXcXcXcXDXcXcXcXcXcXcXFXcXHXHXqXqXqXqXcXcXcXcXcXcXcXeXuXuXuXqX5XqXcXeXcXHX",
"qXcXcXcXcXeXcXDXcXuXuXqXcXcXcXcXcXeXcXcXqXcXqXuXqXqXqXqXuXqXqXeXcXcXuXcXcXcXuXeXqXqXeXcXcXcXqXcXcXcXcXcXqXcXcXcXuXcXcXcXcXuXFXcXHXHXFXcXcXcXcXcXcXcXcXcXcXuXeXqXcXcXqXrXcXqXrXcXqXqXqXcXcXqXqXcXcXcXcXqXcXcXcXcXcXcXcXcXcXcXuXcXrXrXrXcXcXuXcXcXuXcXcXDXFXDXcXcXGXcXDXqXrXcXcXcXuXcXqXuXcXcXcXcXcXcXcXcXcXcXcXcXcXcXcXtXyXqXqXqXqXqXuXuXcXcXDXrXeXrXcXHXHXqXeXqXqXqXqXqXqXqXqXuXqXrXrXcXqXqXqXcXcXcXcXcXuXqXqXcXHXHXFXcXcXHXDXcXcXcXHXcXcXeXcXcXcXqXqXcXDXcXFXcXHXcXHXDXcXqXuXcXcXcXqXuXuXqXqXcXcXcXcXqXeXqXcXcXqXqXcXqXqXuXuXHX",
"cXcXcXcXcXcXcXeXuXcXqXuXcXcXcXuXqXrXqXqXcXcXqXqXcXcXcXuXcXqXqXcXqXuXcXuXcXcXqXcXcXcXcXcXcXuXqXcXcXcXcXcXcXqXcXcXcXDXeXcXcXDXHXcXcXcXcXeXqXuXcXcXcXFXcXcXcXcXcXcXqXcXcXrXqXrXcXcXqXqXuXqXqXqXeXeXqXcXcXqXuXHXcXFXDXcXcXcXcXcXcXcXcXcXqXqXqXcXcXcXcXcXcXcXcXcXFXcXcXcXDXrXqXcXcXuX2XcXcXcXcXeXrXcXcXcXuXuXqXDXcXcXcXcXcXcXcXcXqXqXqXcXcXcXcXDXHXqXeXcXqXcXcXqXuXqXqXqXqXqXcXqXcXcXcXcXcXcXcXuXuXqXuXqXcXcXqXuXcXHXFXHXHXHXHXcXFXFXcXcXHXHXqXcXcXcXqXuXqXcXHXcXcXcXFXDXcXHXcXcXcXcXcXcXuXqXqXuXuXqXcXcXcXuXcXuXcXcXcXqXuXqXeXcXcXcX",
"cXcXcXcXcXcXcXcXqXcXuXuXcXcXcXcXcXcXcXqXrXcXqXeXcXuXcXcXcXcXcXcXqXuXcXqXcXuXqXcXcXcXrXrXcXcXcXcXcXqXuXuXuXcXqXuXuXqXcXHXFXHXHXHXHXcXcXcXcXcXcXcXcXcXcXuXcXcXcXcXqXqXqXeXcXqXqXcXqXqXqXqXqXuXuXqXqXqXcXcX5XHXuXcXcXcXuXcXcXcXFXcXcXrXcXcXcXqXcXcXcXcXDXFXcXFXcXFXHXHXcXcXcXDXcXcXqXcXcXcXcXcXqXrXrXcXcXqXqXcXuXcXcXcXcXcXqXqXcXcXcXqXcXcXuXcXcXrXrXqXqXqXcXqXcXuXqXqXqXqXcXqXqXqXqXcXcXcXcXcXcXqXqXqXcXcXHXcXcXHXHXDXHXHXHXHXFXcXcXcXcXcXcXcXcXcXcXcXDXcXcXcXcXcXcXcXcXFXcXcXcXqXcXuXuXuXuXcXcXqXcXuXqXuXcXcXDXcXqXqXqXuXqXqXuXcX",
"cXcXcXcXcXcXcXcXcXqXqXcXuXcXcXuXcXcXcXcXcXrXcXcXuXcXuXcXuXcXcXcXqXqXeXuXcXcXcXDXcXcXcXrXcXFXcXcXcXcXcXcXqXuXcXqX5XqXHXHXcXuXcXHXHXcXcXcXcXcXFXcXcXcXcXcXcXcXcXcXqXqXqXrXqXqXqXqXrXqX5XqXqXcXqXrXcXqXrXcX2XHXcXcXcXcXuXuXcXcXcXcXrXrXcXcXcXcXcXcXuXcXcXDXFXcXcXHXHXcXcXDXDXHXDXcXcXcXcXcXHXHXcXcXcXcXcXeXqXqXuXqXcXuXqXcXwXwXcXcXqXqXqXuXcXcXuXcXrXqXeXHXHXcXeXcXcXqXqXqXqXqXqXqXrXrXqXcXcXcXcXuXuXqXuXuXcXDXcXDXcXDXDXcXHXHXHXHXFXcXcXcXcXcXcXcXcXcXcXcXFXDXcXcXcXcXFXHXcXqXuXcXcXqXqXcXuXuXcXqXuXqXcXcXcXqXuXqXqXuXcXcXuXuXqXcX",
"eXqXqXcXcXcXcXcXqXqXeXuXuXcXuXuXcXcXcXcXcXcXqXqXcXcXcXqXcXuXuXuXqXqXuXDXuXcXcXcXeXqXcXcXFXcXcXFXqXcXFXcXcXcXuXcXcXHXHXcXcXcXcXcXcXcXcXcXcXcXcXcXcXcXcXuXuXcXcXcXqXqXrXrXrXqXqX0XqX2XqXcXqXqXqXqXcXqXqXcX2XcXHXcXcXcXcXeXqXqXuXqXqXrXcXcXcXcXcXcXqXcXcXcXcXcXcXHXGXcXcXcXcXcXcXqXcXcXDXcXcXcXcXcXcXuXcXcXqXcXqXcXcXuXqXqXyXcXwXcXwXcXqXuXcXcXcXqXcXcXrXHXHXuXqXuXuXcXqXqXqXqXcXuXcXrXqXqXcXcXcXcXcXqXqXqXuXuXuXcXcXFXHXHXHXHXHXHXcXcXcXcXqX2XGXcXcXeXcXDXcXcXcXcXcXcXqXcXcXqXqXcXqXuXqXqXuXuXuXqXcXqXuXqXuXcXqXcXuXqXuXqXuXcXqXcX",
"cXcXqXqXuXcXcXcXcXqXuXDXcXcXcXcXcXcXHXHXcXqX5X7XqXFXcXcXcXcXcXqXcXFXcXcXcXcXcXqXqXcXcXcXuXcXcXcXFXcXuXuXuXcXHXHXcXHXcXcXcXcXcXDXFXcXcXcXcXFXcXcXcXcXFXcXuXcXcXcXwXyXqXqXyXwXqXcXqXqXqXuXcXcX2XqXcXqXqXrX2XcXcXcXcXFXqXqXcX5XqXqXuXcXcXcXqXuXuXuXcXuXcXcXHXFXcXcXcXcXcXcXcXcXcXcXcXcXcXcXcXFXHXuXuXcXcXcXcXqXeXcXcXDXqXqXcXcXwXwXcXcXcXrXrXcXcXrXcXrXqXqXcXcXeXqXqXcXcXuXuXeXcXcXrXqXrXrXcXcXeXeXuXqXqXqXqXqXqXcXcXDXcXcXcXcXHXFXcXcXcXcXqXcXHXcXFXqXFXDXcXFXcXcXcXcXqX5XcXqXcXuXqXcXqXqXcXcXcXuXuXqXuXqXqXuXuXcXcXqXuXuXcXcXuXcX",
"cXeXuXqXqXcXcXcXcXcXcXcXcXcXcXcXcXeXcXcXcXcXcXuXqXcXcXcXcXcXFXuXuXuXuXcXcXcXcXcXcXcXFXDXcXuXcXcXHXcXqXcXcXHXFXcXHXcXcXcXcXcXHXcXqXcXcXcXcXuXcXcXcXcXFXcXeXqXcXqXwXcXqXqXqXqXqXcXqXcXcXqXqXqXqXqXcXqXrXqXqXcXqXqXFXcXqXcXqXqXcXuXqXeXcXcXcXcXcXcXcXcXuXcXHXFXcXcXcXcXcXeXcXcXcXcXcXcXcXcXuXcXcXcXcXcXcXqXcXcXcXcXqXeXcXcXcXwXcXqXwXqXcXcXcXrXqXqXqXrXqXqXqXcXqXcXHXeXcXcXFXcXHXcXrXcXqXrXrXcXuXuXqXuXuXcXeXrXcXcXcXcXcXDXFXDXDXDXcXcXcXcXcXFXHXDXcXcXcXcXDXcXcXcXcXcXqXqXcXuXcXcXeXqXqXqXcXcXcXuXqXqXcXqXcXcXqXuXcXcXuXuXqXqXcXcX",
"cXcXqXqXqXcXcXcXcXcXFXcXqXcXFXqXcXuXuXcXcXuXcXcXcXqXqXcXHXcXqXcXcXHXcXcXcXcXcXFXcXcXcXcXcXcXHXcXFXcXcXcXcXHXHXHXHXcXcXqXqXqX5XuXcXcXcXFXDXFXcXcXcXcXcXcXuXcXcXqXyXcXcXyXwXwXqXcXcXcXcX2X2XqXqXqXqXcXcX2XqXeXqXqXcXcXqXcXuXuXcXqXeXcXcXcXcXcXuXcXuXcXcXcXcXcXuXHXcXcXcXcXcXcXcXcXcXcXcXFXFXcXuXFXcXqXeXcXcXqXcXcXqXeXHXcXcXyXwXyXqXcXcXcXcXcXqXqXqXrXcXcXrXqXqXqXcXcXHXcXcXcXcXcXqXcXqXcXcXHXcXcXcXcXcXcXrXqXcXcXcXuXcXFXHXFXcXFXcXcXDXcXuXHXcXqXqXqXcXcXuXcXcXcXuXuXuXcXFXcXqXuXcXcXqXqXuXqXqXqXcXqXqXqXqXcXcXcXPXcXcXcXqXqXqXcX",
"uXuXqXqXcXcXcXcXcXcXuXcXuXeXcXcXHXcXqXDXcXqXqXqXqXcXqX5XcXcXcXcXcXHXcXcXFXcXcXcXcXcXcXcXuXDXHXcXcXcXcXcXuXeXcXcXcXcXHXcXuXqXqXcXDXcXqXcXFXHXDXcXcXuXcXcXcXcXcXcXcXwXqXqXqXqXyXqXwXcXqXqXuXeXcXcXqXcXDXqXqXcXqXqXuXcXcX5XqXcXcXqXuXcXcXcXqXuXqXuXeXuXcXcXcXFXcXcXDXcXcXcXuXcXcXcXcXuXcXqX5XcXqXcXcXDXcXcXcXqXcXqXqXcXcX2XqXcXqXyXcXqXqXcXcXcXcXrXqXqXqXqXqXqXqXqXcXcXcXFXuXcXcXcXcXqXcXcXeXcXcXcXcXcXHXcXeXcXcXcXcXcXcXcXcXcXcXcXcXcXFXDXqXcXcXcXcXqXeXcXcXuXcXuXcXcXqXuXFXcXcXqXcXcXcXqXqXcXcXqXuXqXeXqXqXcXcXcXHXHXcXcXcXcXcXcX",
"uXuXqXuXcXcXcXuXcXcXcXcXcXcXcXFXFXHXcXcXqXqXqX2XqXqXqXeXuXcXHXcXuXuXcXcXcXcXcXqXcXcXcXcXcXcXcXcXcXcXcXuXuXcXcXcXcXcXFXcXDXcXDXDXFXFXcXcXcXFXFXDXcXcXcXqXqXcXcXcXcXqX8XqXwXqXqXcXqXqXqXcXqXuXqXqXeXcXHXqXqXcXqXqXqXqXuXqXqXqXqXqXcXcXqXcXcXcXcXcXcXcXcXcXcXcXcXFXFXcXcXcXFXcXcXcXqXqXqXFXFXcXqXuXqXcXcXcXcXqXcXqXqXqXrXcXyXcXcXqXcXcXcXqXrXcXrXcXqXqXqXrXrXcXqXrXcXqXqXtXuXcXcXcXcXcXcXeXqXcXcXqXuXeXqXcXrXcXcXrXuXcXcXcXcXcXcXqXcXHXcXcXqXqXcXcXuXqXcXcXcXqXcXcXcXcXqXqXHXDXcXcXuXeXuXcXcXuXcXqXqXcXcXuXcXuXqXuXuXFXFXcXcXcXcXFX",
"cXqXcXcXcXcXcXcXcXcXcXcXcXcXcXFXcXcXcXcXcXcXtX5XqXqXqXcXqX5XqXtXqXcXuXqXcXuXcXuXcXcXFXFXcXcXqXcXcXcXqXuXuXcXcXeXqXcXcXcXcXcXcXDXHXHXHXHXcXFXDXcXDXDXcXcXcXcXcXcXqXqXwXqXqXqXqXqXcXqXqXcXeXqXeXqXeXqXuXqX2XcXcXcXqXqXcXcXcXqXqXtXqXqXqXcXcXcXcXcXcXcXDXDXcXcXcXcXFXDXcXcXcXcXcXcXeXqXqXDXcXcX5XuXcXuXcXcXcXcXrXrXrXqXqXcXcXcXcXcXwXqXcXcXqXrXwXqXqXcXqXqXqXcXqXrXqXqXqXqXqXuXcXcXcXqXcXqXcXcXqXqXcXHXqXqXcXcXcXcXqXqXuXcXcXqXqXcXeXDXqXqXqXuXFXcXqXcXcXcXcXqXcXcXcXcXuXcXcXcXcXcXeXqXqXqXeXcXcXcXuXcXcXcXcXqXqXqXqXcXcXqXcXcXuXFX",
"FXcXFXcXcXuXqXuXcXcXcXqXqXeXqXcXcXcXcXcXcXcXcXqXyXqXqXqX3X3XcXcXcXcXqXqXcXcXDXcXqXqXcXcXuXFXFXcXcXcXcXuXcXcXcXcXcXcXFXcXcXFXcXcXHXcXuXHXcXFXcXFXHXGXcXcXqXcXcXqXqXqXqXcXqXqXqXqXuXcXcXqXqXqXqXuXqXtXuXuX2XcXcXcXcXqXqXqXqXuXqXqXqXwXqXqXcXFXuXuXcXcXcXcXcXcXcXcXcXcXcXcXcXcXFXcXcXcXcXqXqXcXqXcXuXuXuXcXcXeXqXqXqXqXqXcXqXcXwXqX2X2XwXwXcXyXqXqXwXcXwXqXwXyXwXqXwXwXcXcXqXHXeXuXtXtXtXqXcXHXcXqXFXuXqXcXcXcXcXcXcXcXHXcXcXcXcXcXqXcXcXqXqXqXDXFXqXDXcXcXeXcXuXcXqXqXcXuXuXuXcXcXcXeXeXcXcXcXcXuXuXqXqXuXeXcXcXuXqXuXcXuXcXcXqXcX",
"cXcXcXcXcXcXcXcXcXcXcXeXDXcXcXcXcXcXcXeXqXqXqXqXqX8XqXqXqXqXqXtXcXcXuXcXuXcXFXHXFXcXqXcXHXFXcXcXcXcXcXcXcXcXcXcXcXDXHXcXFXFXcXFXFXFXFXcXHXcXHXeXcXHXcXcXcXcXcXcXcXrXqXcXcXqXqXqXqXeXcXcXrXcXqXqXqXcXeXqX2XcXcXcXcXcXcXcXcXuXqXqXqXqXcXwXcXcXcXcXcXcXcXcXcXuXcXFXcXcXcXcXcXDXcXcXcXcXcXcXcXcXcXuXeXqXuXcXcXuXcXcXeXeXcXcXyXqXqXqXqXqXqXyXcXwXqXyXwXwXcXwXcXcXyX8XqXqXqXcXqXcXcXcXtXcXqXcXcXqXcXuXqXqXcXcXuXcXcXcXcXcXcXcXcXcXcXcXqXeXcXqXuXqXcXcXqXuXcXcXuXcXcXcXqXuXqXqXcXcXcXcXcXcXcXcXcXrXqXqXqXqXqXqXcXcXcXcXqXuXqXqXqXqXqXcX",
"cXcXqXqXcXcXcXcXFXcXDXDXDXHXHXcXcXcXcXcXuXqXqXqX2X2X2X2XqXcXcXcXcXcXuXcXcXqXqXHXHXcXcXcXDXcXcXqXqX5XcXcXqXcXcXcXcXcXDXcXcXcXcXcXcXcXDXHXcXcXHXcXqXqXqXHXcXcXcXcXcXeXqXqXqXqXqXqXqXqXcXcXcXcXcXcXqXcXqXcX2XcXuXcXcXHXcXcXcXcXqXqXwXyXqXqXcXcXuXcXqXuXcXcXcXcXcXcXcXcXcXcXcXcXcXeXqXqXuXcXcXcXcXcXFXcXcXFXcXqXcXcXcXcXcXrXyXqXqXyXqXqXqXcXqXcXqXcXwXqXcXqXqXqXcXwXcXqXqXcXrXrXrXcXcXqXqXyXcXqXqXqXcXcXcXqXcXcXcXcXcXcXcXcXcXcXcXcXqXeXcXcXcXqXcXcXqXcXcXcXcXcXcXcXcXcXuXcXcXHXcXcXuXqXeXqXcXcXqXcXuXqXuXuXcXuXcXcXqXqXqXqXqXqXqXcX",
"cXcXcXqXuXcXcXcXcXcXcXDXcXcXcXcXcXHXHXHXcXeXHX2X2XqXqXqXqXqXcXcXcXtXuXuXcXuXcXcXcXcXcXDXcXqXcXqXcXDXeXcXcXcXuXcXDXDXcXcXVXcXFXcXuXFXcXcXDXDXHXuXqXqXcXHXrXcXcXcXcXcXcXcXuXcXeXcXuXcXcXeXqXqXqXcXuXeXqXcX2XuXuXuXqXuXqXuXqXqXeXqXqXqXcXyXyXuXqXqXuXcXcXcXcXcXcXuXeXqXcXcXcXcXcXcXuXeXcXcXcXcXcXcXuXcXcXcXqXqXcXcXcXeXeXcXcXcXyXqXyXyXyXcXyXcXqXyXyXyXqXwXqXwXwXqXcXcXwXcXrXqXcXwXqXtXcXqXqXuXqXqXcXcXcXcXcXcXcXcXcXcXqXcXeXcXcXcXcXqXcXDXcXcXqXcXqXcXcXcXFXcXcXcXuXqXcXcXDXDXqXuXcXqXeXeXqXrXqXcXcXqXqXtXqXcXuXcXqXqXqXqXqX5XqXcX",
"qXqXqXqXcXcXcXcXcXDXcXcXHXcXcXcXcXFXLXHXcXuXGXqXqXqX2XwXcXcXcXcXtXqXHXcXcXcXcXcXcXFXcXcXcXcXcXcXcXcXuXcXcXcXcXcXcXcXuXcXcXFXFXcXuXcXuXcXFXFXcXFXHXqXrXHXGXDXGXcXcXcXcXcXcXcXcXeXuXcXeXcXcXcXqXqXqXqXqXcX4XqXcXcXqX5XuXcXeXuXuXqXqXwXcXyXqXqXcXqXqXcXcXuXuXuXcXcXcXeXcXcXeXuXcXcXcXcXcXcXuXcXcXcXcXcXuXcXqXqXcXcXcXrXqXcXcXyXcXcXcXwXyXcXcXcXwXqXcXcX2XqXcXwXqXyXqXqXcXqXqXrXcXZXcXqXcXcXyXcXcXcXqXqXcXqXFXcXqXqXuXcXcXcXcXcXcXrXcXcXcXcXcXcXeXeXqXcXcXcXcXcXcXuXcXcXcXcXeXHXcXcXuXqXqXqXqXqXrXcXqXqX5XcXqXqXuXcXuXqXqXqXqXuXcXcX",
"eXeXqXqXqXuXuXcXcXcXcXcXDXcXcXcXcXcXGXcXcXcXqXcXcXCXqXqXqXcXcXuXcXqXcXcXcXcXcXcXcXcXcXcXcXcXcXuXcXcXcXcXcXqXHXcXcXcXuXcXcXcXFXuXqXuXcXHXcXcXFXcXcXHXuXcXcXqXuXcXuXcXcXcXcXcXcXcXcXqXcXcXqXwXqXcXqXqXcXqX7XcXcXcXqXqXcXqXcXuXuXcXqXqXqX2XqXcXcXqXqXeXcXuXcXcXcXcXcXcXcXcXcXcXcXcXHXcXcXcXcXcXcXeXcXcXcXuXcXcXuXqXcXcXcXqXtXcXtXcXcXqXyXqXyXwXwXqXcXcXqXqXcXrXcXqXqXrXcXeXqXuXDXcXcXtXtXtXtXcXyXVXcXcXcXqXcXFXqXuXqXcXcXcXrXcXcXcXcXcXcXcXeXcXcXcXuXcXcXcXcXuXcXuXcXcXcXHXqXcXFXHXqXqXqXqXqXqXtXyXqXqXqXcXcXcXcXqXqXeXcXuXqXcXcXcX",
"qXqXqXqXcXcXcXcXcXcXcXcXcXuXcXcXeXcXcXcXcXqXqXqXqXcXcXqXqXuXcXcXcXcXuXcXFXcXcXcXeXcXHXcXuXcXHXcXcXcXDXcXcXcXcXcXHXcXcXHXFXFXFXuXcXFXcXcXcXFXFXcXcXHXcXcXHXcXcXqXqXqXcXcXcXcXcXcXcXcXcXcXwXwXwXqXqXqXrX0X2XHXcXcXqXcXqXqXcXcXqXcXqX2X5X5XuXqXqXqXeXcXeXqXqXcXcXcXcXcXcXcXDXcXuXcXHXDXDXcXcXcXqXqXcXcXcXuXcXcXtXtXcXcXcXqXcXcXcXqXVXcXyXyXcXyXcXqXqXqXqXwXqXeXcXcXrXcXcXcXqXqXqXqXqX3XcXcXqXtXyXVXcXqXcXcXcXcXuXuXqXcXrXeXeXcXcXDXcXcXcXcXqXcXcXcXcXcXuXcXcXqXcXcXHXcXuXcXDXcXcXcXuXqXyXtXtXqXqXqXqXyXqXcXcXrXwXcXqXqXqXcXqXcXcXcX",
"qXcXcXcXcXcXcXcXcXuXcXcXcXcXcXcXcXqXcXcXrXqXqXqX5XqXcXcXuXuXcXcXcXcXHXcXHXcXcXcXcXcXcXcXqXcXcXcXDXcXHXFXcXcXcXDXcXcXuXFXHXcXFXcXcXcXcXqXcXcXDXDXcXFXcXqXcXcXcXcXcXFXeXcXFXcXuXcXcXcXcXcXqXqXwXeXqXrXrXqXqXcXcXcXqX5X2XuXuXcXqXuXqXqXqXqXuXcXqXqXqXqXqXcXcXcXcXcXcXcXcXcXcXcXcXcXcXcXcXcXcXcXcXcXqXcXcXcXcXcXcXtXcXcXcXcXcXqXVXqXqXcXwXcXZXcXcXyXqXqXqXqXqXqXcXGXcXcXcXuXqXeXqXqXyXtXtXcXcXcXtXqXqXqXcXFXcX5XcXuXrXcXcXcXrXcXHXcXcXcXcXcXuXcXqXcXuXcXFXcXcXcXcXcXcXcXcXcXcXcXcXcXcXqXqXtXqX8XqXqXqXqXqXqXtXqXcXcXeXqXqXqXqXcXqXcX",
"cXcXqXcXcXcXcXcXcXcXcXcXcXcXcXcXcXcXcXcXcXqXuXcXHXcXcXcXcXcXuXcXFXcXHXcXcXeXeXDXqXcXHXqXqXqXqXHXDXDXFXHXcXuXcXDXcXcXuXFXcXFXFXFXcXcXcXcXDXDXcXcXcXFXcXqXcXcXcXFXcXcXcXcXcXqXuXcXcXcXcXcXwXwXyXrXqXcXqXeXqXcXcXqX2X2XcXuXqXqXqXqXcXqX5XqXcXcXqXqXqXqXqXqXcXcXcXHXcXqXrXqXqXeXcXcXcXcXcXeXrXqXcXcXuXuXcXcXcXcXcXtXcXcXtXcXcXcXtXqX2XqXqXcXwXcXcXyXqX8XqXcXqXqXrXcXcXqXuXuXeXcXcXqXqXtXqXcXtXtXVXcXqXtXtXcXqXuXcXuXrXcXqXcXcXcXcXcXqXcXcXcXqXuXuXcXcXcXFXcXcXcXcXcXcXcXcXcXcXcXuXcXcXtXqXqXqXcXtX3XqXqXqXqXqXcXcXcXcXqXqXqX5XqXuXcX",
"cXcXeXeXcXcXcXuXcXcXcXqXcXcXcXqXeXcXcXcXeXqXqXuXFXFXFXHXcXuXcXcXHXHXcXcXcXqXcXcXcXcXFXcXcXcXcXcXDXcXHXHXHXcXcXcXcXcXqXuXcXcXcXcXcXcXcXcXuXcXFXuXcXcXqXcXDXcXHXDXcXcXcXcXcXcXcXcXcXyXyXyXcXcXcXeXrXeXeXqX5XcXcXqX5XqX5XuXuXqX5XqXqXqXqXqXcXHXcXGXcXcXeXuXqXqXcXcXcXcXcXrXeXeXcXuXcXcXcXqXqXqXqXcXcXuXcXcXcXcXcXqXqXcXqXcXtXtXtXqXqX2X2XcXcXcXcXqXqXwXqXcXqXcXqXqXqXrXqXeXcXqXqXcXtXqXtXcXcXqXcXcXtXqXqXcXcXqXcXcXqXcXcXcXcXcX7XqXHXcXcXcXqXcXcXqXcXcXFXcXcXcXcXcXcXDXcXcXcXcXcXcXcXqXqXtXyXqXqXqXqXqXqXtXqXqXcXcXqXqXcXcXcXqXqXcX",
"eXcXeXqXcXDXcXqXeXqXqXqXcXcXqX6XqXcXcXcXcXqXqXuXcXcXuXcXcXcXcXcXcXcXcXHXcXcXcXqXcXcXcXcXcXFXcXHXcXcXuXcXcXDXcXDXcXcXcXcXcXcXcXcXqXcXcXcXcXcXcXuXcXcXDXFXDXcXcXFXFXDXHXcXcXcXcXcXcXqXqXqXqXqXuXcXcXqXqXqX2XuXcXqXqXcXcXcXqXcXDXqXtXuXqXqXcXcXDXcXcXcXeXcXqXqXcXcXeXqXcXeXeXeXuXuXcXcXuXcXeXeXcXcXqXuXcXcXcXcXcXtXcXyXcXqXyXqXcXqX3XqXqXcXqXyXcXcXqXyXcXyXqXeXrXcXqXcXuXeXcXqXqXcXZXcXtXcXcXcXcXcXHXcXtXcXuXcXcXqXqXcXqXcXcXcXqXcXHXcXcXcXuXcXeXcXcXcXFXcXuXcXcXcXDXcXFXcXcXcXcXcXcXqXtXcXqXqXqXtXqX8XqXtXqXqXqXqXqXwXqXqXuXuXtXcX",
"qXqXqXuXcXcXcXcXqXqXqXuXcXcXcXcXFXcXcXcXuXcXFXcXcXcXcXcXFXcXcXcXcXHXFXFXcXcXDXcXcXuXcXcXFXFXKXPXKXDXcXuXcXuXDXDXHXFXuXDXcXcXcXcXcXuXcXcXFXcXcXqXcXcXcXcXcXcXcXcXDXDXFXcXuXcXcXqXqXcXcXcXuXqXqXcXcXqXqXuX2XqXuXcXqXcXFXqXqXcXcXqXtXcXcXqXqXFXuX2XcXcXcXcXcXcXcXcXcXcXqXcXcXqXuXuXcXcXuXcXcXcXcXcXuXuXuXcXcXcXqXcXrXcXcXcXwXyXcXwXqXqXcXcXtXuXuXcXcXcXcXcXcXrXcXrXqXqXqXqXuXcXcXcXHXcXtXtXqXuXcXcXHXcXqXrXcXrXcXcXqXqXcXqXtXcXcXcXcXDXcXcXeXFXcXcXuXuXcXcXcXcXcXcXFXFXcXqXcXqXqXcXcXcXcXcXqXcXqXqXqX8XqXtXyXqXwXqX2XqXcXuXqXqXuXcX",
"cXcXqXcXqXqX2XqXqXcXcXcXcXcXcXcXcXcXcXcXcXcXFXcXuXcXFXcXcXFXFXcXcXHXFXcXcXcXFXHXcXqXqXcXHXPXPXLXFXFXcXcXcXcXcXcXcXDXcXcXcXHXFXcXcXFXcXDXcXuXuXcXcXcXHXcXcXcXcXcXcXcXcXcXcXcXcXcXcXcXcXqXqXuXuXuXcXcXuXqXqXcXuXcXcXcXcXqXqXuXcXqXqXqXqXcXHXqX2XcXcXuXcXcXcXcXcXcXuXeXqXqXqXuXuXqXcXqXuXuXcXcXcXcXcXcXcXcXcXcXcXcXcXeXcXcXyXyXyXqXyXqXqXqXcXcXuXcXcXcXcXrXcXcXrXqXqXrXqXcXcXcXcXcXcXcXHXcXqXtXuXuXFXcXeXcXqXrXcXrXcXqXyXcXqXqXqXuXFXcXcXcXqXcXDXHXHXcXuXcXcXuXuXcXcXcXqXuXcX5XqXcXcXcXuXcXcXcXcXqX8XqXqXqXtXcX2X2X2XqXqXcXuXuXcXcX",
"qXcXqXcXcXcXcXqXqXcXyXcXcXcXcXcXcXcXFXcXcXFXcXuXcXcXcXcXcXHXDXcXuXcXDXcXcXcXDXKXFXcXuXqXuXKXLXKXDXDXcXcXcXcXcXcXcXcXcXcXDXHXHXDXcXcXcXcXuXcXcXcXcXcXcXqXcXcXcXFXcXuXcXuXcXuXcXcXcXqXqXqXcXcXcXuXuXcXcXcXqXuXcXeXqXqXqXqXqXqXqXqXqXtXtXcXqXqXcXcXcXcXcXcXcXcXcXuXcXcXuXcXqXqXcXcXuXuXuXcXcXcXcXcXcXuXcXcXcXcXcXcXcXcXqXcXcXyXqXqXcXcXcXcXqXcXcXcXcXcXcXcXcXrXcXeXqXcXqXuXcXcXcXqXqXcXcXcXcXqXuXcXHXcXcXHXrXqXcXrXuXqXqXtXcXcXcXcXcXcXcXcXqXcXFXFXHXDXcXcXcXcXcXcXcXcXcXqXqXuXcXcXcXcXcXcXcXqXuXqXqXqXqXqXqXqX2X2X8XqXqXqXuXcXuXcX",
"qXqXqXcXcXcXqX8XcX8XqXqXqXqXqXqXqXcXcXcXcXcXHXFXHXLXFXcXcXcXcXcXcXcXHXHXHXFXcXDXFXcXqXcXqXuXHXKXFXcXuXuXcXcXcXcXuXcXFXHXHXuXcXHXcXcXcXDXFXHXFXcXFXuXcXcXcXcXFXFXcXcXcXcXcXcXcXuXuXcXuXcXcXcXcXcXuXcXcXcXqX5XcXeXqXuXqXuXqXqXqXqXtXcXcXqXqXuXuXqXcXcXcXcXcXcXcXcXcXcXcXuXqX2XqXcXuXqXeXcXcXcXcXcXcXcXcXcXcXcXcXrXcXeXeXcXqXcXcXcX2X8XyXtXqXqXcXcXcXcXcXcXcXqXrXrXeXcXuXqXcXcXqXuXqXcXcXcXcXcXcXcXcXcXqXcXcXqXqXqXtXtXcXcXcXcXcXcXcXcXcXcXqXHXcXHXDXqXcXcXcXcXcXcXcXcXcXuXeXcXFXcXuXFXuXcXcXcXcXtXqXqXqXqX8X8XqX8XqXqXqXqXqXcXcXcX",
"qXqXcXcXuXqX8XqXcXqXqXcXuXuXcXcXcXcXHXDXcXFXHXcXcXcXuXcXcXcXcXDXHXcXcXHXHXcXcXcXHXHXcXcXHXcXDXcXcXHXcXcXcXqXcXcXcXcXcXFXFX2XcXcXcXcXcXcXcXcXcXFXHXHXcXDXcXcXcXqXcXcXcXcXcXcXqXuXcXcXqXqXcXqXqXcXqXqXqXuXqX2XcXqXuXcXqXuXqX2XqXcXqXcXqXqXqXqXqXuXuXuXcXcXuXuXuXcXcXcXHXcXqXqXqXqXqXuXcXcXcXcXuXcXuXuXcXcXcXcXcXcXcXeXcXeXqXyXcXcXqXqXwXqXtXcXcXcXcXqXwXqXcXrXcXcXcXcXqXuXuXcXqXcXqXcXcXcXyXcXFXHXcXcXcXcXcXcXrXqXqXtXqXcXqXcXcXcXcXcXcXcXqXcXcXHXHXcXeXcXcXcXqXcXeXcXcXcXqXuXuXuXuXcXcXcXcXcXcXcXqXqXqXqXqXqXqXqXqXcXcXrXcXcXqXcX",
"uXcXcXcXcXcXqXcXcXqXcXcXcXcXcXcXcXDXHXcXcXFXcXcXcXuXcXcXFXcXqXcXcXcXHXHXcXcXcXFXKXHXcXcXcXFXcXDXeXcXcXcXcXcXcXcXcXcXcXFXHXFXcXcXcXcXcXcXqXcXcXcXcXHXHXcXcXqXuXcXcXcXuXcXcXqXuXcXcXqXtXqXtXqXcXcXcXcXcXrXqX2XqXqXqXqXeXqXqX2X6XcXuXqXcXqXqXcXuXuXcXuXuXDXcXqXuXcXcXcXcXcXcXcXcXcX2XqXcXcXcXqXuXcXcXuXcXcXcXcXcXcXcXcXcXcXcXqXqXcXcXcXcXcXuXuXuXeXcXeXqXcXcXuXDXcXuXcXcXcXcXcXqXtXtXcXcXqXtXqXqXcXcXcXcXcXcXqXuXqXqXqXyXcXqXqXcXyXcXcXcXcXqXcXcXHXHXFXcXcXcXqXqXcXDXcXcXcXuXcXuXuXuXuXcXFXcXcXqXqXcXqXqXcXqXqXqXqXqXcXcX2X2XcXqXqX",
"cXcXcXcXcXcXcXcXrXqXcXcXcXcXeXcXqXcXcXcXFXcXcXcXqXcXFXcXcXuXcXFXcXqXcXcXuXcXFXqXqXqXcXcXcXcXcXFXcXcXuXcXcXcXcXcXcXcXcXFXHXFXqXcXeXqXcXuXcXcXuXqXcXcXcXuXuXcXcXcXqXqXcXcXqXcXHXDXcXcXVXcXcXtXqXqXqXcXqXqXqX2X0XqXqXqXrXcXqX0XqXqXqXuXqXqXuXcXuXuXcXuXcXcXDXqXuXcXcXHXcXcXHXcXcXcXqXqXcXuXeXqXuXqXcXcXuXuXuXcXcXtXyXcXyXcXcXuXqXuXcXcXcXuXcXuXcXcXcXcXcXcXcXcXcXcXcXcXcXcXcXyXyXqXyXcXcXqXqXcXuXcXcXcXcXcXcXcXuXuXcXqXcXcXwXqXqXcXcXcXyXcXqXcXqXcXcXcXFXFXcXcXcXcXuXcXqXuXcXcXuXuXcXcXuXcXqXuXqXcXcXcXqXcXuXqXqXqXuXuXcX8X<XqXwXqX",
"uXcXcXcXcXcXcX0XqXqXcXcXcXcXqXcXcXcXcXcXcXDXcXcXcXcXuXcXcXcXHXcXcXqXuXcXcXFXFXqXqXqXuXcXcXFXuXcXFXcXcXcXcXcXcXcXcXcXeXqXDXcXcXcXqXFXcXqXHXcXqXDXcXcXDXcXcXcX2XqXuXuXcXcXuXcXDXcXcXcXcXcXtXcXqXqXcXcXqXqXqXqXqXqXqXqXrXqXcXcXqXqXeXcXqXcXqXqXeXcXcXuXcXcXcXuXcXcXcXcXcXcXDXcXcXHXcXcXcXcXuXcXqXcXcXcXuXuXcXcXcXcXqXcXcXcXcXcXcXcXcXcXcXqXuXuXuXcXcXcXDXDXcXcXcXcXcXcXcXuXtXyXyXcXcXtXqXcXtXcXcXcXuXcXcXcXHXcXuXcXcXqXcXcXwXqXcXcXcXtXcXcXqXcXcXHXcXcXcXcXcXcXcXcXcXcXuXcXcXcXuXuXcXcXqXqX5XqXuXcXcXHXcXuXcXcXcXcXcXeXqXqXqXqXcXcX",
"qXuXuXqXcXcXcXqXcXrXDXFXHXFXGXcXcXcXcXcXcXcXcXFXHXqXqXcXHXHXcXqXcXHXcXcXHXcXcXDXuXeXqXeXFXcXcXcXHXFXFXcXcXqXcXDXcXuXqXuXcXcXcXuXqXeXcXcXHXcXcXHXcXuXcXcXcX5XuXcXHXcXcXcXFXFXcXqXqXcXcXtXcXtXtXqXqXqXwXqX2X0XqXqXqXqXqXqXcXqXqXqXqXcXqXcXuXqXuXcXcXcXcXcXcXcXcXcXqXeXcXFXDXcXcXFXHXFXcXcXDXcXFXcXcXcXcXcXcXcXtXcXtXqXqXcXcXqXcXuXcXcXcXcXcXcXqXcXuXcXFXFXuXuXcXcXqXuXuXqXcXtXqXyXtXtXcXqXqXcXuXqXuXuXuXuXcXcXcXcXcXcXqXcXcXcXcXcXcXyXtXtXqXcXcXcXcXcXHXcXcXqXuXDXcXcXcXcXcXcXqXqXuXcXcXqXqXqXcXqXcXuXuXuXuXcXcXcXuXcXqXVXcXqXqXcX",
"uXuXqXeXcXqXqXDXcXcXcXFXcXcXcXcXcXuXcXcXFXcXcXcXqX5XqXcXFXcXHXFXcXcXcXcXuXqXDXcXeXuXqXeXuXcXFXuXcXFXcXHXDXcXHXcXcXcXcXcXcXqXcXqXeXFXcXcXcXcXcXcX5X5XuXcXcXcXcXcXcXuXcXcXcXcXeXcXcXqXcXtXtXcXqXqXqXqXwXqX0X2XqXqXqXqXqXqXqXrXqXqXqXqXcXcXcXuXuXcXuXuXcXcXcXuXcXuXuXDXcXDXcXcXcXcXcXFXFXFXHXcXFXHXcXcXcXcXcXcXtXcXtXqXtXqXuXqXqXuXuXcXcXcXcXuXqXqXuXcXcXcXcXcXuXcXuXqXqXtXcXqXqXqXtXyXqXqXqXuXuXuXcXcXcXcXuXcXcXcXcXqX2XqXcXcXyXcXcXcXcXcX5XcXuXFXcXcXqXqXcXeXcXcXcXcXcXcXcXcXuXqXcXcXcXcXcXcXcXcXcXqXqXuXqXcXcXcXqXcXcXtXcXqXqXcX",
"cXeXeXuXcXeXqXcXcXcXcXFXcXcXcXcXrXcXuXqXeXeXuXeXcXFXFXcXDXDXHXFXcXcXcXcXcXqXqXcXcXcXcXuXuXcXcXcXcXuXcXcXDXDXHXHXcXuXuXcXcXcXcXcXHXFXqXcXcXcXcXcXqXqXuXeXcXHXcXcXcXcXcXcXuX5XcXHXqXqXtXtXtXtXyXwXqXqXqXqXqX8XqXqXqXqXqXqXcXcXcXcXuXcXcXcXcXcXuXcXuXuXcXuXeXcXcXcXcXcXcXHXcXcXcXDXcXcXFXcXcXcXcXcXcXcXcXcXcXcXcXtXtXtXqXqXqXuXqXqXqXcXcXcXcXqXcXqXcXcXcXuXcXuXcXcXuXuXtXcXtXcXVXcXtXtXcXtXyXtXcXcXFXcXcXcXuXcXcXcXcXcXqXqXwXcXqXcXqXcXcXqXqXFXcXHXFXcXqXcXcXuXqXcXcXcXcXcXFXcXcXcXcXcXFXcXcXFXcXDXuXqXqXqXqXqXqXqXqXqXuXuXtXtXqXcX",
"qXeXcXeXrXcXFXuXuXcXuXFXcXuXqXqXqXcXuXqXqXqXqXcXcXFXDXHXFXKX6XqXKXcXcXcXcXcXFXFXcXcXcXcXcXcXcXcXcXcXcXcXcXcXFXFXcXcXcXeXcXuXcXcXcXuXcXHXHXcXuXcXDXcXcXcXcXqXcXcXqXqXyXyXtXqXqXtXqX8XqXqXqXqXqXqXqXqXqXqXqX8XqXqXqXqXqXcXuXqXuXqXuXcXqXqXcXcXcXcXcXcXcXcXcXqXcXcXcXcXcXcXcXcXcXcXcXHXqXqXcXqXcXcXcXcXcXcXcXuXqXqXtXqXqXuXqXuXqXqXcXcXyXcXcXcXcXqXqXuXcXcXcXcXcXuXcXuXuXuXqXcXcXcXcXcXDXcXqXqXqXcXcXqXqXcXcXcXcXcXqXcXrXcXcXcXqXrXcXqXcXqXcXcXcXcXcXuXqXcXcXuXqXqXqXqXuXcXqXcXcXcXcXcXcXFXcXcXcXcXcXcXqXqXqXqXqXqXqXqXuXcXcXqXqXqX",
"qXeXqXeXcXcXcXuXcXcXqXcXcXqXcXcXcXcXcXcXcXcXqXcXqXcXcXHXPXHXuXHXFXcXcXcXcXcXHXFXcXcXcXcXcXcXcXuXcXuXuXcXDXFXcXHXcXuXFXuXuXcXcXcX5XuXcXcXFXuXcXuXqXcXcXHXFXcXtXtXqXqXqXcXqXqXcXtXyXqXqXqXwXqX8XqX8X8XqX8XqX8XqXqXqXcXqXqXeXcXqXuXuXuXqXqXcXuXuXuXcXcXcXFXcXqXcXcXcXcXFXuXcXcXHXuXcXuXcXcXcXcXcXcXcXcXFXFXcXcXuXcXtXcXyXtXcXqXeXqXcXtXtXcXcXtXqXuXcXuXuXcXcXcXcXuXqXcXcXcXcXuXcXcXuXqXcXcXqXcXcXuXqXuXqXqXqXqXtXqXqXcXcXcXcXcXcXeXcXcXcXcXtXcXFXcXcXcXcXcXcXuXqXqXqXqXcXcXcXcXcXcXcXcXcXcXFXcXcXDXcXcXcXuXuXcXcXcXuXcXcXuXcXcXuXuX",
"qXqXqXeXcXcXFXcXcXcXcXuXqXuXcXcXcXcXcXcXFXHXHXcXcXcXcXDXKXuXeXFXcXcXcXcXcXFXFXFXcXuXcXcXqXqXuXuXcXcXcXcXcXcXcXcXcXDXcXcXcXcXcXcXcXcXuXuXcXcXcXcXqXcXcXcXcXcXqXqXqX3XyXqXcXcXcXtXcXcXqXwXwXqXqXqXqXqXqX2X8X8XqXqXqXcXeXeXeXuXcXcXcXcXqXqXuXcXuXuXcXcXuXcXcXcXcXcXcXcXcXDXcXcXcXcXcXuXDXDXeXcXcXcXcXcXcXcXcXcXcXtXyXyXqXqXcXcXqXuXqXtXtXtXqXtXcXuXuXcXcXcXcXFXcXcXcXcXcXcXuXuXcXcXcXuXcXcXcXcXcXcXcXcXcXtXqXqXcXcXqXcXcXcXrXrXcXcXrXcXHXqXcXcXcXcXcXcXFXuXuXuXqXqXqXqXcXcXcXcXcXcXcXcXqXcXcXcXcXcXcXcXcXcXuXcXcXuXuXuXcXuXcXcXqXcX",
"cXrXqX0XqXcXcXcXcXcXFXeXqXqXqXeXqXcXcXcXFXFXFXcXqXcXcXFXFXDXHXDXDXcXFXFXFXFXHXHXHXHXDXcXcXcXcXcXcXHXFXFXcXqXFXFXcXcXqXcXcXcXuXcXcXFXcXcXcXcXcXcXcXqXcXuXqXqXqXqXtX2XqX3XcXtXqXcXqXqXqXqXqXqXyXqXqXyXqXqXqXqXqXwXqXqXqXcXcXcXqXuXcXcXuXqXcXcXcXcXcXFXuXuXuXcXcXcXcXcXDXqXqXqXqXcXuXuXHXcXcXcXcXuXeXuXHXcXcXcXcXqXtXcXtXcXeXqXqXeXqXcXtXqXqXyXcXqXcXcXuXcXcXcXcXcXcXcXcXcXcXcXcXcXcXcXcXcXuXqXcXqXcXcXcXcXcXcXcXcXqXqXqXcXcXcXcXcXcXeXcXqXcXcXFXcXcXDXLXHXuXcXuXqXeXqXcXDXcXqX3XcXVXcXcXcXcXcXcXcXcXcXcXcXqXuXcXqXqXuXeXqXqXcXuXqX",
"qXqXqXqXqXcXcXqXcXrXqXeXqXqXqXqXcXeXHXcXuXcXcXuXqXqXcXHXKXLXHXDXcXFXHXHXHXFXFXuXcXFXHXcX5XqXuXcXcXcXcXcXcXcXcXcXuXFXDXcXcXcXeXeXrXcXcXcXcXcXcXcXuXcXcXuXqXcXcXcXcXtXtXtXqXqXcXcXqXqXqXqXqXqX2X2X2XqXqXqXqX8X2XqXqXqXcXcXcXcXqXqXuXuXuXuXcXcXcXcXcXFXcXcXeXeXuXqXcXcXcXcXcXcXcXFXcXFXFXcXcXqXcXqX5XcXcXDXcXcXcXcXqXcXyXqXqXcXeXeXqXqXcXqXqXcXcXcXcXeXcXqXqXcXcXcXcXcXcXqXuXcXcXcXuXFXFXcXcXuXqXqXqXcXcXcXcXcXqXtXcXcXqXcXcXcXeXrXcXcXHXcXcXcXcXHXcXcXuXcXcXcXcXeXcXcXcXcXcX2X2XcXcXcXcXcXcXcXcXcXcXuXcXcXcXcXcXuXqXqXqXqXqXqX2X5X",
"qXqXqXqXqXwXwXwXcXqX0XcXcXqXuXcXcXcXHXHXFXFXcXuXqXuXuXDXLXFXcXKXKXHXcXcXHXHXFXuXuXDXcXcXcXuXuXqXqX5X5XqXcXHXcXFXcXcXcXuXqXcXcXqXuXFXDXcXcXqXcXcXcXuXeXcXcXcXcXcXcXqXcXcXcXqXqXcXqXqXwXcXwXqXqX2X2XqXqXyXwXqX8XqXqXqXqXqXuXcXcXqXqXcXcXcXcXqXcXuXuXuXcXcXqXuXqXuXeXcXcXHXFXDXcXDXDXcXcXcXqXcXcXHXqXqXcXcXcXFXHXVXtXtXtXqXeXeXcXqXqXcXqXuXcXqXcXcXcXcXuXqXeXqXqXcXcXuXtXqXuXcXtXuXuXcXcXcXHXcXqXrXqXcXcXcXcXqXcXcXcXcXqXcXcXcXcXcXcXcXcXqXcXcXcXuXcXFXcXuXcXcXcXqXqXqXcXqXqXcXcXcXcXcXcXcXcXcXcXcXuXuXuXcXcXcXcXcXqXqXuXcXcXuX2X5X",
"8XqX8X2XqX8X8XqXqX8XqXqXcXcXcXcXcXFXHXHXLXLXuXuXcXcXcXcXKXLXKXFXDXFXcXcXcXHXcXcXcXcXcXeXcXcXqXqX5X2XuXcXcXcXcXcXDXcXcXqXcXcXcXHXcXFXcXuXqXcXHXFXqXqXuXqXcXFXcXDXcXcXcXcXcXuXqXuXcXcXcXqXcXqX2X8X8XwX8XyXqXwX8XqXqXqXqXqXqXcXuXcXcXcXqXqXuXcXuXqXcXcXcXeXqXuXuXcXuXcXcXcXcXHXcXFXFXqXcXcXcXcXcXHXuXuXFXcXcXHXVXcXcXtXtXqXrXrXqXqXqXcXeXqXqXqXqXqXcXcXqXcXqXcXcXqXuXuXtXcXcXcXcXcXcXtXcXtXVXcXqXcXcXqXcXcXcXcXuXcXcXcXcXcXcXqXcXcXcXcXcXcXcXcXcXHXcXcXcXeXcXcXqXqXqXtXcXcXcXqXcXFXcXuXcXcXcXcXcXcXcXcXcXcXcXcXcXuXqXqXcXcXcXcX5XqX",
"wXwX2X1XHXqX2X2XqXqXqXqXqXcXcXcXcXcXuXcXHXHXFXuXcXcXcXcXuXLXKXFXKXFXcXcXqXcXcXuXcXFXqX5XqXcXcXuXqXcXcXcXDXqXqXcXeXqXuXuXuXqXqXcXFXcXcXcXcXqXHXcXqXcXcXqXqXqXcXcXcXcXcXcXcXcXcXqXHXcXcXcXwX2X1X8X;X<XwXyXqXwX1X8XqXqXqXcXcXcXcXuXHXqXqXcXcXcXuXqXcXcXuXcXcXqXqXuXuXcXcXcXcXHXcXFXcXcXcXcXcXFXHXcXcXcXuXcXcXFXcXcXVXcXyXqXqXqXqXqXcXcXcXqXqXqXqXqXqXrXcXqXqXqXuXcXqXuXqXtXcXcXcXcXyXcXtXtXcXDXuXtXtXyXcXqXcXcXcXcXcXcXcXcXcXrXeXuXcXcXcXFXcXcXcXcXcXuXuXcXcXqXqXqXqXtXVXcXuXcXcXcXqXqXcXcXcXcXcXcXcXcXcXqXcXcXcXcXcXqXuXcXcXuXqXuX",
"wXqXqXcXqXqXwXqXqXyXqXqXqXcXcXcXuX2X6XuXFXHXHXFXcXcXuXcXcXKXFXHXLXFXDXcXcXcXcXqXuXHXuX5XqXcXcXcXqXcXcXqXcXuXcXcXqXqXqXcXcXuXcXcXHXcXqXcXqX8XqXqXqXqXqXqXqXqXcXcXcXqXcXcXcXcXcXcXcXcXcXqXqXwX2X;X X{.<XqXqXwX2X8XqXqXqXuXcXcXqXcXcXcXqXcXcXqXcXFXuXqXcXcXcXcXqXuXqXeXcXcXcXcXHXFXcXqXqXuXFXHXHXcXcXFXcXcXcXFXHXcXcXVXcXcXeXqXcXcXqXqXcXrXcXqXqXcXeXqXrXrXqXuXuXqXqXqXtXtXtXcXyXyXtXqXtXyXyXuXcXcXqXtXcXqXcXcXcXcXcXcXcXcXcXcXcXcXcXcXuXHXDXFXcXcXcXqXcXcXqXcXcXtXtXqXqXqXcXcXuXuXuXcXcXcXcXcXcXcXcXcXcXcXuXcXcXcXcXqXqXcXqXcXqXqX",
"wXqXwXqX2XqXqXqXwXwXwXqXqXcXuXuXuXcXcXuXcXHXFXKXLXFXcXcXuXDXuXFXDXcXcXcXcXDXcXcXcXeXcXuXqXqXuXcXcXcXqXcXHXHXqXcXcXqXcXcXDXuXqXcXcXqXcXqXyXqXqXqXqXqXuXqXqXuXrXcXeXqXeXeXcXqXqXqXqXcXqXqXqXqXqX8X1X<X8X8XqXwX2X8XqXqXqXqXcXqXuXqXcXcXFXuXcXqXcXuXcXuXcXcXcXcXqXqXqXeXuXcXcXcXcXFXFXcXuXcXHXDXHXDXcXcXcXcXcXcXVXcXcXcXcXcXcXeXcXrXqXcXcXrXcXcXrXqXcXeXqXqXrXqXqXqXqXqXqXqXqXcXcXcXtXcXqXtXcXqXuXcXcXcXZXqX2XcXwXrXrXrXqXcXcXrXcXcXqXcXqXcXFXFXcXFXFXcXFXcXuXDXcXtXtXqXcXcXcXcXqXqXuXcXcXuXcXcXcXcXcXcXcXcXcXuXcXcXcXuXqXuXqXcXqXqX",
"qXcXqX8XqXqXqXqXcXqXqXuXqXuXqXqXuXcXcXcXcXcXFXuXcXHXHXHXcXFXFXFXFXcXFXcXcXcXcXcXcXcXcXcXqXqXqXqXcXcXqXqXFXcXuXuXuXcXFXcXcXcXqXqXuXcXcXcXcX8XqXcXuXuXcXcXcXqXcXcXcXDXeXcXcXqX5XqXcXcXcXcXcX2X2X2X8XqXqXqXyXyX8X8XqXqXqXqXcXuXcXqXqXqXqXqXcXqXuXuXuXcXcXuXuXcXqXqXqXqXeXqXqXcXcXcXcXcXFXcXcXHXHXcXDXHXHXcXcXuXcXHXcXtXcXcXqXqXcXcXqXcXrXrXrXqXcXqXqXqXcXqXcXqXqXcXuXcXcXcXqXqXcXcXcXcXyXcXcXuXuXcXcXVXcXqXqXqXqXwXeXcXcXrXqXqXqXqXuXcX5XcXFXVXDXDXcXcXHXHXcXcXcXqXqXqXcXcXcXqXcXqXqXqXuXcXcXcXFXcXcXcXcXcXuXuXcXcXcXcXqXcXcXcXuXcX"
};
