/* XPM */
static char *wall_multiple_tab[] = {
/* columns rows colors chars-per-pixel */
"128 128 227 2 ",
"   c #010000",
".  c #0B0A00",
"X  c #0A0A09",
"o  c #060508",
"O  c #110F01",
"+  c #170207",
"@  c #03160A",
"#  c #181501",
"$  c #191603",
"%  c #070616",
"&  c #130414",
"*  c #16061C",
"=  c #1A1918",
"-  c #181614",
";  c #24040C",
":  c #201C01",
">  c #2B1A0E",
",  c #2D1211",
"<  c #062E18",
"1  c #052714",
"2  c #073418",
"3  c #062A0C",
"4  c #292302",
"5  c #292603",
"6  c #322B02",
"7  c #382307",
"8  c #3C3402",
"9  c #363308",
"0  c #2F2719",
"q  c #0B0924",
"w  c #240726",
"e  c #2E0832",
"r  c #350636",
"t  c #370438",
"y  c #39063A",
"u  c #3B083D",
"i  c #350A37",
"p  c #381335",
"a  c #2F2D2B",
"s  c #262523",
"d  c #302E2D",
"f  c #342A20",
"g  c #3C3A38",
"h  c #3A3836",
"j  c #4C0A18",
"k  c #453C03",
"l  c #433B07",
"z  c #4E360D",
"x  c #730E26",
"c  c #4E3B32",
"v  c #16490F",
"b  c #084615",
"n  c #064A16",
"m  c #0A5217",
"M  c #095418",
"N  c #105315",
"B  c #156819",
"V  c #247C19",
"C  c #3B4E08",
"Z  c #484204",
"A  c #504503",
"S  c #5A4E03",
"D  c #564A03",
"F  c #584A0D",
"G  c #645604",
"H  c #6D5E04",
"J  c #675906",
"K  c #655815",
"L  c #766604",
"P  c #7B6B05",
"I  c #7D7C05",
"U  c #7C7B10",
"Y  c #6C6D06",
"T  c #4A463A",
"R  c #7E5F31",
"E  c #456B11",
"W  c #160C5D",
"Q  c #05125D",
"!  c #0C154F",
"~  c #3E0A40",
"^  c #350F43",
"/  c #300F52",
"(  c #1E2556",
")  c #170C60",
"_  c #262F59",
"`  c #420B45",
"'  c #470D4A",
"]  c #421144",
"[  c #5B115C",
"{  c #551259",
"}  c #501256",
"|  c #5E1261",
" . c #551B66",
".. c #5F1E70",
"X. c #611364",
"o. c #641866",
"O. c #6C1C79",
"+. c #783977",
"@. c #682870",
"#. c #592E59",
"$. c #2E447E",
"%. c #494644",
"&. c #4B4846",
"*. c #474542",
"=. c #55524F",
"-. c #565451",
";. c #595653",
":. c #514E4B",
">. c #715D50",
",. c #65625E",
"<. c #646056",
"1. c #73644C",
"2. c #515876",
"3. c #684168",
"4. c #756F6A",
"5. c #971135",
"6. c #A41236",
"7. c #AB1338",
"8. c #887505",
"9. c #8F7B05",
"0. c #847505",
"q. c #927E05",
"w. c #B5732C",
"e. c #8D5C2A",
"r. c #C87217",
"t. c #C46E16",
"y. c #C07E30",
"u. c #837E79",
"i. c #817C77",
"p. c #827C6D",
"a. c #825C5E",
"s. c #2C931D",
"d. c #2E991E",
"f. c #23821C",
"g. c #768409",
"h. c #53841A",
"j. c #858305",
"k. c #958006",
"l. c #9A8506",
"z. c #9D8806",
"x. c #A28C06",
"c. c #AA9206",
"v. c #A79006",
"b. c #AAA80E",
"n. c #ABC11D",
"m. c #D3D219",
"M. c #C2CE1C",
"N. c #FAF71F",
"B. c #EAE81C",
"V. c #FDFC20",
"C. c #BB8C47",
"Z. c #AC854E",
"A. c #85817C",
"S. c #8A857C",
"D. c #B5977C",
"F. c #C8A47D",
"G. c #C19048",
"H. c #6C2281",
"J. c #78238B",
"K. c #7C1F89",
"L. c #2D4586",
"P. c #334985",
"I. c #852496",
"U. c #932BAB",
"Y. c #9129A6",
"T. c #9B2CB0",
"R. c #912EAA",
"E. c #915E8D",
"W. c #895386",
"Q. c #956A8E",
"!. c #AA34C7",
"~. c #B939DA",
"^. c #B539D6",
"/. c #BF3CE2",
"(. c #C53EE9",
"). c #C940EE",
"_. c #CD42F3",
"`. c #D745FF",
"'. c #DA46FF",
"]. c #DF48FF",
"[. c #D043F7",
"{. c #E249FF",
"}. c #98938C",
"|. c #958E8B",
" X c #A79C90",
".X c #ABA69E",
"XX c #AA8AA3",
"oX c #AEA9A1",
"OX c #AEA7A0",
"+X c #BBB4AC",
"@X c #B4ACA9",
"#X c #C5BBB8",
"$X c #C6AFB6",
"%X c #CEA981",
"&X c #CDC5BE",
"*X c #CBC4BD",
"=X c #CDB9C1",
"-X c #CFC9C1",
";X c #CEC7C0",
":X c #D2CCC4",
">X c #D6CBC9",
",X c #DDD5CC",
"<X c #DBD4C9",
"1X c #D9D2D3",
"2X c #DFD8D1",
"3X c #E0D7CE",
"4X c #E1D9CF",
"5X c #E5DDD5",
"6X c #E8DFD6",
"7X c #E7DFD8",
"8X c #E8DFD8",
"9X c #E0D6D1",
"0X c #E7E0D6",
"qX c #E8E1D7",
"wX c #E7E0D8",
"eX c #ECE5DB",
"rX c #ECE6DB",
"tX c #EDE6DD",
"yX c #EBE3DB",
"uX c #EEE8DE",
"iX c #F0E9DF",
"pX c #EFE7E0",
"aX c #EFE9E1",
"sX c #EFEDE8",
"dX c #F1EAE2",
"fX c #F1ECE5",
"gX c #F4F2EC",
/* pixels */
"yX5X6X5X6XyXqXyXyX0X5XqXqXyXyX5X5XqX6X5X5X6X6X5X5X5X5X6XyXqXqXyXyXyXyXyXyXyX0XyXyXpXuXyXyXyXqXuXuXuXyXyXyXyXqXyXyXyXuXyXyXuXyX0XqXqX5X5X5X5X5XqX6X6X6X6X6X5X5X6X5X6X6X6X5X6XqXqXyX0X0XqXqXqXqXyXqXyXyXyXyXyXyXyXyXqXyXyXyXyXyXyXyXyXyXyXyXyXyXqXyXyXyXyXyXqXyXyX",
"yXqXqX5X5XqX6X6XyXyXqXqX0X0XyXyX5X5XqX5X5X6X5X5X5X5XqXqXqXqXyX0X0XyXyXyXyXyXyXyXyXdXdXyXyXqX0XyXyXiXdXyXyXyXyXyXyXyXuXyXyXiXuXyX6X6XyX5X3X5X6XqX6XqXyXyXqX5X5X6XqXyXqXqX6X5X5XyXyXyXyXqXyXqX6XyXyXyXyXyXyXyXyXiXyXyXyXyXyXyXyXuXyXyXyXyXyXyXyXyXyXqXyXyXyXyXyXyX",
"yXyXyXqX5X5X6X6XyX0XyXyXyXyXyXyXyXqXyXqX5X6X5X5X5X5X6X6XqXqXqXqXqX5X0X5XqXyXyX8X5X5XqXyXqXyXyXyXyXqXyXuXuXyXyXyXyXyXuXyXyXyXiXyXyXyX5X4X5XqX6X6X6XqXyXyXqX5X6X6XyXyX6XqX5X5X,X5XyXyXyXyXyXqX5XyX5X0XyXyXyXyXyXyXyXyXqXqX0XqXqXyXyXyXyXuXyXyXyXyXyXyXyXyXyXyXyXyX",
"yXyXyXqXyXqX5X5X5X0XqXyXyXyXyXyXyXpXwXyX5X5XqX5X5X5X5XqX6X5X6XyXyX6X5X5XqX0XqXyXyX0X5XyXyXyXyXyXyXyXyXyXyXyXyXyXqXyXyXyXyXyXyXyXyXqX5X5X5X5X5X5X6X6XqX6X6X5X5X6XyX6X5X5XyX5X5X5XyX0XqXyXqXqXqXyX5XqXyXqXqXyXyXyXyX5XqXqX5XqXyXyXyXiXyXyXyXyXyXyXyXyXyXyXyXyXyXyX",
"uXpXyXyXyX6X5X5X5X0X0XyXyXyXyXyXyX7XyXyXyX0X6X5X5X5X5X5X5X6XyXqXqXqXyXyXyXyXyXyXyXqXyXyXyXwXyXdXiXyXyXyXyXyXyXyXyX0X5XyXuXyXyXyXyXqXyXqX5X6X5X6X6X6XqX6X5X5X5X6X6X6X6XqXyXqX4X5X5X0XqX5XyXyXyXyXyXyX0X5X5XyXyXyXyXqXyXyXqXyXyXyXyXyXuXyXyXyXyXyXyXyXyXyXyXyXyXyX",
"yXyXyXyXyXyX6X5X5X0XqXqXyXyXyXyXyX5XyXuXyXyX5X5X5X5XqX6XqXyXqX5X+.| | | | | | | | | | | | | | | | | | | | | | | | E.0XqXyXyXyXyXyXyXyXyXqX5X5X5X5X6XqXyX6X5X5XqXqX6X5XqXqXqXqX6XqXyXqX6X0XqXyXqXyX5X5XqX5XyXyXyXyXyXqXyXqX5XyX0XyXyXyXyXqXyXyXyXyXyXyXyXyXyXyXyX",
"yXyXyXyXqX5X6X5X5XqXqX0XyXyXqXyXyXyXyXyXyXyXyX5X5X5X5X5XqXyXyX5X+.| | | | | | | | | | | | | | | | | | | | | | | | E.yX0XyXyXyXyXyXyXyXyXyXqX6X6XyX5X6XqXqXqXqXqX5X6X5X6X6X6XqX6XqXyXyXyX5X8XyXqXyX5X5X6XyXyXyXyXyXyXyXyXyX0XyXqXyXiXuXyXyXyXyXyXyXyXyXyXyXyXyXyX",
"yXyXyXyX5X5X6X5X5X5X5XqXyXyXqXyXyXyXyXyXyXyXyX6X5X5X6X5X0XqXyX5X+.| | | | | | | | | | | | | | | | | | | | | | | | E.yXyXyXyXyXyXyXyXyXyXyXyX6X5X6XqXyXyX6XqXyXyX5X5X5X5X5X6X5X6XqXqX5XyXyXyX5XyXyX5X5X5X6XyXyXyXyXyXyXyXqXqXyXyXyXyXyXyXyX0XyXyXyXyXyXyXyXuXyXyX",
"pXdXuXyXyXqX6X5X5X5X5X5XyXyXyXyXyXyXyXyX5X5XuXqX5X$X+.+.+.+.+.+.o.| X.e & & & & & & & & & & & & & & & & & & y X.| @.+.+.+.+.+.a.9XyXyXyXqXyXyXqX5XqXqXyXqXyXyXqX5XqX5X5X5X6X,.a a a a a a a a &.5XyXyXqXyXyXqXyXyXyX5XqXyXyXyXyXyXyXyXyXqXqXyXyXyXyXyXyXyXyXyXyX",
"yXyXyXyXyXyX5X5X6X5X5X5X5X0XyXyXyXyXyXyXyXyXyX7X5X$X| | | | | | | | X.*                                     p X.| | | | | | | o.9XdXyXyXyX0XyXyXqXqXqXyXqXyX6X5X5XqXqX5X6X6X*.                > 5X6XyXqX6XqXyXyXyXqX5XyXyXyXyXyXyXyXyXyXqX6XyXqX0XyXyXyXyXyXyXuX",
"yXdXyXyXyXyXyXyX5X,X5XqX0X5X0XqX0XyXyXyXyXyXyXwX0X$X| | | X.X.X.X.X.X.*                                     i X.X.X.X.X.X.| | @.5XyXwXyXqXqX0XyXyXyXyX5X5XqX6X5X5X5X6XqX6X6X&.                s qX6X5X5X5X5XyXyX5XqXyXyXyXqXyXuXyX5X5X0X5X5X5XqXqXyXyXyXyXqXyXuX",
"yXyXyX5X6X5XqXyX5X6X6X5XqX5X5X5XqXyXyXyXyXyX$XE.E.W.| | [ w w w w w w z G G G G G G G G G G G G G G G G G G z w w w w w e | | o.E.E.E.>XqX5X5XqXyXqXqX3X5XqX5X>X;.-.-.=.;.;.K G G G G G G G G K =.-.=.=.=.=.#XqX5XyX5X5XyXqXqXdXqX5XyX5X5X5XqXqXyXyXyXyXyXyXqXyX",
"pXyXyXyXqX6X5X5X5XyX5X5X5X5X5X5X5X5XyXqX5X5XXX| | | | | {             L c.x.x.x.x.x.x.x.x.x.x.x.x.x.x.x.x.c.k           & | | | | | | =XyX0XyXyXqXqX5X3X5XqX5X&X            L c.x.x.x.x.x.x.c.9.            .XqX6XyXyX6XyXyXyXyXyX5X0XyX5X5X6XqXyXyXyXyX5X5X5XyX",
"pXyXyX5X5X5X5X5XyXqXyX5XqX5X5XqX5X4X5X6X6X5XXX| | | X.X.{             H x.x.x.x.x.x.x.x.z.z.x.x.x.x.x.x.x.x.k           & X.X.X.| | | =XyXyXyXqX0X0X5XqXqX6X5X&XX           L c.x.x.x.x.x.x.c.9.            OXyX6X5X6XyXqXyXyXyXyX0X5XqXqX5X5XqXqXyXyXyX5XqXyXyX",
"0X5XyX8XyX5X5X5X5XqXqX0X5XyX4X5XqX5X5X5X5X6XXX| | { p p p k k k k k k 8.x.x.x.z.x.x.x.x.z.x.x.x.x.x.x.x.x.x.H k k k k k l p p y [ | | $XqXyXqX0XyXyXqXqXyXqX5X&XX     , j j z S S S S S S S S D j j j o     .XqX6XqXqXqXqXyXyXyXyXyXqX0XqXqX0X5X5X5XyXyXyXqX0XyX",
"yXqXyXyXyXyX5X5X5X6X5XqX0XqX5X4X5X6X5X5X5X6XXX| X.'     . z.x.x.x.x.x.x.x.x.x.z.x.x.x.x.z.z.x.x.x.x.x.x.x.x.x.x.x.x.x.c.8.      { | | =XyXyXyXyXyXyX0X5X6X6X5X&XX     5.7.7.;                 + 6.7.6.+     .X6X5X5X6XyX6X6XyXyXyXqXyXyXqXqXyXyX5X5XqXyXqXqXqXyX",
"0XyXyXyXyXyX6XqXyXyXyXqXqX0XyX5X5XyXqX5X5X4XXXX.X.'     . l.x.x.x.x.x.x.x.x.x.x.x.x.x.x.x.x.x.x.x.x.x.x.x.x.x.x.x.x.z.x.P       [ X.X.=XyXyXyXyXyXyXyXqXyXqX5X:XX     5.7.7.;                 + 6.7.6.+     oX6X6X5X5XyXyXyXqXyXqXqXyXyXyX0XyXyX5X5XqXyXqXqXyXqX",
"yXdXpXyXyXyXyXyXqXyXyXqX0XyXyX0XyXqX6X5X4X,XQ.' ' p 5 5 6 l.x.x.x.x.x.x.z.x.9.L L L L L L L L P L L L k.x.x.x.x.x.x.z.x.8.5 5 5 ' ' ' #XyXyXyXqX0XyXyXyX,X.XOX}.6 5 5 x x x j 7 7 7 0 0 > % % * x x x 7 5 5 S.oX.X&X6X6X6XyX6XyXyXqXyXyXyXyXqXqXyXyXqXqXyX5X5XyX",
"yXyXyXwXyXyXyXyXyXyXyXyXqXqX0X5X5XqXqXqXqX5Xi.    5 x.x.x.x.x.x.x.x.x.x.z.x.A                         L x.x.x.x.x.z.z.z.x.x.x.k..     +XyXyXyXyX0XyX0X5XoX    O l.x.x.#     e.r.t.y.C.G.a.Q Q !       q.x.x.5     u.yX6X5XqXqXyXyXyXqXyXyXyXyXyXyXyXyXyXyXyX5XyX",
"yXyXyXyXyXuXyXyXyXyXyXqXqXqXqX0X5X5XyXyXqXqXu.    5 x.x.x.x.x.x.x.x.x.x.x.v.A                         L x.x.x.x.x.x.z.z.x.x.x.k..     +XyXyXyXyXyXqXqXyXoX    O l.x.l.#     e.t.t.w.C.C.a.Q Q !       9.x.x.5     u.qXqXqXyXqXqXyXyXyXyXyXuXyXqXyXyXyXyXyXyXyXyX",
"yXyXqXqXyXyXyXqXyXyXyXyXyXyXqXyX5X0XyXyXqXqXu.    5 x.x.z.z.z.z.q.9.9.9.9.q.F * * &             * * * H q.9.9.9.9.k.x.x.x.x.x.k..     +XqXyXyXyXyXyXqXqXoX    O l.z.z.#     e.t.t.w.Z.Z.1.( ( (       9.x.x.5     A.qX0XyX6XqX6X5XqXqXyXyXyXyXyXyXyXyXyXyXyXqXyX",
"yXyX0X5XyXyXyX0XyXyXyXyXyXyXyXyXyXyXyXyXyX5X4.    5 x.z.x.z.x.z.$           O.`.`.T.r y y y y ~ /.[.`.p           l x.x.x.x.x.k..     +XyXyX0XyXyXyXqXqXoX    O l.z.z.#     R C.C.4.L.P.2.C.C.e.      9.x.x.5     u.qXqXqX6X6XqXqX5X0XyXyXyXyXyXyXyXyXyXyXqXyXyX",
"yXqXqXyXyXyXyXyX0XqXyXyXyXyXyXyXyXqXyXyXyX5X4.    5 x.x.x.x.x.z.#           H.].].!.t y y y y ' (.].].^           8 x.x.z.x.x.k..     +XyXyXyXyXqXyXyXyXoX    O l.x.z.#     R C.C.4.L.L.2.C.C.e.      9.x.x.5     u.yXyXyXqXqXqXyX5XqXyXyX5X0XqXyXyXyXyXyXyXyXyX",
"yXyXyXyXyXyXyXqXyXyXyXyXyX5XyXyXyXyXyX0X5XqXi.    5 x.x.x.x.x.z.#           H.].].!.t y y y y ' (.].].^           8 x.z.z.z.z.k..     +XyX5XqXyXyX5X5XqX.X    O l.x.z.#     R C.C.4.L.L.2.C.C.e.      9.x.x.5     A.yXyXyXyXyXyXqX6X5XqXyXyXyXyXyXyXyXyXyXyXyXyX",
"yXyXyXyXyXyXyXyX0XqXqXyXyXyX0XqXqXyXyX4.= s F 9.8.9.x.x.x.x.x.z.#     J.~.^.).].].!.y y y y y ' (.`.`./.^./.{     8 x.x.x.x.x.z.8.8.8.f s =  XqX5X6XyXqXoX    O l.x.z.#     _ 2.2.>.w.w.e.( ( (     o q.x.x.5     u.qXyXyXyXyXyXqXqX5X6XyXyXyXyXyXyXyXyXyXyXyXyX",
"yXyXyXyXyX5XyXyXyXyXqXyX5X0XqXqXqXqXyX=.    k c.x.x.x.x.x.x.x.z.#     T.].].].`.].!.y y y y y ' (.`.`.].].{...    8 x.x.x.x.x.x.x.x.x.:     |.qXyXqXyXyXoX    O l.x.z.#     _ L.L.>.r.r.e.Q Q !     o q.x.x.5     u.6XyXyXyXyXyXqXqXqX5XyXqXqXyXyXyXyXyXyXuXyXyX",
"yXyXyXyXyXyXyXyXqXyXyXyXqXyXyX0XyXyXyX-.    k x.x.x.x.x.x.x.x.x.#     T.{.].].].].!.t y y y y ' ).].].].].{...    8 c.x.x.x.x.x.x.x.z.$     |.5XyX0XyXqX.X    O z.x.x.#     _ P.L.>.r.r.e.Q Q !       q.x.v.5     4.yXyXyXyXyXyXyXyXyX6XyXyXqX5X0XyXyXqXyXyXyXyX",
"yXyXyXyXyXyXyXyXyXyXyXyXyXyXqX5XqXyXyX-.    k x.z.z.z.x.k.6 6 6 p ' ~ O.I.I.I.I.I.O.y y y y y ~ K.I.I.I.I.I.| ~ ' p 6 6 k x.x.x.x.x.z.$     |.yXyXyX0XyX>X X X|.9 6 6 x x x e q q > 7 7 > % % * x x x 7 6 6 p. X}.&XyXyXyXyXyXqXyXqXyX5XyXqX5X5X0XyXqXyXyXyXyXyX",
"dXyXyXyXyXyXyXyXyXqXyXyXyXqXyXqXqXqX0X-.    k x.x.x.x.x.9.      { X.X.[ [ [ [ [ [ { y y y y y y { [ [ [ [ [ | X.X.y     $ z.z.x.x.x.x.:     }.yXyXyX5XqXyXyXyX:XX     5.7.7.;                 + 6.7.6.o     oXqX5X5XyXyXqXyXyX5X0X0XyX5X0XqX5XyXyXyXyXyXyXyXyXyX",
"dXdXpXpXyXdXpXyXyXqXyXyXyXyXyXyX0XqXqX;.    k x.z.x.x.v.q.      ' [ [ [ [ [ [ [ [ { y y y y y y { [ [ [ [ [ [ [ [ p     $ x.x.x.x.x.x.$     }.uXyXyXyXyXyXyXyX-XX     5.7.7.;                 + 6.7.6.+     oXyXyX5XyXyXyXyXqX5X5X0X0X5X5X5XyXyXyXyXyXyXyXpXyXyX",
"dXdXpXpXuXpXdXyXyXyXyXyXyXyXyXyX|.4.4.K A A L x.x.9.A A F O.H.H.U.T.T.T.T.T.T.T.T.K.y y y y y ~ Y.T.T.T.T.T.T.T.T.I.O.H.@.A A D l.x.x.G A A 1.4.4..XyXuXyXyX0X&XX     j j j z D A A A A A A A z j j j o     oXqXyXyXyXqXqXyX5X5X5X0XqX5X5XqXqXyXyXyXyXyXyXyXyXyX",
"uXpXpXdXpXyXyXdXdXyXyXyXyXyXyXyXs     G c.x.x.x.x.L     * `.].].].].].].].].].].{.!.y y y y y ' ).].].].].].].].].].].{.^.      k.x.x.x.x.c.8     ,.uXpXdXyXyX:XX           L c.x.x.x.x.x.x.c.9.            oXyXqXyXyXyXyXqXqX6X6X6XqXqX6X0X0XqXyXyXyXyXyXyXyXyX",
"yXuXdXdXdXyXyXpXyXyXyXyXyXyXqXqXa     G x.x.x.x.x.L     * [.`.`.`.`.`.`.`.`.`.`.].!.t y y y y ' (.].`.`.`.`.`.`.`.`.`.].!.    . k.x.x.x.x.x.8     ,.yXyXyXuXiX>X            L c.x.x.x.x.x.x.x.9.            oXyXyXyXyXyXyXqXyXyXyXqXyX6XqXyXqXyXyXqXqXyXyXdXyXyX",
"yXyXyXyXyXyXyXpXyXyXyXyXyXyXyXwXa     G x.x.x.x.x.L     * [.`.`.`.`.`.`.`.`.`.`.].!.y y y y y ' (.].`.`.`.`.`.`.`.`.`.].!.    . k.x.x.x.z.x.8     ,.yXyXyXyXyX,X:.&.&.&.&.&.K L H H H H H H H J &.&.&.&.&.&.#XyXyXyXyXyXyXyXyXyXyXyXyX5X5XyXqXyXyX5XyXyXyXyXdXpX",
"yXyXyXyXyXyXyXpXyXyXyXyXyXyXyXyXa     G x.z.x.x.x.L     * [.`.`.`.`.`.`.`.`.`.`.].!.t y y y y ' (.].`.`.`.`.`.`.`.`.`.].!.    . k.x.z.z.z.x.8     ,.uXdXyXyXyXyXyXqXyXyXyXyX&.                s pXyXyXyXyX0XyXyXyX0XyXyXuXyXyXyXqX0X6X6X5XyX0XqXyXyX5XyXyXyXyXdX",
"yXyXpXwXyXyXyXpXyXyXyXyXyXyXyXyXd     G x.z.x.x.x.L     * [.].].].].].].].].].].].!.t y y y y ' (.].].].].].].].].].].].!.    . k.x.x.z.x.x.8     ,.yXyXdXpXyXdXyXyXyXyXyXyX&.                s yXdXdXpX5XyXqXyXyXyX0XyXyXqX5XyXqX5X5X5X,XqX0XyXyXyXyXpXyXyXyXyX",
"yXyXpXyXyXyXyXyXyXpXyXwXyXyXyXdXd     G x.x.x.x.x.L     * ~.(.(././././././././.(.U.y y y y y ' ^././././././././././.(.T.    . k.x.x.z.x.x.8     ,.yXyXyXyXyXyXyXuXyXyXdXyX,.= s s s s s s s *.pXdXdXyXuXdXyXqXyXqXqXqXqXyXuXyXqXyX5XyX2X2XyXyXyXyXyXyXpXdXyXyX",
"yXyXyXyXyXpXyXyXyXyXyXyXyXpXyXyXd     G x.x.x.x.x.L     o y ~ ~ ~ ~ ~ ~ ~ ~ ~ ~ ~ ~ y y y y y y ~ ~ ~ ~ ~ ~ ~ ~ ~ ~ ~ ~ r     . k.x.x.x.x.x.8     ,.yXqXyXyXyXyXyXyXyXdXdXdXyXyXyXyXyXyXyXyXyXyXpXdXpXyXdXpXyXyXyXyXyXiXyXyXuXyX5XyX0XqXyX5XqXyXyXyXyXyXyXyXyXyX",
"yXyXyXyXyXyXyXyXyXyXyXyXyXyXyXyXd     G x.x.x.x.x.L     o y y y y y y y y y y y y y y y y y y y y y y y y y y y y y y y e     . k.x.x.x.x.x.8     ,.yXyXyXyXyXyXyXyX6XyXpXpXdXyXyXdXpXdXyXpXyXyXyXyXyXyXyXyXpXyXyXyX5XyXuXyXyXyXyXyXyX5XqX5XyX5XyXyXyXyXyXyXyXyX",
"yXyXyXyXyXyXyXyXdXyXyXyX5X5X5XqXd     G x.x.x.x.x.L     o y y y ] ] ] ] ] ] ] ] ] ' y y y y y y ] ] ] ] ] ] ] ] ] ' y y e     . k.x.x.x.x.x.8     ,.5XyXyX0XyXqX5X5X5XyXyXyXpXdXyXdXdXdXpXyXyXdXpXdXyXyXyXuXyXyXyXyXyXyXyXuXyXyXyXyXyXyXyXyXyXyXyXyXyXpXyXyXyXyX",
"yXqXyXyXyXyXyXyXyXyXyXyX5X5X5X5Xa     G x.x.x.x.x.L       y y ~ $X1X1X1X1X1X1X1X1XXXt y y y y ] =X1X1X1X1X1X1X1X2XXXt y e     . k.x.x.x.x.x.8     ,.0X5X0XyXyXyXyXyXyXyXyXyXyXyXyXdXdXdXyXpXyXdXdXdXyXyXdXdXyXyXdXyXyXdXyXyXyXyXyXyXyXyXyXyX5X0XyXpXyXpXyXyXyXyX",
"yXyXyXyXyXyXyXyXyXyXyXyXyXyX5XqXa     G x.x.x.x.x.L       y y ~ >XpXpXpXpXpXpXpXgX@Xt y y y y ] 1XpXpXpXpXpXpXpXgXXXt y e     . k.x.x.x.z.x.8     ,.yXyXqXyXuXyXyXyXuXuXdXyXdXyXyXdXdXdXdXdXyXyXpXdXdXyXpXdXyXyXyXyXyXuXuXyXyXuXyXyXyXyXyXyXqX5XyXyXpXyXyXdXyXyX",
"yXyXyXyXyXyXyXyXyXyXyX5X6XyXyXyXa     G x.x.x.x.x.L       y y ~ >XsXpXsXpXpXpXpXgX@Xt y y y y ] 1XsXsXsXpXsXpXpXgXXXt y e     . k.x.z.z.z.x.8     ,.uXuXqXqXyXyXiXiXiXdXuXyXyXyXyXyXyXdXdXdXdXyXdXdXpXyXyXyXyXdXyXyXyXyXyXyXyXyXpXyXyXyXyXyXqX0XyXyXyXyXpXyXyXyX",
"yXyXyXyXyXyXyXyXyXyXyX,X5XuXyXyXa     G x.x.x.x.x.L       y y y #.3.3.3.3.3.3.3.3.#.y y y y y ~ #.3.3.3.3.3.3.3.3.#.y y e     . k.x.x.z.x.x.8     ,.yXyXyXyXyX>XT g g g g g h h g g g g g g g g g g g g g g g g h  XyXqXyXpXyXyXpXyXdXyXyXyXqX5XyXyXyXyXyXyXyXyX",
"yXyXyXyXyXyXyXwXwXwXyX5X5XyXyXpXd     G x.z.z.z.x.L       y y y t t t t t t t t t y y y y y y y t t t t t t t t t y y y e     . k.x.x.z.x.x.8     ,.qXyXyXyXyX:X                                                  u.yXyXpXdXyXyXpXyXyXyXyXyXyX0XyXyXyXyXyX5X5XyX",
"yXyXyXyXyXyXyXyXyXyXwXwXwXyXyXyXd     G x.z.x.z.x.L       r r r r r r r r r r r r t y y y y y y t r r r r r r r r r r r e     . k.x.x.x.x.x.8     ,.yXyXyXyXyX-XX                                                 A.yXyXdXyXyXyXdXyXyXyXyXyXyXqXqXyXyXyXyXyX0XyX",
"yXyXyXyXyXyX5X0X5X5X5X5X5XyXyXyXa     G x.x.x.x.x.L     & Y.U.U.U.U.U.U.U.U.U.U.U.J.y y y y y ' I.U.U.U.U.U.U.U.U.U.U.U.J.    . k.x.x.x.x.x.8     ,.yXyXyXqXyX:XX     A S S S S S S S S S S S S S S S S S S #     |.yXyXyXyXyXyXpXyXyXyXyXyXyXqXqXyXyXyXyXyXyXyX",
"yXyXyXyXyX5X5X5X5X5X5X5XyXyXyXyXa     G x.x.x.x.x.L     * `.].].].].].].].].].].{.!.t y y y y ' [.].].].].].].].].].].{.^.    . k.x.x.x.x.x.8     ,.5XqXyX0XyX:XX     9.v.x.x.x.x.x.x.x.v.x.x.x.x.x.x.x.x.c.5     A.dXyXyXdXpXpXyXyXyXyXyXyXyXyX5XyXyXyXyXyXyXyX",
"yXwXyX5X6XyX5X5X5XqX5XyXyXyXyXwXa     G x.x.x.x.x.L     * [.`.`.`.`.`.`.`.`.`.`.].!.y y y y y ' (.].`.`.`.`.`.`.`.`.`.].!.    . k.z.z.x.x.x.8     ,.5X5XyXyXyX:XX     8.x.x.x.x.x.x.x.x.x.x.x.x.x.x.x.x.x.x.5     A.yXuXyXpXdXyXyXyXyXyXyXyX0XyX5X0XyXyXyXyXyXyX",
"yX5X5X5X5XqX,X5X5XyXqX5XyXyXyXyXa     G x.x.x.x.x.L     * [.`.`.`.`.`.`.`.`.`.`.].!.y y y y y ' (.].`.`.`.`.`.`.`.`.`.].!.    . k.z.x.x.x.x.8     ,.qXyXyXyXyX:XX     8.x.x.L G G G G G G G G G G G G l.x.x.5     A.yXyXyXyXyXyXyXyXyXyXyX5XqXyXyX5XyXyXyXyXyXyX",
"qX5X5X6X5X5X5X5X5X5XyXyXyXyXyXyXa     G x.x.x.x.x.L     * [.].`.`.`.`.`.`.`.`.`.].!.t y y y y ' (.].`.`.`.`.`.`.`.`.`.].!.    . k.z.x.x.x.x.8     ,.qXyXyXyXyX:XX     8.x.x.5                         9.x.x.5     u.yXyXyXyXyXyXyXyXyXyXyXyXyX0XwXqXyXyXyXyXyXyX",
"qXyX6X6X5X5X5X6XyX0XqXyXyXyXyXyXa     G c.x.x.x.x.L     * `.].].`.`.`.].].].].].].!.t y y y y ' (.].].].].].].`.`.].].].!.    . k.x.x.x.x.c.8     ,.yXyXuXuXiX:XX     8.x.x.6                         9.x.x.5     u.yXyXyXpXpXyXyXyXyXyXwXyXyXyX5X5XyXyXyXyXqXyX",
"yXyXqXyXqXqXqXqXyXyXyXyXyXyXyXyX=.a d K 8.0.9.x.x.P $ $ 0 !.!.!.[.`.].(.~.~.~.~.~.Y.y y y y y ' !.~.~.~.~.~.).].`.).!.!.R.: : 5 k.x.x.8.P 8.F d s i.yXyXyXyXyX:XX     8.x.x.6     . @ @ . . . .       9.x.x.5     A.yXyXyXyXpXpXyXyXuXpXyXyXyXyX5X5XyXyXyXuXyXyX",
"yXqXqXyXyXyX5X5XyXqXqXyXyXyXyXyXyXqX0X-.    k x.x.x.x.x.9.      ~.].].O.y y y y y y y y y y y y y y y y y r U.].].I.    : x.x.x.x.x.x.:     }.yXyXwXyXyXyXyXyX:XX     8.x.x.6     3 M m b < < 1       9.x.x.5     A.yXyXyXyXyXyXyXyXyXyXyXyXyXyX5X5XyXyXyXyXuXyX",
"yXyXyXyXyXyXyXyXyXyX6XyXyXyXyXyXyXyXyX-.    k x.x.x.x.x.9.      ~.].].O.t y y y y y y y y y y y y y y y y r U.].].I.    : x.x.x.z.x.z.$     }.pXyXyXyXyXyXyXyX:XX     8.x.x.6     3 M m b < < 1       q.x.x.5     A.yXyXpXdXdXpXyXyX5XyXyXyXyX0X6X5X5XyXyXyXyXyX",
"yXyXyX5XyXyXyXyXyXyXyXwXyXwXyXyXyXyXyX-.    k x.x.x.x.x.9.O . . !.).[.O.' ' ' y y y y y y y y y y y y ' ' ' Y.[.[.I.. . 5 x.x.x.z.x.x.:     }.yXyXyXpXyXyXyXuX:XX     8.x.x.6     3 M m b < < 1       9.x.x.5     A.uXyXyXyXyXpXyX0XyXyXyX0XyX0X5X5XqXyXyXyXuXyX",
"yXqXyXyXyXyXqXyXyXqXqX0XyXyXyXyXyXyXyX;.    k x.x.x.x.x.z.k.q.q.> & o U.[.`.I.r y y y y y y y y y y y !.[.`...o & l l.k.k.x.x.x.x.x.x.:     }.yXyXyXyXyXyXyXyX:XX     8.x.x.6     @ < < < < < 1       9.x.x.5     u.yXyXqXyX5XyXyXyXyXyXyXyXqX0X5X0X5XyXqXqXuXuX",
"qXqXqXyXyXyXqXqXyXyX0XqXyXqXqXyXyXqXyX;.    k x.z.z.x.x.x.x.z.l.#     U.].].I.r y y y y y y y y y y y !.].]...    8 v.z.x.x.x.x.x.x.x.:     |.yXdXuXyXyXyXyXyX:XX     8.x.x.6     @ < < < < < 1       9.x.x.5     u.yXyXyXyXyXyXyXyXyXdXdXyXyXyXyXqX5XyXyXqX0XyX",
"5XqXyXyXqXyX5X0XyXqXqX5X5XyXyXqX0XwXyX;.    k x.z.z.x.x.x.x.z.l.#     U.].].I.r y y y y y y y y y y y !.].]...    8 x.z.z.z.x.x.x.x.x.:     |.uXyXyXyXyXyXyX5X&XX     8.x.x.6     @ < < < < < 1       9.x.x.5     A.qXyXyXyXyXyXyXyXyXuXyXyXyXyXyXyX0X5XyXqX5XqX",
"yXqX5X5XyX5X5X0XyXyXyXqXqX0XyXqX0X7XyX:X+X#X4.: $ k x.x.x.x.x.l.#     w e w H.~.~.Y.y y y y y ' !.~.~.{ e e &     8 x.x.z.x.x.k.5 : : }.+X+X,XyXyXqXyXyXyXyXyX-XX     8.x.x.6     @ < < < n n b       9.x.x.5     A.yXyXqXyXqXyXyXyXyXyXyXyXyXyXyXyXyXyXyXqX6X6X",
"yXyXyX6XqXqX0X0X5XyXqXyX0X0XqXqXyXyXyXyXyXyXA.    4 x.x.x.x.x.z.#           H.{.].!.t y y y y ' ).].].u           8 x.z.x.z.z.k..     #XqXqXyXyXyX5XyXyXqXyXyX:XX     8.x.x.6     @ < < 2 m m b       q.x.x.5     A.yXyXqX5XqXqX0XqXyXqXyXyXyXyXyXyXyXyXyX5XyXyX",
"qXqXyX5X5XqX5X5XqX5XyXqXqXqXyXyX0X5XqXyXyXyXA.    5 x.x.x.x.x.l.#           H.{.{.!.y y y y y ' [.].{.^           8 x.x.z.z.x.k..     +XqXyXyXyXyX5X6XyXyXyXyX&XX     8.x.x.6     @ < < 2 m m b       q.x.x.5     u.yXyX6X5XyXyXyXqXqX0XyXuXyXyXyXyXyXyXyXyXyXyX",
"6XqXyX5X5XyXyX5XqXqXqXqXqXqX0X0X5XqXyXqXyXyXA.    5 x.x.x.x.x.z.H G G G G G c  . .^ & & & & & * }  . .F G G G G G P x.x.x.x.x.k..     +XyXyXyXyXyX5X6XyXqXyXyX:XX     8.x.x.6     3 b b n m m b       9.x.x.5     u.6X6X5X5X5XqXyXyXyXyXyXyXyXyXyXuXyXyXqXyXyXyX",
"5XyXyX6XqX5XyXqX5X0XqXqXyXqX0X0XqXqX0XqXqX6Xu.    5 x.x.x.x.x.x.x.x.x.x.x.c.A                         P c.x.x.x.x.x.x.x.x.x.x.k..     +XyXyXyXyXyXyXyXyX6XyXqX-XX     8.x.x.6     3 M m m m m b       9.x.x.5     u.qX5X5X5X6XyXyXyXqXyXyXyXyXyXyXyXyXyXyX5XqXyX",
"7XyXyXyXqX5X6X6X5X6XqXyXqXqX6X5X6X4XyXyX6X6Xi.    5 c.x.x.x.x.x.x.x.x.x.x.x.A                         L x.x.x.x.x.x.x.x.x.x.x.l..     +XyXyXyXyXqXyXyXyX5XyXyX&XX     8.x.x.6     3 M m m m m b     o 9.x.x.5     u.yXqX5X6X6XyXyX6XqXyXyXyXyXyXyX5XyXyXyX5XyXyX",
"5X5X5X5X5X6X5X5XyXqXyXyX6XyXqX6X5X6XqXqX5X5XoX,.4.<.S S G l.x.x.x.x.x.x.x.x.L k k k k k k k k k k k k 8.x.x.x.x.x.x.x.x.q.S S F <.,.,.:XuXyXyXyX6X5X5X5XyXqXyX&XX     8.x.x.6     2 B B B m m b     o 9.x.x.5     u.6XqX5X5X6XyXyXyXqXyXqXqXyXyX6XqXyX6X6XqXyXyX",
"5X0XyX5X5X5X5X5XyX0XqXyXyXyXqXyXyXyX0XqX5X5XyXyXyX@X    . l.x.x.x.x.x.x.x.z.x.x.x.x.x.x.x.x.x.x.x.x.x.x.x.x.x.x.x.x.x.x.P     - ,XyXyXyXyXyXqX0XqX5X5X5X6X5X6X&XX     8.x.x.6     v d.d.V m m b     o q.x.x.5     u.yXyXyX5X5X5X5X5X5X5X0XyXyXyX6XyXyXqX5X5XyXyX",
"5X8XyX5X5X5XyX6X5XyXyXyXyX6XyXyX8XyXyXqXyX5XwXyXyXoX    O l.x.x.x.x.x.x.z.z.z.z.x.z.x.x.x.x.x.z.x.x.x.x.x.x.x.x.x.x.x.x.8.    X :XyXyXyXyXyXyXyXqXyXyXyX5X6XqX&XX     8.x.x.6     v d.d.V m m b       q.x.x.5     u.6XyXqX5X6X5X5X5X5X5X6X6XyXyXyXyXyXqX5X5XyXyX",
"5X5X5X4X5X6X5X5X0XyXyXyXyX5X5X8XyXyXyXqXyX0XqXyXyX+Xh g g L L L L L L q.x.x.x.x.x.x.x.z.x.x.x.x.x.x.x.x.x.x.8.L L L L L J g h *.,X5X5X5XyXyXyXyX5X5XyXyX6X5XyX&XX     8.x.x.6     v d.d.f.B B N       9.x.x.5     u.6X5X6X5X5X5X5X5X5X5X5X5XyX6X5XqXqX6X5X5XqXyX",
"5X5X6X0X5X5X6XqXyX5X0X5X6X5X5X5X5XqX5X6X5XyXyXyXyX7XyXyX:XX           H x.x.x.x.x.x.x.x.x.x.z.z.x.x.x.x.z.x.k           a 5X5X5X5X6X5X5X5XyXyXyX5XyX5X5X5X6XyX&XX     8.x.x.6     v d.d.d.d.d.V       9.x.x.5     A.yX5X5X5X5X5X5X5X5X5X5X5XqX5X4XqXqXqX6XqXyXyX",
"5X5XyXyX5X5X6X5XqX6X6XyX6X5X5X5X5X5X6X5X5X5X5X6X5X8XyX8X-XX           H x.x.x.x.x.x.x.x.x.x.x.x.x.x.x.x.x.v.k           a 5X5X5X5XqX5X5X5X5XyXyXyXyXyX6XqXqX6X&XX     8.x.x.6     v d.s.d.d.d.V       9.x.x.5     A.yXwX5X5X5X5X6X5X5X5X5X5XqX6XyX6X5X6XqX6XyXyX",
"5XwXyXyXyXqX5X5X6X6X5XyXyX5X5XqX6X5X5X6X5X5X5XqX6X5X5X5X:Xs = = = = = J q.9.9.q.9.9.9.9.9.9.9.9.9.9.9.9.9.q.Z = = = = - T yXyX5X5XqX5X5X5X6XyXyXyXyXyXyX5X5XqX&XX     8.x.x.6     v d.s.d.d.d.V       9.x.x.5     A.yXyXyXyX5X5X5X5XyXyX6X6X5X6X5X5X5X5X6X6X5XyX",
"5X5XyXyXuXyX5XyXyXqX0XyXqXyXyX6X5X8X6XyXyXyXqX5XyXyX7X5X5X2X5X2X5X5X5X&.      o o o o o                     4.5X,X,X,X,X5XyXyX5X5X5X5X5XyXyX5X5XyXyXyXqX5X5XyX&XX     8.x.x.6     v d.d.d.d.d.V     o 9.x.x.5     A.yXyXyXyXyX5X5X5X5X5X5X5X0XqX6X5X5X5X5XqXyXyX",
"5XwXyXyXqXyXyXyXyXyXqXqX6XqXqXqX5X5X8XyXqXyX5X5X5XyXyXyX5XyXyXyXyXyXwX&.                                    u.8X8X6X6X5XyXyXyXyX6X5X6XwXyXyXwXwX5XyXyXyXyX0XyX&XX     8.x.x.6     v d.d.d.d.d.V       9.x.x.5     A.yXpXyXyXyXwXwXwXyX5X5X5X0XyXqXqXqX5X5XqXyXyX",
"5XwXyXyXyXyXyXyXyXyX0XyXqXqXqXyX5X5X5XqXqXyX5X,XyXyXyXyXyXpXyXyXyXyXyX&.                                    u.5X8XyXyX5X5X5X5XwX6X5XyX0XwXyXyXyX5XwXyXyXqXyXyX&XX     8.x.x.6     v d.d.s.s.d.V     o q.x.x.5     A.yXyXyXyXyXyXyXwX5X5X5X5XqXqX5XyXyX5XqX5XqXyX",
"5XyXyXyXqXyXqXyXyXyXyXyXqX0XyXqXyXwX5X5XyXyXwX5XyXyXyXyXdXdXyXyXyXyXyX:X#X&X&X&X*X#X&X&X&X-X-X&X*X#X#X#X#X+X:XqXyX7X5X5X5X5X5X5XyXyX0X5XyXyXyXyXyX0X0X5X5X5XyX:XX     8.x.x.6     l g.g.g.g.g.Y     o q.x.x.5     A.yXpXyXyXyXyXyXyXwX5X5X5X5X5X5X0XyXqXyXqX0XyX",
"6X5X0XyX0XyX0X0XyXqXyX5X5X5XyXyXyXyXwX5XyXyXuXyX5XyXyXpXpXdXpXpXyXyXyXyXyXyXyXyXyXyXuXdXdXdXpXpXuXdXyXyXyX6XyXyXyXwXqX5X5X5X6X5XwXyX5X7X7X7XyXyX5XyXyXqX5X5XqX:XX     8.x.x.6     Z j.j.0.j.j.Y       9.x.x.5     A.yXyXyXyXyXyXyXyXyXwXyXyX3X,XqX0X5XyXyXyXyX0X",
"yXyXyXyXyX0X5XyXyXqXqX4X2X0X5XyXyXyXyXyXyXyXyXyXyXyXyXdXpXyXyXyXyXyXyXyXyXpXdXyXyXyXpXuXpXdXdXpXuXyXyXyX5X5X4X5X5XwX5X5XyX5X4X5XyXyXyXyXyXwXyXyXyXyXyXyXqX6X5X&XX     8.x.x.6     Z j.I I 0.j.Y       9.x.x.5     A.yXyXyXyXyXyXyXyXyXyXyX5XqX5X5X5X5XyXyXyXyX5X",
"yXyXyXyXyXyXyXyX6XqX5X5X5XqX5X5XyXyXyXA.*.&.&.&.&.&.&.&.&.&.&.&.&.&.&.&.&.&.&.&.*.4.yXuXpXdXpXwX;.*.&.&.&.&.*.*.&.&.*.&.&.&.&.&.&.&.&.&.&.&.&.&.&.&.&.*.4.5X5X-XX     8.x.x.6     Y m.m.b.0.j.Y       9.x.x.5     u.yXqXyXyXyXyXyXyXyXyXyX7X5X5X5X5X5X5XyXyX5X5X",
"5XqXqX0XyXyXyX0XyXyXqXqXqXyX5X5X5XyXyX=.                                          &.uXyXpXpXdX5X-                                                       h yXyX-XX     8.x.x.6     U V.V.m.I j.Y       9.x.x.5     u.0XyXyXyXyXyXyXyXyXyXyXyX5X5X5X5XyX,X,X5X5X5X",
"qXyX6X0XyXyXyXyXyXyXqX5XyXqX5X5X3X5XyX;.                                          &.pXyXyXyXyX5X=                                                       h yXyX-XX     8.x.x.6     U V.V.m.j.j.Y     o 9.x.x.5     u.yXyXyXwX5XyXyXyXyXyXyXpXyX5X5X5X5X5X5X5X:X3X",
"qXyXyXyXyXyXyXyXyXyXqX6X6XyX5X5X5X6XyX;.    : A A A A A A A A A A A A A A D 5     &.dXyXyXpXyX5X=     8 A A A A A A A A A A A A A A A A A A A A A 5     g yXyX&XX     8.x.x.6     U V.N.M.E E C       9.x.x.5     u.0X5X5X5XqXqXyXyXyXyXyXpXpXyXyX7XwXwXyX5X5X5X",
"6XqXqXyXyXqXyXyXyXyXyXyX6X6X6X5XyXyXyX;.    k c.x.x.x.x.x.x.v.x.x.x.x.x.v.c.A     &.dXyXyXyXyX5X=     P c.x.x.x.v.v.x.x.x.x.x.x.v.v.x.x.x.x.x.x.c.S     g yXyX-XX     8.x.x.6     U V.N.n.n M b     o q.x.x.5     i.5XqXqX5X5X0XyXyXwXyXyXyXyXyXyXyXwXyXwX5X5XyX",
"6XyXyXqXyXqXyXyX0XyXyXqXqXqX5XqX5XyXyX;.    k x.x.x.x.x.x.x.x.x.x.x.x.x.x.x.A     &.yXdXyXyXyX5X=     L x.x.x.x.x.x.x.x.x.x.x.x.x.x.x.x.x.x.x.x.x.S     g yXyX:XX     8.x.x.6     U V.N.n.n n b     o q.x.x.5     A.5X0XwX5X5X5XyXwXyXyXyXyXyXyXwX5X5XyX5X5X5X5X",
"yXyXyXyXyXyXyXyXyXyX0XyXyXyXyXyX5X5X8X-.    k x.x.k.H H H H H H H H H q.x.x.A     &.yXpXyXyXpX5X=     L x.x.8.H H H H H H H H H H H H H H H 9.x.x.S     g yXyX-XX     8.x.x.6     U V.N.M.h.h.E       q.x.x.5     u.yX5XyXyXyXwX5XwXyXyXyXyXyXwXwXyXyXwX5X7X5X5X",
"yX7XyXqXyXyXyXyXyXyXqXyXyXyXyX0XqX5X5X-.    k x.x.L                   H x.x.A     &.yXyXyXyXyX5X=     L x.x.k                               G x.x.S     h wXyX-XX     8.x.x.6     U V.N.N.N.V.m.      9.x.x.5     u.yX5X5X5XyX5XwXyXyXyXyXyXyXyXyXyX5XwXwXyXyXyX",
"8X5XyXyXyX0XyXyXyXyXyXyXyX5XyX5XyX5X5X-.    k x.x.L                   H x.x.A     &.yXyXyXyXyX5X=     L x.x.k                               G x.x.S     h 5X5X-XX     8.x.x.6     U V.N.N.N.N.m.      9.x.x.5     A.yX5X5XwXyX5XyXyXyXyXyXyXyXyXyXyX5XyXyXyXyXyX",
"5X5X5XwX5X5X0XyXyXyXyXyX5X5X7X7XyX5XyX-.    k x.x.L       % % %       H x.x.A     &.yXyXyXyXpX5X=     L x.x.k       o o o + + + + + +       G x.x.S     g yX5X&XX     8.x.x.6     Y B.B.B.N.N.m.      9.x.x.5     u.yXyXwX5XyX5XyXyXyXyXyXyXyXyXyXyXyXyXyXyXyX5X",
"yX5X5X5X5XwXyXyXwXyXwXyXyXyX5X5XyXyXwX-.    k x.x.L     o $.L.$.%     H x.x.A     *.yXyXyXyXyX2X=     L x.x.k     q W W / 6.6.6.6.6.6.;     G x.x.S     g yXyX&XX     8.x.x.6     Z j.j.b.V.N.m.    o 9.x.x.5     u.7XyXyXyXyX5XyXdXyXyXyXyXyXyXyXyXyXyXyXyXyXyX",
"5X5X5X5XyX5X5XyXyXyXyXyXyXyX7X8XyXyX8X-.    k x.x.L     X $.L.L.%     H x.x.A     &.wXwXwXwXyX5X=     L x.x.k     q ) W / 6.6.6.6.6.6.;     G x.x.S     g yXyX:XX     8.x.x.6     Z j.I b.V.N.m.    o 9.x.x.5     u.1X5XyXyXyXyXyXyXyXyXyXyXyXyXyXyXyXyXyXyXyXyX",
"wX7XwXyXyX5X5X5X5X5XwXyX5X5X5XyX8X5X8X;.    k x.x.L     X $.P.P.%     H x.x.A     &.7X5X5X5XyX5X=     L x.x.k     q ) W / 6.6.6.6.6.6.;     G x.x.S     g dXyX:XX     8.x.x.6     Z j.I b.V.N.m.    o q.x.x.5     u.5X5X5X5XyXyXyXyXyXyXyXyXyX5XyXyXyXyXyXyXyXyX",
"yXyX5XwXyX5X7X5X5X5X5XyXyXwX5X8X8X8X8X;.    k x.x.L     - D. XD.=     H x.v.A     &.yXwX7X5XwX5X=     L x.x.k     q ) W W ) ) / 6.6.6.;     G x.v.S     g yXyX:XX     8.x.x.6     Z j.I b.V.N.m.    o q.x.x.5     u.yX5X8XwXyXyXyXyXyX5XyXyXyXyXyXyXyXyXyXyXyXyX",
"8X5X5X5X5X8X5X5X5X5X5XwX5X5X5X8XyXyX8X-.    k x.x.L     - F.F.F.=     H x.x.A     &.yXyXyXyX5X5X=     L x.x.k     q ) W W W W ) 6.6.6.;     G x.x.S     g yXyX:XX     8.x.x.6     Z j.I b.V.N.m.      9.x.x.5     u.0X7XyXyXwX5XyXyX5X5XyXwXyXyXyXyXyXyXyXyX8XyX",
"5X5XyXyX5X5X5X5X5X5X5X5X5X7X8X5XyX8XyX-.    k x.x.L     - F.%XF.>     H x.x.A     &.yXyXyXyXwX5X=     L x.x.k     q ) W W W W ) 6.6.6.;     G x.x.S     g yXyX:XX     8.x.x.6     Z j.j.b.V.V.m.      9.x.x.5     u.yXyXyXyX5X8XyXyXwX5X5XyXyXyXyXyXyXyXyXyXyXyX",
"8X5X5X5XyX5X5XyXyXwXwX5XyXyX5X5X5XyXyX=.    k x.x.L       f f f o     H x.x.A     &.5XyXyXyXyX5X=     L x.v.k     o % % % % % & ; ; ; o     G x.x.S     h yXyX:XX     8.x.x.6     # 4 4 5 8 8 9       9.x.x.5     A.yXyXyXyX5X8X8X8XyXyXyXyXyXyXyXyXyXyXyXyXyX8X",
"8X8X8XyX5X5XyX5XyXwXwXyX5X8X7X5X5XyXwX=.    k x.x.L                   H x.x.A     &.wXyXyXyX5X2X=     L x.v.k                               G x.x.S     g yX5X&XX     8.x.x.6                         9.x.x.5     u.5XyXyXyX5X5X5X8X5X5X8XyXyXyXyXyXyX5XwXwXyXyX",
"yX8XyXyX8X5X8XyXyX5X5XyXyX8XyX5X5X5X5X-.    k x.x.L                   H x.x.A     &.yXyXyXyX5X,X=     L x.x.k                               G x.x.S     g yXyX;XX     8.x.x.5                         9.x.x.5     u.5X5XyXyXwX5X5XyX5X5X5X5X5XyXyX5X5X5XwXwX0XyX",
"yXyX5X5X5XyXyXyXyXyXyXyXyXyX5X5XyXwXwX-.    k x.x.9.S S S S S S S S S 8.x.x.A     &.yXpXyXyXyX2X=     L x.x.P S S S S S S S S S S S S S S S 8.x.x.S     g yXyX:XX     8.x.x.L S S S S S S S S S S S S l.x.x.5     u.yXyXyXwX5XyX7X7XwX5X5X5XyXyX5XwX5X5X5XwX5XwX",
"yXyX5XyXyXyXyXyXyXyXyXwXyXyX5XwXwXyXyX-.    k x.x.x.x.v.x.x.x.x.x.x.x.x.x.x.A     &.yXyXyXyXyX5X=     L x.x.x.x.x.x.x.x.x.x.x.x.x.x.x.x.x.x.x.x.x.S     g yXwX-XX     8.x.x.x.x.x.x.x.x.x.x.x.x.x.x.x.x.x.x.5     A.yXyXyXyX5XyX5X5X5X5X5XwXyXwXyXyXyXyX5XyXyXyX",
"yXwXwXyXyXyXyXyXyXyXyXyX5X5X7XyXyXyXyX-.    k c.x.x.x.x.x.x.x.x.x.x.x.x.x.c.A     &.yXyXyXyXyX5X=     P c.x.x.x.x.x.x.x.x.x.x.x.x.x.x.x.x.x.x.x.c.S     g yXwX&XX     9.v.x.x.x.x.x.x.x.x.x.x.x.x.x.x.x.x.c.5     A.yXyXyXyXyXyX5X5X5X5XwXyXwXyXyXyXyXwXwXyXyXyX",
"wXyXyXyXyXyXyXyXyXyXyXyX5X5X5XyX5XyXwX=.    5 H G G G G G G G G G G G G G H 6     &.yXyXyXyXyX2X=     A G G G G G G G G G G G G G G G G G G G G H 8     h yXyX-XX     D G G G G G G G G G G G G G G G G G G #     A.yXyXyXyXwXyX5X5X0XyXyXyXyX5X5XyXwXyXyXyXyXpX",
"yXyXwXwXyXyXyXyXwXyXwX5XwXyX6X5X5X5XyX-.                                          &.yXyXyXyXyX2X=                                                       g yXyX;XX                                                 A.yXyXyXyXyXyXyXyX5XqXyXwX5X5X5X5XwXwXyXyXyXyX",
"yXyXyXyXyXyXyXyXyXyX5X5X5XwX5X5X5XyXyX=.                                          *.5X8XyXyX5X,X-                                                       h yXwX&X                                                  u.yXyXyXyXyXyXwXyXyX5X5XyX5X5X5X5X5XwXyXyXwXyX",
"8X8XyXyXwX5XqX5X5XyX5X5X5X5X5X8XyX5XwX4.s a a a a a a d a a a a a d d a d a a a a ,.8X5X7X7X7X9XT a a a a a a a d d d d a a a a d d a a a a a a a a a a ;.5X5X-Xh a a a a a a a a a a a a a a d a a d d d d d a a }.wXyXdXyXyXyXwXyXyXyX5XwXyX5XwXwXyXyX5X5X5XyX",
"yXyXyXyXwX5XyX4X5X5XyX7X5X5X5X8X6XyXwXwX6X5XyXwXyXyXyXyXyXyXpXyXdXdXdXdXyX5X5X5X5X5X5X5X5X5XwXyXyXyXyXyXyXyXyXyXyXyXyXyXyXyXyXyXyXyXyXyXwXwXyXyXyXyXyXyX5XyXwXwXyX7XyXyX5X5X8X5X8X6X5X5X5X5X5XyXyXyXyXpXdXdXpXdXdXyXyXyXpXpXyXyXyXyXyXyX5XyXyX5X5X5XyXyXyX5X5XyX",
"yX8X5XyXyX5XqXyX8X5X5XwX5X5X5XyX5X5X5XyX5X6XyXyX5XyXyX5XyXyXyXyXdXdXpXpXyX8XyX5X5X5X5X5X5XwXwX5XyX5XyXyXyXyXyXyXyXyXyXyXyXyXuXyXyXyXyXyXwX7XyXyXyXyXyXyXyXyXyX5X7XyXyXyX5XyXyX5X5X5X5X6XyX5X5XyXyXyXwXwXpXpXdXyXyXpXyXyXyXyXyXyXyXyXyXyXyX5X5XyXyXwXyXyXwX5X5XyX",
"yXyXyXyXyX5XyXyXyX5XyX5XwXyX5X5XyXyXyXyXyXyXyXyXyXyXwXyXyXyXyXdXdXyXyXyXyXyXyXyXyX6X8XyX5XwX5X7XyX8XyXyXyXyXyXyXyX8XyXyXyXyXyXyXyXyX8XyXwXyX8XyXyXyXyXyXyXyXyX5X6XyXyXyX5XyXyX5X5X5X5X5XyXyXyXwXwXyXwXyXdXpXpXyXyXpXyXyX7XyXyXyXyXpXyXyXyXwX5XyXyXyXwXyX5X5XwXyX",
"yXyXyXyXwXwXyXyXyXyXyXyXyXyXyXyX5XyXyXyXyXyXyXyXyXyXwX5X5XpXyXdXyXyXyXyXyXyXyXyX5X8X5X5X5X5X5X8X5X8XyXyXyXyXyXyX8XyXyXyXyXpXyXpXpXyXpXyXyXyXyX8XyXwX5XyXyXyX6XyX6XwXyXyX5XyXyX5X5X5X5X5XyXyXyXyX5XyXyXpXpXpXdXdXyXyXyXyXyXyXyXyXyXpXyXyXwX7XyXwXwXyXyXyX5XyX5XyX",
"yX5XyXyXwXyXyXyXyXdXyX2XyXyXyXyXwXyXyXyX5XyXyXyXyXyXyXyXpXpXyXyXyXyXyXyXyXyXyXyX5X5X5X5X5X5XwX5XyX5X5XyXyX5X5X5XyXyXyXyXyXyXpXpXyXyXyXyXyXyXyXyXyXyXwXyXyX5XyXqXyXyXyXyX8XyXyX5XyX5X5XyX8X5XyXyX5X5X7XyXpXpXpXdXyXyX5XpXyXyXyXyXyX5XwXyX5X5XyXyX5X5XwXwXwXyXwXyX",
"yX5XwXyXyXyXyXyXyXyXyXyXyXyXyXyXyXyXyXyXyXyXyXpXyXyXyXdXdXyXwXyXyXyXyXyXyXyXyXyXyXqX5X6XyX5X5X5X8X5X5X5XyXwX5X5XwXyXyXyXyXyXpXyXyXyXyXyXyXyXyXyXyXyXyX8XyXyXyX6X6XyXyX5X5X5X5X8XyXyXyXyX8X8XyXyXyXyX6XyXyXyXpXyXyXyXyXyXwXyXyXyXyXwXyXyXwX5XwXyX5X5XyXyXyXyX5XyX",
"wX5XyXyXyXyXyXyXpXyX7X5X5X5XyXyXyXyXyXyXyXyXyXyXyXyXyXyXyXyXwXyXpXyXpXpXyXyXyXyXqX5X5X6XqX5X5X5XyXyX5XwXwX5X5XwXyXyXyXyXyXyXyXyXyXyXyXyXwXyXyXwXyXyXyX7X5X5XqXyXyXyXyX8X5X5X5X5XyXyXyXyXyX8XyXyXyXyXyXyXyXyXyXyXyXyXwXyX5XyXyXyXyXwXpXyXwX5XwXyXwXwXyXyXpXyXyXyX",
"yXyXyXyXyXyXyXyXyXyXyX5X5X5X5X5XyX7XyXyXyXyXyXyXyXyXyXyXyXyXpXpXpXpXyXpXdXyXyXyX5X5X5X5X5XyX5X5XwX7X5XyX5XwX7X5X5X5XyXyXyXyXyXyXyXyXyXyXyXyXyX5XwXyXyX5X5X8XyXyX5XqXyX5X6X6XyX6X5X5XyXyXyXqXyXyXyXyXyXyXyXyXyXyXyX5X7XyXyXyXwXyXwX5XyXyXyX5XyXyX5XwXyXwX5XyXyXyX",
"yXyXyXyXyXyXyXyXyXyX7X5X3X5X5XqXyX5X5XpXyXyXyXyX7XyXyXyXpXpXyXyXuXpXpXyX8XyXyXyXyX5X7X5X5XyX8X7XwX5X5XyXyXyXyX5X5X6XyXyXyXyXyXyXyXyXyXyXyXyXyXyXyXyXyXyX8XyX6X5X5X5X6X6XqX6X5X6X5XyXyXyX5X0XyX5XyXyXyXyXyXyXyXyX8XyX5XyXyXyXyXyXwX7XyXyXyXyXyX8X5X5XyXyX5X5X5X5X",
"wX5XyXyXyXyXpXyXyXdXyX5X5X5XyXyXyXyXyXyXyXyXyXwXyXyXyXyXyXyXyXyXyXyXuXyX5XyXpXyXyXyXyXwXyXyX7XwX5X5X5XyX5XyXwX5X5XqX5X5XwXyXyXyXyXyXyXyXyXyXyXyXyXyXwXyXyXyXyXyXqXqXyX5XyX5X5X6XqX6X8XyX0XyXyXwXyXwXyXyXyXyXyXyXyXyXyX5XwXyXyXyXyXyXyXyX5X5X5XyX5X5XwXwX5X5X5XyX",
"5X5XyXyXyXyXyXyXyXyXyX5XyX5X7XyXyXyXyXyXyXyXyXyXyXyXyXyXyXyXpXyXyXyXyXpXpXyXyXwX7XyXyXyXyXyXqX5X5X5X5XyX5X5XyXyX5X5X5X5X5XwXyXyXyXyXyXyXpXyXyX8XyXyXyX0XyXyXyXyXqXqXyX6X5X5XyXyXyXyX5XyX0XqXqXyXyXyXyX5X8XyXyXyXyXyXyXyXyXyXyXyXyXyXyXyX0X5X5X5X5X0XyX5X5X7XyXyX",
"yXyXyXyXyXyXyXyXyXyX5X5XyXyXyXyXyXpXyXyXyXyX5XyXpXdXyXyXyXyXpXyXyXyXyXyXpXyXyXyXyXyXyXyXyXyXqX8X8X5XwXyX2X5X5X5X5X5XyX5X5X5XyXyXyXyXyXyXyXyXyXyXwXyXyXyXyXyXyX5X5XqXyXyX5X5X5XyXyXwXwX0X5XyXyXqX5XyXwXyXyXyXyXyXyXyX5XyXyXyXyXyXyXyXyXyXyX5X5X5X5X5X5XyX5X5X5XyX",
"yX5XyXyXyX7XyX7XyXyX5XwXpXuXyXyXpXpXyXyXyXyXyXpXyXpXpXyXyXwXyXyXyXyXyXyXyXyXyXpXyXyXyXyXyX6X6XyXyX5X5X5X5XwXwX5X5X5XyXyXyXwXwXyX8X7X7XwXyXyX5XyXyXyXyXyX0XyXqX5X4X5XyXyX5XyX6X5X5X5X7XyXyX0XqXyXyX0XyXwX5XyXyX5XyXyXyXyXyXyXyXyXyXyXyXyXyX0X5X5X5X5X5X5X5XwX0XwX",
"5X5X5X5X5XyXyXyXyXyXyXyXyXyXyXyXpXyXyXpXyXyXdXgXpXyXyXyXpXyXyXyXyXyXyXyXyXyXyXyXyXyXyXyXyXwX5XyXyX5X5XyXyXyXyXyX5XyXyX5XyXyXyXyXwX5XwXwXyXyXyXyXyXyXyXyXyXyXqX6XqXqXqXyXyXyXyX8X5XwXyXyXyXyX5XyXyXyXyXyX6X5X0XyXpXyXyXpXyXyXyXyXyXyX5XwXyXyXwX5X5X5X6X3X5XyXwXyX",
"5XyXyX5X5X5XyXwXyXyXyXyXpXyXyXyXyXpXpXdXyXwXpXsXpXyXyXyXyXyXyXpXpXyXyXyXyXyXyXyXyXyXyXyXyX5XyXyXwXyX5XyX5X5X5X5X0XqX5XyXyXyXyXyXyXyX5XwXyXyXyXyXyXyXyXyXyX8XyXqX5X5X0XyXyXyXyX8X8XyXyXwX0XyXyXyXyXyX8X5X0XqXyXyXyXyXyXdXyXyXyXyXyXyXwXyXyXyXyX0X5X5X5X,X5X5XyXyX",
"5XyXyX5X6X5XyXyXyXpXpXyXyXyXyXyXyXdXyXyXdXyXyXyXyXyXyXyXyXdXyXyXyXyXyXyXdXyXyXyXyXyXyXyXyX0X0XyXwXwX5X5X5XyX1X5XyX5X5XyXwXyXyXyXyXyXwX5X5XyXyXyXyXyXyXyXyXyX5XyX6XyXyXyX8X8XyXyXyXyXyX5XyXyXqXyXyXyXyX5X5XqX6XyXyXyXwXdXpXyXyX5XyXyXwXyXyXyXyXyX5X5X5X5XyX5X5X6X",
"yXyXyXyX5XyXyXyXyXyXyXyXyXyXyXyXwXyXyXyX5XyXyXyXyXyXyXyXyXyXdXyXwXyXyXyXyXyXyX5X5XyXyXyXyXyXqX5XyX5X5X5X5X8X5X5X5X5XwXyXyXyXyXyXyXyXpXyXyXyXwXwXyXyXyXyXqXyXyXyXyXyXyXyXyXyXyXyXyXyXyX0XyX0XyXyXyXyXyXyXyXyX6XyXyXqX5XyXyXyXyXyXyXwXyXyXyX5X5XyXyXyXyXwXyX5X4XyX",
"5XwXyX8XyXpXyXyXyXyXyXpXwX5XdXpXyXyXyXyX5X5XyXyXpXyXyXpXyXyXyXyXyXyXyXyX5XyXyXyXyXyXyXyXqXqXqX6X5X5X9X5X5X5X8X5X5XyXyXyXyXyXyXyXyXyXyXyXdXyXyXyXyXyXyXyX5X5X0XwXyXyXyX5XyXyXyXyXwX5XyX0X0X5X0XyXyXyXyXyX6X5XyXyXyXyXwXyXyXyXyXyXyXyXyX7XyXyXwXyXwX7XyXyXyXyX0X0X",
"8XyXyXyXyXyXyX5XyXyX5X5XyXpXpXyXyXyXyXyXyXyXyXyXyXyXpXdXyXyXyXyXyXyXyXyXwXyXyXyXyXyX5XyX5X5X5X5X5X5X5X5X5X5XyX0XyXyXyXyXyXyXwXyXyXyXyXyXyXyXyXyXyXpXyX0X0X5X5X5XyXyXyX5XwXyXyXyXwXyXyXyXyXyX5XyXyXyXyXyXyX8XyXyXyXyXyXyXyX5XyX7XyXyXyXyXyXpXyXyXwX5X5X5X5XyXwX5X",
"5X5XyXyXyXyXwXyXyXyXpXyXyXpXdXyXpXyXpXdXyXyXyXyXyXyXyXyXyXyXyXyXwXyXyXyXyXyXyX5X5X5XqXqX5X5X5X5X5X5X3X5XqX5X0XyXyX5XyXyXyXyXyXyXyXyXyXyXyXyXyXyXyXpXyXqXqX0XwX5X0XqXqXyXyXyXyXyXyXyXyXyXyXyXyXyXyX0X5XyX8XyXyXyXyXyXyXyXyXyXyX5X5XyXyXyXyXyXyXyXyXyXyXyXwXyXyXyX",
"5X5XyXyX8X8X5X5XyXyXyXyX5XpXdXpXyXdXpXpXpXyX5XyXyXyXyXyXyXyXyX8XyXyXyXyXyXyX5XyX5X5X5XyX5X5X5X5X5X5X5X5X5XyXyX5XyXyXyXyXyXyXwXyXyXyXwXyXyXyXyX7X5XyXyXyX0XqX5XwX5X0X0XyXyXwXyXyXyXyXyXyXyXpXyX5XyXyXyXyXyX8XyXyXyXyXyXyXyXyXyXwX5XyX5X5XyXyXyXyXyXyXyXyX5X5X5X5X",
"5X5X5X5X5X5XyXyXpXdXdXwX5XyXsXpXdXyXpXyXyXyXyX5X5X5XyXyXyXyXyXyXyXyXwXuXyXwXyXyXyXyXyX0XyXyX5X,X4X5X5X3X5X5XyXyXwXwXyXwXyXyX5XwXyXpXpXpXyXyXyXyX5XyXdXpXyX5X8X5X5X8X5X5XyX5X5XwXyX0XyXyXyXyXyX5XqXyXyXyXyXyXyXyXyXyXyXyXyXyXyX5X0XyX0XyXyXyXyXyXyXyXyXyX5XyXyX2X",
"5X5X5X3X5X5XyXyXwX7XdXpXyXyXpXgXdXyXyXyXyX5X5XyXyXyXyXyX5XwXwXyXpXyX5XyX5X5X5XyX8XyXyXyXyX8X5X<X#X3X5X,X5X5XyXyXyX7XyXyXyXyXyX5XyXyXpXpXyXwXpXpXyXyXyXyXyXyX8X5X8XyX5X5XyX8X5XwX5X0XyXyXqX0XyXyXqXyXyXyXyXyXyXyXyXyXyXyXyXyXyX0X0XyXyXyXwXyXyXyXyXyXyXyX5XwXyX5X",
"6X5X5X5X6X5X5X5XyXyXuXpXdXyXyXpXpXyXyXyXyXyX5XwXyX5XpXyXyXyXyX5XyXyX5X5X5XyXwXyXyXyX5X5XyXyX5X4X>X4X6X3X5X5XyX5X7XyX7XwXyXyXyX5X5XwXyXyXyXyXdXpXyXyXyXyXyXyXyXyX8XyXyX5X5X5X5X5X5X0X5XyXyXqXyXyXyXyX5X8X8XyX8XwXwXyXdXyXyXpXyXyX5XyXyX5XwXyXyXyXyXyXyXyXyX5XwXwX"
};
