/* XPM */
static char *wall_cafe[] = {
/* columns rows colors chars-per-pixel */
"256 256 256 2 ",
"   c #020D0C",
".  c #050906",
"X  c #05120D",
"o  c #091509",
"O  c #161809",
"+  c #030D13",
"@  c #060C19",
"#  c #061314",
"$  c #0A1515",
"%  c #0D1915",
"&  c #06131A",
"*  c #0A161A",
"=  c #0D191B",
"-  c #051A18",
";  c #121C1C",
":  c #151916",
">  c #150B0C",
",  c #2B1910",
"<  c #14221D",
"1  c #1A2519",
"2  c #142610",
"3  c #282609",
"4  c #272818",
"5  c #372917",
"6  c #2A3419",
"7  c #383718",
"8  c #352E0A",
"9  c #0A1522",
"0  c #0D1A23",
"q  c #0C1B2B",
"w  c #061526",
"e  c #121D23",
"r  c #141C29",
"t  c #0B1933",
"y  c #0E152F",
"u  c #152223",
"i  c #1A2423",
"p  c #14232B",
"a  c #1B2829",
"s  c #182735",
"d  c #162D2F",
"f  c #242A28",
"g  c #293528",
"h  c #363827",
"j  c #242B36",
"k  c #283637",
"l  c #363330",
"z  c #281A27",
"x  c #4E180F",
"c  c #472817",
"v  c #473818",
"b  c #573917",
"n  c #4F310B",
"m  c #6E3411",
"M  c #473926",
"N  c #51342B",
"B  c #6E3427",
"V  c #6C1715",
"C  c #374417",
"Z  c #394538",
"A  c #35452C",
"S  c #244A31",
"D  c #494619",
"F  c #584818",
"G  c #554E10",
"H  c #674818",
"J  c #764918",
"K  c #685618",
"L  c #775718",
"P  c #724F08",
"I  c #786618",
"U  c #726A11",
"Y  c #494728",
"T  c #574826",
"R  c #595628",
"E  c #474937",
"W  c #585737",
"Q  c #4E5033",
"!  c #685727",
"~  c #775727",
"^  c #6E5030",
"/  c #58642F",
"(  c #786727",
")  c #786736",
"_  c #6E6B30",
"`  c #5A6518",
"'  c #182D51",
"]  c #273846",
"[  c #2E374F",
"{  c #1C3466",
"}  c #182E65",
"|  c #243A69",
" . c #273C72",
".. c #101B41",
"X. c #2A454A",
"o. c #374847",
"O. c #354E54",
"+. c #354A78",
"@. c #30476F",
"#. c #335E62",
"$. c #4E524B",
"%. c #6B584A",
"&. c #726B4D",
"*. c #4A5670",
"=. c #6F6D6D",
"-. c #58645F",
";. c #4D3849",
":. c #8A3413",
">. c #922D1B",
",. c #885809",
"<. c #985808",
"1. c #885817",
"2. c #975917",
"3. c #8E4910",
"4. c #A65908",
"5. c #A65916",
"6. c #B1540F",
"7. c #89670A",
"8. c #986708",
"9. c #997708",
"0. c #896717",
"q. c #976917",
"w. c #997518",
"e. c #897514",
"r. c #A86808",
"t. c #B76909",
"y. c #AA7709",
"u. c #B3740B",
"i. c #B47C0C",
"p. c #BB7C0B",
"a. c #B97805",
"s. c #A86816",
"d. c #B66916",
"f. c #A97716",
"g. c #B47C13",
"h. c #BB7C13",
"j. c #B77617",
"k. c #885927",
"l. c #965A26",
"z. c #8C522F",
"x. c #A95927",
"c. c #886726",
"v. c #976827",
"b. c #987626",
"n. c #876937",
"m. c #977737",
"M. c #8E7132",
"N. c #A66825",
"B. c #A87726",
"V. c #B77926",
"C. c #AC7131",
"Z. c #C37C0C",
"A. c #C77908",
"S. c #C57A15",
"D. c #C9700F",
"F. c #C87727",
"G. c #C85E13",
"H. c #8C744B",
"J. c #A77849",
"K. c #8A7767",
"L. c #905D4A",
"P. c #B55C3E",
"I. c #7B8844",
"U. c #978714",
"Y. c #AA8408",
"T. c #BC8303",
"R. c #B4830C",
"E. c #BC830C",
"W. c #BC8B0C",
"Q. c #B78905",
"!. c #BB9409",
"~. c #A98617",
"^. c #B48313",
"/. c #BC8413",
"(. c #BC8B13",
"). c #B88819",
"_. c #BB9416",
"`. c #AA9413",
"'. c #96882F",
"]. c #A88727",
"[. c #B88725",
"{. c #B18E30",
"}. c #B6A61E",
"|. c #C38404",
" X c #C48B03",
".X c #C3840C",
"XX c #CB840C",
"oX c #C48B0C",
"OX c #CB8C0C",
"+X c #CB8904",
"@X c #D3890A",
"#X c #CC9404",
"$X c #C4930C",
"%X c #CC930C",
"&X c #CC9B0C",
"*X c #C79905",
"=X c #D39C0C",
"-X c #D49808",
";X c #C38413",
":X c #C48B13",
">X c #CB8C13",
",X c #C88818",
"<X c #D48915",
"1X c #C49313",
"2X c #CC9413",
"3X c #CC9B13",
"4X c #C89719",
"5X c #D39413",
"6X c #D39C13",
"7X c #D69919",
"8X c #CCA309",
"9X c #D3A30C",
"0X c #DBA30C",
"qX c #D5AB0C",
"wX c #D8A806",
"eX c #DBB409",
"rX c #CBA315",
"tX c #D3A413",
"yX c #DBAC13",
"uX c #D8A717",
"iX c #DCB315",
"pX c #CAB510",
"aX c #E2AA09",
"sX c #E4B80A",
"dX c #E3A916",
"fX c #E4B817",
"gX c #F2B511",
"hX c #C68924",
"jX c #C89625",
"kX c #D1952A",
"lX c #D5A926",
"zX c #E6B326",
"xX c #E39816",
"cX c #E9C511",
"vX c #EFC92C",
"bX c #DFCE1B",
"nX c #958C4F",
"mX c #AB9250",
"MX c #A7A65A",
"NX c #B3AC56",
"BX c #928C6B",
"VX c #AA9867",
"CX c #A9A866",
"ZX c #B3B36D",
"AX c #9CA758",
"SX c #CCA953",
"DX c #CBA75E",
"FX c #B7C475",
"GX c #D1CB6B",
"HX c #384F85",
"JX c #54638C",
"KX c #2C3D82",
"LX c #A4A489",
"PX c #C9CE88",
"IX c #BAC986",
"UX c #75838B",
/* pixels */
":X.Xp.p.p.;XZ.Z..X.X;X;X;XE.T.|.oXOXOX:X:XXXA.OXOX7X+X5X5X5X.X|.5X5X|.|.7XR.4X<.4.Z.OX.X7X3XzXzX&X$X7X2XoX X7X2X<.:XlX2X%XOXoXoX:X:X/././.1XW.1X_.!._._.}.`.`.U.e.9.U.].b.Y.!.rX4X/.j.hXkX5X>X>X$XoXoXOX@X$X$XrXY.f.m.~ ^ I I b.].[._.Y.Y.}._.(.4X,X(._.rXjX!.!.Y.j.D.S.V.B N l s | | +.HX+.+.HX@.| { { { p 2 d '  .|  .| { { | | JX| O.o.f f E r [ +.HX+.| JXHX .+.| | JXJX| { JXJXO.O.@.| [  .+.{  .s ; 2 @ p p t r X 9 0 t d X $ 9 9 O.t [ @.O.j : $.l = = = $ $ = = $ %   ; u ; + * 0 & & * * & & & $ e = & r 0 9 & 0 * * * ",
"oX.X.X;XXX;X.X.XXXXX.X.X;XE.E.|.oXOXOX.X;X5Xa.r.5X5X7X+X5XOX5X>X.Xp.p.E..XuX.XV.,X Xa.,X#X7X XuXlXQ.T.lX>X%XOXOX4XE.oXoX$X2X2XoXoX:X:XoXoX(.E.4X4X_._._._.8X!._.~.b.].U.U.].9.9.Y.[.[.1X!.3XoX>X<X,X,X,XE.OX|.oXa./.hXf.~.b.e.e.e.9.9.Y.~.Y.9.f.[._.!._.jX4X4XrXrXY.W.p.D.<.d.N.J N M [  .+.+.+.+.+.HX . .0 a p '  .| @.|  . .|  .HX{ *.k a f Z i [ | +.HX+.HXHX .+. .@.JX[ { JXJXUXJX[ r | @.+. . .| q * % * = % 0 0 $ p 0 9 e $ X r s $.s ' [ *.g O $.> ; ; ; = * ; ; $ $ + ; = e $ 0 = $ & * & $ $ $ & = = & r 9 q 9 q * * $ ",
".XXX>XXXZ.;X.X.XOX>XOX.XXX4X:XoX2X2XOX.X.X.XXX>X|.OX5X5XOX-X-X5X,X,XZ.h.;X7X#X,Xd.7X-XOXXX+X5X7X5X%X2X>XXX5X5XOX5X4XE.%X*X:XoXoXoX$X%X#X*X2XT.oXoX!.$X1X$X_.`._.rX!.`.`.U.'.U.`.U.e.8.^.1X).Y.W.%X+X.X,Xj.S.,X;XXXXX.XoX>X,X/.^.~.w.e.b.'.].~.U.U.U.~.^.:XY.R.5X&XrXlXhXj.q.y.a.A.D.Z.1.^ [ [ +.+.+.HXKXHXq a & | +.| @.+.+.+.| HX+.| *.< g 1 g u [ | +.HXHX . .HX .| +.+.@.JXJXJXJXJXJX] | *.HX| +. .0 $ $ e : o = = % s $ : $ u % 9 s Y s [ [ r 4 Q : j = * i f ; $ $ $ = $ = + 0 + = $ $ * = * $ $ $ * $ = & 0 w r w q * * $ ",
"4X2X2XOX7X5X5X5X5X@X7X>Xa.p.4X>X X5X7XOX>X|.,X.X5XXX.X+X|.%X%X>XXX,X;XE.a.OXa.d.u.a.5XuX%XS.|.-XXXa.>XOXoXh.%X7X>X-X7Xu.7X#X*X7XkX X*XkX$XoX2X1X!.uX3X:X:X3X&X$X$X_._.).`.`.U.U.`.U.e.e.e.9.9._.$X3X:XXX5XE.E.i.,X,X;X>X%X5XOX.X;X;X/.,XhXf.~.`.`.~.U.U.U.0.w.).W.$X3XrX_.(.^.f.d.s.j.j.t.l.c w } | @.+.+.t < a [ HXKX .HX . .+. .*.O.o.: j h o s | @.+.JX+.|  .+.+.@.*.JXJX-.JXBXCXJXLX=. .| *.@.+.| s o $ X $ = a ; ; * ;   $ % $ e a * o.k   $ k e e d * $ u < ; ; = $ = $ $ $ * * * * & $ $ $ $ $ $ & $ 0 & r 9 0 0 p * $ * ",
".XE..XOX7X%X XOX5X5XOXOX5X>Xa.a.5XOXoX2XOX,X5XOXOX-X7XZ.7XT.|.|.+XOX;Xj.d..X7XOX.XlX>Xa.uX5X5XOXZ.j.S.5X-X>X*XoX.X#X7Xp.a.3X*X2X1X*XuX/.j.oX1X3X3XuXQ.a.1X$X$X$XoX_._.(.`.).Y.~.`.~.].'.'.b.c.M.b.Y.!.*X7XkX4X>XOX.X.X.X;X|. X%X2X2XoXoXoX).(.`.).).`.~.~.w.~.~.).)._._._._.4XhXj.f.j.j.r.8.1.T z w ..{ ..3 g ] { +.+.@. .@.+.| *.JXo.k . j g f ..+.+.JX+.@.@.+.+.@.@.*.JXUXJXFXGXGXVXJXUX| *.+.@.HX| @ o u $ $ $ u = = $ * = $ $   a j j j   ; * k * a ] ; $ % = $ % = + $ $ $ * * * * * $ $ $ $ $ $ $ & * e & q 9 9 & 0 * & * ",
".Xa.a.oX>X%X%X5X|.5XOX5X5X5Xa.a.>X>X.XoX2X2XoX X+X-XuX+XOXhX,XOX5X5X@X.XZ.a.|. X#X7X,Xa.#X#X5X.XOX.Xj.4XuXuX0XuX7X#X2X4X|.7X&X&X&X*X3X8.j.E.:X2XoX4X$XoXoX$XoX!.W.$X1XW.W.2X1X_._.`.~.].U.'.'.M.m.b.[.).)./.p.>X X X5X.X;XoX|.|.!.W. XoX2XoXOXOXoX/.^.^.).~.).w.{.].}._.rX!.!.!._.).j.f.V.C.j.a.s.^ ] s e t s s ' @.HX .{ | +.+.HXJXJX] r k 2 a [ HX@.+. .+.+.@. .+.*.*.*.*.JXVXDXSX'.LXUX| @.*.+.| { s $ f ; $ $ = $ * $ $ $ = $ u = a r l o . $.[ = + p u $ $ $ $ % u + $ $ * * * * * * $ $ $ $ $ & & * = u * 0 0 9 & * 9 * * ",
",Xp.p.:X.X%X%X%Xa.5X@X5X+XOXXXZ.p.Z.;XoXOX#X2XoX7XhX>X0X-X,X;X.XXXOX+X+X@XZ.a. X%XoX5XlXT.2X7X5X-X-XoXoX3X9X*XtXuX&X X2XoX%X&X&X&X*XuX1X4XoXoXoXQ.2X3X7X2X$X$XoXoX$X$X1X1X XoX$X_._._.].U.U.U.U.U.e.].w.w.f.f.(.Q.T.5XoX>X>X:X.X:X,X,X:X;XXXOX%XOX.XE.:X2XW.y.~.9.].f._.`._.rXrX!._.hX[.f.d.V.~.j.j.s.~ $.[ ..y e j '  .+. .HXHXKXHXJXy r j % 0 @.@.| | +.+.HXHX@.@.*.*.*.JX=.JXIXFXBXCXLXJXJXJX| | { [   k u =   $ $ = * = $ + u $ e e a =.o $.k   e p p i $ ; = $ u u $ $ $ * = * * * * & & & & & * * * * e = 0 0 9 9 0 * & & ",
",X;XE.>X.X>X|.oX|.7XXXXXOXOXA.XXXXa.>XlX>XT.7X:Xj.T.a.5XzXwX-X#X%XOX.XZ.Z..X,XhX.X|.-X7X:X;XT. X#XuXaX*X3X*X&X-X9XzXtX7X XzX:XE.4XkXQ.$XQ.2XE.W.E.oXT.oX7X3X2X$X$X$X2X2X2X$X$X$X1X1XjX_.y.].~.`.U.`.U.`.`.U.U.].~.^.kX%X5X%X%X>X>X,X,X;X.X,X;X.X.X>X2X2X%X>X4X_._.).4X4X4XrX_.1XrXrX!.)._.Y.).V.s.r.a.f.C.0.! Q A g w s ] @.HX+.HXJX+.* 1 i < s +.} @.{ +.+.HXHX@.@.+.*.*.*.JXJXJXUXBXBX-.JX@.*.| | +.*.+ a ; = $ = $ = = e   ;   $ e o.k . l =.$ ; a r & u $ a ; $ a = = $ $ = = = * * * & & & $ & & * * $ e = = 0 & 9 q * & * ",
"i.h.a.;X.X.X.X>X.X5X|.XXXXOXXXXXXXZ.;XkX,X<.y.4X3XtX$Xy.u.7XuXuXyXuX5XXXZ..X,Xj.a.oX#X+X2X2X#X%X;X>X9X*XrX3X2X%XT.%X7X-XT.4Xr.r./.V.8.2X$X3XoXoX.XoXT.oXoX2X2X%XoXoXoXoX>X2X1X1XoX:X4X,Xi.V.B.B.~.`.`.}.].`.U.U.7.7.`.1XuX*X&X&X$X XoXOX5X,X;XoX.X;X:XoX XXX>X2X!.!.W.:X/.y.4X4X_.`.!.4X_.rX_.`.[.hXj.r.t.Z.u.f.0.! l s t s |  .+.HX@.r ; : % O.HX{ { { HXHXHX+.@.@.+.*.*.*.*.-.JX*.-.*.+. .HX| | +.@.[ e = * = $ ; * = $ $ $ $ i ; k k $ . =.$ $ j p & k ; $ f = $ i $ $ $ $ = ; = * * * $ $ $ $ $ $ $ $ $ e e * 0 & 9 9 0 * 9 ",
"y./.y.p..Xp.;X,X.Xp..XXXA.Z.XXZ.A.XXp.a.h.F.d.:X*X1X1XW.f.f.g.,X1X7XuX7X-X5XA.a.;X;X>X7X5X X X>X>X2XuXlXzXkXg.7X*X%X&X0X5X|.kX7XT.f.j.uXW.&X%X%X|.:X2X2XT.$X$X$XoXoX.X.X.XZ.p.E.E.E.:X4X:X4X[.[._.rX}.}.].`.`.`.].].U.9.9.Y._._._.1X2X7X-X:X:X2XoX.XE..XOX:X2XoX5X|.2XoX1X:XW.1X4X(.Y.Y._._._.(._._._.).F.^.r.d.5.s.c.&.| j *.HXHXHXJX..9 % $ +.HX@.' { HXHXHXHX+.@.@.+.JX+.-.=.*.O.@.@.} ' { | @. .{ [ s * * ; $ ; $ = $ $ X ; a Z f $ . -.f   k a a p k = u u $ $ = $ $ $ $ ; e = * * * * * & $ $ $ $ $ * e ; * u 9 q w 0 9 9 ",
"f.hXu.p.XX;Xa.a.;X.X;XXXXXZ.Z.XXXXZ.;X,Xj.t..XE.R.rXQ._.(.i.j.f.f.j.,X7X-XxX-X5X5Xa.h.>X-XdX5Xp.#X-X:XV.8.f.3.:XqXtX#X9X2X9X-XwX9X2X$X#X7X&X*X5X2X>Xa.:X4XoX%X2X2X>X;XZ.Z.S.Z.;X.Xa.R.W.(.!.!.Y._._.rX8X8X1X_.`.`.`.U.'.'.'.e.7.7.f.(.1X$X7X&X#X%X2X,X,X>XW.Q.;X;X5X.X$X$X%X2X:X,X4XhX_.)./.~.`._.4XrXrX}.{.y.a.d.j.t.r.,.E =.[ +.HX+.[ + > e *.+. .@.| HXHXHX+.+.+.+.+.+.JX=.-.| | | [ @. .|  .| +.{ +.q * * e * = $ $ $ ; ; o g l o . l l $ i k 0 e d 0 * j % $ ; $ ; $ $ $ ; e ; * * * = = = * & & & & * = * $ u 0 q w 0 w 9 ",
"r.j.;X.XT.Z..XXXXXXXZ.Z.Z..XZ.XXXXA.Z..Xp.a.p.A..X<X,Xa.(.:X1XR.y.f.j.f.f.5X%X-X-X+X%X5Xh.wX0X2XE.a.7X7X Xd.j.,X@X0X-X3XrX&X9X0X0X7XT.E.kXuX3X#X*X$X1X2X%X7X X X#X%X2X:Xy.(.y.E.E.>X.X;X;X.XoX4X1X1XrX!.!.1X_._._._._.!.!.`.`.U.w.e.0.0.m.9.^.`.4X2X2XXX,Xh.,X,XoXT.E.(.).:X:XoX$X%X4X4XkX$X(./.W.$X$X1X).$X4X~.[.f.B.m.H ,X%.+.@.@.| j > 4 -.@.HX| +.| +.HX+.HX+.@.+.+.@.HXJXO.O.*.| | +.@. .+. .| | [ s e = $ %   a % X o.$ i o.o o f -.+ & 0 e 0 0 0 0 a + f o ; * $ % $   = a e $ * * & $ $ $ $ * = * * * e & r q w y * 0 & ",
"y.j./.;XE.E..X.XZ.Z.Z.Z.;X.Xa.Z.XXXX.XXXZ.;XZ.A.A.XX,Xp.:X2X$X XW./.y.y.^.j.h.;X.X|.OXOX|.|.+X-XuX2XE.E.2X0X|.+X+X.XkXhXP Q.&X9X-X7X%XT.!.oX&XtX7X2XoXoX%XoX2XoX X7X3XoX4XR.(.4XE.y.p.p././.p.R.(._.Q.!.rX!.!.!.!.1X1X_._.`.`.`.`.~.U.e.w.) ! K c.w.^.R.2X$X1X$X XoXoX.Xp.E.,XhX/./.$X#X*XoX1XkX4X1X$X(.).W.)._.Y.4X_.9.].8.$.{ +.HXJXp = l *.@.JX| @.{ HXHXHXHX+.HX+.@.@.HX*.*.O.| {  .| +.{ { | | { ] w e k % < + e i % i g $.: :   k ; 0 0 0 0 0 0 0 & a   1 . * ; $ % = $ ; a u * * * $ * $ $ $ = = & = * u * p q w w * 0 & ",
"f.g./././././.E.p.p.p.Z.Z.;Xa.Z.XXXXXXXX.X,XXXOX.XZ.;XZ.;XOX+X+X%X2X:XoX7X>X4X;X.X5XkX>X.Xh.OX0X0X7Xp./.7XE.uX7X;X7X;Xs.q.2XuX7X*X7XuX9X*X X X*X&X7X2X%X$X2XE.:X3X X&XtX*Xy.(.4X,Xu.u.y.4XoXoXa.1X(.y.).jXrX1X!.`.`.`.!._.!._._._._._.`.U.U.U.b.m.( K K ( 7.9.~.hXkX5X5X+XV.j.E. X#X XoX:XoXoX(.:X$X1X1X4X4X).).Y.4XrX}.U.f.$. .+.HX@.p $ $.j JXJX+.{ @.HXHX+.+.@.HX+.| @.+.@.*.[ ' ' { | | ' } | | [ O.] 0 = $ $ u $ < 1 ; i ; .   o.* ; 0 0 0 0 0 p 0 = 0 $ g : * * $ $ = $ = i e * * = & & $ $ $ = = * * * e & e 0 w 9 * 0 & ",
"f.f.f.^.h././.^.E././.Z.Z.,Xp.Z.XXXX.X.X;X.XOX7X5XZ.Z.Z.XXXX@X@XOX>X2XoXT.9XdXuX7X5X5X7X7X;XOX-X#X5X.XoX7X4Xf.;X Xa.|.-XE.2XOX X%X7X7X-X0X7X#X X*X3X7X7X&X$X$XT.W.3X3X$X*X$XW.a./.kXkXR.(.%X2X1X(.R.y.f.f.!.!.!.1X1X_.).`.$X1X$X!._.rX_.!._.`.U.U.b.b.b.b.c.c.0.,.,.8./.4X3XE.a./.,X:X:X4X4X2XoXoX1X2X1X1XE.4X(.).Y.~.].b.B.=.HX@.JX[ + a $.s HXJX{ | @. . .| +.| HX+.@.@.@.@.@.| +.} ' HX| ' | @.@.@.*.*.u $ k $ . e i < k   o : k $.$ e 0 0 0 0 0 p r 0 = ; l 1 * * $ $ = $ $ ; ; * * * & & & $ $ = = * * * 0 & 0 e * 0 * 9 & ",
"r.y.y.j.j.i.i.i.^./.;X;XXXZ.Z.p.Z.Z.Z.Z.Z.p..X5XOXZ..X.XXXXX5XOXXX,X,X;XT.oXT.W.E.T.#X9X*X-X+X.XOX7X X X-X2X-X7XoXwXdX7XT.OX|.A..X>X.XOX7XtXtXtX3XoXoX%XtX&X&X!.!.2X3X3X3X&X7X4X8.8.y./.4Xr.y./.R.W.1X1X$X!.!.!._._._._.4X1X$X$X!.$XrXrX8X8X8X8X!._._.[.].U.U.].'.b.c.b.b.Y.4XkX).^./.,X(.i.E.1X2X2X1X1X1X:XE.1X).[.B.0.mXg.%.@.JXJX[ 0 [ $.t JXHX{ | @.} } } +.| |  .+.@.| | | | +.| | +.{ ' { | @.O.O.] = = * = 0 r % $.f % X $ k ; j a p p 0 0 0 0 0 9 p = 1 o $ e = $ $ $ $ * ; * $ * & * & $ $ * = * * = 0 * 0 u = = & 9 & ",
"r.r.y.f.j.^.j.j.i.i.E.;X;Xh.;XZ.p.Z.;XZ.h.;X.XOX|.OX5XOXOXZ.A.A.XXXXZ.Z.<X4XE.;X,X/.7XlX3X-X5X,X:X2X#X#X-X XOX-X0XdX-X#Xa.7X7X@X+XA.p..X>X X&XtX7XoXQ.!.&XyX#X&X&XT.W.4X1X$X$X1XR.4X1XQ.y./.i.(.(.W.3X$X1XrXrX1X1X_.W.!._.1X1X1X3XrXrXyXqXhX,XrXrXpX!.!.}.`.`.`.U.U.U.U.U.w.w.9.Y._.jX4Xy.y.R.W.oX:X1X1X1XkXE.1X(.jXw.].^.f.%.@.+.JX[ * o.o.t JX+.@.{ @.} } } @.{ ' | +.| ' } } } { +.HX| ' ' | | | { [ [ a e k 0 r $.LXE .   $ f ; u = * p p p 0 9 * * 9 e = < $ $ ; * $ $ $ $ * ; * $ * 9 * * $ $ * = = = e 0 0 0 e & = & & * ",
"t.t.t.u.j.j.j.^.j.i.i.p.p.p.;Xp.p.XX;Xh.h.Z.;X.X|.2X7X%X-XOX+X+X|.Z.t.t.Z.|.OX7X,Xu.u.hXkX>X5X5XOX|.5X7X-XlX|..X4X-X-XuX-X%X5X7X-X%XOXZ.a.!. X%X2XoXE.oX*X%XuX-X#X&X$XT.1XuX3X3X3X3X3X2XuX!.!.!.!.!.1X(.4X!.!.1XrXuX4X!.Q.(.)._.rXrXtXiXeXpX!.!.!.rX_.jX4XlX}._.!.!.!.`.`.9.w.w.w.e.9._.lXjX[.1X:X:X,X1X$X/.oX2X_.~.U kX8.[.;.+.+.JXt = f k ] JXHX{ | } } } | @.{ ' | | @.' }  .| ' *.+.| { | @.| @.| @.+.a $ u * o.[ =.. e $ f = * a + 0 q r r 0 0 0 0 0 0 = 1 1 * * $ X $ = $ * ; * $ * 9 9 & $ $ $ * * * ; 9 0 w r & 0 w & 0 ",
"D.D.u.t.r.y.y.^.^.^.i.p.p.E.p.a.Z.,XZ.u.u.t.Z.OXoX2X%X+X0X0XuX0X5X5X<XXXXX@X7X5XA.XXOX+X+XF.Z.|.-X X>X2X%XOX.X;XZ..X|.OX>X2X*X*X9XtX7X7X5X7X3X%X2X1X1X2X7X:XoX-XuXuXtX3X!.T.$X&X8X*XuX3X%X1XrX$X3X1X$X3X$X1X!.!.!.$X1X$X$XR.y.Y.$X$X8XeXeX*X8XuX2X4X4XrX8X!.!.$X8X1X_.[.{.{.}.].~.~.~.].].w.^.(.1X:X:X:X$X4X1XoX).].w.{.s.q.[ HXJXJXs - g ; ] JX@.{ | | | } | | { } | | +.' ' } | { @.' | { { | | +.| { { = ; = ] *.[ f . + i f $ = p & 9 r r q 0 0 0 0 w e $ o % $ ; = $ $ = $ $ ; * + * 9 9 * & $ $ * * * ; 9 0 9 p & 0 w & 0 ",
"d.r.r.j.t.f.j.i.y.i.^.E.Q.R.R././.p.:X2XOXh.;X.XOX>X>X5X@X5X5X7XzXzX0X-XdX>X<XXXXX<X@X7X@Xa..X.XoX2X2X%X#X&X-X%XOXXXZ.S.S.XX5X|.OXoX7X8X8X&X3X2XOX5X7XtX%XXXZ.Z.;X4X7X3X&X-X#X*X$XW.(.).).*XrX1XR.(.hX4XR.oX1X1X1X$X$X$X$XY.y.f.g.f.).4X!.rXrXiX8XqX8XtX&XrXrX1X_._._._._._.Y.`._.`.`.`.`.e.e.w.~.).).(.:XhXR.^.~.Y.).kXf.k.HXHXJX+.< s g [ @.*.| | | { { ' | | | | | } +.{ { { } { | | { }  . . . . .' @.s j k =.-.> 4 g ; a = $ e u u * r d p r q w 0 & 0 = e % $ $ = * $ $ $ $ ; * $ * @ 0 * & & & e = = e * 0 & 0 9 9 q w * ",
"j.j.r.t.t.y.y.f.j.^.E././.i.i././.E.;X>XoXh.:XOXOX.X.XXX+X-XT.u.:XuX-X|.Z.7X+X|.OXOXa.|.5X.X>X5X>X>XOX5XuX*X&X%X5XOXXXXXXXXXXXXX>X>X7X3X9XuX*X#X|..X,X2X-X>X>X:Xa.a.T.a.>X%X7X3X7X(.,X^.i.Y.W.1X3X1XW.E./.W.W.W.$X1X3XrXrXrX!.`.R.y.y.^.y.Y.`.1X1XrXrXrX1X*XrXuXrX_.`.`._.!.Q._.rX_._.rX_.`.`.).).).).).).(.Q.4X].Y.jXkXr.L HXHXJX[ $ r $.[ +.+.| { | } ' ' { | | | | }  .| ' { {  .| | | { {  .{ @.| ' +.-.k Z $.% . -.g $ u = * e u e = 0 s p r 0 9 0 & = $ ; % % $ ; = $ $ $ $ = * $ * 0 r * * & $ = = ; ; & 0 & q 9 * q 9 * ",
"g.j.f.f.j.E.y.f.j.i.y.j.hXR.R.^./.i.E.:XoXE.>X7X5XOX.X.XOX,X5X|.a.p.hXkX7X9XwXqX9X7XoX,X/.|.@X5X>XOX+X+X-X0X0X0X7X5X%X+X|.XXXXXX5X.X>X%X&X8X9X7X.X%XzX2Xy.oX$X7X%XOX.XZ.XX|.>X:X4Xa.:XE.i.^.^.`.$X%XoX.X;XE.E.E.E.oX1X1X1X3X3X1X$X1X(./.^.f.^.)._.1XrXrXrX*X8XrXrXrX1X_._.lXkXkX(.y.(.4X1X1X3X4X1X).).)._.8XiX4Xw.jXSXs.g.J  .JXJXp 0 a k [ *.+.| { | { ' { | | | | | {  .| ' | }  . .{ | ' | @.' | @.[ O.k f l % ; o.; 1 $ ; * = e e e 0 0 p p q 0 0 0 * * $ ; = = $ ; = $ $ $ $ = * & * 9 9 @ & * $ $ = ; = & 0 0 e 9 9 r 9 * ",
"^.j.f.f.f.f.).(.y.8.s.j.j././././.i.p./.E..X2X7X5XOX.X>X>X5XOXXX5X5Xa.t.S.;X7XlX2XuXzXyX!.#X#X X X%X5X5X5X#X-X-X-X7X7X5X%XXXXXXXOX.XZ.|.%XtX*XuX7X>X:XE.4XT..X%X5X7X5X.X;X.XXX.XXXp.;X>X>X)./.R.T.2X5X2XoX;X;XE.;X:X:XE.Q.R.:X3XrXtX3X1X:X).(._.1XrX8XrXpXrXrX8X8XtXuXrX4Xy.y.R.R.R.4X7X4X#X&X3X$XW._._._.rX!.).~.lXSXs.,XJ @.*.HXe p g k [ *.@.| { | { { { | | | | | {  .@.'  .}  . .{ |  .{ } { | | +.UX$.% o 1 X a = < * ; * ; ; * ; e 0 p p q 0 0 0 9 0 & e = = $ = $ $ $ $ $ = * * * @ 0 & & * $ = = ; = * 0 0 0 9 0 q 9 * ",
"y.f.f.f.f.V.r.y.hXhX8.8.E./.R././.E.E.E.E.E.oXOXoX.X;XXX>X-XdX7X+X+XXXXXZ.d.r.u.a.7XuXdXyXfXyX%X X%X7X-X9X+X+X#X%X5X2X%X%X5XOXOXOXXX.XOX%X*X*XtXuX7XoXT.%X,XXXOX+X5X7X%X3X5X|.OXOX>X.XOXOXT..X:X,X/.(.1X3X>X:X.X;X,X,X:XE./.,X1X$X$X$XE.E./.i.:X!.uX$XrX8XrXuXrX8X8X8X3XrXtXtXrXrX8X9X9X*X&X3X3X&X$X1X1X1X).Y.jXjXfX).<.hXb @.-.@.k 9 g *.O.*.@.| { { { { { { | | | | {  . .' @.' |  .{ { } } +. .{ ' *.LX% ; Z : a + * % ; ; = e ; * ; e 0 e p r 0 0 0 0 0 & 0 = = $ = $ * % $ $ = = * 0 & d p & & & = = ; ; e e 0 9 9 0 q 9 * ",
"y.^.^.f.^.y.y.f.j.E.W.E.i.i.a.E.:X:X.XE.E..X.X|.|..X;X;X.XT.|.#X0X7XZ.a.#X5X.X.Xp.Z.u.u.h.uXtX%XoX$X%X%X-X5X5X%X%XOXoX.XE.>XoXOX+X5X>X5X7X0XuX>Xa.!.9XuX4X<X5X5X+X+X%X%XtXuX#X5X|.2XoX7X%X5XOX,XhX/.y.!.uX%XoX.X.X;X>X:X:XT.oX3X&X$X(.j.j.j.u.j.i.(.(.1X(._.1X1X$X$X$X$XrXtX8X*X$X8X9X9XtX1X3X3X3X3X3X3X3X).jXjXrXvX^.3.,XN O.=.+.k r $.[ @.+.@.| { | | | { { | | | | |  .| } @.' | | { { } } +.' | [ $.[ 1 $.-.% * 0 & $ = = ; u e * e = 0 0 p r q 0 0 0 0 & 0 = = $ ; = * * $ $ ; = * 0 & k d & & & * * = e a 0 0 9 0 0 q 9 * ",
"u././.^.^.W.j.y.i.W. XoX:X.Xa..XOXoXoX:X.X;X.X.X|..X;X;XE.7X7X5X+X5X7X5X:XZ..X5X.XOX>XOXOXa.a.Z..X:X>X2X7X%X%XOX%XOX>X>X>XW.oX%X+X5X%X7X-X7X0X*XuX7X:X3X7X XOX@XXXOXOX X&XyXtXuXoX:X2XlX7X7X:XE.:X:X!.&XyX8X&X%X.X.XZ..X.XT.!.rXuX1X1X,X/.:X:XR./.R.).^.^.W.W.R.W.1XrX8X8X$X1X3X7XlXuX3X3X$X$X1X3X3X3X3X3X4Xy.f.!.8X~.N.p.N #.=.] > a =.[ #.@.@.| | @.@.| | { | | | | | { { { | | | | { { | | +.+.' @ j $.. 1   ; 0 + * u = = ; u = = u * 0 = p r r p 0 p 0 & 0 = ; = u = * * $ $ = = * 0 + d p & & & & = = e a * 0 9 0 * q 9 * ",
"u././.i.R.4XoX!.oX:X;X.XOX5X.X.X.X.XoX>X>Xh.p..XE.;X;X;XT.j.>X#X+XXX,X>XOX#X#XuXOXOX>X.XA.XXXXZ.Z.;X.XZ..X#X5X5X%XOXoXoXoX!.$XtX#X-X%X-X#X-X0X#XuX7XT.:X/.9X-X5X>X5X5XOX5X*X9XuXoXR.1X4XR.f.i.R.W.&XyXyX0XqX9X-X5XXX.X.X.X,X(.4XrX!.$X7X%X$XuX$XlX!.lXW.`.(./.R.R.4XrX8X8X-X9X-X&X&X&X$X&X&X$X3X3X1X_._.4X*X1Xf._.lX[.3.:X, -.=.a r a -.+.*.O.@.| | @.@.| @.' { } { | } } } } { @.| | } { ' { { +.t u 1 h g o : $ + 9 e $ e ; = e * * u * = & p r r p 0 p 0 * u = u = ; = $ * $ $ = = * 0 & d e & 0 & $ = = ; a & 0 9 r & q 9 * ",
"u.h./.^.Y.oX%X7X7X:Xp.h.;X7XT.E.:Xa.>XXXXX.X.X>Xa.p.,X;Xh.s.r.E.%X%XOX.X>X5X7X-X9XdX-X X#XOX+XOX|.oX>X.XZ.XX.XE.4X>XZ.XX.X.Xp.,X,X>X7X2XW.$X7X3X2X7X2X*XuX/.oXoX%X5X5X5XXXXX>XuX9X*X8XW.[.j.,Xj.r.j.4X3XtX0XqXqX9X&X&X3X2X*X8X$XQ.y.y././.W.W.!.rXjX].f.`.rX1XQ.Y.4X4XW.3X1X2X3X$X&X7X7X%X7X3X3X3XrXuXuX3X1XE.).!.vXq.kX7.E JX-.0 % 6 *.#.+.@.O.@.@.{ | @.{ { { { { | | } { { { { { { { { | HX{ @.j $ : $.IXW O = @ 9 * & a e e ; e = 9 9 i $ p q p a a 1 t = = 0 o + s X * * * * & 9 0 & = 0 0 9 & & * * = = 0 0 9 0 9 * q 9 0 ",
"t.u.j.^.^./.E.T.T.:X>X.Xa.%X X2X7X>X>XXX|.>XoX5XOXXXXXp.p.r.y.E..X.X.XOX5X%X X#X-X-XuXdXtXuX5X7X7X5X5XOX5X5XoXW.oX.XXXXXZ.XXa.p.a.a.oX%X2XoX X$X XT.2XuX-XtX3X1X:X,X4X5X-XOX|.r.:X7XuXyX&X*X!.W.1X(.a.a.W.%XtXyXyX9X&X$X&X&XrXrX4X1X(.^.y.f.B.B.f.q.q.^.8X!.!.W.)._._.`.4X4X1X1X$X&X1X2X3X3X%X%X$X$X$X1X1X_.^.).8XSXq.F.0.&.-.a = $ 4 *.@.@.@.@.@.@.| | { | { { { { { { { { { { { { } { { | { } | @   g o.3 O ; e @ & = * a u $ ; = = * u u 9 s p a k ] ] s - e r % = s o $ $ * = = 0 0 & $ * 0 0 & & $ $ = = = 0 9 9 * * q w & ",
"t.u.u.i.j./.^.R.oX2X2X%X#X%XOXOX7XoX.X>X;XT..X7X7X5X|.a.p.T.T.:X;X;X;X.X|.%X7X%X X#X-X5X7X-X#X-X-X5X#X X-X%X X3XoX|.XXZ.;X.X>X>X.XXX>X|.|.2X3X3X%X2XoX!.$X!.3XuX$X!.!.2X7X5XXXt.hX4X%X-X9XeX8X9XtX$XE.,Xh.:X:X3XtXyXyXtX8XuX3X1X$X_.1X4X4X_._.`.Q.).{.).!.rX!.`.Y._._.Y._._.!._.rXrX1X1X1X&X*X*X$X%X2X1X4X_./.).uXjXq.t.0.%.f X a i $.*.@.+.*.JX*.+.*.+.+.@.{ { { { { { { | { { | | { { | } } { | s * 1 ; . + e 9 & * e = % < < a u a ; % i r r p k k [ s d a p & ; ; * o $ $ $ ; = * 0 * = = 0 * & & $ $ $ = 0 0 9 9 9 * q w & ",
"j.j.j.u.u.j.j.^.^./.(.oX$XOXOX X%X|.a.,X,X;XE.|.OX5X5X>X.X|.|.5X5X,X,X;X>XT.7X%X X7X7XOX5X7X#X5X-X-X-X#X0X+X*XtX7XOXOXXX.XZ.OX.Xa.XXXXXX@Xp.2X7XtXuX$X!.uX1X8X8X8X8XtX4X(.p.a.,X3X%X*X*XlXtXtXyXtX%X2X,X,X:X.X|.oX7XtXtXtXoXoX1XrXrX1X!.!._.4X8X8X8XrXrXeXrX1X!.`._._.Y._.`.!.!.rXuXrX1X1X1X3X3X3X3X4X1XW.Y.^.Y.uXjX8.d.v.-.; u a a -.*.@.O.@.*.*.+.*.*.@.+.@.@.@. .{ { { | { { { { { { | |  . .{ s * $ = [ q 9 & * * e = $ % = e u u < < u u 0 s k k l 6 f u p 0 $ % f . 1 $ $ = * & 9 0 * * 9 9 & $ $ % = 0 e 0 * 0 0 * q w w ",
"j.j.j.j.u.y.j.j.r.r.g./.a.E.XXoX2X>Xp.;Xh.;X;Xa.A..X>X5X5X>XOX-X-X%X.XE.hX>XoX2X7X5X5X5XOX7X%X7X-XuXuXuXuX7X#X*XtXuX5XOX|.:X2XoXa..X;X.XXXE.oX&X&X!.3XuX3XeXqX8XrXuXuX8X*XR.Q.&X8X9XtX4XkXr.y.E.:X2X%XOX7XXXXXOXOX X XoX2XoXT.$X$X$XrX1XuX8X!.`.$X4XhX1X8XW.1X4X(.(._.).).!.!.!.!.!.rXrXrXY.4X4X1X2X3X%X$X_.4X~.uXkXr.S.n.k $ a k o.*.@.@.@.@.*.*.*.*.JXJXHXHXHXHXHX+.+.+.@.@. .{ {  .+.@.@. . .@.w $ ; a k $ = $ = $ * 9 u * ; a j ; e u = u = s s j R U 4 k p & p i g ; i % $ * * & 9 0 $ & 0 0 * $ $ % = e e = * 0 0 & q w w ",
"u.j.j.j.a.u.u.u.d.s.s.j./.p.h.E..XXXp.E.a.a.E.p.p.p.p.;X.X5XOX-XwX-X5Xa.a.2XOXOX2X5X%XOX%X2XoX%X#X&X9X&X&XuX-X*XyXuX#X5XOX:X7X9X7X7X,X:X X4X3X*X*X$X3X&X*X8XqXyXiXrX8X8XiXyXiX8X*XqX8X4XY.s.f.y.y.1X7X%X%X>X>X>X5X5XOX.XoX:X2XlXyXtXtX*X$XqXrX4XuX4Xg.q.f.E.(.:XR.i.(.).)._.1X1X!.!.rX4X_.y.4X4XW.!.$X3XuXrXrX_.3XhXr.u.! k k e = o.*.*.+.@.@.+.+.@.@.+.*.JXHXHXHXHX+.+.+.@.@. .| @.+.+.HX . .{ | q i $ e < X < $ $ * * 9 p e ; ; ; = = = u a = q s E _ U.Y f p q w i Z * < $ $ = = 0 0 9 g u $ $ * = $ $ = e = & & 0 9 & 0 & & ",
"u.j.j.j.D.D.t.t.j.s.<.r.,XE.a.p.a..X.XoX XOX|.a.p.,X>X.Xa.oX X#X-X7XdX5X|.|.>XA.a.5X7XOX7X2X$X&X-X9X9X*X&X5X-X9XyX9X#X-XtX!.8XwXqX3X3XuX9X8XrX!.8XiXrX*X0XlX3X8XqXyXyXiXiXeXiXtX8XyX9XyX*XlXlX1XR.(.4XW.y.4X/.E.:X7X7X2X>XW.!.8X*X*XuXlXzXzXkXE.*XqX1XR.Y.).i.i.y.i./././.(.(.1X1X4X4X_.).4XjX4X!._.`.`._.1XW._.W.).g.r.W ] o.j a O.JX*.| +.@.@.@.@.@.@.+.@.+.@.@.@.@.@.@. .{ { @.@.@.+.+.+.+.| ] p f : ; a ; u * + u = = p u o 1 o : $ 0 < p 9 0 g W ! U R g p & w a 1 * % $ $ = 0 0 q 9 Z a     * e = $ 0 0 = $ $ 0 0 w 0 & & ",
"j.j.j.a.D.S.S.S.t.d.j.h.a./.a.;Xp.5X7X-X-X-X7XOX,XZ.a.5XdX X7X7X|.a.5X-XaX5XOXOXXXOX2X2X X7X#X9XyXyX9X-XuX5X X9X9X9XyX9XtX9XfXcXcX8X*XtX8X8X8XrXrX1XrXtX9X&X$XW.!.$X!.*XqXeX8XfX9XqXsXqXuXwX8XtXlX4Xy.f.^.^.y.y.R.W.W.$X3X1X3XzXqX8XtX!.E.!.y.y.oX4X4X).4X).y.).4X(.j.y.j.j.i.R.(.(.^.^.^.3X$XQ.`.rX_.^.).1XQ.}.(.^.kX5.W [ d j a O.JX#.+.HX+.@.@.@.@.+.| @.+.+.+.+.+.+.+.+.| @.*.*.*.*.JXJX@.JX@.= i k ; $ + e r @ a $ % r ; 1 &.$.h . u o r t - 6 _ ! ! ) : p & & a 2 @ % $ $ * 9 r r w 1 < = = = * * = 0 0 = $ & e r 9 = * * ",
"R./.g.a.Z.a.a.S.S.D.t.r.,X.Xp.p.a.%XdX-X-X7X%X-XdX-X+X+XdXaX9XwXaX5X;Xp.7XwXaX-X5X.X|.-XwXh.kX:X#XfXeXqXtX9X*X*X#X&X&X3X7X*XqXfXiXiXiXqXyX4X4XrXrXrX8X8X8X$X8XqX*X&XW.!.Q.f.y.^.kXtXqXsXwXiX8X&X$XyXtX1Xj.W.oX:XW.R.R.W.1X3XyXiXtX4X4X8X8XW.:X/.y.y.(.:XE.:X;X/.^.y.y.R.:X.XE.;X;Xa.|..Xa.a.E.p.a.i.:X:XR.w.[./.7X4XkXj.N p j k ] *.+.+.HXHXHXHX+.+.+.+.@.+.*.*.+.*.*.*.*.+.@.*.*.O.O.$.] [ O.s ] u -.f = = $ = * * 0 & * a ; f '.I.b.> u = a & * h _ ` Q U z r e w = @ % X = * $ e s t & 0 0 * * $ = = * 0 u e @ = 6 * ..w p + ",
"j.r.r.S.t.a.a.a.t.u.u.t.h.;X/.h.i.E.2XOXOXoXa.|.5X5XoXT.7X%X-XwXaX-X|.|.5X-XdX0X-X5X-XuXdX<.2X0X#X#X7XtX9XtXtXtXuXuX9X9X9XtX&X&X8XiXfXwXwXeXwXwXwX8X8XrXrX(._.4X3XuX3XuXtX3X$XQ.4Xy.1XuXlXqXqXiXqXfX9XtX7X$X!.:X4X4X1X!.Q.uX9X9X*XW.(.4XuXlX1XE.(.4X,XE.T.E.E./.).^.^.^././.a.E.4X4X4X4X>X4X>X>X4X4X1X1X4X!.!.E.!.Q.,X8.T k = ] O.s @.] [ [ [ [ ' ] O.O.] ] ] ] ] j j s s s s s s w 9 r @ p s w q * i ;   % $ 0 * & * & = @ 2 6 H.` {.&.w u a r r h _ ` Y U j r $ & u q % X * * $ 0 s t & 0 0 * $ $ * * * w X % + w e e q t s * ",
"s.5.s.S.A.a.p.a.r.u.S.u.u.:X/./.i.a.p.a.h.%X%X5X#X>X4XE.a.lXa.7XdX-XdXdX%X>X#X-XaXwXuXdX%X%XT.%XdX-X#XOX5X$X%X7XuX0X9X9XwX7X9XuX9X9X*X8XiXwXwXwXqXeXtXtX8X1X$X*X*X$X!.4XuXdXtX$X_.8.^.y.y.*X8XtX9XyX9X-X3XuX3X(.R.y.R.3XzXtX8X8X9XtX4X4XlX$X!.!.1X4X1X1X4XW.(._._._.(.^.^./.i.R.(.E.E././.1XoXoX%X2X$X1X4XE.W.hXy.e.s.P l ] p =.k a d k ; e e d = ; u u e = = = = = = = * $ - = e 0 p p r 0 p q w ; > i = $ $ 0 * & & & 0 @ : 6 ! Q }.( w u u 0 q g R ` C G l s & & k a $ $ & * % = s s & 9 * * * $ * * * w $ < & w w 0 q w 9 = ",
"j.V.j.D.D.a.h.;Xu.t.S.a.a.p.a.u.u.i.i.j.g.a.oX%X|..XkX:Xa.%X7Xa.a.0XaXaX-Xa.-X0XaXaX#X XuXdXuX2X#XdXdX+X5X X X%X-X9X0X0X0X9X-X-X#X#X*XoX1X3X3XtXtXyXyXyXyXfXeXwXwX9X8XtXyXOX X4XQ._.lX4XE.R.E.:XoX3XoXoXoX*X$X4XhX^.y.y.$XqXwXqXyXtX$X*X9XtXtXtX1X$X1X1X$X1X1X$X$X1X_.(.).^.).1XW.Q.W.,X).(.1X$X*X*XrXrXrX.X1XkXf.b.B.1.%.o.k k ; k i f 6 f ; i 1 i % $ ; % % % = ; ; ; < = e = e 0 e & & e p q p * ; i u $ $ = & & & & = - w 1 K / '.n @ p = 0 r f W / Y K h s p 0 a e $ $ & = = = s s & 9 0 * * * * * * * * * @ & & w t w & = ",
"7X,XZ.Z.A.a.a.;Xh.a.Z.j.h.E.a.u.i.h.h.y.f.u.a.E.>X>X;X.X2X#X%X,Xr.|.uX+XdXdX#X-X-X5XdXdX*X5X#X0X-X XdXdXwX%X%X#X#X%X%X%X%XuXyX9X9XyXdXtX&XuX3X&X*X*X9X9X9X3X&X9XeXiXqXwXeXuX7XuX!.$XrX&XT.j./.4X(.:XE.:X4X$X!.R.).hXhXkXlX*X3X4X,X/.!.9XcX8X9X&X*X&XuXrX!.$X$X$X8X$X!._.4X_.4XrXrX1X1X1X).).1X$X!.*XrX3X!.$XpXlX~.].[.j.%.O.=.Z f $ u ; i a $ = = a u = = u u u u e e e e s s w 0 0 s p d e 0 0 0 + i = = $ $ * & & * & * o y 0 ` ` c.K   d ; 0 p i Q / Q R A p s $ * * % % & = = 9 s s & 9 0 * * * * * * $ $ % : . = r t y w e ",
"*X2Xa.a.S.S.u.i.h.h.Z.h.j./.u.j.j.h.h.r.r.j.u.;X;X;Xp.T.%XwX#X4XkXp.oXdX+X#XdXdXOX5X7X-XaXdXT.*XfX-X#X0XaX0X-X-X*X#X%X%XoXE.7XuXqXqXwXsXwXeXeXwXwXwX9X-X&X3X3X&XtXrXuXtXqX9X*X*X8X*X$X$X3X3X3X&X*X3X%XtXuXyX$XW.(.,X)./.E.y.y.s.q.r.(.9XsXfXfXiXiXuXyXtX&X$X$X8XrX8X$X$X1XrXrX!.1XrX1X!.Q.4X4X1X4XrXrX3X1X1XpX!.~.].h.u.N o.k g i k 0 * * = 0 a 0 0 0 0 0 ; e e e 0 0 0 q s s w q q q & & p w q & * i $ $ $ $ & & & * & * $ @ u R / '.F & a = = q e Y Q Y D D p s = r e = $ & 9 = & s s & 9 9 * * $ = * * 9 : T _ 3 @ s & t w 0 ",
"*XuXa.r.S.Z.u.j.i.u.h.j.y.s.8.r.r.i.;Xj.j.r.a.p.a.a.h.E.oX2XoX7XOX>X5XT.OX-X#XuX7X%X5X-X-XaXfX%X#XfXwX#XuX0XaXaXqXqXyXuX7X3XuXqXeXfXsXsXeXeXsXfXfXfXyXtX7X9XqX*X$XW.1X_.1X8XwX9X0XuX&X3XrXtX8X8X*XtX3X9XqXiXqX8X3X$X1X1X4XkX[.j./.4XlXiXqX*X*X*X9X9X*X9XtXtXtXtXtXtX8X8X8X8X$X!.!.1XrXrXuX_.Y.R.(._.W.!.rXkXpX`.B.C.d.V.M d k $.g a u u $ 0 a k u = * 0 u $ ; u 0 0 0 p r 0 w q s s s s s r w q q e $ $ $ $ $ = & & * & * 9 X a 7 / '.3 w e : < s a E Q Y W R i s ; s u & $ * 9 $ 0 s t w 0 0 * * $ = = * w 4 n.B.! > t w w q w ",
"4X3Xp.j.d.S.j.h.i.y.j.j.y.s.q.s.r.r.p.i.h./.a.a.p.h.h.i.:Xj..X-X-X%X.XE.2XuX#X-X0X7X+X XuXaXwXwXaX-XtXzXwX-X-XaXaXaXaXqX0XsXcXeXsXfXqXtX3X1X3X3XrX&X&X-X9X9XfXfXfX8XtX8X8X8XtXuX#XdX-XyX*XrX9XqX8XuX$X$X8XwXeXeXyX8X$XoX:XW.W.!.*XwXsXeXeXuXtX9X-X9XyXyXqXtX8X&X3X7XtX9XqX!.tXrX`.)._.$X$X_.).^.^.^.).1XlXuX8XuXkX[.t.y.l ] o.l : f < a 1 ; $ ; $ u ; ; < % u u u = u p p u = u r s w s s r t w s e $ % = $ $ = * & & $ = + % 0 6 / '.8 @ * o 2 p r h C C BX_ a s = r e - $ 0 0 $ 0 s t 0 0 0 * * * = = = - 1 m P b.O w ..& w w ",
"&X8X*Xh.d.Z.a.p.Z.h.u.y.j.g.y.y.y.j.h.p.E.;Xp.a.u.p./.E.p.;XT.-X0XdX%XE.,X-X7XoX.X%X#X#XuX9X9X0X0X-X#X*XyXwX-X5X7X0XwX0X7X-XtX-XuX5XuXuXuXeXeXwXwXqXfXqX*X9X*X*XtXyXwX8XtX3XtX*X*XqX*XqX9X*X9XyXtXtXtXtX8X$XuXyXwXwXeX9X3X!.tXQ.,X3X9XeX9XqX9X9XtXyXtXrX1X$XrX4XR.^.4X4X3XeX8X*XrX4X_.)._.jXhXhX^.).`._.`.rXyXpXlXC.6.).T k k   l ; = u a u u u = e u = ; u u = ; i ; * d 9 & * a s * @ r * r ] s p * i $ % $ * = * $ $ u * & = g W %.: s e i $ & t a 1 / '.( 4 r 0 u u + $ $ = 0 w w q * e 0 $     $ * * $ @ 4 [.7.5 w p t q ; ",
"rX8X2X,XS.u.Z.Z.p.i.j.u.r.u.y.j.j.u.u.a.p.i.p.h.i.a.a.p.;X>X2X*X#X-XuX%X>X X XT.oX7XuX-XoXyX9X-X-X9X0X0X9XuX%X X#X0XaXwX*X9X#X#X-X-X+X#X-XuX7X7XtX9X9XwXsXzXaXwXqXyXtX9XwX8XyXtXtXuX9X0XyX9X9X9X*X*X8XtXrX*X*X*XtXfXqX9XqXiXyX9X*X3XkXlXwXqX9X*X8XqXqXtXtXrX$X!.`.R.`._.1X$XrXrXrX!.!.1XrX8X8X*X!.).{.{.{.qX$X8XrX2.5.7.W ] k k i $.o.0 u e ; u ; u u ; i u ; i a u u a p 0 0 * & 0 e 0 0 j r p w @ e ; $ $ $ = & & & & = $ & d X g 4 o e * ; u - s p h W G Y f s * $ ; e $ $ = 0 9 w q * & $ * ; i e * & = @ 6 [.e.N w w t 9 * ",
"1X%X4X;Xa.r.a.Z.u.u./.j.r.y.u.h.j.u.u.u.h.u.h./.h.a.y.p.:XT.>XoX%X*XuX-X0X9X-X%X X X7XuX XfXdX9X-X0XdX0X-X7X9XwXwX-X-X0XfXyXyXdX#X-X-XuX-X#X X#X-XuX-X0XdXqXwXwXqXuXyXyXeXwXqX8X3XuXtX*XyX9XqXyXqX9X8X8XtXtXtX&X&XtXfXiXqXsXtXzX*XtXzXlXtXwXiXiXiXqXwXqXtXrX&XtXrX_.`.).y.Y.4XlXrX8X8X$X$X8X8X*X1X_.jX[.lXlX[.kXjX3.x.^ X.] = -.k e + s p i < ; = ; i ; a = u i ; = e e * & & = e e 0 e d d & 0 9 9 k + $ $ $ = $ & * $ = X * 0 + 1 Z f j a $ % - p j k 6 O f s t w = = 0 * $ $ * 9 w q * p = * ; i ; * * & @ 6 B.e.N @ q t w * ",
"3XtX7X2XT.a.a.a.a.j.j.j.^.p.u.i.y.u.j.u.i.h.h.h.h.h.p.p.p.a.a.:XE.2X%X-XaX*X7XuX-X%X7X7X%X9X9X9X0X0XdXdXaXwXwXwXwX-X5X5X7XdX0X0X-X0X-X0XdXwXaXaXaXwX0XdXdXqX9XtXyXwXeXfXyXeXiXqXtXtXuX!.uX9X9X9XqXqX9X&X&XrXrXqXqX8X!.*XiXtX8XrXR.Y.sXeXtXqXfXfXiXqXwXqXqXuX9X8X8XrXlX4X8.^._.rXrX8XrX$X!.,X4X1X1X1XrX8XiX8X4X&X/.2.v.&.] u j i a e [ ] + $.$.o.g i i ; i u k a $ i u * p 0 e u u e $ & e 9 & e r a ] + $ $ $ $ & * * + e $ = 0 * ; l i ; r e $ u * p j $ e r t w w p = & = $ $ * 9 q 0 & k p * $ $ $ * * $ @ 1 0.0.H + p t t 9 ",
"tXtX2X,X!.,Xp.u.j.j.r.y./.;Xh.j.y.y.j.y.r.i.i.u.i././.p.i.;Xu.u.y.,X2X5X-X%XuX9X-X-X%XoX%X&X&X-XuX0X-X-XwXwXwXqXdXaXwX%X;X9X0X0XaX-X-X-XdXuXuX0XaXfXsXaX9XzX$XT.*X9XsXsX9X8XqXfXfXeXyX!.4XfXqX8X9XqXyXtXtX1X$X8XqXiXtX8XqXlXiXsXtX!.yXsXsXfXtX&X*XqXiXiXqXtX9XqX8X!.rXjX).4X_.!.$X8XrXrX4X(.4X3X$X1X3XtXtXrXiX8Xf.<.r.J.O.a u ; e -.w s p k Z Z i   $   $ = a ; $ ; * + 0 = p =   $ u e & 9 0 p e 0 u + * $ = = + * * + = $ = k 0 e = $ X e e   e 0 e p 9 0 0 d w - p 9 9 * $ * = 9 0 0 & p 0 * $ * = * & $ @ u 0.0.c.$ p t t 9 ",
"8X.Xr.s.g.;Xp.u.t.t.t.u.u.p.j./.y.y.j.y.y.y.a.u.u.j.h.p.p./.h.r.r.r.,XoX%X7XuX-X-XyX7X X-XtX&X-XuXdX0X-X9XwX0X7XuXaXaXqX7X#XdXaXaX-XdX0X#X&X*X#XtXyXuX*X#X3X$XyXiX8X*XeXaXtX9X9XwXeXiX$X1XfXfXiXqXqXqXyXiXqXqX9X&XiXvXvXsXeXeXcXcXfX8XuXqXiX8X*X$XqXiXiXqXqXqXiXtX!.!.1X4X1X!.!.1X1X_._.kXW.1X3XW.1X1XuXrXlXfXeXB.3.t.K.=.f u u $ s r s * $ ; ; $ $ i ; $ u $ u f ; e u 0 & 0 = * e a u 0 9 0 a * + ; $ $ $ i u . + = $ * > = d p e * * < u = + $ a 0 0 w - - p - 0 q 9 9 & $ % = 0 q r * 0 0 0 = = ; * + $ & 0 1.0.v.: q w t w ",
":Xd.5.s.f.W.R.u.r.d.d.j.r.r.u.j.y.y.j.j.j.a.u.i.u.u.u.p./.i./.j.y.r.i.i.>X.X#X-XaXfXuX-X-X%X%X#X9XyXdXfXfXfX-X X*X0XsXaXwX0X-X-XaXaX-X#X#XeXfXfX9X X!.3XzXvXiXsXcXfXfXfX*XfXqX9X8XqXyXfX9X*XqXfXfXwX9XwXqXqXwXqXiXuX$XqXvXcXcXfXcXcXeXvXvXeXtXtXiXiXeXeXqXfXiXqXtXiXuX8X!._.W._.4X4X`.W.1X(.1X3X$X3X3XrXtXqXtXeXf.<.a.J.&.$ ; i * 0 s e e ; * $   ; a = + =   ; a $ * u & 0 e a a u * + 9 q w s e $ k % $ $ i e + $ * + e * 0 $ = $ e + = < = p 9 0 $ 9 q 0 = u 0 p q 0 * * * = ; = 0 0 * p q = * $ $ * * $ - w L 1.w.1 w w ..y ",
"j.d.x.d.T.4X(.u.r.d.d.t.t.t.r.f.8.8.f.f.u.h.h.h.i.u.u.p./..Xa./.h.,Xu.a.;X:X#X-XwX-X%X-X-X5X7X-X#X#X9XqXqXaXaXaX0X7X-X0XaXdX0X0X*X0XdXuX%X8XeXfXwXeXfXfXeXsXeXfXeX8XeXfXuXaXsXfXtX*X!.fXeX9XyXiXiXfXfXsX9XtXqXeXeXtX&X8XeXiXcXcXcXeXcXcXcXcXiXiXiXfXfXeXiXqXiXiXqXtXfXiX8X1X(.).).)._.1X3X3XtX&XtX4XrX3XuX9XkXlX2.5.j.VX%.; i < e @ j s $ i ; = + + +   = = = ; u = = 0 * & 0 0 * * e 0 0 s w s a * $.: X $ $ $ + * + + k e * - . ; * * = i * 0 r & a 0 0 r p d s s w = : 0 = u < = 0 0 & s 9 & * $ $ $ 0 $ - & L L w.4 q w ..w ",
"6.F.S.%X%X2X%XoXy.s.B.s.d.d.d.d.8.8.^./.y.r.i./.h.i.j.:X7Xy.j./././.a.y.g.XXOX-XwX-X-X-X7X7X7XoX:X5X%X%X0X0X0XaXfXqX-X#X#X0XaXsXsXqX9XoXa.*X9X0X*X9XtXtX*X8XeXcXcXeXcXcXcXcX-XyX9XaXE.lXeXiXeXwXeXeXeXcXeXqXqXyX*XtXfXqX8XeXcXcXcXcXcXeXeXcXcXeXeXyXyXfXcXuXtXeXeXqXqXyXfXiX8XeX8X8X8XlX_.1X3XrXtXtXiXfXeXuX!.#X2.d.i.BX~ $ u = 0 9 w r e e + $   f $ $ $ ; % = u u = = u 0 = e = * u p 0 r & = u ; i = - $ ; = + + * = * $ * * * $ * = ; = * $ = q 9 r u u u = e a * e 0 $ 9 = % = q q $ q 0 @ = $ ; $ $ 9 o @ ! k.8.8 t y t t ",
"D.Z.7X0X3X2XoXoXj.d.s.s.r.r.r.r.r.r.y.^.^.f.f.j.h.h.a.E.7XT.a.y.a..XE.p.h.j.p..X2X2X%X9XaXwXwX-X#X-X%X X#X*X*X-X0X0X0X9XuX9X0XwXwXaXdXuX7XuXtX9X*XtX&X7XuX8XeXeXeX8XfXvXcXzXfXdX9X0X2Xy.tXeXfXeXiXfXcXcXcXiXeXqX!.*XfXiXiXvXcXcXcXcXiXtXuXfXcXeXcXvXcXeXeXeXeXeXiXfXfXyX8X8XqXiXiXvXrX!.1X3XrXuXrXrXiXfXiXuXrXuXN.d.r.K.H e ; * = q q 0 + ; j k ; ; $ ; $ e ; ; e e e e u e p a e * e r w r p - u + $ = X $ = = $ + * = * $ * * $ * ; ; = * = $ * 9 0 p 0 < < = = a * e 0 $ w = % = q w & 0 0 * ; $ = $ $ 9 o & K L 9.v t t t t ",
"7Xa. X*X3X2XoX4X,Xj.s.r.r.r.r.t.j.j.y.y.^.f.d.y.h./.p. XuX-X2XoXoXoX|.p.;X;X;Xu.g.hX,X-X-X-XwXwX0XyXuX-X%X-X&X#X*X9XuXuX-X0X0X9X9XwXdXuX-X*X9XyX9XdXtX&X XyXiXqXeXiXiXiX!.,.(.yXuX4XzX9Xa.9XfXiXqXfXcXcXeXcXcXfXeXsXcXcXcXsXeXeXcXcXeXeXfXfXeXeXcXfXeXcXcXeXeXeXyXiXiX9X*XyXqXqX8XtXrX3X4X!.$X1XW.(.rXiXeXuXiXuXN.d.q.=.T u = = 0 s s 9 + * k k ;   + * $ u e ; 0 e u p e & u u * * r r w s p & u + i = % $ = = $ + * = = $ * * $ = u e $ * ; * * 9 r p u % % $ = u = 0 0 & w * % = t w & 0 0 * ; $ $ $ = 9 X & D 1.w.F w t p t ",
"hXf.y.*X7XuX X:Xj.r.<.5.s.r.r.r.d.j.u.y.f.f.r.r.i.;XE.oXuX%X%XOX2X7X7X5X7X X7X>X:X/.,X7X0Xp..XOX5X-X0X-X-X-X-X*X-X9XuXuX0XuX0X0X9XwX9X-X X8XqXqX*X9X9X-X#X X9XiXfXfX9XqX8XjXeXwX4X$X!.lXW.y.yXfXeXeXeXfXfX9X*XtXuXzXzXtXfXcXcXcXcXsXqXtXuX!.tX8XqXiXrX8XiXiXiXiXiXtXyXyXtX9X8X8X&X&X1X1XW.tXuXrX(.).4XuX8XiXyX2X5.d.v.=.N ; $ u e t s 9 = a k a u $ ; ; e e = = = e e 0 0 $ u e & 9 s s w w @ 0 a i $.$   $ = ; * $ $ * * $ = = $ = i u $ * ; = 0 q r p u = = % = u 0 = 0 = w & - = t w & 0 0 * ; $ $ $ = 9 X & v 1.w.F & y w w ",
"s.B.i.%X2XyX*X1X/.g.r.5.s.<.s.5.6.d.f.y.f.j.u.a.u.h.h.i.E.E.p.a.T.5X7X-X5X-X7X2X-X%X,XkX-XZ.;X5X5X#X-X#X-XuXuX0X0X0X0X0X-X-X-X0X0X0X0X0X0XfXeXwXwXaX*X-XyX-X*X8X9XfXfXiXfXeX*XeXsXuXQ.lXf.*XfXeXwXeXwXqXyXsXeXeXqXrX$XQ.W./.hXkXuXyXiXeXwXiXeXiXfXiXtXiX8X4XrXtXeXeXqXtXiXyXiX8X3XuX1XY.4XiXiXrX_._.jXfXyX8X8X:Xs.F.c.$.g ; $ u 0 q q & * u ; + = + $   $ ; $ $ e e 0 * 0 = k a * 9 q t w q q d a f -.i $ $ = ; * $ $ * * $ ; e = ; i u * = ; * q r q u < = = = = u u * 0 = 9 & - = t y & 0 * * = ; $ $ * @ X @ D v.q.K 9 w w w ",
"h.hX1XuX#XtXW.,X/.hXd.s.s.s.s.d.r.r.r.f.g.i.p.p.p.h.h.j.i.;Xh.u.a..X X X X4Xj.p.-X0XoXT.-X-X-XaX0X-X-X5X7X0X0X0XuX0X9X9X-X-X-X0X0X0X0XuXdXqXwXsXfXfXqX9X0XuX9XiXwX-X#X*XfXuXsXfXeXcXiX1XwXcXcXqXqXfXeXeXwXwXsXsXaXsXcXcXsXsXwX*X*X!.4XkX/.sXvXcXcXcXfXiXcX_.!.*XeXeXeXqXtXfXfXtX8X3X3X3XlX8X8X$X!._.lXfXiXtXyX/.s.j.J ] i ; * = 0 q q 9 = = = = i * e * * ; $ $ e u = * 0 $ k i = * & q t e r + u r f $ X % = = * $ * * = $ = ; = * ; ; $ u e = p t 9 0 < = = = = e p * e = 9 & - = t y & 0 * = ; e $ $ * @ X @ Y v.q.K e y w w ",
"tX4XrXtX4X/.y.s.<.j.r.5.d.s.d.d.f.r.r.f.f.y.j.p.p.h.h.h.h.E././.p.E.T..X>Xr.<.g.5X+Xu.p.fX0X+X0X0X-X-X#X7X#X#X#X-X7X-XuXdX0X0X9X-X-X-X-X0X-XwXqX9XyX0XyXyXyXqXwXwX0X0X-X9X7XE.%XeXvXiX8XcXeXcXfXfXfXeXsXcXuXzXfXfXfXcXcXsXsXsXsXgXfXfX&Xy.*XqXsXcXsXeXcXeXiXtX8XtXiXfXfXeXeXeXcXiX*XiXfX8XiXtXtXrXrXuXyXqXiXyXh.s.d.H k a ; = & q t q e = $ $ ; i * = = * ; $ * ; e = 0 e $ a = * e 9 r q e e $ k k ;   $ % = * * * = = = $ * = * $ = * $ ; u e p s r u < % % = = 0 a * e = 0 & - 0 t t 9 0 * ; ; u $ $ * * - + M 0.q.K e w w t ",
"eX8X1XR.B.q.2.q.2.kXh.4.r.r.<.8.f.f.f.f.r.r.u.u.p.p.a.u.E.!.E.E.p.;X:X/./.oXr.j.a.Z.F.d.%X5Xa.5X7X7X7X#X-XuX-X+X%XOX X+X%X0X-X-X-X-X-X-X-XuX-X-X-XuX*X*XuX9XfXwXsXdXdX0X-X-X*X*X*XrX3XuXiXeXcXcXcXcXcXfX8XfXaX9XwXqX-X9XdXdX0XwXaXwXsXfXeXhX4X*X8XiXiXcXcXcXfXtX$XrXiXcXcXsXcXcXcXeXiXqXqXtXtXiXiXuXiXiXiXiXtXj.d.S.J d u = e 9 q t & 0 = f u i f ; $ * = $ = = = = = e u u f $ * j d d w * = $   $ ;   - = % $ $ * = ; ; * = = = = = * $ $ ; 0 q t s a < = = = e 0 a & e = 0 & $ 0 t t 9 = & u e i + $ * * - + h 1.q.K * s p t ",
"yX3X,Xr.s.d.<.XX5X$X3Xs.6.s.<.s.d.f.^.j.i.d.r.r.u.i.h.a.a.h.;X:Xi.h.,Xh.E.2Xp.u.a.A.>XZ.5.G.t.8.).7XaXwX9X-X#X%X2X>X2X2XW.&XqX9X-X$XW.7XtX#XtX-X0X0XuX>X4X4X$XyXqX*XwXdXyXeXwXeXsXqX*X&XuXcXeX8XiXsXcXvX&XwXtX:XQ.tXtXqXeXiX8XqX9XeX9XtXuXeXcXcX8XfXfXcXcXcXcXcXeXeX8X8XiXsXcXfX*XiXiXiX*XwXiXuXiXfXeXfXiXwX7Xs.r.S.N w 3 = e w t 9 & e & ; ; a = u $ ; = $ ; = & = 0 = * * u $ a o.% X $ X i $ $ a ; % 1 ; $ * $ $ $ $ e $ = - ; $   ; $ $ i = e a 0 e u = = = = = e 0 9 0 0 = * 0 q q w * * ; ; $ + * 9 w < @ F 7.1.K % t e w ",
"lX4X1XoXuXhXj.|.:X3XuXs.d.r.d.d.8.f.f.y.y.f.r.y.u.p.;Xp.Z.p.p..X.X:X;Xp.oXy.u.hXS.XX.XS.r.G.D.t.d.>XaXaX7X0X0XdXuX-X#X-X#X&X7X&X7X&X X%X%XdXyX*X-X-XqX0XuXtX&XtXtX-XyXqXwXtXqXqXeXqXqXwXwX9XvXfXiXeXqXeXsX9XfXyX$XiXcXcXtXeXcXiXlXiXfXzXfXvXiX8X8XiXeXcXcXcXeXcXeXcXvXiXeXeXvXiX!.vXiXqXvXeXyXrX8XiXfXfXtXiXkXf.j.V.M t 6 $ 0 9 q 9 & e = i ; e * = $ = ; ; ; = = 0 $ * ; = o.k $ = = ; . % u $ $ i = $ 1 = $ $ $ $ = $ * =   $ u ; $ + ; ; a e r a 0 0 = = = = = = u e 0 = 0 = = 0 q q w = = u i = $ & & r $ @ ! 0.J ( = w 0 & ",
"uX1Xy.y.p.y./.oX3XuX4Xr.4.r.r.s.[.{.[.^.y.f.y.i.i.p.;Xp.Z.p..X.XT..X;X.XOX:Xr.j.t.XXa.h.j.2.d.G.d.,X*X0X@X-X-X-X-X-X#X#X5X&XoXE.2X0X-X*XOX X-XuXdX-X-X9XwXwX9XtX3XtXuXeXeXuXyXqXqXqXyXiXfXtXqX9XqXfXfXyX*X*XqXfXeXcXsXfXcXvXzX!.cXrXeXeXrXY.jXQ.rXzXtXtXiXsXeXcXcXsXcXfXcXsX8XfXiXtXqXvXiXiXiXtX8XqXfXiXqXqX,XV.hXB., p 2 $ 9 9 q * $ = = ; = * ; = = $ $ $ $   $ ; * i f = % $ $ $   $ < < ; $ $ ; $ ; i $ $ $ $ * u * + = $ ; * ; a = = ; a e e a 0 = = % = = = u u e 0 0 0 = 0 0 q q w = = u u = $ & & = % & Y L H ! = w w w ",
"sX8XW.j.s.T.4X&XtXtX3Xj.r.r.r.r.{.SXkX{.f.f.y.y.u.p.Z.a.a.;X.XXX.XZ.Z.a.OXkXu.t.u.5XXX,Xh.q.B.t.t.t.j.4X0X7X7X#X#X-X5XXX,X-X%X>X5XuXuXuX7X%X%XoX2X.X2X7X#X9XqX9X&XtX9XwXsXsXeXeXfXyX7XtXzXaXqXyXqXwX9X$Xi.vX9X9XsXcXwX9X9XeXlX8XbXcXbXwX7.!.cXeXeXcXeX8XeXcXeXcXsXeXsXcXeXcXeXyX8XiXiXfXqXiXiXfXtXtXiXyXeX&XhXV.V.v.: s : = 9 9 q * $ = * = = = = ; ; = $ 1 i % a k u ; X =   $ % ; % $ = u = $ * $ $ 1 ; $ $ * $ = u * $ $ = ; $ = f i ; ; i e 0 p 0 = = % = < < u u e 0 0 0 0 0 0 0 q 9 * & = ; $ $ * * * ; y : v M 3 e w w w ",
"eXqXyX7X4X7XuX3X9X9XuX2Xr.8.kXf.8.jX{.f.j.r.r.r.y.j.h.p.Z.Z.a.Z.XX,Xa.a.XXa..Xa.r.a.XX;Xa.8.s.<.t.t.t.u.OXuXuX-X-XtX2Xp.h.%X-X0X#XoX>X2X5XdX-X%X>XE.2X5X%X-XyX0XwXqX9X8XqXeXeXaXfXfX&X$X&XeXfXdX0XsXsXtXzXzX8X*XtXzXsXgXsXtXeXrX8XcXcXlXlXeXcXcXeXeXiXiXtXeXcXcXcXsXcXcXwXsXvXqX!.fXfXqXfXqXqXiXiXuXiXyXfX&XjXV.j.k.; a 1 u 9 w q 0 ; = * u u a + * * a u l k : $ % $ % $ = $ % $ $ u =   = ; $ $ $ $ ;   = $ * = = = * = $ = $ $ ; = ; e = e = * e = & 0 % = < u u u e 0 0 0 0 * 0 0 0 9 0 * = ; $ $ * * 0 & t * f f . p w w w ",
"tXrXuX&XuX3X8XrXyX-XuX7Xy.jXkXd.<.f.f.r.j.d.d.j.f.u.h.a.Z.p.p..Xa.p.Z.Z.XX>X7X5XXX.X:XE.p.r.s.5.F.G.G.6.d.|.+X-X9X7X$X XoX%X-XwX#X X4XoX X9XwXqXdX-X7X-X-X-X0X-XwXfXsXqX9XtXqXqXeXfXfXwX9XuX9X9X-X9X9X8XwXfXqXiXuXuX*XwXaXsXwXyX3XfXqXuXvXeXeXfXeXsXeXeXcXfXeXeXcXfXeXeXsXfXfXuX8X9XqXfXyXyX9XqXqXtXuXyXiX%X[.g.V.) a < < p 9 q r e u ; ; ; e a + = $ a u o : ; % = = $ $ ; $   $ X $ $ = $ = $ $ $ < i + $ $ * = * * $ ; $ u $ $ = $ ; = ; ; ; $ ; = $ = % = < < u e e 0 0 0 0 = 0 0 0 9 0 * e e = $ & & 9 0 s s e = e w r w w ",
"tXrXlX$XtXuXqXlXtX#XkX4XkXSXB.r.t.6.r.j.j.j.j.h.j.u.p.p..X.XXX.Xa.a.Z.Z.;X>X.XOX5XkXu.r.u.f.d.d.G.d.5.5.x.t.t.Z.>X2X&XtXuXtX9X0X#X-XdX7X%XwXwX*X-X0XdX0X9X-X-X#X9XdXaXdXqXuXqX9XwXsXfXfXsXtX*XyXfX9XyXfXcXuX$X&XeXfX7XuXwXaXsXfX9X4XtXcXeXiXiX$X1X$X!.!.iXfXtX*XtXfX9X9XtX9XyXyXuX0X0X9X9XuXyX9X9XtXtXiXeX1X~.V.V.T u : ; d w t t r a e e $ * u = e $ = ; 1 : < $ = u $ ; < f % %   $ ; = * = $ $ ; i i $ $ $ = $ $ * $ = $ i = + = u = * ; ; ; $ = ; $ 0 % = < < u e e 0 0 0 e 0 0 0 0 9 0 9 ; ; % $ & & & e a a 0 u d $ 0 e w ",
"8X*XiX!.8X9X8XrXtX7XhXr.{.{.q.d.d.6.t.r.d.u.u.h.u.i.E.E.>X5XT.|.5X5Xa.r..XZ.a.a.a.,X4.r.hX0.2.4.r.v.B ~ r.G.6.6.d.p.oX-X0X*X7XlX3X#X-X-XuX2XuX-X-X#X-X-XuXaX0X#X%X%X-XaXaXsXwXwXsXfXqXqXfXsX9XuXuXqXqX8XiXkX*XwXeXfX*X*XuXaXfXaXaXiX8XcXcXcXeX!.zX3X1X1XQ.Y.uXuX&X&X2X7XoX0X*X-XuX9X0XdXyX-XdXqX9XtXtXiXeX7X].F.5., 0 a e s q s s r u 0 e ; = * e = $ * i f   $   ; i   $ ; < . = = $ = = e e $ $ ; ; ;   $ $ = $ $ = * * $ $ $ $ u u $ u ; ; u $ ; u & u % = < < e e r r 9 0 p u p 0 0 9 9 & * * $ $ $ * e = f u a a @ i & - & ",
"!.zXrX3X&X9XyX7X/.s.B.2.<.s.d.u.t.j.r.t.r.d.Z.a.a.g.d.j.kXXX>X5X5X5X+X|.|.@X|.5Xp.f.r.,Xa.P w.d.4.C.~ N ;.6.d.d.6.s.d.r.f.^.,X2X+X-X-X-X-X-X0XdX0X0X#X-X-X9XqX0X-X-X+X0X0X0XaXaXwX-X-X-X7XqXfXqX*XqXfX$XR.sX9XtXfXsXeXeXcX*X*XfXiXfX9X9XvXvXfX8XfXwXsXeXtXQ.*XqXfXeX9X8XtX9XqX9X&XuX-X-XxXtXqX8XiXrX8XeXcXg.5.S.n.a r e = s r q s w r * ; : ; : % $ ; u i = $ $ $ i f % $ $ $ $ = = = = = = = $ $ = $ $ = $ $ $ $ $ * & * * = * $ ; ; * ; = ; i $ ; a + e $ < < % u 0 s 9 0 9 0 0 e e r y * = * ; $ $ $ = $ ; a i ; ; = < e = & ",
"*XfXrX&X8X8XtXrXE.8.8.8.^.8XE.t.d.r.r.hXs.d.t.p.a.a.a.|.#Xa.Z.|.|.OXOX>X5X.XOX X/.j.<.kXoXV.s.s.6.V.B.J B J m 3.5.t.6.<.d.j.h.;Xa.%X%X%X X7X-X#X X7X7X7X-X-X0XuX7X7XOX5X>Xp.2XuXfXfXaXwX-X*X#XfXyX*X*X3X:X9XfXqX9XfXsXeXfXuXtXtX9XyXtX*X9X8X*X1X4X$XfXfXfXfXiX9X8X8X9XiXfXcXeXfXfXiXqXwXuX9XqXqXfXiXiXyXeXj.d.S.! e ; e a s q p p 9 q e ; ; ; ; : % $ % ; = $ $ $ ; < $ $ $ $ $ = = $ $ $ = = $ $ = $ $ = $ $ $ * * * * & $ * $ $ ; ; ; e = i ; $ = 0 $ = & < < < u 0 s 0 0 9 & & * = q y 0 0 $ = $ $ $ = = e f a u i u a * & & ",
"&XiXtX&XtXiXtXuXkX).).(.lX*X4Xj.r.y.y.2XdXj.s.V.V.j.Z.a.|.XX>XXX.XXX>X>XOXhX7X#Xa.q.3.hX XhX8.d.6.u.^.8.2.c.1.l.2.5.x.d.6.4.d.F.j.h.p.(.1XT.OX7X-X7X%X-X-X0X0X0X-X7X|..Xp.y.a.!.#X9XqXsXsXfX-XuXyXyXyXuX3X-XyXqX9XqXfXvXcX9X9XqXwXwXsXsXcXeXeXfXyXwXcXcXcXfXiXiXiXiXiXeXeXeX8XfXvXQ.qX*X!.*X9X9XuX$X!.rXfXi.V.j.b e ; 0 k ] q s s q r d % ; < 1 < ; % $ $ $ $ $ $ $ = X $ $ $ $ = $ $ $ $ $ = $ $ = $ $ $ $ $ $ * * * & & & * * $ = = $ = $ u $ + * * * = $ = 1 < u * p u q 9 w & = = 0 w 0 = $ * + $ $ * = ; a u e i i a & * & ",
"8XtXtX*XqX8X*X$X3XrX4X*XtX1XlX,Xr.s.r.a.aX%Xu.5.d.j.,Xt.F..XZ.a..X.X.X.XZ.Z.|.5Xa.r.r.h.OXu.<.s.d.r.y.f.d.q.8.j.j.<.3.3.l.4.5.5.5.j.g.h.i.;X>X5XOXoX%X-XuX0X-XwXwXaX-X-X5XtXuXyXqX9X&X%X*X9X-XtX*X9X*X*X&X%X#XwX0X%X1XuXfX%XuXuXuX8XiXfXcXrX&XiXiXfXfXeXiXtXiXsXcXsXeXiXeXiXeXzX).(.rXtX3XtX9X&XuXuXrXrX8X).[.g.n e : = ] ] q s s t s k % ; ; i i < ; $ $ $ $ $ $ $ = $ ; $ $ $ $ $ $ $ $ $ = $ $ ; ; $ $ $ $ $ * * * & & = = & $ * * $ $ $ ; * $ * = = = $ % < < u $ u u 9 9 9 0 e u e 0 & * * ; $ = $ $ $ * u e e i u i & = $ ",
"3X&X&X*XqXyXtXtX3XuX-X*XtX7X!.:Xf.N.C.r.A.fX Xr.u.a.a.a.F.,Xp.p.;X;Xp.Z.Z.a.A.5X;X;X;X;XZ.f.f.8.6.s.q.f.d.,Xy.a.E.^.V.q.q.<.5.s.4.4.4.t.d.h.;X>XoX.X>XoX-X5X#X-X#XwXwXwXwX*XwXaXdXuXuXuXuX*XtXzX&XfX9X9XuX7XuX9X-X4XR.a.tXfXyX8XyXqXfXeXeX$X*XwXeXcXsXsXsXtXiXsXeXeXeXfXfXeXcXtX8.lXyXyXlX$XtXlXiXuX8XiXiXkXV.j.v e % < j ] q s s t s k $ : ; ; 1 ; ; $ $ $ $ $ $ ; ; $ ; $ $ $ $ = $ $ $ $ ; = $ ; ; $ = $ $ $ = = * & & $ $ $ $ $ * = $ u ; a = = u $ = 0 = < < < = ; u 9 9 w 9 = u 0 9 * 0 = e $ ; $ = = = e e i a i < + * $ ",
"3X$X3X8XyXuXuXtX&XuX%XT.;Xi.r.s.s.q.V.4.S.2Xr.j.j.i.r.>Xp.kX/.h.,Xp.a.Z.Z.@X5XZ.XX5XXXXXt.f.[.r.s.x.1.q.<.8.y.).j.f./.E.T.j.d.r.<.6.d.6.4.<.r.Z.,XZ.,XE.oXhX;X4X2X7X7X0XuX0X0X9X#X X X&X9X0X#XtX*X9XfXfX-XuXyX0XtX7X4X:X1X4XW.a.4X4X4X4X3XqXfXyXtXiXfXcXeXeXeXeXiXiXiXiXeXwXsX9X3XuXwX9X9XuX3X!.!.8XqXiXqX,Xs.s.v e : u s s s p s t s k o ; ; ; ; ; ; : $ ; $ ; $ ; ; $ $ $ $ $ = = $ $ $ $ u ; $ ; = $ $ $ $ $ * = * & & * $ $ * $ $ = $ ; = a ; * i $ = r e a < u < < < r 0 w & = = 0 9 9 0 * = + * $ = = $ = = ; i ; ; $ = = ",
"rX4X3XtXiXyXtX9X&XzX2Xr.s.5.N.q.q.w.w.<.S.3.<.2.s.j.y.,Xh.y.r.j.j.r.u.;X;X.X>Xp.a.p.Z.;Xa.y.[.r.d.5.<.0.2.l.q.y.R.(.i.y.h.j././.r.d.r.5.<.5.<.4.4.r.F.j.h.r.r.u.y.h..XoX5X7X7X-X%XoXoX+X#X0X-XuX&X*X9XfXqXwX9X9XtX&XtXuX:X&X XW.1XW.Q.1X1XeXcXsXeXqXfXeXcXfXsXeXiXiXyXiXeXzXwXvX3XrX8XfXyXqXtXrX$XtX8XuX3Xh.5.5.5 0 : a j s k p s t s k $ ; ; ; ; ; ; ; ; ; % ; $ = ; X $ $ $ $ = = $ $ $ $ ; ; $ $ $   $ $ $ $ $ * * $ & = $ * = $ $ $ $ $ $ u = $ e = = q 0 a % ; = = < p 0 w & = 0 0 9 * e = *   $ $ = $ * ; * * ; ; < $ = = ",
"3XuX3XrXyXiXrX8X*XuXE.<.2.x.<.8.~.c.c.N.d.8.SXd.r././.r.h.r.j.hXj.r.u.Z.a.r.p.4XE.u.V.u.;Xi.f.5.G.4.y.q.1.2.2.<.,.q.B.f.j.R.R.R.y./.f.s.2.x.5.5.5.3.5.<.d.E.i./.j.j.p..X%X#X#X%XOX>X,X>X2X*XuXuX%X&X9X*XqXsXsXqX9XiX9X*X4X4X:X:X/.j.r.)./.j.).1X!.y.[.y.jXtXqXsXfXfXqXrXtX1XrXrXy.4XfX8XrXeXtXrXrXuXrX4XR.u.N.N.8 0 2 d ] s ] q s t s j o : : : ; ; ; ; ; $ $ = $ $ $   $ $ $ $ $ $ $ $ $ $ e ; $ $ $ $ = % $ $ * * * & & & + $ = $ $ = $ = ; ; = $ * e * w 9 i $ $ = = = 0 * & * 0 e = & = u e ; + $ $ * ; e a e * ; i f = = = ",
"4X3X3X8XyXfXqX*X8XtXtX$XW._.8X3X3X{.c.1.N.V.,Xr.r.4Xi.d.y.p.;X.X>XXX5X.X|.t.hX4X8.,Xj.a.a.,Xr.6.5.V.s.f.y.r.8.8.q.2.2.,.q.f.f.j.f.y.j.R.y.s.r.<.<.6.5.4.5.r.F.j.a.<X5XoX3X X;X5X-X4XkXOX+X&XtX9X-X-XuX-X-X7XuX9XfXuX8X9X!.&X3X3X$X(./.R.a.W.3XQ.1XW.:X(.4XW.1XW.1X7XtXfXqXuX$XQ.$X4XuXuXuX8XiX*X3X3XtXrX_.r.S.~ h 1 $ [ j ] s q s q ] j X ; f 1 i i 1 f f % ; $ % $ ; X $ $ $ $ $ $ $ % $ % ; $ $ $ $ f $ ; $   $ $ + + = $ $ $ & * $ $ $ u u $ u ; ; = $ % $ j e & * % = 9 w w w = = 9 w & $ $ $ X $ $ - u 0 9 9 * $ % = $ & * ",
"1X3X3X&XyXiXtX8XtXtXtX3X3XuX5XZ.u.s.N.s.5.r.E./.s.hXj.j.a.a.,XOXa.>X.Xa.;X|.kXg.h.;Xa.Z.j.u.r.r.d.d.s.y.y.f.f.f.f.s.q.8.q.8.r.r.r.y.j.j.f.V.j.f.r.d.5.<.<.s.5.4.r.j.r.r.,X|.a.OX#X%X4X#X-X*X-X-X*X9XuX9X9X9X9X X2X:XoXfXcX*X9X9X*X&XtXtX&X&XiXiXfXtX*X$XtX4X4XW.oX!.!.qXfXqXqXtXtX9X*X*X9XtX8X8XlXuXqXtX4Xf.s.T A 4 * r < ' ' s s t ] k X $ i : $ : ; a a $ = $ % $ = $ =   $ $ $ % = ; $ $ g $ $ $ $ $ = ; = = i a ; $ $ $ $ & = = $ $ $ = ; $ u = = = = $ $ j 0 & * $ = 0 w w 9 0 0 9 w & & $ $ $ $ $ = $ * 9 * $ % = = $ = = ",
"1X3X3X8XyXyX9X8XtXtXqXtXuX2Xh.d.5.2.s.s.5.u.;XhXd.j.j.j.a.p.>X2XT.OXA.Z.S.-X Xj.:Xu.a.j.d.t.r.r.s.r.f.j.j.y.r.f.y.f.f.f.f.8.r.8.8.s.f.s.s.f.f.f.f.j.d.r.s.5.5.<.5.s.4.<.5.S.d.S..X:X:XOXOX9XuXtXtXtX9X9X9XuXyX9XyX$XQ.*X&XtX*X*XyXyX8X9XfXfXeXeXeXfX9X8X*X!.$X3XlXuX*X8XyXyX9X-X*X9X9X9X-XuX*XrXjX1X*X8X$Xb.2.T k 1 ; r g ' ] s s t [ k $ : i ; $ : ; 1 ; $ ; $ % $ % $ ; % ; < ; ; = % $ i f X $ $ ; ; $ ; % $ = ; $ + $ $ $ $ * * $ $ $ $ ; $ i ; $ = u $ $ a & 0 * $ = 0 9 w 9 = * 9 w w & & $ $ $ $ $ $ = 0 * $ % = = $ = = ",
"1X1X3X&XtXiX8X&X&XtXqXtX&XQ.<.3.2.2.8.q.2.j.a./.i.y./.j.,X,Xa.>X%X+X|.<XZ.7Xa.4XT.d.S.j./.V.s.s.<.f.q.g.y.f.y.y.y.y.f.s.s.f.g.f.f.f.f.r.r.8.r.r.y.f.f.f.f.<.<.5.5.5.5.5.5.5.3.2.t.j.g.;X,X-X-X%X7XuXuXqXeXtX9X8XqX9X&XtXtX1X7XtX%X1X4X4X$X8XtXiXiXlXrXlXzXiXtX$X8X8X8XfXvX*X&X7X7X3X7X7XtX7X*XuX).Y.$X7XoXb.v.W < : $ j k s d d r s s j $ : i 1 : ; i 1 % ; < $ $ $ % $ = u u u ; = % % $ ; ;   $ $ a g < a i = = ; = $ = $ $ $ & & $ $ $ $ = $ i ; $ = u $ * e @ 0 & $ * = & & w * * 9 w 9 9 * $ $ $ $ $ $ 0 0 * $ % = = $ * = ",
"W.1X3X&XtXfX8XtX8XyXqXtX&XrXg.y.g./.!.].v.r.r.7X Xa.p.u.S.,Xr.a.5XOXOXXXZ.Z.u.7Xr.r.V.g./.s.<.s.<.q.8.w.8.f.q.f.f.f.g.f.s.f.f.g.f.f.f.i.i.j.y.y.y.y.y.y.y.s.r.5.5.5.<.5.5.4.:.3.r.f.y.E..X+XOX.XXX5X5X-X0XeXsXyXuXuXuXyX9X&XtXtX&X1X4X4XW.cXcXsXsXeXeXeXcXeXeXiXfXfXfXiXiX#X-XuXuXuXtX7X&X5X7XlXY.).rX7XhXB.5.8 X ; a j u a ; u = a e i % $ ; ; $ ; a i ; u < $ $ $ = $ $ = % $ $ ; ; ; % % k ; $ ; ; % a i i ; u i u = * $ $ $ & & $ = ; $ * $ e = $ $ = $ * 0 @ 0 & $ & $ & & & * * * 9 q 9 * * $ $ * * $ * 9 & $ $ ; e = * = ",
"W.1X3X3X8XyX&XuXtXtX8XyX&XfXzX7X7X-X-XhXw.s.f.zXQ.E.p..Xt.g.a.r.>X7X5Xa..X|.hXj.3.a.j./.<.q.2.5.s.<.8.q.q.8.,.q.s.f.f.r.f.r.y.y.f.y.y.R.(./.j.f.f.y.y.y.y.j.j.j.f.r.s.s.<.d.2.2.f.v.2.j.a.@X5XXX.XXXOX+X5X#X9XqXdXyXdXfXwXeX8X9XfXuX$X$XuX&XtXtXtX1X!.!.tXeXsXfXfXiXfXeXeXfXqX9X9XyXyX9X*X2X7X3X(.4X3X(./.q.5.8 i o u s Z u % 2 % i = < 2 ; 1 ; o $ i 1 1 ; ; X $ $ ; $ $ $ $ $ % ; i ; $ ; f u X $ $   ; X $ $ $ ; ; $ $ $ $ $ & $ $ = ; $ = $ ; = = * $ $ * * + 9 & & & $ & & & & * * 9 0 9 * * $ $ * * = * 9 * $ $ = e = $ $ ",
"(.:X4X3X&XtX*XuX3XtX&XuX3XwXfX5X@X+Xa.j.<.d.s.,Xr.j.,X5XZ..X;Xa.p.kX>Xa.oX-XkXs.s.r.j.j.<.[.V.d.d.<.<.1.1.0.,.1.q.q.8.8.y.i.u.y.r.r.y.f.f.f.y.f.f.y.f.^.^.y.R./.j.j./.^.y.r.2.q.B.z.^ B.:X.XOX.X|.OX5X5X5X5X5X-X-X*X-XtXuXwXeXeXwXqXyXyXqX3X%X X!.lXiX8XiXeXqXfXqXqXiXqXqXeXeXqX9X*X*X&XuX3X8X*XrXrX&XW.f.m.l.5 = 1 k r 1 ; < 1 : i ; < 1 f i i o $ ; : 1 = ; $ $ $ ; $ $ $ % = ; ; < ; $ $ $ ;   ; ; i 1 $ % $ $ $ * * * $ $ & * $ $ $ % $ ; $ e = ; = $ $ $ * & & & = $ % & & w & & & * & & $ + $ $ $ $ e 0 9 0 = $ $ = $ $ $ ",
"E.W.4X1X$XyX*XtX&XtXrXlX$XiXiXy.u.d.5.s.1.r.s.s.r.<.V.|.XXOX|..Xp.,Xh.;XE.+X#Xi.(.3.s.s.V.hXr.t.6.d.5.q.,.0.L 1.1.1.,.8.[.4X/.y.r.s.s.f.f.y.8.f.~.f.f.^.^.(.R.R.(.(.Y.f.^.^.g.^.].J B B.7X:X2X%X X+X5XOXXX5X+X5X5X5X7X*X*XyXqXwXqXqXqXqXeXuXuXyX!.zXtX8XcXfXqXyX9X9XfXqXiXyX9X8XtX3X1X1X1XuXwX8XfXqXyXjXf.H k.-.e i < = 2 u a 1 < u i i a f i i $ : ; : i % ; $ % $ = $ $ $ % % % = ; ; ; % a f   f : % f $ ; ; $ $ * $ $ $ $ = = = $ $ $ + ; * ; $ = = $ $ $ * & & & u $ = = w 9 * & & * & $ $   $ $ $ $ = & & e ; $ $ = $ $ = ",
"1XW.oX1X1X$X*XrX8XtXuXuX*XiXiX3Xs.q.s.2.1.r.j.r.h.:X>XT. X>X>Xa.p.,X>Xa..X1XoXoXoX.Xp.j.j.d.g.4.<.5.3.6.5.2.q.q.1.L ,.q.B.j.r.f.f.f.8.y.f.j.f.i.i.y.y.y.y.T.5XE.y.R.^.^.f.g.~.R.A.:.C.kX`.,X.X.X>X5XOX+XOXoXOXoXOX X7X0X-X7X7X0X9X9X9XiXeXtXtXtXyXqXeXeXsXeXsX9X-XuXdX-X0X9XyXyX0XyXqX0X&X-XjXtXaXrXyXdXv.E '.g e f < t r 0 0 = & & e f k 1 ; i o ; : ; i % = $ % % $ = $ $ = ;   a f % < $ < X $ ; $ $ ; ; % $ $ $ $ $ % * + $ ; $ + $ = $ $ * = $ $ = = * & & & * * & & % = $ 0 & 0 & * 0 & $ $ % * $ $ $ * * & * = ; = $ = $ ",
"1XW.1X4X4X3XrXuXtXtXtXtX8XeXeXiX4Xr.8.8.B././.j.u.p.5XoX2X%X>XT.a.>X>X.X.X2XoXOX5X2X;Xh.g.j.g.r.<.d.6.5.4.3.3.<.q.v.1.,.,.,.L 0.0.w.f.j./.:XQ.R./.j.y.g.[./.,X:X1X(.(.).y.j.9.y.D.3.s.g.Q.E.p.p..X>X5X5X5XoXoXoX5X%X-X-X-X7X0X0X9X0XuXyXfXyX*X8XfXcXeXqXfXeXcXfX9X-X#X#X9X9X9X9X9XqX0X9XuX|.^.$XyXjXtX-X1.h m.: ; f u s s p p p p r a k k $ $ 1 $ ; $ $ ; % = $ % % $ = $ $ ; % $ g < % :   < = u f ; $ = = % $ % % % $ % $ $ = * $ * = $ $ $ $ = = = ; * $ & & * * * * & % = $ 0 & * & * 0 & + $ $ $ $ $ & = 0 * * = e ; $ = $ ",
"1XW.1X2X1X3XrX3XrXuXtX8XtXiX8XwXzX7X2X4X/./.j.j.r.u.hX>XoX XOXoX.X.X>X2X2X%X X X%X%XT.E./.8.h.p.a.,Xj.S.a.G.d.6.5.5.<.2.2.1.1.0.1.0.,.8.f.y.^.).^.r.8.s.q.f.y.(.4XoXE.:Xy.i.^.g.D.2.f.,X:XE.E.a.a.T.oXOX|.2XoXoX5X%X7X-XuX-X0X-X0XdXuX9XdXsXqXqXiXiXqXqXqXcXfXqX*X-X9X&X9XqX9X9X9X9X-X7XlX5X).$X9X!.*X2Xl.v m.: i l k ] j s s d s p p a g $ ; i $ $ $ ; i % = $ % % $ = $ $ ; $ = g % : % $ u ; ; < ; ; ; $ $ $ $ % $ $ $ =   $ = = $ $ $ $ $ $ = $ $ =   $ $ & * * * * & % = $ * & * & * 0 & + $ $ $ $ $ & = 0 9 * * = ; % = $ ",
"4X1X1X1XW.3X3X!.$XuXuX$XtX1X$X8XyX&X!.W.y.f.f.d.d.r.h.>XoX XOX5X>X.XoX2X5X7X5X+XOXOXoX:XkX<.h.,X;Xh.r.p.a.y.r.t.6.6.4.4.4.6.5.s.1.1.L 1.0.,.q.B.w.8.f.f.8.q.8.a.>XoXT.E.Y.y.~.d.t.3.f.,X;X/./.E.p.E.E.E.E.>X.X.X>XOXOX5X-X-X-X*X-XuX5X X7X*XyXdXtX9XfXfXiXcXeX*X*XtXiXyXqXyXyXtX-X-X&X%X7X7X_.!.9XzXzX:XJ F v.> 1 l Z s p s s s s r p i f ; i a : $ ; ; f $ % $ % = $ = = X % $ $ f ; ; ; $ < = X $ $ ; ; $ $ $ $ % $ $ $ u $   $ $ $ $ $ ; ; $ $ $ $ u $ $ $ & & * * * & = * & * & & & * 0 & $ $ $ $ $ $ & = = * * * = ; = = $ ",
"4X1X1X1XW.tXrX!.$XuX3X!.tXrXuXtXuX2Xi.s.s.B.B.s.V.s.r.,XOXOXoX2X5X%XoX X X7X5X%XOXoX>X4X4Xy././.a.i.u.;XT.R./.XXS.S.D.d.d.6.6.d.4.5.2.2.1.1.,.,.1.0.8.8.w.q.q.y.E.2X:Xy.^.^.f.s.D.N.^.;X.X/.E./.:X:X/.:X4XE.E.:X,X:XoX+X X%X7X#X%X5X.Xa.OXoX|.oX7XuX9XqXiXiXiXtXtXtXtXtXiXyXuXtX3X3X3X%XoXa.rXtXyXfXyXa.1.L k.$ 1 l o.p p ' s s s s p f g $ ; i ; ; ; : 1 $ % $ % = $ = = $ $ ; $ i i ; ; X = ; $ $ ; = % % $ $ % = % % % * ; =   + i i   ; ; * ; ; ; f i $ $ $ & * * * & = * * * * & * * 0 * $ $ $ $ $ * = = * = = = ; ; % = = ",
"1XW.1X1X1X&X&X$X!.uX!.*XtXeX*X*X-X7XB.3.3.q.s.s.V.d.4.,X;X:XE.T.>X7X5XOX XT.oXOXoX.X:X.Xa.h.p.p.a./.;X,X.XXXXX|.a.D.;X/.y.S.6.6.4.5.6.6.4.q.<.<.2.1.2.q.1.q.q.8.f.hX/.8.f.r.q.d.D.3.8.p.A./.p./.;X/.i.i./.i.i./.j.h.E.2X2XOX%X5X5X5X>XoX7X7Xa.y..X2X%X#X9X9X9XuXuXtX8X8XtX9XtXrX3XtXtX3X1X$XiXqX*XeXyXu.k.v.J * 1 l o.d k s s s s p p a g $ ; ; ; $ ; $ i % = $ = = $ = $ $ $ u   = i = * $ $ ; $ $ ; $ $ $ $ $ $ % $ $ % $ $ ; ; ; a i $ $ $ ; ; = ; ; ; $ $ $ & * & & & = $ = & 0 & * * 0 & $ $ $ $ $ * * & & * = = = ; $ = = ",
"oX1X4X4X1X&X&X3X!.uX!.&XyXsX*XyXqX3XV.,.,.f.8.j.h.j.t.j.r.h.p.a.T.2X7X%X5X X$X2X2X>X>XOX|.;XZ.OXT..Xp.p.a..XXXXX.X.X:XE.y.hXr.r.6.6.6.G.6.4.6.5.5.5.B.B.q.q.,.8.q.f.f.q.q.q.w.F.D.m q.,XXXh.p.i.p.i.u.y.y.y.r.y.r.y.y.:X2XOX%X5X-X7X7X7XuXuX%XT.T.>X7XuXuX-X*X-XtXtX9X9X&X9XtX3X3XtXtX3X4X2XyXcXiXeX8Xr.~ b.m + 2 f k a d r p p d p 0 i g $ % $ % X $ $ f % = $ = ; $ = $ $ $ ; $ = = = $ % $ % $ $ ; $ $ $ $ $ $ $ $ $ % $ X = a a ; ; % ; $ i ; $ ; X $ $ $ $ $ * & & & % $ = & 0 & * * * & $ $ $ $ $ * $ $ & * * $ ; i $ = = ",
"1X4XlX4XW.yX8XuX!.lX$XrXtXuXW.lXwX*XlX(.!.jXR.kXa.a.j.r.s.t.,X/.a.oXOX%X7X&X&X%X%XOXOX5X5X5X|.+X|.>XXX>XoXE./.oXoXOXXXZ.Z.|.t.Z.S.s.4.s.<.6.6.5.5.4.<.r.u.f.,.q.q.0.q.q.2.v.,.4.D.z.v./.A.i.i.u.u.h./././.f.r.V.V.[.y.i.E.5X%X-X#X#X-X9X*X9X9X7X5X2X5XOX+X7X5X-X7X&X&XtXtXtXrX3X3XrX&X3XuXlX!.qXyXeXtXf.H b.m @ 1 j a f p e p d k s p i f   $ = r $ * $ f $ % $ = ; = ; = % ; % ; u $ e $ % X = $ $ ; $ $ % $ $ $ = = ; ; $ $ ; i < ; % $ i $ i ; = i $ = $ $ $ $ * & & & % $ = & 0 & * & * & $ $ $ $ $ * $ $ = = * $ u f $ $ $ ",
"4X(.W.!.tXiX8X$X(.tX/.qXtXqX1XtX8X!.&X7XqX3Xf.f.^.f.s.d.d.x.r.a.i.g.4X#X-X%X3X5X>X;X;X.X+X.X%X+XT.h.S.;XOX>X;XOX#X X,Xh.a..XXXXXt.j.j.j.s.s.5.5.<.<.<.t.a.d.3.5.2.,.v.k.n.q.2.5.d.<.V.#Xa.i.;X:XoXE.p.u.r./.j.j.y.y.p.;X;XE.:XoX2XoX%X&XuXtX9X-X-X#X%X%XOXoX5X%XOX%X%X%XuX&XtXuXuXtX8X8X9X8XuX*XuXuX8X0.H C.5 1 6 k d a k a 0 ] p r s * k : f 1 1 : 1 % ;   ; ; $ = % $ $ $ $ = ; e u = = u = $ $ = $ $ $ $ $ $ % $ = ; $ = $ g ; < $ ; $ ; u u $ ; $ $ $ $ $ $ & = & & * * $ $ = = * * * & & $ $ $ * $ *   $ $ $ $ * = e $ $ $ ",
"1X(.4X1XuXtX9X3X(.tX/.9XtXqX1XyXtX$X3X7XqX!.[.f.8.g.f.r.j.t.2.s.h.%X%XOX>XT.|.|.|.;X;X>X>X.X>XoX:X;Xa..X5XT.|.T. X.X,XhX.X;Xa.A.A.;Xh.h.p.Z.a.j.d.N.2.5.5.d.4.d.4.<.r.,.q.q.s.5.V.3.N.W.;X/.p.a.E.:X,X/.i./.j.h.,X,X;XE.p.E.E.E.E.oX2X%X$X7X-X-X-X-X%X2X%XoX2X%X%X2X%X%X7X3X3X3X3XuXtXtXuXtXuX8X7XuX&X0.~ L 5 1 6 f p a k 0 0 d r r d u k $ 1 : ; : 1 : a ; < $ X $ $ % i $ = = = = = = * = $ $ $ = $ $ $ $ X $ $ $ % = $ ; ; i $ ; $ i   = ; ; $ = $ $ $ * $ $ & * $ $ & = $ $ * * & & * & = $ $ $ $ + $ $ $ * * * * ; u $ $ $ ",
"1X(.1X1XtX8XtXrXW.tX(.9XtXqX1XyXyXtXrX4XwX:XV.q.8.B.v.<.B.r.s.3.5. X#X,X7X>XOX X|.p.h./.;X X>X.X>X5X X5X5X>XuX7X:Xr.r.a.a.Z.a.>X%X.Xa.oXa.Z.Z.Z.g.j.5.s.5.4.t.d.6.6.6.4.d.y.r.N.,.k.J ).g.h.p.E..X.X.X;X:X/.y.u.:X2XoX:X,XE.E.:X;X;XE.:X:X2X%X-X7X7X7X7X%X$X%X%X3XuX7X%X&X3X$X!.W.1X3X3X3X&XuX9X1XlX3X,.~ c.h % 1 r s j j p p d p r e = a $ : $ ; ; 1 ; f = ; $ $ ; $ $ i = ; 0 * * * * $ $ $ $ $ $ $ $ $ $ $ $ $ $ $ = $ $ ; ;   ; < k $ = = = $ = $ $ * $ $ $ & & $ $ & = $ $ * * & & * & = $ $ $ $ + $ $ $ * $ $ * ; u % $ $ ",
"W.,X(.1X3X*XtX3XR.tX(.9X&XyX1XqXyXtXrX1XwX4Xs.f.f.v.q.f.q.2.f.d.5.s.a.oXT.;X>X5XOXE.u.y.y./.j.f.y.E.oXa.r.p.|.T.u.u.>X5X,X4.a.,X.X.Xp.:XoXZ.Z.|..X.Xa.p.a.r.d.6.4.d.5.5.d.t.r.5.2.J k.f.j.r.u.;X:XE.a.T.>X,Xi.a..X XT.E.;XE.E.:Xp.E.a.E.:XoXoXoX2X2X3X3X$X2X$X$X3XuXuX7X-XuX3X$X$X1X1X1XW.!.4XrXE.4X,XJ ~ mXh % g r d a a 0 p s s p 0 u a ; $ % i i ; ; i % ; % $ = $ $ = 0 e e 0 * * & & $ $ $ $ $ $ $ $ $ $ % $ $ $ ; %   < ; $ ; ; k $ = = = $ = * $ * $ $ $ $ * & & * = $ $ * * & & = & = $ $ $ $ $ * $ $ $ $ $ * ; u ; = $ ",
"W.kXR.1XrX*XtX3XQ.tX(.9X&XyX1XqXyXyX9X2XwX8XQ.4X).y.(.lXf.2.q.E.u.3.<.oX/.t.p.OX2X>X/.y.r.3.P 3.,.f.hXf.s.h.a.E.j.h.5XOXa.4.F.,Xa.,XS.t.S.XX|.|.|..Xp.,Xh.h.h.j.d.s.4.5.5.t.d.x.N.k.l.y.Z.u.y.u.E.:XoXoXoX;XE..XoXoXOXoXi.2X XoXT.>XE.;Xp.oXT..XoX$X2X3X&X3XoX X%X3X3X3X&XuXrX3X3X3X3X1XW.*X4XrXy.R.j.J m.H.> a Z e d p a 0 s s s s 0 p a < $ % 1 1 : : < ; i =   $ $ $ = 9 0 e e = * * * $ $ $ $ $ * * $ $ $ $ $ $ $ ; $ ; i ; ; ; $ a   = ; $ $ = = $ $ $ $ $ $ * & & * = $ $ * * & & = & = $ $ $ $ $ * $ $ * * $ = e i ; = $ ",
"R.kXy.1X$X*XtXrX!.tX,XqX7XyX3XqXeXyX9X3XeX9X&XuX$X(.1XuX^.{.g.s.<.2.3.2.).h.p.T..X:X,X;Xp.[.g.[.).4X4Xi./.y.i.,X,XE..Xa.t.6.d.Z.E.;XD.S.t.j.a.p.p.h.a.Z.a. X!. X:Xa.j.j.r.u.6.d.s.l.N.E.;X,Xp.a.p.oX:XoX.Xa.p.;X.XoX2X4X;XoXoXoX2X4X:XE.i.:XE.E.oXoX1X3X2X3X%X$X$XoX$X2XoX*X*X%X&X3X2X$XoXtXhX1XY./.[.k.v.^ . d k = k a a p j s s s 0 e e i $ $ % ; $ ; ; % i ; $ * * * * 9 q e e = = * $ $ $ $ $ $ = = * $ $ $ $ X $ % $ a u $ $ ; ; i   ; u $ = = ; $ * = $ $ * * & $ & = $ $ * * & & * = = $ $ $ $ + $ $ $ * $ $ * ; u = = $ ",
"R.4X(.1X!.&XtXuX$X9X(.yX7XqX3XqXeXiXyX3XsXtX$XtXW.hXR.R.B.kX1XB.1.q.l.m ,.F./.p.p..X:X>XoXE.oX X#X#X XT. X>X,Xi.oXOXp.d.<.6.4./.W.|.XX7X.Xj.j.h.p.Z.a.XXA.A.A.+XXXZ.Z.;XoXu.a.4.a.5.V.a.Z.,X:X/.E.E.E..XE..X;X;Xp.a.E.:XE.Q.E.W.:XE.i.y.i.(.E././.E.oX2X$X3X2X3X2XW.oX:XE.oXoX$X%X2X2X2X1X7X[.(.(.).[.3.q.T . p < e k a a 0 s s s s s p a i $ $ $ $ $ ; ; $ ; ; = ; = $ = q q 0 = = = $ $ * * $ $ * = = $ $ $ $ $ $ % % X i ; $ $ ; i < $ ; u $ = = e $ * * $ $ & * $ $ & = $ $ * * & & * = = $ $ $ $ + $ $ $ $ $ $ $ = ; $ $ $ ",
"W.(.lX4XW.*X8XuX$X8XR.9X3X9X3XeXeXiXyX3XsXyX*XqX#X4X$XoXB./.f._.7.B n.2.3.<.r.p././..X.X|.h.5X X+X5X;XkXXX%XkXy.%X%Xu.F.x.6.kXkXQ.-X-X+X-X-X-X-XOXXXA.S.A.S.S.<XD.a.S.p.2X:XXXS.Z.d.s.a.j.E..XE.E.E.;X.XE.T.p.h.u.a.E.oXE.,X/.a.(.^./.y.j.(./././.E.E.oXoXoX%X7X2XE.E.:XE.>XoXoXoXoXoXoX:XT.^.(.4Xy.f.k.B.b = q % j j a j r s j s s a 0 u i $ $ $ % $ ; $ $ % X $ * * * a q 0 * $ $ $ $ $ u ; = $ * ; = $ % $ $ $ $ = = X % $ ; $ $ ; $   = =   $ $ ; $ $ $ $ $ $ * & & & * $ $ = = & & * & = $ $ $ $ $ * $ * = * $ $ = ; $ = = ",
"1X^.!.iX_.yX&X*X$X3XQ.uX$XyX1XeXeXuXtX$XsXqXtXtX%X$XyX XC.B.B.q.).q.^ l.9.s.s.S.a. Xa.,XhXOX7X4XE.OX7X%X XS. XaXZ.F.u./.kX4.xXS.6.6.@X@X-X7X XOXXXZ.A.S.D.D.Z.S.Z.S.S.<X<X;X;XXXXXXXZ.Z.;Xa.i./.:X:XE.p.;Xi.i.;XE.;Xa.p.;XE.E.W.E.oX:X.X.Xy.y././.i.y.i././.,X2X1X$X1X_.).3X1XoX1X1XW./.[.Y.5XkX(.:Xe.H {.$.. i p s d s s w s s s s s d s i ; X $ i * ; X = $ % o $ = = e e $ * $ $ ; $ = = = = $ = = = = $ $ $ $ ; ; $ 1 % u % = % u $ $ % % % = = = * * $ = $ $ = $ $ $ = $ = $ $ * & = = = $ $ $ $ $ $ $ $ & = = = = = $ < ; ",
"1X).$XtX1X&X*X3X%X7X$XuX&X9X$XeXfXyX&X$XcXqX9XwXkXuXaXi.R._.y._.1Xg.z.J l.T.a.h.j.d.j.;X XOXOX+X+X-XOXh.d.h.,Xt.6.d.7X*X|.T.kXt.6.d.5.j.hXT.T.>XXXS.D.D.D.D.A.A.A.A.Z.Z.D.Z.Z.Z.XX.XZ..XXX;XE.p.p.p.E.Z.p.i.u.p./.:XE.:X,X,X:XE.E.E.E.;X;X^.j.i.R.R.i.i.i./.E.T.W.$X1X(.R.3X!.W.oXW.Q.R.^._.A.W.(.,Xc.J SXg . a p p s s s s s s s p 0 p a u = o $ r * ; o ; ; ; $ X = = e u * ; * $ ; $ $ = $ $ $ $ = = = $ $ % $ % ; % < i % $ $ = = ; i % % % = = = = * $ = $ $ = $ $ $ $ $ = $ * 0 & * $ $ $ $ $ & $ $ $ $ & * * = = = $ = $ ",
"(.:X$X3XrX$X*XuX%XuX3X3X$XtX3XeXfXyX*XW.fXqX9XwXkXuXwX1X8XQ.rX8XtX4XV.v.z.r.h.E.,Xs.d.u.|.OX XOXT.oXoXhXd.d.4.t.kXlXvX#XzXcX-X-X+Xt.S.t.t..X>X>Xa.D.A.S.S.Z.XXXXXXXXXXXXZ.XXXXZ.Z.Z.A.Z..XXX>X.Xa.p.;XZ.p.p.u.p.i././.:XE.E.E.E.E./././.E.(./.R.R.R.i.i.i./.R.Q.W.1X1X(.R.3X3X1X3X3X1X_.).{.XXjX4X/.M.J q.. $ a p p d s s d p d j a a a p u ; % $ ; $ ; % i ; %   $ u e 0 ; $ = $ $ ; = $ = $ $ $ $ = = = % $ ; $ $ ; ; ; ; X ; ; < % u ; ; % $ = ; ; = $ $ = $ $ = $ $ $ $ = * $ * e + * $ $ * $ * * $ $ $ $ $ $ * * = = ; ; = ",
"/.$X!.1XyX$X3XuX X3X$X3X$XtXrXeXiXiX8XW.sXeXuXtXyX*XeXfX^.Q.uX*XtXtX&XhXN.l.B.i..Xa.h.u.;XT.T.,Xu.E.oX7XT.j.S.xXQ.lXvX2XZ.Q.3X-X.Xr.,X5XD.oX2X>Xa.XXXXZ.A.D.XX5X@X+X+XXXXX5XXXXXZ.Z.Z.Z.Z..XXX>X.Xp.Z.Z.Z.a.Z.;Xy.i./.:Xa.i.i.E./././.E.E.E.E./././.i././.).).(.1X1X(.(.,X$X1X3X3X3X4X_.).[.|.!.W.r.~ l.,.. i ; u d s s s s p p p p a u e p ; : o ; $ ; % : % ; $ $ e e e * $ $ $ $ ; ; $ ; = $ $ $ = = ; = $ % $ X < 1 : X $ i u = = u $ = = $ = = = * * $ = $ $ * $ $ $ $ ; * $ $ * + = $ $ $ $ $ & $ $ $ $ $ $ * * = = < $ $ ",
"/.&X!.4XeX!.7X7XoX7X$XuX$X$XrXiXtXfXuX4XcXeXlXuXwXwXvXlX3.7X&XoX:X%XwX*XlX^.j.d.r.j.;Xp.E.7X.X,X;X:XT.7XuX.XXX3XlXGXhXp.Y.lXvX-Xr.>X>Xt.A.oX>X>Xa.XXXXXXZ.p.XX@X5X5X@XOXXXXXXXXXZ.XX@X@XXXA.Z.XXXXZ.a.D.S.Z.Z.;Xa.h./.,X:X:X:X/./.E.i.E./.E.E.(.(./././.,X^.).(.4X(.R.R.4X!.1X1X1X1X1X_.).[.$X!.!.8.J B.L   f ; p d s q s s ] j d k d 9 s p = : : ; $ $ $   $ ; $ $ * = a ; = * $ $ = ; $ ; ; = $ $ = = = ; X $ $ $ a i : $ % < < . $ ; = $ $ = = * * $ $ $ ; $ $ * $ * $ $ ; * ; * * + = & & $ $ $ $ $ $ $ $ $ = = = * * i $ $ ",
"oXtXW.7XwX*XuXuX&XtX$XlXW.W.tXfXtXsXyX,XcXfX2X9XtXgXcX2.q.tX-XoX4X4X9X9XtX9X3Xh.r.j.j.j.j.>X:X5X+X%XT.,XhXr.t.7XvXvXZ..XbXvXwX5Xa.gX,X6.@XOXOX>XA.XXA.XXXXXXXX+XOX7XxX5XOX|.+XXXXXXXXX@X@XXXA.A.Z..XZ.Z.Z.Z.a.Z.Z.;Xa..X>X;X;X;X;X/.E.E./.W.R.i.E./././.R.^.^.^.(.(.R.W.,X1X1X1XW.!._._.).^.rXjX7Xf.1.V.n   i u a d d q s ] s d [ *.o.r s s * : : i ; $ $ % X $ $ = e * = ; * $ * $ = e = ; = $ $ $ $ $ $ = $ $ $ ; f i ; ; = ; i X $ = i $ $ = = * $ $ $ $ u = $ = $ = * $ = * f e * & = & & $ X X $ & & $ $ * = = = * $ a * * ",
"#X7X:XtXwX&X7XuX%X&X$XuXW.W.tXiXtXsXqX(.cXfX1X9XtXzXT.,.kX*XyX X5X4X3XfX&X*XtX3Xp.j.s.2.N.<.y.E. X%X>Xu.<.SXd.<XqX8X@XA.vX0X.XZ.7X,X3.V.S.%X X2X5X5XA.|.A.@X+XA.A.5X7X@X+XOX@XOXXXZ.Z.XXXXXXZ.Z.Z..XZ.Z.Z.Z.A.Z.D.Z.a.a..Xp.a.p.;X:X;XE.E./.i.i.i.i.i.i.i.j.j./.(.(.W.(.:X1X(.(.W.W.W.^.^.).Q.).5Xf.L q.4   ; i a d d t ' k & 9 j o.o.s s [ e : % i ; $ : 1 o $ * e e * = = $ + ; ; * e = = $ $ $ $ $ $ $ % $ $ $ ; i ; ; % % ; i < = = u $ * * = $ $ $ $ $ u = $ * $ = * u = $ k e * * * * * $ $ $ $ & & $ $ * = = * $ $ ; + $ ",
"*X2X,X8X9X-X*XuX+X*X$X7XW.(.$X8X&XcXyX/.cXqXlXeX*XlXq.a.#XlX3X#X%XT.2X7XuX X-X-XoXV.s.r.y.B.s.<.j.,X>XE.Z.vXD.G.@X-X7X<X7X-XZ.a.>X4.d.XX<XdX X|.OX5XXX5X5X7X5XXXZ.XX5X@X@X%X5X@XXXZ.Z.XXXXZ.XXXXXXA.Z.Z.Z.A.Z.<XD.Z.Z.XX.X>X.Xa..X:X.X.X.X/././.h.i.i.p.:Xy.j./.).(.R.W.:X(.(.(.1X1X(.(.^.).!.jXt.s.v.w.> % = i u p s s ' d $ = +   j ] s *.a % o 1 ; % i : $ ; e 0 * * f u ; $ i i $ ; $ $ $ $ % = = $ $ $ $ $ X ; ; o ; $ = < $ < = ; $ * * * * = = $ $ $ u = $ $ $ * $ f = + k = & * * * * $ $ $ * & & $ $ $ $ $ $ $ $ $ + = ",
"$X4X$X8XrX-X;X-XwXh.OXqX/.^.(.1X&XwX2X1XgXeX8XzX X#XuX*X1X7X7X2Xi.1X*XuXzX;X XuXhX XkX.Xa.h.r.r.E. XhX4.S.hXa.4.F.a.:Xj.r.XX4.u.t.S.<XZ.Z.;Xa.oX|.5X4XoX X|.5X5XOX|.A.Z.XXXX5X5XXXZ.Z.;XZ.XXXX+XXXZ.D.Z.<XZ.Z.Z.Z.A.Z.Z.XXOXXXXX;Xp.p.E.i.i.i././.;X/.E.i.i.R.(.^.^.hX:XT.E..X:X:X;X(./.i.`.s.!.[.2.1.T   $ 6 e e 1 a s s j o $ 9 r > i ] k k 1 > i     $   < ; u u ; a e * = ; = ;   ; < $ = $ $ $ ; u = ; i $ $ $ k   $ % % $ $ = = = $ = $ $ $ = * $ $ $ $ $ $ $ $ = = $ $ ; f = $ $ 0 = $ $ $ = $ $ $ o $ = = * $ $ = % $ $ ",
"oX4XW.&X7X-X:XyX0Xp..X*X).4X1XuXtXqX4X(.qXeX9XuX#X5XuX&X$X%XtXoXkX2X9XfXa.u.T.%Xj.a..X.X2XT.j.^.R.hXd.r.C.hX,X3.s.7X5X<X@XD.hXS.A.@XXXZ.u.j.|.5XoX.X-X#X2X+X%X5X5X5X5XXXZ.A.A.XX5XXXZ.a.p.5XXX+X+X<X<XZ.A.Z.Z.XXS.Z.Z.Z.Z..Xa..X:Xp.y.i.:X^.i.i.i.E.E./././.y.R.^.^.^.E.2XE.E.E.E.E.E././.1X^.!.j.s.,.^ . o 1 t ' j a d g ] < -   % o O - $ a $ . ; k ; > = a i u ; * = $ i u $ ; $ $ $ $ $ $ $ $ $ ; ; = < ; $ X < i $ i ; ; = ; ; ; ; ; $ $ $ $ * * $ $ % % % = = $ * * $ $ u < = = = * = $ $ $ * $ $ + % % = = = & $ =   $ $ ",
"1X4XT.-X3X-Xp.&X9X;X4X-XhX1X*XtX8XiXlX/.&XqX9X&X9X9XfXfX-X%X XoX4X$XyX-Xr.hX$X Xj.oX:XE.W..XlXSX8.,X4.kX}.8X8X7X.X7X-X0X-X@X@XA.t.Z.t.j.j.Z.Z.;X-X#X>X|.-X|.|.+X5X@XOXXXa.Z.a.Z.>XXXA.A.XXZ.XX|.A.XX5X<XA.a.A.Z.Z.Z.Z.;XXX.Xa.a.;X;XE..X:X/./.^.i.i.E./././.y./.,X/.^.R.1X4X:X1X:XE.W.(.E.R.).W.y.2.w.) = i < 0 s d a k f j 0 0 = < e $ o X f % % < o.i $ $ u ; ; e e u e $ = + e * % ; i $ $ = $ = ; ; $ $ X $ X ; ; $ ; % % $ $ % = $ $ $ $ $ $ * * * $ ; ; ; = $ $ $ * $ = i $ ; ; i $ ; $ $ $ * $ $ + $ $ * * * $ $ $ $ = $ ",
"1X4XE.0X5X7Xh.W.-X2X>X&X$X$X*XrX&XeXiX(.tXdX-X8XtXqXfXfX-XtX%X$X$X&XuX!.2X/.tX&XV.oXi.i.).yX2X8.j.p.F.SXvXGXvXdXaXgX+X7X7XXXA.dXzXdX5XZ.S.t.Z.XX5X.X%X+X#X#X+X@X5X+X|.XXXX>XA.a.XXXXZ..X<XZ.XX5XXXZ.Z.Z.A.S.Z.Z.D.a.a.p.p.;Xp.p.E.;X,X>X.X/././././././././.i.E.R.^.hX(.W.4X4X4X4X1X1X1XR.y._.7X/.2.].4 @ j * e g g g l g g $ $ : ; s r l 4 f X < = f X $ $ i i ; ; e e e = = ; ; u   < i $ = = = = ; = $   ; $ $ $ ; $ % % = $ % % = = $ $ $ $ $ $ * * $ $ $ % $ $ $ * * = ; i % ; u i * ; = = $ * $ $ $ $ $ $ $ $ $ $ $ & * $ ",
"1X4X;XuX-X.Xj.i.-X%XT.&X9X4X&XtX3XeXfX&XtXdX*XiXiXeXfX0X#XuXuX$X&XuX*X7X7X!.qX*Xj.oX/./.[.(.d.F.hXg.Q.fXzXvX).>XuXT.tX-X5Xp.OXdXaX|.+X+XA.4.t.XXXXXX|.5X5XuX5X5XOX|.|.XX>XXXZ.Z.XX>XXX.X.Xu.Z.5X<XXXZ.Z.Z.XXXXZ.Z.Z.Z.p.p.;X;X:X;Xp..X.X|.i.E.E.E./.:X:X;X:X/.W.y.y.,X4X1X(.W.1X1X4X4X1XW./.jX,Xy.1.w.. = % $ l $.$.Y W T A ; o O 1 e ; Y M 4   = ; : . & = a f u ; = * * ; = = * u $ ; ; = = $ $ $ = = = % =   $ X $ $ % % % $ % $ $ $ $ $ = = $ $ = = $ $ % $ $ $ $ * $ = ; < i ; i e = ; = = $ = $ * $ $ $ * * * = = * & & 0 ",
"&X:X:X0X-Xa.r.y.%X0X2XuXiXkXqXtX3XeXsX9XyXyX*XfXeXeXqX9X2X$Xa.2X-X-X5X7XoX3X9X*Xj.,XhXj.<.R.-XA.S.kXvXwX,XuX XdX|.zXi.a.E.#XfX#X|.XXXX<X@XZ.u.a.+XxXXX<X-X5XOX|.|.>XOXXXOXOXXX.XXX>X>XXX.Xt.t.a.Z.Z.Z.Z.<XZ.Z.Z.Z.XXXXXX;X;Xp.p./.E.E..X.XE..XE.p.p.E./.E.4X:X2XE.a./.:X4XW.W.W.1X1X1X_.).(.rXt.<.v.,.$ r $ ; W &.H.^ ~ F *.[ r e s w u Z ^ 5 $ = a 1 $ & $ ; i ; = ; * = $ ; $ ; $ = % $ = $ $ $ $ $ % = =   $ ; f   $ $ $ $ $ $ $ $ $ $ $ = = $ * ; = $ ; ; ; $ $ $ * $ % = < f : ; % = ; $ = $ * $ * $ = = = = = = 9 & 0 p k ",
"&X:X4X0X0X7Xu.h.#X0XkX/.8X3XeX8X3XeXeXtX3XqX8XiXqXfX9XuX4XoXr.2X*X#X7X/.!.oX*X9Xg.a.u.r.8.hX5X+XhXvXcX X5XvXkX,.hXN.3.p.;Xj.,Xa.5XxX5XOX+X<X-X+XXX<X5X-X|.OXOXA..X7X5XOX5X%XOXOXXX.XXXXXXX,XZ.a.a.a.a.D.Z..XXXXXXXXXZ.A.A.XXa.a.E.;X;XXXXXXXXX.Xp.E././.i.1X$X7X2X:X(.(.(.:X1X1X1XW.W.(.).(.!.t.f.J.P +   e f ! e.v.1.1.m ;.$.$.$.*.' d r H 7 $ & ; : $ + = ; i = * ; $ $ ; a ; ; $ ; $   $ $ $ $ $ $ = = ;   ; f k $ ; $ % = % % % = ; ; = = $ $ * ; = $ ; < ; $ $ $ * $ % % < 1 ; ; ; $ = $ $ $ = $ * $ $ % $ $ $ * 9 w s d k ",
"tX1X4X9XaX0Xa.kX#X#XhXr.&XtXsX8X3XiXwXtX:XiXyXyX9XfX*XlX4X2X,XoX0X5XE.i.2X7X#X0Xg.a.h.E.,X@Xh.Q.vXvXzXoXp.,.,.kX7Xr.zXaXaXxX@X+X,Xr.r.u.OX-X7X-XdX+XA.@XxX|.5XXX.X5XOXa.5X X+XOXOX|.a.A.XXZ.XXXX.XZ.S.Z.A..XZ.Z.Z.Z.Z.Z.Z.XXXX>X.Xp..X>X.XXXXX.X.X;X,X,X/.!.!.&XoX.X:X:XE.oX:X4X2XW.^.).).kX!.G.B.~ ,.@ : o 4 ~ 8.2.3.q.1.L b.1.N [ e l M H v $ = $ % $ & % % ; $ = i * = u e $ + a f g $ % $ $ $ $ = = ; $ $ $ i ;   $ $ $ $ $ $ $ $ = = = = $ $ = ; =   ; ; ; $ $ * * $ ; % i < 1 ; ; $ = $ $ $ = $ = $ $ $ $ $ * 0 9 w q p p ",
"uXW.-XsX-X-X>Xp.-X-X-Xs.8X*XfXwXrXiXwXlX9XuX8XfX8XzX*XtX!.fX3X7X-X X2X/.oX%X&XuXa.OX.X7XXX2XlXlXlXvX).m 3.Z.+X<X-XdXeXsXfXwXgX7XuX+XXX<X5X|.,Xj.a.xX+Xu.,X@X5X>XXX:X|.a.>X|.OX.X.X>X>X|.A.A.XXZ.XXZ.XXZ.XXa.Z..XXXXXXXZ.A.XXXXXXXXZ.p.p.p.XX.X|.>X>Xa.a.5X1XW.1X3X$X$X3X$X(.(.(.1XT.4X).^.rX,Xy.q.( [ > : = 1 3.3.l.k.5.,.N 1.J P d q H J v M = ; 2 ; @ X u i i ; $ f = * $ ; e i k f ; o $ = $ $ $ $ ; $ i $   $ % $ $ $ $ ; % X $ $ $ = e = = = ; i i ; * ; i % $ 9 * = % < < f f o i ; & = * $ = $ $ $ $ $ $ * 0 q t t p s k ",
"uX1X-XsX-X-X:Xi.-X0XuXj.qX8XfXqX8XqXqX4X9XuX8XeX*XlX*XuX3XyX*X3X2X X5X X:X3X&XuX|.5XXX7X@XkXsXwX/.3.3.r.uXaX7XdX-XuXzXzX*Xj.#XkXuXaXgXaXsXaXt.<.OX-XcX@Xt.|.dXxXp.a.%X5X;X.XOX.X.X.X.X.X;XXXXXa..XZ.XXZ.Z.Z.Z.XXZ.Z.Z.XXXXOXXXXX.XXX.Xp.p.Z.XX.X.X>XoXoX2XW.2X1X$XuX3X!.3X8X3X1X4X^.4X4XrX4Xu.y.N.I r : u   A l.L n.L 4.q.b L H J s p b J v M = ; 1 ; @ o $ = ; $ $ i * * ; k + $ i . ; . $ = $ $ $ $ ; $ f ; $ $ $ $ $ $ X $ $ % ; ; ; g $ $ = = ; i < $ e < i ; $ * & * % < < a f o r $ & = * $ $ $ $ = $ $ $ * 0 q q t q q k ",
"3X7XtXdX-X-XoXp.uX0XdXj.wXyXfXeX&XqXeX4XqX3X8XiX&XuX9XuX1XtX9XtX,X,X-X*X4X7X*XuX X5X.X>X|.;X7XS.3.,XuXdXdXsX>Xa.-XcXcX9X5X-XcX*XqXaX*XwXaXgX-X7XwX#X-X5X@X0XZ.a.OX Xa.p.7X>X>X>XXXp.p..X;X.XXX.XXXZ.XXZ.Z.Z.XXXXZ.Z.Z.XX<X5XXXXXXXXXXX.XE.p.;X.XE.:X:XoXE.T.2XoX$XuX3X*X3X8X8X3X4X`.W.1XuX}.r.f.B.L @ % & & h ~ %.-.^ 3.C.F F M v s f b H v g * = 2 ; @ o * ; ; = $ i * * = ; $   = $ ; o $ = $ $ $ $ = $ u = $ $ $ $ $ % $ % $ $ $   X i $ $ ; ; ; ; ; $ = % ; % & * * = % < < a g : e * * = * $ $ $ $ = = $ $ & 0 0 q q w q s ",
"!.3X*X-X-XuXoXp.0X-X0Xg.wXiXeXeX&XeXfX1X9X3XqXfX3X3X7XtX!.tX&X2Xp.4X%X X3X-X&X9X X5XA.OX|.s.s.r.5X-X-XdX-X.XXX-XzXeXcXcXOX0XsXsXfXvX7X&XyX|.+X-XaX7X,XXX-XaXZ.t.|. X;X;X#XOXoX>X>XT.a..Xp.a.E..X>XXXXXZ.Z.Z.Z.Z.D.a.p.Z.Z.XXXXXXXXXX.X.X>X;XE.p.E.:X:XW.W.oXoXoX2X$X$X&X$X$X$XrXtX$X!._._.[.i.q.s.L f f $ a 7 b $.[ %.2.5.H 5 a 1 s M b H 5 g * $ : * + o e u ; ; $ u = * ; = u $ ; u ; $ $ = $ = $ $ = $ $ X $ $ % $ $ $ $ $ $ $ $ $ ; i ; ; ; = $ ; ; $ $ $ % $ * * & u % < < 1 g ; i * & * $ $ $ $ $ = ; = $ $ = 0 q q w q s ",
"T.3X XOX-XaXoXp.0X-X0X/.eXqXqXqX$XyXfX1X9X3XqXfX*XT.-XtXrXqX$XE.Q.uX7XoX#X&X&XuX#X5X>X5X>XV.hX0XgXdXzXzXT.-X7Xs.s.f.zXuX7XkX-X-XdXzX,XOX XS.h.5.dX0XdXaXaXxX0X-Xj.h.uXdX.X XT. X%XoXoXOX.X:Xa.a.a.XX5X<XZ.Z.Z.Z.a.a.a.a.a.Z.XXXXXX.X.XXX>X;X.Xp./.4X4X1X3X7XoX1X2XoXoX2X%X1X3X3X&XrXrX4X_._.4Xf.f.L l f $ 2 Y ^ k s $.z.r.H 1 s p ..W b H 7 f e $ : * $ $ 0 e * = $ ; ; e = u $ $ u ; g $ + = * = = $ = $ $ $ % % % $ $ $ $ $ $ $ $ ; i i ; ; ; $ $ $ % $ ; $ = = * * & = < < < 1 f ; e * & * * $ $ $ $ & ; = $ $ = 0 0 q q s t ",
"oXuXOXOXdXaX%Xa.-X-X-Xg.eXqX9XqX$XyXfX1XqXtXeXcX%X|.-X9XrXwX4X4X&XyX2XW.&X8X&X9X#X%XOX5X>XT.:XdX7X7XT.*XkX-X4.:.j.,X-X|.+XS.wXa. X7X4.;Xa.t.S.3.+X#X#XwXzXdXwXOXhX/. X-X7X5X X X%XOXOX>X>X4X/.a.y.a.p.;X;X;X;X.X;X.X.Xp.a..XZ.Z..XXXXXXXOX.X>X:XE.:X4X3X3X%X7XoXE.1XoXT.3X$X$X(.R._.jXrX_._.7XB.w.F f > o 6 ^ ^ d ..[ B s.H 1 ] p t T m ~ v j r X ; * X * p p * e * = e e $ = ; $ i f f $ + = = ; = $ $ $ % % $ $ $ $ $ $ $ % % $   $ ;   * * = = $ = ; $ ; $ % = 9 9 & = u < a < i ; ; * & = * $ $ $ $ $ = * $ $ * * 0 0 q s q ",
"oX7X2X.X-XaX7XE.-X-X-Xj.eXtXtXtX1XtXiX1XeXtXeXvX-X%X-X9X$X*XtX3X9X-X*X!.2X8X*X-X#XOX|..X.XE.i..XXX<.+XaX-Xj.S.Z.@XdX-X-XsX<.7XlX XdX;XOXdX<.@Xj.9XdXhX-XdXsX-Xj.j.j.j..X0X7X5XOXOX>X.X.X;X/./.,Xi.i.r.p.;X;X;X;X;X;X:XXX.Xp.p.Z..X.XXX.XoXoX2X>XE.E.oX$X$X*X3XoXE.,X(.Q.1X$X$X(.y.(.(._.rX!..Xv.7.M u @ < A L m g j k b s.L 1 j e w H H 1.v j a X = $ X * p a = u = = = * ; $ j $ ; f ;   + = = ; = $ $ $ $ $ $ $ $ $ $ $ $ $ = % $ = ; % * * = = = ; ; $ $ X $ & 9 9 & $ = = a < 1 ; ; * 0 0 * $ $ $ $ - & $ $ $ $ * * 0 q s w ",
"OX7X5X.X-XwX7XE.-X-X-Xf.eX&XtXtX1X&X8X1XeXtXwXfX#X%X-X9X8XuX9X*X-XuXqX-XkXtX*X-X-X5X|..XOX#X;X7X-XS.hX-XuXa.OX-XA.dX5X-X;X,.vXiX!.vX;X5X-X3.+XkXcX XhXwXaXgX&Xr.q.s.j.E.-XOXOX.X.X:Xp.a.h.r.y.,X;X,Xp.p.i.i.E.E.E.E..X.XXXa.p.;X;X.X.X.X>XOXOXoX>X:XE.oX7X$X X:X4X(.(.:X(.,X4X2X!.3X!.!.4X7XOXm.P h p 9 $ $.P J k s k T 2.L 1 f < d ! H 3.F j j o ; $ X * 9 e $ e = * * * = = ; X $ ; k $   = = u = $ $ $ $ $ $ $ $ % $ X $ X % ; $ $ ; $ * $ $ $ $ = ; $ $ $ = & 9 q & $ $ % a < a < e e 0 0 * $ $ $ $ = $ * = = $ * = 0 w s w ",
"#XuX#X>X#XwX7XT.5X-X4Xy.3X4XfX*XoX/.7X*XqXtXeXsXuX|.-X-X4XqXqX2X7X*XtX9X2X9XqXqXtX|.XX@XtXwXt.uXiXA.5XiXsX@XT.E.F.gXfX9X;XvXzX3.r.5X5XzX<.3.@XsXsX2.7Xr.j.oXT.a.oXOX:XE.p.|. XoXoX/.j.d.5.5.d.j.Z.a.a.a.D.p.p.i.^.y./..X|..XoX.X XoXoX.X;X#X%X|.:X4XQ.3X$X:X4X(.(.hXR.`.`.rX1X!.1X!.rX1XrXkX3Xq.H > 2 $ $ T L J a d d h L k.3 f 0 a ^ L J T 4 d & o : * t t a e < - q = 9 $ 0 < . e p 1 * . 9 r : o u @ $ % $ $ $ $ $ $ $ $ $ $ $ $ = = ; ; * * = * * * $ $ $ * = 0 * * * $ = u % a u * 0 e * * * * $ $ $ o & & & $ X $ * & s ..",
"#X7XuX5X-XaX-X|.-X7X7Xy.3XtXyX!.4X,X&X*XuXqXeXsXuX X-X#X3X8XqX2X7X*X&X9X7XdX8X*XtXXXA.XXuX%X5XW.3XA.A.vXeXxX0X<.t.<XsXuX7Xq.P 2.h.dXOXj.m j.5XcX!.3.fXp.y.oX>X7X7X.X.Xa.E.E.2X2X:Xi.u.j./.<.r.r.r.u.h.Z.a.t.u.j.g.y./.;X>X.XoX|. X%X$XoXE.7X7XoXoX1X$XiX9X8X&X$X$XrX1XrXrX_.4X4X!.!.iXlXrXE.W.q.~ r 1 e f ) 0.k.a s j h J k.6 g d s ^ K H ~ 3 e w ; : * r y 0 & = $ + O z : $ < % = = % g O > e   % = 0 i i < % $ $ $ $ $ $ $ $ $ $ $ = = ; * * = * = = $ $ $ $ * * * * * $ = a % i = & 0 0 * & $ $ $ $ = $ $ & * $ $ $ 0 w t ..",
"*X7XdX2X-XaX-XE.wX2X&Xa.%X8XyX1X4X$XfXeXrXqXeXcXiX%X-X-X3XqXfX.X%X9X&X9X%X-X9X*X&X|.XXoX3Xj.aX^.kX-XZ.zX-X@XuXd.t.<XaX-X|.a.8XgXdXwXwX4.B 5X@XvXg.P aX|.(.,X.X7X.Xa.:XW.E.R./.:X:XW.E.E.(.f.j.f.r.4.r.t.p.a.j.j.j.r.j.h.Z..X.X.XoX2XoXW.oX$X4XW.!.!.*XtXqXrX$X!._._.R.4X_.Y.).hX4XjXfXiX*X>X(.b.! $ % & r &.0.3.1 j j l ^ 2.7 4 ] s W L J L 3 % + * o   * t 0 w = % $ 7 T g - - : : * 1 _ 7 > e X % $ a ; ; % $ X $ $ $ $ $ $ $ $ $ $ $ = * $ $ $ $ $ * $ $ $ $ $ $ $ * = ; = < % u < * & * * * $ $ $ $ = $ $ & * * * * 0 w t t ",
"uX7XuX|.-XaX-X;XwX>X-Xh.%X8XtX$X1X*XfXfX8XqXeXfXiX-X-X-X9XeXfXa. XtX&XqX$X#X-X*X&XXXXX.XW.B. Xi..X@XZ.-X5X|.|.j.2.A.xXaX-XgXGXdX-XvXuX6.8.fX+XsXl.<.gX-X).:Xa.E.y.a.:X2XW.i.a.R.E.(.E.E.E./.i.j.j.s.8.y.kXh.u.r.r.t.h.Z.j.a.p.;XXX>X.XE.1X4X4XE.rXrXtXqXeXlXrX1X4X_.).).^.!.Y.).^._.!.rXrX4Xy.b.v > $ $ r W L 3.1 j j [ ^ 3.D 4 ] ' %.c.J J n 4 $ * $ $ * q 0 y @ $ : ! ( T : w : O e g M.F . = ; o $ k ; X X X $ $ % % $ $ $ $ $ $ $ $ $ = $ $ * * = ; * % $ $ $ $ $ = = = = a < < $ $ 0 $ * * * * * $ $ $ & & 9 9 w w w w t t ",
"7X%X-X|.-X0X-X,XwXOX0X,X#XiX&X!.&X$X&XiXcXqXeXeXwX9X-X&X8XqXfXE. X9X$XqX7X7X-X*XuX5X.Xa.1Xs.y.;X+X5XZ.-X,X>X|.r.:.XXxXxXxX-XGXzXXXvX/.F.y.-X7X0Xm 8.aX-X).i.R.:X.X.XT.:XE.E.R.R.R.i.a.R.:XW.y.y.[.[.f.y.,X;Xp.p.p.p.p.Z.u.a.a.a.Z.Z.Z.p.oX/.i.y.1XrXtX8X8XuX8X!.rXrX8XrX$XrX).).^.f.9._.jX;X8.m.4 * = $ d $.^ k.1 j a ] W 2.F 5 k s %.c.m k.b 4 $ * * ; * 9 0 s 9 u 4 M.w.Y ; q ; % r 5 I I 8 = = X ; f $ % $ $ $ % % $ $ $ $ % % $ $ $ $ * $ $ * $ = = * % $ $ % $ = = = a = a < a u = & $ $ $ $ $ $ $ $ - & & w w q 9 w w q t ",
"-XT.5X>X5X0X-X,XwX5X0X,X%XtX3X3XuXtX&XyXsXqXyXqXeXfX3X3X9XqXqXa.|.7X3XiX7X7XuX&X7X>XZ.a.(.8.Y.,X-XlX>XaXZ..XkXr.3.zXD.A.2XzXwXwX5XvXQ.Z.q.-X7Xa.3.$XdX@Xr.E.:X>X2X2XE.E.E.(.(.R.^.^.^.^.^.`.`.(./.f.y.y.y.i.E.4X>XoXE..Xp.Z.Z.t.u.Z.Z.p.a.p.;XoX2X3XuXuXtX_.!.Q.$X$XrXrXrX!.`.)._._._._.).;Xw.nX; = 0 o ] -.^ k.1 z a [ W J Y 5 f s W _ H ~ v :   * > $ = q 0 ..s f 3 0.f.8 9 q $ 9 e Y L w.^ ; $ % ; .   ; = $ $ $ $ $ $ X $ % % % $ $ $ $ $ * = * * = $ $ $ $ = = = = = f = 1 1 g a = + * * $ $ $ $ * * $ $ & w q t q 0 w q 0 ",
"uX|.5X>X+X9X#X2X-X-X5X.X%X9X4XkXuXyXtXuXqXyXuXtXeXfXoX1XtXiX9XE.|.tXuXyX$X XtX8X%XXXZ.a.^.r.f.i.+X3Xa.xX@X|.7X|.3.wXt.-XlXZ.OXXXA.a.r.;Xr.OXxX5X1XsXxXXXf.:X>XT.T.:X>Xi.E.j.f.f.f./.).^.y.Y.R.).^.y.8.f.^.y.y.(.oX1X:X4X:X:X:Xp.a.p.;X.X.Xa..X2XoX X$X3X7X_.kX(.4X_.4X4X_._.Y.Y._.rXlXjX)./.q.K > = e : $.=.^ 1.1 j a [ M l g h f s E R ^ T h 1 X ; $ $ < w 9 t s u , 0.f.7 9 = o w ; ` ! 8.~ % $ % ;   % % $ $ $ $ $ $ $ $ $ $ $ $ $ = = = = e u e ; ; = $ $ $ $ * * * = = % g g 1 $ = e = ; = $ $ * = * $ $ $ w y t q 0 w 9 & ",
"dX%X5X>X+X0X X%X-XaX%X|.2XsX/.r.E.9X9XyXuX9XtX8XeXiXa.W.&XeX9X4XOX7X3X9X XT.$X*XtX5XD.r.,Xf.9.u.Z.yXa.S.-X5X-X7X8.y.@XzX4XdX-XA.@XkX4.j.t.a.-XkXqXeX-XXXy..X.Xa.a..X,Xr.p.8.s.f.r.y.i.(.(.).y.y.^.g.s.f.[.[.f.R.a.W.E.:Xi.$X3X:Xp.p..X2X7X7X.XOXoX5XOXoX:X*XuX8XrX$X1X`.R._.).Y.rXrXtX$X$X,Xe.8 @ e e O o.=.^ 1.6 j g ' h t d k k ] l Y $.7 g 6 o : % = - w r t p = 4 m.g.D e o O y : ` v y.J : 0 % % = X $ $ $ $ % % $ $ $ $ $ $ $ $ = ; $ $ = ; * $ $ $ $ $ $ $ $ $ * * ;   ; 1 1 ; ; * = = = $ $ $ $ $ $ X $ & y t q & w * $ ",
"-XoX7X%X%X9X-X5X+X0XOXa.5X X_.y.4.S.>XyXqXwX*XuXtXiXfX&X4XfX!.4X1X$X&XtX X3X2XQ.rX4Xa.j.j.g.y.2Xh.qX5XA.<X7XaX-Xd.<.dX-XxX<XA.aXzX|.3.5.:Xa.,X*XdX7XsX Xs.,X2Xa.j.T.8./.a.r.f.f.y.f.^.y.8.y.f.^.y.f.^.^.8.R.Y.^.8.B.f.^.(.E.T.%X2X,X/.j.^.E.7X$X,X:X X-X5X!.Q.3XoX,XkX_._.[./.y.1XuXrX4X^.y.v.K > a 0 9 $.=.W 1.f l f s *.k k X.k ] a g h m T 5 $ - < = $ e - s w 9 , ].f.K i e o s , U A ( / h = a $ * * - X   % % $ $ $ $ $ = = % $ = = * $ $ $ $ $ $ $ $ $ $ $ $ $ $ * 9 O $ s g : 9 2 = e = $ =   $ + $ * = w w t s p * & & ",
"-XE.uX7X%XaX-X7X-X0XOXa.OX>Xf.q.d.F.r.R.4X9XuX&X*XiXfX9X$XyX&X1X4XQ.$XuX$X$X7X&XrXuXa.Z.j.^.R.!.j.uX-X@X@X&XaXgXhX5.aX-X<XxX7Xt.xXg.:.2.eXXX7XgXuX XaXoXy.5X Xa.V.a.E.4Xh.j.y.r.y.y.f.j.^.f.8.8.y.(.4XW.Y.R.Y.f.y.[.[.^.(.j.:X1Xa.y./.(.W.kX1XuXkXE.3X%XE.kX7X2XQ.!.$X3X!.).^.[._.1XrXW.).f.M.K : i & & l *.T 1.i l f s [ k k X.] ] k k l H v 4 $ = * $ * w = s & + 7 '.0.c.O = % w 1 '.C G F 3 ; < % $ i X = ; $   $ $ $ $ $ $ $ $ $ $ = $ $ $ $ * $ $ $ $ $ $ $ $ * * * a $ e w i a & - e * $ $ $ $ f < $ $ = 9 w t q 0 & & & ",
"0XoX7X5X5XfX%X7X-XdXOX|.5X;X^.V.d.D.4.y.h.4XuX9XqXqXiXfX!.!.$X1XlX1X3XuX$X*X-X9X8XuXA.Z.i.)./.T.d.7X-XxX@X-XaXfXg.<.0X+X5XXXS.4.aX,Xm 2.sXZ.wXdXT.-XsXd.:X+X-Xj.d.>XuXr.j.kXi.y./.j.y.i.R.f.f.^.hX).y.y.hX).R.y.y.y.^.y.Y.f.y.(.4X,X(.W.7XiX&X4Xj.<.hX(._.+X+X X4X7X|.&X&X!.!.rX1XrXrX(./.e.~ F % 1 = 0 [ ] M L u g f t ] k ] X.X.] X.Z l Y h : $ ; $ + * w * q = $ W '.c.v.8 i a @ : './ G / Q o u $ : . $ X X $ % $ $ $ $ $ $ $ $ $ $ = $ $ = $ $ $ $ $ $ $ $ $ * * * $   w e = $ a & p $ ; i $ $ ; k ; $ $ * q q w w & & & & ",
"qXoX&X#X-X9XT.%X-X-XOX|.7X X1X4Xa.u.u.h.u.j.lX9X*XiXiXtXqX!.$X1XW._.!.rX$X8X-X-X8XuX+XXXE.(.s.#Xr.>XwX@X@XuXaXaXr.4.dX-XzXa.t.zXvX%Xm q.cX5X-XuX-X7XsXV. Xa.A.s.i./.1X<.y.:Xy.y./.j.y.i.a.y.y.y.f.f.,.3.q.^.^.R.y.y.y.y.y.f.^.).^.y.R.R.E.Y.!.8X!.a.[.1.L.f.[.,XE.OX5X7X1X8XtXrXrXrX4X4Xy.c.T 8 > ; = 0 d a M J u h g s s s k X.O.X.X.o.k l k u X % = * w w 0 q = > T e.P b.G : 0 0 % R R Y W h X % $ $ i g =   $ % $ $ u = $ $ $ $ $ = = $ $ = $ $ $ $ $ $ $ $ $ $ $ $ $ e d . . 4 $ + $ = u a * $ $ < X $ $ * q t w & & & & * ",
"-XT.7X-X-X7XT.%X-X-XoX|.7X5X!.W.a.Z.a.p.S.j.p.3X&X*XtXiXeXtXrXuXW.1X1X1X!.8X-X-XrX3XA.Z.,XE.<.-Xr..XwX X5X5XuXwX3.a.dXaXvX-X#XzX,Xr.m r.cX-X0XuXwXOXsXhX!.>X:X<.Q.y.w.1.`.R.y.y.j.y.i./.R.`.R.y.f.[.B.s.s.y.y.(.`.`.^.^.^.Y.Y.^.y.y.^.^.^.Y.(.Q.Q.y.q.1.J.K.H.m.`.$X#XoXkX4X7X>X:X_._._.y.c.F O $ ; ; = p f Y H a 7 h s r s k X.X.X.X.O.k k k p $ % % * 0 q 0 w 9 r v U.7.c.` 4 e - @ 7 7 3 4 2   = * $ i ; ; % X X $ = = = $ $ $ $ = = = $ $ = $ $ $ $ $ $ $ $ $ $ $ $ $ * 2   5 ) 4 r 3 1 $ $ $ ;   . X $ $ & q t w & = & * = ",
"-X.X-X-X9X2XE.5X-X7X>X.XuX5XQ.^.j.D.a.j.S.t.h.;X.XuXuX*XqXtXtXtXtX1XlXoX*X8X5X#XrX2XZ.a.).R.s.-Xj.:X-X-X5X5X-X9X3.@X-X-XcXzXcX-Xa.F.r.hXsX-XfX%X*XkXaXp. Xa.,X8.R.[.f.v.lXy.y.j.j.i././.y.y.^.^.i.R.R.R.Q.^.y.Y.y.R.).).).`.y.^.).).^.f.[.`.^.w.[.[.q.f.y.`.nXK.$.N M._.9X8X9XyX*XW._.~.~.1.F = < p ; = p f E H d 7 l s a ] k k X.O.X.O.k k k p = % $ $ e w = w 9 s 7 '.m.F D l f $ e W 6 . % f   r * * $ ; $ $ $ % $ $ $ $ $ $ $ $ = = = $ = = $ $ $ $ $ $ = = = $ $ $ $ = o o N 0.v : ! o o ; $ ; $ + $ $ $ $ 0 q w w = $ = = ",
"0X>X&X#XuXE.a.%X#X-XoXa.0X5XR.).j.D.Z.Z.D.a.u.j.,X2XtX9X&XtX9X8X*XT.1X%X%X9X-X5X&X7XXX.X).y.d.5X.X%X&XqXh.xXaX%Xs.,X0X>XeXoXsX-X+X5Xa.,XzXzXwX&Xj.4X-Xh.T.4X2X(.hXy.y.^.y.,.8.f.y.y././.y.j.f.f.y.y.R.!.Q.).y.y.y.8.j.^.^.!.(.^.y.y.R.Y.f.).B.w.f.).r.j.t.a.b.&.o.  O v H `._.tX$X).[.f.f.q.I e u q $ X 0 a [ N d g f ' p ] X.k o.X.X.O.X.Z X.d - $ $ $ = w * 0 & 9 : F Y 4 o ; :   a %.1 e = : ; + * $ g $.i   $ % $ $ = $ $ $ $ $ = = $ $ = = $ $ = = $ $ $ $ $ * $ $ $ = - : n.0.v O G g O 1 ; $ * =   $ $ & 9 q w & $ $ = = ",
"-X:XuX7X-XE.;X7X-XdX>XT.0XOXQ.,XZ.D.A.A.A.A.F.d.d.E.*XtXuXiXeXfXyX7XT.7X%X*X-XdX#X7XXX5XlX8.r.5Xa.OX3X9Xr.-XaXa.,Xt.aXkXcXqX+X5XhX-XXXa.-Xr.9X3X:.OX-Xd.2X|.*X XN.y.!.1XV.q.B.f.y.y.i.j.f.y.y.f.f.s.f.j.[.y.y.f.[.8.f.y.y.a.y.j.^.(.W.Y.).Y.).~.9.).q.5.d.d.C.&.Q 2 1 k w , F L e.f.f.f.<.j.I @ - q = % a p ] 5 d g j ' p ] O.j O.] X.X.X.Z o.k & $ ; % $ y * u % w e 6 9 y w r 4 X $ W 6 @ ; k % $ $ % o < = $ $ $ $ $ $ $ $ $ $ $ = $ $ = ; = $ $ = = $ $ $ $ $ $ * $ $ * w 1 L ,.8 BXFXBXO . = $ + *   $ $ * 0 q 9 & $ * = = ",
"#X2XcXh.uX$X X5X,XwX5X|.7X-X`.).a.D.S.t.A.A.XXZ.d.s.s.:X8X8XiXiX*XyXtX%X2XOX%X%X&X5Xa.>XE.f.q.^.a.|.7X#Xr.S.aX-Xt.5.-X0XvXzX*XsX-X-X5Xr.[.dX-X^.,.oX7Xa.#XoXr.8.,X2X4X/.oX/.i.y.j.^.j.j.^.i.i.y.y.j.^.j.y.f.j.j.y.f.^.j.y.y.8.8.r.y.).y.^.^._.y.j.).7.s.t.d.8.&.g 3 f f X = = o 3 R c.b.f.&.h 1 % a 0 & e 0 ] a k r s ] t d ] X.X.O.] X.] X.X.k $ $ > $ $ 9 e u $ * e & u 0 = = $ : g f f * = * $ $ = = $ = * $ $ $ $ $ $ $ $ $ $ $ $ $ = $ ; ; * $ * $ * * * $ $ $ $ $ $ 0 . K c.P K U.C.'.j = o 0 + 9     * 0 q w q 0 * g Z < ",
"%X7X9X/.-X%X-X#X,XaX+XOX-X-XR.[..XD.S.S.A.Z.@X+XXXg.j.h.:XtXiXfX8XyX9X*X$X7X2X!.%XuX>X5Xa./.P ^.:X>X#XoX>XZ.7XuXu.t.5XwXqX5X-X+Xt.5.d.A.-X5Xr.,.3.:XzXp.,XoXj.f.E.!.:X(.T.R.y.y.i.^.i.y.i.y.y.y.y.^.^.R.Y.y.Y.R.R.R.`.`.Y.^.~.~.^.^.^.f.^.f.!.Y.).).f.s.D.d.q.W : 1 . $ : % 1 1 : : , c ^ [ [ j s & p = 1 p p s r s [ ] t k ] X.X.O.X.] X.X.O.#.$ ; = a $ 9 0 e $ * r & 0 = e u < ; f 1 ; $ = = = ; u u < = $ $ $ $ $ $ $ $ $ $ $ $ $ = = ; u ; $ $ * * * $ $ $ $ $ $ $ $ & $ K ~ L K e.q._ j 0 X = + 9 o X = 0 w w w w + = i % ",
"5XuX!.oX-X*XuX X4XfXOX7X5X5Xy.[.XXA.S.Z.A.S.A.@X@XXXj.d.j.3XtXiXqXiXtX$X%X X%X$XoXoXa.7XlXQ.m ).W.T.-XkX#X7Xa.T.hX Xt.%XkX+XZ.s.B.s.r.a.@X-XE.P f.#XT. X2X%XE./.a.Q.Q./.Q.W.R.R.^.(.R.R.W.^.).Y.y.Y.Y.Y.Y.Y.Y.Y.Y.y.Y.Y.).).).^.).).).f.~.j.Y.`.,X^.f.f.D.6.8.T : 1   ; < 1 : % = e 9 * e [ [ ] s w u % 2 s j s ] O.*.*.' X.] X.X.O.O.] O.] O.*.+ = $ i X 9 0 = $ * q * 0 = e u i ; < $ ; $ $ = = = ; u u * $ $ $ $ $ $ $ $ $ $ = = = = % ; u = $ $ * * $ $ $ $ $ $ $ $ $ & e F c.c.( w.q.F z 9 $ & $ $ o X $ 9 w w q 9 $ + $ = ",
"5X7X X2X-X9XtXQ.a.-X|.-X7X-XR.[.Z.A.D.Z.A.D.A.@X@X@XS.S.S..XoXtXtXiXtX!.1X X$X1X4X2Xa.oX2XQ.J q.1XoX-X5XwX#X,X,XS.7XkXkXm %Xj.3.l.<.8.a.,X4./.[.hX/.:X2X X7XoXoXE.W.i./.R.i.y.y.^.^.R.R.R.^.^.y.y.R.`.R.R.f.f.^.[.^.g.f.f.f.y.y.Y.Y.^.f.^./.Y._.).^.9./.D.d.V.W X 6 ; : g : : ; < u < % % 1 a = u u = = ; & a 0 ] ] s [ s X.] j X.O.O.] O.X.O.#.u $ % = $ 9 9 = & 9 0 9 9 = * = ; $ = $ e $ $ % $ $ $ = = = $ $ $ $ $ $ $ $ % = = = = = $ $ = $ $ * = $ + $ $ $ $ $ $ $ $ $ & 7 M.c.L w.s.K M 9 0 = * * X X $ w w t q 0 $ *   = ",
"5X/.-X>X-X9X%X Xa.3X2X-X5X0X(.[.a.D.D.D.A.A.Z.@XA.Z.<XZ.A.Z..X:X4X4X1XQ.W.3X$XW.4X7XE.a.2Xy.l.,.$X7XOX5X-X-X>Xj.+X,X6.3.V 3.4.<.y.i./.F.F.hXr.y.y.i.i.oX7X:XT.oXE./.y.j.f.f.f.f.f.f.f.f.j.y.a.i./.4X4X:XE.j.f.8.<.<.8.f.f.y.j.R.Y.y.y.y.^./.Y._.`.^.9.hXZ.D.8.T Z g : 1 2 : < < % X o : 2 o 2 % % u 0 e e a a a k e r 9 s O.O.j X.O.X.X.O.O.O.#.a $ $ $ $ 9 * * * 9 9 q 9 * $ $ = + * * e = = = = $ $ $ $ e = $ $ $ $ $ $ $ $ = = = = = $   = * $ $ * $ $ $ $ $ $ $ $ $ $ = @ 4 '.L P e.q.( W * & $ * @ & $ * 9 w t q & + %   $ ",
"#XE.uXoX-X0X.X4Xj.4X4X-X5XaX4Xg.t.D.A.D.S.Z.Z.<XZ.Z.<X@X@X<XZ.;X,X(.4XW.1X$X$X!.3XoXa.a.lX8.l.P !.-XOX-X#X@X5X,X+X<XA.F.kXD.S.hXhXS.S.A.A.%X,Xi.E.7X#X&Xy.y.T.2X/.f.y.j.y.y.y.r.r.r.r.y.y.E.E.E.:X4X4X/.E.i.E./.^.^.).^.y.f.^.^.f.f.B.f.^.^.~.!._.f.9.,XD.D.[.8 2 1 o h g % % % % $ e r e e 0 0 r e p & 0 j k a o.i = $ $ o.$.k X.X.] X.X.X.X.#.p $ $ $ X 9 9 & 0 9 9 t 0 * $ $ = $ ; * e = = = = $ $ $ $ e = $ $ $ $ $ $ $ $ $ % % = = = $ ; ; $ $ * * = $ $ $ $ $ $ $ $ % w f '.P L c.q.K ! $ + < * @ @ $ & 9 q q q * $ ; % $ ",
"#X%X3XOX|.0Xu.(.8.y./.-X7X-X(.B.d.A.t.Z.Z.A.A.<XZ.A.@XA.A.A.Z.Z./.^.4X1X7X2X%X!.3X7X.Xr.j.q.m 7.W.uX+X+X5X7X>X5X XdX7X>X|.j.S.XXXX@X+XXX7X>X8.y.R./.i.r.V.f.W.$X,Xj././.j.,X,X/./.,X,X:X:X1X1XoXE.E.E.i.i.E.R.^.^.^.^.^.y.g.f.y.w.B.{.g.Y.(.~._.!.g.f.E.S.t.r.M $ : = $.1 X o u i = e r r 9 9 s 0 e p $ 0 d O.k O.k * i   ; k d k ] ] O.O.X.O.*.k $ ; $ = 9 9 & 0 9 w s r * * = = $ ; $ e = = $ = $ $ $ $ e = $ $ $ $ $ $ $ $ $ $ $ $ = = = u e * $ * * = $ $ $ $ $ $ $ $ o @ f '.L P I 0.F K = r g = $ *   $ w w q 9 * * ; u $ ",
"+XdX:X-X.X#Xr.,Xf.j./.0X@X-XR.B.g.A.a.,XZ.A.A.@XA.A.A.a.S.A.A.Z./.j.4X$X*X>X2X*X&X7X,Xr.f.,.m _.R.2XaX7X2XOX|.qXT.OXg.:XR.k.[.&X*X3X:X1XQ.OX4X!.-X/.r.a.j.j.a.y./.j./.a.u.oXE.T.E.oX>XOX XQ.W.W.R.E.E.^./.^.f.f.f.f.f.f.f.f.f.w.q.v.C.w.Y.(.9.4XY.[.f.W.S.D.8.%.  a 9 $ $ u * = < o o 2 < o g -.: % ; ; = p ] X.k e = r = + j [ ] X.] X.X.X.O.#.O.  i   i 9 9 & 0 w w s r * * = %   = $ u u = = = = $ $ $ = * $ $ $ $ $ $ $ $ $ $ $ $ $ = $ ; ; * * * $ $ $ $ $ $ $ $ * = : @ f '.c.P L e.b K e 9 1 . o % X & 9 q w w & $ + u + ",
"#X0X X7Xr./.^.hX/.y.Q.%X-X-Xf.J.!.<X5.@XD.D.A.A.<XA.A.S.A.S.D.<Xa.$XjXW.9X-X%X#X-XOX.XoXf.y.B 1Xy.OX+X>Xh.r.E.,X;X,XXXhX6.>.8.tX/.j.oX*X>X#X-X7XW.y.y.j.^.i.i.j.^.^.j.y.f.i.i.i.j.^.^.^.^.y.(./.y.y.^.).^.f.^.y.y.y.f.8.9.w.f.0.7.v.B.B.f.).f.!.).Y.f.!.;XG.B.7 % f - u $ = % < u = % ; $ g $.g > % ; = p d ] X.] 9 + $ X o $ 0 ' ] X.O.O.O.O.#.o.$ $ $ f r 9 w 9 0 * 9 q * * * = ; = e a * = = $ $ $ $ $ = $ $ $ $ $ $ $ % X $ $ $ $ * $ * * * = = = $ $ $ $ = = * $ $ $ $ $ f ) I L e.c.M.K O * 0 + $ $ X $ 9 & r a $   a ;   ",
" X-X|.7Xr.W.!.oX:X/.4X>X+X-X).J.#X<X4.XXA.Z.D.<Xt.Z.<XA.D.A.D.S.A.&X$X$X&X-X7X7X-X:X,X4Xs.Y.m Y.Y.$X%XE.8.R.Q.Y.Q.!.:XN.l.>.3.f.8.h.f.y.E.a.i.a.y.y.i.y.y.y.i.i.R.R.i.y.y.^.j.j.j.f.y.y.y.y.^.^.y.y.f.f.y.r.f.8.y.f.f.f.g.b.q.0.L c.{.[.y._.y.Q.).^.g.oXXXD.1.7 * & = < > < < X : a % ; k $.: o f k a p p k X.X.] k ; . % X = p ] ] ] ] O.X.O.#.O.< $   ; e 9 9 9 * & 9 q = * * = = $ = ; $ $ $ = ; ; * $ * $ $ $ $ $ $ $ % $ $ $ $ $ = * = = * * * * $ $ $ $ $ $ $ $ $ $ = $ = ! U L 0.K _ Y : * 0 $ $ + X $ 0 w 9 r * ; ; $ > ",
"#X-X>XuXu.oX*X X!.i.kX:XOX+X(.z.kXS.5.V.<Xa.t.a.a.S.t.A.S.A.S.F.Z.4XQ.kX2X*X2X&X*XE.1X3Xy./.m i.kXkX<XXXS.7XkXy.s.E.kX:.6.G.m 0.y.u.q.q.y.d.d.f.j.h././.i.R.R.E.W.(.(.(.).^.y.y.y.f.f.f.^.R.^.^.f.f.f.f.y.f.q.q.8.w.8.7.q.,.1.w.0.J ].b.8._.y.Q.).^.^.3XXXS.L 6 0 * u < > $ ; < % $ i l Z % % : < u = e j ] X.X.j u e % $ o ; u ] O.*.] O.O.#.O.O.i ; X $ 0 9 9 9 * $ * r 0 * $ $ $ $ $ $ $ $ $ = = = $ $ * $ $ $ $ $ $ $ = % $ $ = = $ $ = * $ $ $ $ $ $ ; = $ $ * = = = - = ; ! I K ( Y Y g % $ = $ $ + $ $ * & w 9 $ ; X X $ ",
"uX-X7XuXT.,X2X XT.r.{.^.4X4X].v.lXZ.d.j.Z.OXV.t.<Xd.r.+XF.A.D.d.Z.(.y.4X$X9X3X9X9X$X&XiX1X^.,.9._.:X XE.^.r.B.,.k.B.hXm r.S.m c.f.y.8.q.s.r.f.j.j.i.R.E.E.(.(.W.E.E.E.R.i.^.y.8.8.f.f.f.f.^.j.f.f.f.f.w.w.q.q.q.0.w.q.q.0.9.b.{.m.L U.J 7._.f.Q._.^.^.7X.Xd.v.O $ u < ; $ ; X ; g k g f $ % % $ ; a e e ] O.X.X.S a $ $ u $ $ + q O.*.] X.#.-.S o.< % o < = & 9 9 * $ 0 s & & $ $ $ $ * * ; = $ $ $ $ $ $ = $ $ $ $ $ $ $ $ = $ $ ; ; $ $ $ $ $ $ $ * * * = $ $ $ $ $ * = & = % ! I F T g f i * + & = * $ = $ & w r e $ $ $ $ = ",
"dX-X7X0X+X;X5X@Xj.q.J.b.].).'.].cXA.XX|.XX7Xr.a.;X5.j.a.r.|..XA.oXR.~._.8X*X$X*X*X!.*XqX$X8.q.,.8.d.a.^.9.a.h.y.r.>XZ.V 4.u.,.0.w.^.f.8.B.y.y.i.i.i.i.R.R.^.^.R.R.R.^.^.i.[.f.f.f.g.f.q.8.f.f.f.f.f.w.w.q.q.q.w.0.e.b.].e.~.b.w.0.~ ~.J f.).y.R._.~.^.2XZ.D.B.c o $ $ $ - o g l g f o   1 = $ i a = e X.o.X.O.X.S k u   e ; i = * a O.] O.o.-.Z o.< o X u = & w 0 * $ 0 s $ & * $ $ $ = ; = = * $ $ $ = e ; * $ $ $ $ $ $ X $ $ = u ; $ $ $ $ $ $ * * $ $ $ $ $ $ $ $ * ; 0 $ > R ( M g ; r r = $ & 0 * * * @ & q s a * * 0 & * ",
"wX-X5XwXwX-X-XOXr.J L.n.M.m.H.mXfXD.,XXXhX7Xt.XX<XF.j.>Xj.g.g.;X4XB.mX].1X1XkX4X2X,X4X4X).r.j.8.u.V.a./.[.y.q.q.v.{.d.:.d.d.8.7.q.j.Y.y.f.y.Y.R.^./.^.j.y.f.f.f.y.f.j.j.f.f.q.q.q.8.8.8.w.w.9.q.q.w.q.q.q.q.q.q.,.7.e.b.0.e.0.P P c.`.0.[.Y.^.Y.!.~.Y.:Xp.A.s.n.4 o g > - < f i X X < < % = = = = u k o.X.O.X.X.X.] r * $ : . $ i . k ] ] o.-.k d ; ; o % 0 w 9 0 = $ & q & = = = $ $ = ; = = ; = * & = e e = $ $ $ $ $ $ $ ; ; ; u ; $ $ $ $ $ $ * $ $ $ $ $ = = = ; e u 0 $ * Y T f 1 0 q 0 0 @ w q & * & & 9 w q 0 * = p * * ",
"-X-X5XwXaXaX#XXX3.m z.l.l.l.z.v.a.6.4.4.t.|.a.a.5X<Xr.;X,Xf.V.g.^.B.mXB./.E.hX(.E./.^.^.f.m.b.m.C.J.q.v.J.n.) ) &.) L m 3.d.8.7.q.s.y.f.f.f.y.y.f.f.f.q.8.f.f.s.8.8.8.8.,.,.,.,.,.,.,.q.w.7.8.7.7.7.8.8.7.0.0.1.,.L q.b.0.e.b.c.L c.~.w.^.y.^.y.Q.].Y.(.h.A.5.H.g f $.: - % . % a % % ; % * a i a k p d *.-.d X.*.] + $ < . l : : k k + o.o.-.k $ $ f : X 0 w w 0 = & & 9 & = = = $ = = * = ; e = * $ & = ; * $ $ = % $ $ ; ; ; ; = $ $ $ * $ $ $ $ $ $ $ $ $ $ $ * * = = $ $ w g 4 e $ - * * = @ & w @ $ & w q w w q & * 0 $ * ",
"+X7X5X-XaX9XoXkX5.:.5.5.5.t.r.s.D.F.D.S.-X@X5X@X@XOXXXt.,X X5XOXT.$XhX/.oX X,XT.!.hX/.W.[.g.!.kXR.f.4X[.^.j.,X).hXj.Z.S.6.6.q.q.q.B.s.9.kXw.w.q.q.8.,.<.q.,.<.8.8.q.q.q.2.q.q.q.q.w.B.w.q.e.q.0.0.0.q.q.s.q.0.0.c.1.v.0.L e.w.c.P 0.~.B.8.y.).y.Q.].R.).;XZ.s.~ o g %.4 X $ u < $ % < ; = = a a u u a j k k $.*.*.' r u $ f l : h 1 1 $ k a =.$.%   f ; $ * @ & 9 0 & & w & = = $ $ = = $ = = = $ $ $ = = * $ $ $ = % $ X X   $ $   $ = $ * $ $ $ $ $ * * = $ $ $ $ $ $ $ ; = w < = y $ & $ $ = & w y @ = 9 q t w t s e = % $ e ",
"p.-X-X5XuX+X2XXX4.>.N.t.S.t.u.y.d.F.,X@X@XA.F.-X*X.X5X7X5XOX-X@X,X XT.,XZ.oX X+X.X.X;X.XT.[./.r.g.j.Q.>XS.[.y.8.r.a.g.u.j.r.<.s.f.8.^.{.c.K M.1.1.q.q.N.C.g.y.B.y.y.j.8.2.v.0.( q.2.l.8.r.r.s.r.p.d.a.|.,Xr.N.q.b.c.N.,.I e.w.0.P L q.f.8.y.f.f._.y.W.>Xp.S.5.c.E o.: % - X % i i ; 1 < 2 a k s [ o.s r 2 a h f d a < s : 0 r 4 j @ o + : a ] k u * k 1 $ 9 * & & $ & & w $ $ $ * = = * * $ & - & & & * 9 * $ = $ : $ ; % = = = ; = $ $ & - $ & & & * & & $ $ r *   ; * & $ $ $ u e $ & @ & $ 0 & & w & 0 @ w q t t t 9 9 $ u u ",
".XaXOXaX-X>X9X-X4.:.k.q.oX5.[.^.kXt.4.4.G.r.F.d.S..Xa.-X7X-X XhX.XuXp.V.Z.j.S.S.S.S.d.S.S.j.p.Q.,XXXXXu.q.8.y.s.g.f.f.y.j.B.<.,.8.f.[.q.b 0.b.q.s.g.f.f.j.j.u.F.Z..XS.h.V.m.m.n.f.g.V.p.;XZ.S.XXXXS.D.@XS.j.s.q.M.n.v.,.K q.w.e.L 1.q.f.,.^.^.f.).y.1X4Xp.d.j.v.E % ; % $ % X ; i e i g Z *.O.g o.k o 2 1 2 & o X o o o o o 2 Y > & 2 s 9 X d k 1 + X 1 e w & & & & & & & % $ & & * * * * = - & & & & & * = $ $ $ ; $ : ; $ $ $ $ $ $ * = $ $ $ $ = = * $ & $ $ i a 0 0 = & $ $ e e $ & & & & e 0 & 0 & 0 0 0 q t t w 9 9 9 e e ",
"h.xX-X-X-X-X X2X<.:.mXlXi.[.].~.5X,X3.5.6.rX<X>.G.Z.4X8X#X*X(.hX.X7XF.5.r.6.d.6.d.d.d.d.6.5.t.t.D.,XlX$X$XhXhXq.q.q.b.^./.B.q.L 0.f.B.P F B.V.j.,X,Xp.a.A.D.Z.S.XX@XD.XXj.m.m.n.j.<XXX@X<X@XZ.@X@XZ.S.A.D.S.r.s.n.K.M.7.J q.e.e.0.1.0.f.,.^.^.y.^.Y.4X4Xi.t.S.m.W . ; : $ : o e i p j o.-.X.S g p O.o.> @ o @ 0 e e . % p 0 < C = s . * X X ] $.O ; i o + w w & & & & & & * & & & & * * * 0 & & = = * * 0 e     X < % % $ = $ $ $ $ $ * = = % $ = u u e = 9 = X < r @ & $ * * $ e = & * & & & 0 0 * = & = r q w w w w 9 * w 9 * ",
"j.5X5X>X7X@X5XS.6.N.).Q.dX4X~.{.F.F.4.F.D.&X@XG.6.4.7X X5X*X1X/.,XA.F.5.4.d.D.t.a.D.a.F.d.h.S.G.6.d.;X*XsX$XR.,.0.J.mX[.[.q.q.v.w.w.w.P H.,Xh.D.XXXXXX5XA.A.@XS.A.@Xt.+Xu.v.H.n.f.xXA.@XD.@XA.A.@X@XS.A.A.S.t.f.) BXH.0.H f.8.e.0.L 0.B.,.^.j.y.R.Y.4X4Xy.D.u.B.Q @ * 1 X $ * a a a ] o.O.O.X.X.< j j O R K 3 e + @ r . $ e i 2 e y @ t u . $.Z 3 i f 1 + 9 9 * * * * * 9 * & & & * * = = $ $ & & & & & & $ $ = % < $ $ $ ; = % $ $ $ $ * $ $ $ $ = = * $ + = X o = 0 0 p 0 0 & = = $ * & & & 0 0 & & $ $ 0 w w w t q 9 * * * & ",
"R.*Xh.%XE.XX#X.X6.d.f.a.gX|._.hXx.6.D.@X@XG.A.D.3.6.xXD.D.5X X,XS.A.6.x.s.r.,X:X2X2XoX,Xp.+X7Xd.6.6.6.D.5XqX1Xq.].nXH.7.,.q.q.v.w.8.B.L H.>X.XA.A.Z.<X<XD.t.@XZ.A.<Xt.XXS.q.m.H.f.xXA.A.F.@XZ.D.@X@XS.D.+XA.A.u.n.K.nX0.H f.8.q.0.1.0.w.,.^./.y.R.Q.1X1Xy.D.t.B.W 9 @ 1 X $ $ d k k X.X.X.O.X.] 1 o 8 }.vXiX`.3 < % @ v F 4 Z g 9 , ! h + $ i $.$.f k ; 9 9 9 * * * * * 9 & & & * * = ; ; $ = = $ $ & $ $   ; g < %   $ ; $ $ $ $ $ $ * * $ $ $ $ $ $ $ $ X * * $ 6 g a s r 0 & * = $ & & & w * * * $ X   9 9 w w w q 0 * ; ; * ",
"lX%Xh./.(.oXR.W.<.2.[.zXXX<Xa.h.6.G.@X@X@X>.6.G.5.d.A.D.D.XX|.a.d.D.F.V.<.<.^.:X3X4X(./.r.a.S.4.D.G.6.6.D.tX(.r.w.K.BXe.v.w.7.q.q.8.f.1.H.>X>X@XA.A.S.S.G.D.@XZ.+X<Xu.XXZ.q.M.n.f.xXA.+X<X7XS.S.@X-XS.S.@XA.<Xu.M.K.nX0.L w.8.8.c.c.7.w.,.R.).^.^.W.1X4Xa.u.D.V.) + & ; % ; $ d X.O.X.X.O.X.O.O.p @ F bXcXhXrX, u X . U lXK g s > I lX` - $ k E -.] ] a & w & * * & & & & & & * * * = = ; $ = = $ $ = = $ $ ; i $ $ $ = $ $ $ $ % = * * * $ = = * * $ * * O + e f C Y 1 e p e & & * $ & & & 0 & * *   $   0 0 9 w & & * = 1 i = ",
"kXg.j.N.hXr./.B.3.t.y.kX5X@Xa.j.6.G.A.A.<X6.>.:.6.d.S.,XD.D.a.d.d.D.kX2.,.hX4X!.!.1X4X,X;XV.d.6.D.S.d.6.6.$Xy.4.8.H.VXe.q.w.7.q.q.8.q.L H.,X,XA.@X@XZ.S.D.S.-XZ.+X5Xd.A.S.q.c.n.r.7XZ.A.<X-X@Xu.A.-XD.d.@XXXS.t.0.H.H.L P q.8.e.c.c.7.f.q.Y.^.^.R.W.3X4XE.d.D.j.) X = = < ; = k O.O.O.X.O.X.S O.d w 7 !.vXfX!.0., & r v {.rXD 1 : b.rXK w * d 1 < s O.u p w & & $ & & & & & & & * $ * = = ; $   $ $ $ $ $ ; $ $ . $ $ *   = $ $ % = * * * $ $ $ & $ & * *   + ; 6 C D C 4 p e & & * & * & & 0 & = * $ $ X = = 9 9 @ & & $ ; e * ",
"3.3.:.3.3.>.x.4.:.d./.fX-X+XhXs.6.G.F.D.A.-XG.G.D.A.hX|.D.D.6.F.d.D.d.x ].2X X&XrX2XoX.XOXD.4.<.d.6.6.:.d.^.f.d.r.H.VX7.,.w.0.0.q.f.q.( H.hX,XZ.@X@XA.XXZ.XX-XA.+X<XD.A.D.s.1.v.r.<XZ.A.@X-XxXD.A.@XS.d.@X+XD.t.0.H.H.L P q.e.e.0.0.7.f.f.R.^.R.i.W.$X1XE.d.t.d.) < - $ < X = k X.X.O.X.X.X.X.O.C o , pXcX8XkX!.n w o T 9.8.! g h b.).! $ 0 0 X = ' [ e + 9 * * * * & & & & & & * $ $ $ $ k ; $ = ; $ $ = $ $ % $ % X $ $ $ $ $ $ = * * * & & & & * 0 0 e & f h 7 8 D R 7 p e $ & * & 9 & & = $ = = $ * $ X $ 0 9 9 & $ $ + @ @ ",
"<.4.2.s.,.3.3.3.3.3.N.+X%X!.,Xd.G.6.D.A.D.A.A.@XA.Z.S.S.kXF.hXd.u.d.d.n f.oX$X4X`.4X4Xp.p.A.6.>.6.x.6.4.d.T.r.f.y.m.BX9.2.w.7.q.b.q.q.b.mX].a.@X@XXXS.A.@X@XXXS.A.@XD.t.Z.d.k.k.V.A.A.A.<X-X-XA.A.xXA.Z.,X@XZ.t.l.H.nX1.K q.8.q.q.q.7.[.y.j.R.R.^.(.$X!.R.u.D.t.n.r $ o 0 % $ k X.O.O.#.X.X.O.o.d * : K ].f.].c $ r @ 1 0.5 6 / - Y ! ` z 0 p $ : : k = 9 0 * & = 0 * & 0 & & 0 $ * a   f f X $ ; $ % $ $ = * $ $ $ $ $ $ X $ $ = $ $ $ & $ & * * * * 9 9 : S 1 h $.k D F r * ; $ - & w 9 & r = u   $ ; $ %   9 w + 0 0 9 & $ X ",
"E..X;XhXW.4X7Xj.r.2.C.>X:Xr.,Xu.6.4.D.<XS.@XA.D.D.D.D.D.F.F.g.G.t.d.d.m ).$X1X1XQ.1X4X;XZ.Z.4.4.>.>.6.D.OX:Xr.f.y.v.BX9.2.f.q.q.q.q.q.0.m.B.j.<X@XXXS.A.@X+XZ.Z.A.<XD.u.<Xr.k.k.f.@X7X@X<X-X@X+X@X<XA.Z.<X@Xa.4.v.H.mX0.H q.q.q.q.q.7.[.y.f.R.R.^.^.!.!.R.p.D.t.n.f   o 0 = $ k X.O.O.O.X.#.S a u = < 3 3 . . . X o ; - ) b.nXA e E f ` e 0 p ; g ; f k & 0 * & = = & & 9 = $ * = $ $ ; o.i   $ $ $ $ $ $ = = $ % $ $ $ $ o $ $ * $ $ $ & $ $ & & & * * 9 r g * g -.$.W 6 t & * * 0 & * $ w w * ; $ $ * $ o $ * 0 & * 9 0 $ @ 2 ",
"2X7X7X1XwX0XdXoX%XhXj.%X:X<.kX<Xt.6.D.D.D.F.G.G.G.D.A.D.D.D.t.G.A.D.D.m _.$X$X1X!.3X4X;Xh.s.S.5X4.6.D.dX1X:Xy.j.y.v.BXw.q.w.0.0.q.q.q.0.M.m.j.<X@XZ.Z.A.XXA.Z.Z.@X5XD.t.5Xu.v.k.s.A.@XA.A.@X+X@X<XA.A.A.Z.@Xa.r.v.H.mX0.F q.q.w.q.q.7.[.y.i.R.Q.^.^.!.W.R.;Xt.t.m.l   o 0 = - k X.O.O.O.O.O.j a o 2 a $ & w s a r @ i - G _.nX&.k k k Q X * e $ 1 i i k @ 0 0 * * 0 & & * * & 0 * * = a k ;   $ $ $ $ $ $ = * = = % $ $ $ $ $ $ = $ $ $ & $ & & * * & * * r > w 1 O g A i @ & 0 * e = = X 0 @ 0 = % $ $ $ . o X X $ + & 9 s % & ",
"1X4X:Xa.8X+X XT.uX7Xa.wX%X<.,X-XZ.F.D.D.D.d.6.6.G.D.A.A.<Xt.t.D.A.D.D.m _.*X$X1X$XuX3XE.h.V.;X+X<XS.7X-Xy./.y.j.y.v.LXb.1.w.q.v.q.q.q.v.mXm.j.<X@X|.D.A.@XA.A.Z.<XZ.D.t.S.j.b.n.s.Z.@XZ.<X@X@X<X,XD.S.A.A.<Xt.t.v.n.mXq.F q.8.w.0.b.7.g.f.R.W.W.^.^.W.W.^.(.t.d.m.$.+ % - 0 - d X.O.O.o.O.O.O.$.= o 1 o p O & o $ 9 + = _ Y.%.nXA S / $.> e + = = u u e 0 0 0 * * = * & * & = 0 * * * f : % X $ ; $ $ $ $ * $ $ = = $ $ $ $ $ $ = $ $ $ $ & & & * & * * * @ 9 . 4 ^ , g r : = = & e e = - q & u $ ; $ $ $ * % o X $ $ 0 0   : s ",
"2XoXd.a.4X5X>X>X0X+XT.fX X<.OX#X|.S.S.D.A.@XA.D.S.S.D.D.D.D.t.D.D.G.t.P _.$X$X!.uXfXtX.X,XZ..XoXhXS.+X#Xf.f.y.j.r.q.LXb.L f.0.0.q.q.8.0.C.'.V.<X@XXXZ.A.@XD.@XA.S.Z.XXA.XXa.b.n.B.XX<XA.@X@X@XS.D.u.S.t.S.<Xt.u.q.n.m.0.F q.q.w.0.e.7.f.f.(.1X$X/.^.!._.^.(.t.D.v.%.> = - e - p X.O.O.o.$.X.] *.r o 1 o 2 : * 6 O e - > W e.H.NX/ 1 2 y j a . d k p * j a * = & & 0 * & = = $ & 0 *   f a $ $ % ; = $ $ $ $ $ $ = = $ $ $ $ $ $ $ $ $ $ $ & & & & @ $ $ * & p $ L.x.b o l N 5 % $ p w w 0 q 0 a $ % % $ $ 9 $ X X + & 0 $ W }.H.",
"-XOXt.a.3XdX%X5XaX5X|.dXh.d.7X-X|.Z.Z.A.A.+XA.A.<XZ.Z.<XS.S.a.D.t.d.6.3.jX$X1XQ.tXfXqX%XhXA.Z.T.a.,X-XuX2.B.y./.r.2.LXb.P f.7.,.0.q.8.0.M.nX[.<X@XXXZ.A.@XD.A.XXD.D.@XA.XX;XB.c.q.Z.5XA.@X@XXXD.4.t.S.t.S.<Xr.t.<.n.m.1.n q.7.w.0.e.7.f.j.(.$X1X/.^.W.W.^.(.d.D.q.W > ; - u & s X.O.O.O.O.S X f f @ f : O @ r p o j d 7 D ].I U./ j d d j u & p o.X.- d i * = & & 0 * * = * & * 0 = ; f % $ $ $ ; = $ $ $ * * = = = $ $ $ $ $ $ $ $ $ $ $ & & & & + + $ @ <   BXx.>.n 1 l x c c : 0 w w r 0 u u $ $ $ $ $ @   X $ + * > : lXbXbX",
"5X5Xa.|.*XaX X@XaXdXXX-Xh.r.5X-X@XD.<XZ.D.S.S.S.S.t.A.Z.t.D.a.G.t.d.4.1.4X$X1X`.tXsXeX&X,Xt.j.OX-XuXa.4X[.B.y./.f.q.LXM.L f.0.0.q.w.w.v.M.mX[.XX@XXXD.A.@XS.A.A.D.S.+X|.Z.5X{.n.q.j.5XA.@X-X@XXXa.S.S.D.A.a.t.t.q.n.m.P n q.7.w.7.e.0.f.j.E.$X$X/.R.W.!.^.(.d.G.s.^ > * - i = d O.X.O.O.O.X.. o i s j ; : = % + T $.a I ` I.! '._ j { g C ; 0 & k O.d u * = 0 * & 9 * * = & 0 0 * * j a .   $ $ % = $ $ $ * * $ = % $ $ $ $ $ $ $ $ $ $ $ & & & * & $ & *   l J.>.V c z : > b B , ; 0 0 e - u $ o $ $ $ $ * $ o ; @ ; . W bXpXvX",
"5X@X|.,X0XwX-X5X@XdX-X9Xa.r.5X@X<XA.Z.A.D.A.Z.S.S.t.D.F.G.a.a.D.D.G.4.1._.!.4XW.tXsXsX-X;Xu.hXE.3X/.y.W.1Xq.8.^.f.q.LXM.L 8.7.q.q.q.w.q.M.mXhXXX@XXXD.A.+XD.A.A.D.,X@X+XZ.A.{.m.v.j.<XA.@X-X+X@XXX<XZ.Z.A.t.h.j.V.n.m.P F q.8.w.7.b.0.f.j.R.$X1X(.R.!.!.^.W.d.G.f.) > $ - a = d O.X.O.O.X.| q o o o.O.$ O > O 7 ^.0.M e.) S O.e.I.$.[ $.].i + p X.X.] a ; = 0 * & * * & * * = & * + e ; $   = $ $ ; $ $ $ $ $ $ $ $ $ $ $ $ $ $ $ $ $ $ $ & & & @ $ + + > @ z :.V M 5 z o g c V x 5 % $ = 0 u   $ $ $ $ $ $ % o o > % . nXGXpX{.",
"OX-X+X%XwX0X5X+XwX-X%XuXT.r.5X|.h.V.A.A.,XZ.A.t.d.d.a.+XD.D.t.u.t.G.4.l.1X_.!.$XuXfXaX0XZ.t.XX,X%Xq.q.i.y.,.q.y.r.C.BXm.L q.q.0.0.q.q.v.L nX{.@X@XA.Z.XXA.u.@XOX;X,X%X X<X-XV.m.v.i.XXA.@X-X+X@XA.@XA.Z.XXa.h.,X^.H.m.L 5 0.8.8.0.0.0.B.f.^.1X$XW.R.4X`.).^.j.d.t.) 9 o ; a = u ] #.O.O.O.O.- o X [ j ; O > * ].`.M.k U n.S A '.&.d *.H.e.j $ = k X.#.k ; 9 & 0 0 = = $ = $ * * = e e = * = % $ $ % $ $ $ = * % ; ; $ X $ $ = $ * * * 0 * 0 + * 9 & & + 9 @ , B :.B 5 . 1 z x B x z @ 9 = * =   X o   % > $ e O . 0 $ & i vXU.n ",
"OX5X5X7XaX-XXX|.-X5X5XuXT.r.5X>X,X2.A.A.S.u.t.S.d.s.t.A.D.S.t.D.D.G.4.x.1XW.$X&XtXeXcXdXa.d.a.,X X2.q.i./.L 1.j.y.N.K.m.1.B.q.7.q.q.q.v.1.mXm.j.<X@XZ.XXD.S.a.@XZ.XX|.-X<X&X].J.v.g.,XXXXXOX.X>X;X;Xp.Z.;XE.[.u.^.H.m.~ 3 0.w.w.q.e.7.b.y.f.!.*X1X^.`.Q.(.j.j.d.t.n.p o = = e a o.X.O.O.#.#.e X X [ d $ 1 - 1 _.`.H.[ U ].Y g BXI.' O.) e.k + = k X.O.j ; & @ 0 0 0 0 $ ; * * * * 0 ; = $ i ; X X $ $ $ = = $ = ; ; $   $ $ $ $ $ $ $ 9 & 0 & @ @ & 9 + > 4 %.V V B , l l 1 c c , f 9 0 = =   $   % a $ $ $ $ 1 . * + + : 5 I _ ",
"OX+X5X%X9X0XXX+X-X-X7X-X X8.+X5Xj.3.A.A.u.d.t.S.t.s.j.D.D.D.t.D.D.d.4.x.$X!.tX9XtX8XfXyXt.d.t.hX*X<.q.i.,XL b i.f.1.K.H.1.w.q.0.q.q.0.v.m.mXJ.B.,X5XZ.S.h./.a.i.r.,XW.!.T.W.B.H.n.B.hX,X,X;X/.hX,X,X/./.:XR.^.r.f.&.M.J O 1.w.w.q.e.7.q.y.8._.$X(.y.(._.(./.u.d.t.H.a o $ = p r o.] O.X.X.X.= X $ o.k $ 1 X n _.`.m.[ _ jXI $._ AXd Z ( ].k $ = ] O.O.d * = & * & & * + $ $ $ * * = = = $ ; = X X % % $ $ $ $ = ; ; $ $ $ $ $ $ $ * * 0 * & * * @ 0 * . > B z.m x M 4 h h , c x O e r e < $   $   % a $   $ o ; X $ . 1 O 9 o 4 ",
"OX@X5X5XwXaX>XOX-X-X7X#X X<..X<Xr.<.A.A.t.d.t.XXa.d.d.S.D.D.t.u.D.6.4.x.$X1XuXyX8X8XiXdXt.d.t.hX&Xq.2.i.(.L n r.f.1.H.H.0.q.q.0.q.q.,.v.m.mXJ.m.f.A.A.XXa.s.V.s.2.s.j.j.hXE.B.n.n.b.[././.j.i./.h.h.i.i.E.W.j.g.[.H.nXH O P 8.w.q.w.0.q.^.,._.$XR.y.`.!.).,Xi.d.r.M.f X = 0 a r ] ] O.X.k j u $ + o.] $ :   D ].b.B.E U `.b.h R T g g I m.k $ 0 k O.O.k = ; = * & 0 = * * $ $ $ $ * = = = ; ; $ $ % % $ $ = $ = ; ; % $ $ $ % $ = = = e * + & * & * $ > f :.V m x 5 1 1 O 5 c , $ q r = -   %   $ $ $ =   $ O @ $ $ . Y 3 $ s 4 ",
"|.@XOX5XwXwX.XOX-X-X7X#X%X<.5Xa.r.s.A.S.u.d.u.Z.XXj.4.d.D.Z.t.d.D.6.4.x.$X1X9XfX8XtXiXzXp.d.j.j.9Xf.<.j.E.J n r.f.q.H.K.0.w.w.0.q.q.q.q.c.J.mX].^.OX@X5X>X<XD.4.j.F.,XxX@XOX[.M.n.v.f.p././.p.E..X.X;XZ..X|.a.d.g.H.nXP O L w.f.q.w.0.0.^.f.(.!._.^.y.Q.(.,Xa.r.r.m.l $ ; - p s ] ] O.O.X.k a $   k k $ : @ 3 0.w.b._ 9.K jXU K f S D U.`.g   = d X.#.X.u i u = * & & & + $ $ $ $ * * = = u < % X X $ = e = $ $ ; ; ; $ $ $ $ $ % = = e * & & & + $ $ = M b B B x c 5 h g 5 N c = p j r X   $   $ $   $ $ $ 2 @ $ o > Q O X o h ",
"a.5X>XOX-XwX>XOX-X7X5X%X5X8.7Xr.i.s.A.D.j.j.u.A.<Xa.4.t.D.S.a.u.D.6.t.x.$XW.*XfXtXiX9XdXa.t.j.d.9Xj.2./.oXb H d.f.f.%.K.0.8.w.0.7.q.q.q.v.nXmX[.kXxX-X@X7X%X/.f.g.g.,.a.-X@X,Xb.M.C.j..X>X5XXXXX@XOX5XXXXX@XZ.r.f.K.J.1.O 1.w.f.q.w.q.0.^.f.1X!._.^.Y.`.(.4XT.d.d.m.h   * - 0 j s X.X.O.d k u $ + k a   ; z - U U.~ _ _.I c.U.H h A U '.U.g $ p k X.#.Z * a f i u = $ * $ = = * * * * = % $ ; % X X $ $ = = $ $ = ; ; $ $ $ = $ = ; ; e * = $ + + * $ > f c B V . O x B 5 , c 5 $ p l l $ %   $ $ $ $   $ : $ e   . 1 6 . O Z h ",
"T.5X<X5X0XwX5XOX-X7XXXOXOX8.7Xa.,Xr.@XA.j.Z.u.t.S.t.t.6.u.Z.D.u.D.t.t.2.oX(.#XyX9XuX8XuXT.t.j.d.-X/.s.h.OXb L s.y.y.$.K.0.,.q.0.0.q.q.q.m.H.m.j.@X7X+X+X@X'.) T 8 D 8 b b.@X>XB.M.C.h.@X5X+X+X@X@X+X5XA.Z.@Xa.4.8.K.n.~ O 0.9.f.8.w.e.q.~.r.4X!.).^._.1XR.4X!.d.d.B.5   = - 0 a s ] ] ] 0 1 % $ $ g g X % : & K U.^ Q `.[.K U ].0.'.U.b.'.h $ a k O.O.k   ; a a f a i j f = = = * * $ $ $   $ $ X $ $ $ $ $ $ $ $ $ $ $ $ $ = $ ; u u u * & $ * & & * + . V V B 4 5 B B x : : 1 > u k k = %   * +   $ $ 1 o > ; $ o 4 $ . g Y e.",
"%X5X5XOXaXwX5X|.-X5Xa. XoX8.+X+X4Xr.@XA.u.|.j.D.S.t.t.4.S.D.Z.u.D.d.t.2.W.).%X9X8X8X8XfX%Xt.S.g.9X,Xs.t.+XH ,.q.y.a.$.K.U 0.q.0.0.q.0.0.c.H.B.a.A.<X5XxXxXK 8 1 o 2 h c H @X5Xf.v.N.h.@X+X@X@X5X7XXX<XD.D.@Xt.j.q.K.H.~ 4 c.9.f.8.w.e.0.f.y.3X!._.).`.`.Y.:XT.s.5.B.5 + i $ 0 s p d d o.X.o % ; $ a g % $ o ; M U ! Z I 3X( _ e.f.w.K U ( A o 0 p X.o.k ;   i a a u = i ; $ $ * * $ $ $ $ $ = $   $ $ $ $ $ $ = * $ $ $ % $ $ $ = < e e * $ * = + + w 9 @ x B V V >.V V 5 f o ; % 1 1 g =   = $ +   $ g Z . * o * o 2 @   7 `.}.",
"#X5X,Xp.5XdXr..X-X7XXXOXZ.s.-Xp.[.y.u.S.a.OX4.u.Z.A.j.<.j.D.D.u.D.t.d.<.,X(.).&XqX4X!.0X7Xd.Z.j.oXj.f.r.j.J L B.8.f.J =.n.q.q.0.0.0.0.7.q.n.m.h.+X@X-X-X>XD e v ) < 2 v c >X-Xj.1.m.y.@X<X@X7X+X@X@X5XZ.XX@XZ.t.s.&.K.^ 8 q.0.e.0.w.q.c.f.y.(.jX`.).^.^.(.~.A.r.t.V.h   u ; * a s q d $.$.2 - $ 6 h r k 4 < . 7 / ` f l _ I U I ` / ( U R 3 s = i o.#.O.d $ $ $ $ * = = * < < ; ; = $ $ $ > f $ . i   $ = ; $ u $ * * $ $ ;   X =   * p @ $ = = & & 9 9 9 = , 5 N V x c x h , , c c , $ w $ $ $ $ $ $ = $ o X ; X 1 1 o . D vXY.",
"-XOX,Xt.+XuXu.;X-X-X+X+X.X<.+Xp.^.r.S.A.a.OXd.S.S.D.j.3.d.A.u.u.D.t.d.<.g.`.R.tXqX3X$X-XOXd.a.d.E.s.r.r.j.1.,.f.8.j.J =.n.8.q.q.1.0.q.0.v.m.C.,X+X@X@X@XXX%.3 8 T O 2 M n ;X-Xj.l.v.g.-XZ.XX5X+X+XXX<XZ.XX@X;Xt.s.H.K.~ n q.1.e.0.w.q.c.f.i.).R.y.^.y.^.).`.A.V.4.F.5   + = * r d u i Z A ; ; ; : o j ] k k o O D ` h ; C U ( I '._ ! ` R 7 w a * o.O.#.k $ $ % = * $ * * = = = ; ; ; ; ; . -.$.  X % $ * = $ a = $ $ % ; f $ $ = % % o   $ * $ & 0 & * r ; : 5 N V x c c 4 , , c c 5 : w $ $ $ $ X $ $ o X $ $ $ : o . . '.lXY.",
"-XOX,Xu.OX5Xa.Z.-X-X-X+XOX<.|.p.j.r.S.Z.a.OXj.Z.Z.D.a.3.r.A.u.u.D.t.d.<.j.`.y.yXqXrX3X#X|.s.u.s.^.q.8.r.V.s.7.r.8./.J =.H.f.8.q.,.q.1.1.v.c.m.hX@X<X-X-X7X5 P f.N w A G N ,X7Xj.N.1.V.7XXX@X7X@X@X@X<XZ.>X@X;Xt.s.H.K.~ F q.0.e.0.w.q.c.f.y.).y.y.).9.^.Y.`..Xj.t.V.M $ * w 0 e p u < g g f > 1 ; o g e ..a ; 1 / ( Y $ 6 U '.U I ! _ ` h 6 $ p q X.#.#.k % $ % = * $ $ * & * = = = ; ; < : l : X : ;   = = * a u = % : 1 6 : %   $ % X = * $ $ $ = $ & e a % , B V c N c , , , 5 c 5 1 e * $ $ $ + $ $   + = + i ;   $ % }.9.lX",
"5XOXS.t.|.0Xp.a.-X7X7X+XOX2.OXZ.j.a.S.A.a.a.j.Z.S.Z.Z.<.r.D.D.u.D.t.5.<.f._.!.yXqXtXuX7X+XN.u.s./.q.q.r.g.j.8.y.8.,XL =.H.f.,.q.1.q.0.q.B.H v.,X@X<X-X-X7X~ y.A.r., Z F c /.@XS.[.f.h.-X7X<X7X5X@X<X<XZ.5XXX;Xa.s.H.&.! F q.0.e.0.w.q.c.Y.y.).y.y.).f.f.^.Y./.s.r.s.T $ $ & u u a u 0 j [ : . 1 ; k A 4 s e & $ D M._ f S C ( U U D ` ` g h 1 = j X.O.X.A : % % ; = $ & * & & & = = = = = 1 1 : < o $ * * & + & $ $ : 1 1 2 O : = $ $ + r = = $ $ * $ + * r $ , B x c c x 3 4 5 5 x 5 1 e * $ $ $ $ $ $     $   a = $ o 6 ].U.GX",
"-XOXZ.t.A.sX.Xa.-XdXOX|..X1.>Xp./.E.S.<Xa.a.j.A.j.Z.Z.4.5.D.u.t.u.6.5.5.f.4X3XtXyXtX3XlX+Xd.u.<.^.8.8.y.j.j.8.f.8./.1.=.H.q.q.m.1.q.q.q.7.H v.,X5X5X@X-X5Xk.OXt.<XN.5 E v /.@XS./.jXh.@X7XZ.5X@X+X@XZ.A.OXXX;XD.s.H.&.! H w.q.q.7.e.q.c.^./.).).y.^.^.9.).Y.f.f.<.V.J a ; % u ; p p q ..[ < u 6 $ s g 6 j ; $ - 3 ( _ g S 1 Y ( U / A C 6 6 8 . s O.k o.-.< % $ = ; = * * * * * * = = = % < < a 1 % $ u * p 0 = e ; 1 g h 6 X e i o 2 2 ; = u = = = * $ * 9 X 5 V x 5 c c 4 5 7 5 x x , ; $ $ $ $ $ $ $ $ $ X X f * ; o 6 b.}.GX",
"-X7XZ.h.>XaXoX.X-X7XA.+X,X3.>Xp.;XoXA.S.a.a.D.A.S.Z.XX6.5.A.D.u.D.t.d.s.j._.tX-XtXtX$X4X|.d.a.3.^.8.s.y.y.j.8.j.8.a.1.=.H.,.,.0.1.q.f.[.f.c.m.hX5X5X7X-X7XJ j.D.t.g.n 7 R kX7XS.y.kXZ.@X>XZ.XX@XXX5XZ.XX>X@XZ.Z.f.H.H.! F q.0.0.,.e.q.c.~.y.y.).Y.f.~.9.).Y.f.f.s.F.l.k ; % ; = p s t t t k [ h h y w : j $ 2 k 4 D C g S S 7 ( I %.S 4 g Y I 3 9 g a g g i = $ % ; ; ; = * * * = = = = = < $   X f = $ = q p a k i 1 6 6 e w e > O D / 3 $ = = * = = = = & o N V c 5 N b 3 4 4 , x x , : $ $ $ $ $ $ $ $ $ o o a ; r o C I K K ",
"-X7Xa.a.XXwX.Xp.dX5X|.@XXX1.oXZ.:X>XD.D.j.Z.D.A.S.j.+X6.5.D.D.D.D.t.d.d.j.(.&X&X$X9X$X/.|.d.a.3.j.,.q.j.i.i.8.j.8.a.0.=.H.[.f.0.0.1.,.f.f.M.m./.+X5X7X0X7Xj.m C.D.S.C 6 n kXkXj.a.(.S.<XXXS.5X5X@X7X<XXX5X<Xp.Z.f.) K.~ b q.q.0.,.w.q.k.~.y.y.^.^.9.~.y.f.`.~.r.d.d.k.= : ; = 0 s s e i f [ l ( '.M 9 < k u % e e O 1 d g k D '.( E 2 2 k F U.v   - k l 4 i u = % ; < ; % $ $ * = * * = * * u = $ = = $ & + & = f % . . o * r = O C ( nXD = 0 = * ; * * = $ > N x V 5 7 x O 4 , , c x , % = $ $ $ X X $ X +   o i 9 * o 7 e._ W ",
"-X5Xr.a..X0X;Xa.dX+X@X@XA.1.T.XX;XoXu.t.h.S.a.a.j.a.A.t.5.A.u.D.D.t.6.d.t.).&XtX$X9X1Xh.5Xd.a.3.j.,.q.j.y.y.8.j.f.T.q.=.n.).~.7.q.1.q.[.f.M.m./.+X5X7X0X7XS.f.G k.V.G d c f.a.d.,X;XF.,XS.S.<X5XXX<XZ.Z.OX5Xp.Z.j.H.BX~ b q.q.q.,.w.q.1.Y././.Y.f.8.w.f.9.`.w.j.s.d.2.k 4 < e p d e : h Q M c ~.pXG > < $ p o e s $ < a g g D e.c.M e X 1 K U.) . 2 $ $.Q i u = $ % ; : % $ $ $ $ * * * & w & & = $ = = = q 0 $ i ; 1 g g 3 2 O R M.( _ Y a p e e e * $ e * , B x V 5 5 x , 4 , 5 N c , : r ; ; % X   $   * ; $ j r @ : 6 7.` a ",
"5X|.d.a.Z.-X;Xj.wX7X@X+XhXJ r.:Xf.2Xt.t.h.XXt.S.S.t.S.5.5.t.S.D.D.t.6.r.j.(.1X7X*XyX&X>XXXt.j.3.V.8.<./.f.B.r.S.y.f.).0.H.b.8.N.<.,.C.^.r.0.J.V.+X@XdX7XxXj.kXq.c.q.L 7 W n.m C.V.8.hX5XA.<X-X5X@X5XXXS.,XXXh.+Xt.) &.K H w.0.7.0.7.e.1.f.N.y.f.f.P f.).w.!.b.8.f.s.z.;.Q $.[ w < s * 8 ,X2.7.[.r.2.c y ; r   - a f f g 1 6 h e._ g d @ * F U.].O - 0 * i k k j a : o = r % $ $ % $ % % $ & & = + 0 * $ $ : g . o @ e % 2 & * & = k ; i k j p p e e p q t q , N c B 5 N V 5 O , c x c N 5 f ; i u u $ $   + O O k t 9 : G _ O a ",
"5X5Xd.a.Z.aXa.d.0X5X+XA.j.P j.:Xf.:X4.D.h.Z.a.S.D.t.Z.4.3.u.D.D.D.t.6.r.j.R.$XtX*XtX!..XZ.d.a.<.[.7.f.y.f.B.r.j.^.g.).k.&.q.7.1.q.,.P b.1.nXJ.V.a.7X5XdX7X<Xf.) 7 &.H.D n n n.C.v.B.{.hXkXF.<XxX<XOX.Xa.+X>X/.a.y.&.H.L b q.0.7.0.0.e.1.^.q.Y.^.~.7.f.).f.f.^.q.<.V.kX`.%.9.) ' - r ; 6 ,.y.q.B.N.2.I 3 o u ; 2 . O.p a A g Y 0.( Y e : + 7 U.`.D - & $ O k d p s a 2 o $ e e e 0 0 w w 9 * & = + = $ $ & 9 i f : i * +   o o o o O 6 6 h 4 : e p q r 0 p r , V x V x N x 5 , 4 c x c c c 1 % < e u $ $ X o @ $ O e . D D g g s ",
">X7Xr.t.a.-Xy.8.qXOXXXXXt.8.:XT.B.,X4.S.p.Z.a.D.u.D.S.<.3.u.D.u.D.t.6.6.j.R.1XuX&XtX!..XZ.t.a.<.[.8.q.r.r.8.i.f.y.f.r.b =.,.q.L 0.B.v.) 5 8 &.mX2X@X7XzXXXXXSX_ Q 1 n mXnXK MXNXNXSXSX{.hX<X<X7X,X;X/.g.:Xa.j.u.j.H.BXL b q.0.7.k.1.e.1.^.8.Y.Y.^.8.8.Y.9.^.y.N.q.a.+X3Xq.8XL ..p j & e b sXhX/.q.1.,.I 3 $ i 1 $ k ] k h 2 Y 0.'.( : o + 2 '.{.! . = e $ $ e r 9 f Z Z 1 > $ ; * d q w w $ * = $ = $ $ * t o.$.4 . o $ $ :   o o . 1 : l &.h = w t s 0 0 r 5 B x V x N x 5 4 4 c x c 5 c , % < = u $ $ $   e 9 $ X g Y ` h a w ",
">X7Xr.t.u.7XT.f.iX%Xa.Z.t.).oXa.B.hXt.D.u.a.a.a.u.S.j.<.<.a.Z.a.S.t.6.5.d._.1XuX&XtX$X>XZ.u.p.r.j.f.8.^.y.8.,Xf.9.q.8.H K.8.0.e.0.,.q.T X . 5 M.1X+X<XxX<XlXGXFXFXF m.SXZXFXZXGXGXNX{.[.kX@X-X5XhXg.r.d.r.a.d.d.f.H.BXL n w.0.7.k.1.q.1.Y.j.W.Y.^.~.7.Y.9.Y.f.8.s.oX.XkX@X7X~ s o X 9 w Y 0X+XgXy.l.2.f.L o . ; $ - < k a 2 E 9.c.c.D > o 1 ` m.! O ; + 9 X $ 0 e f l Z Z h h h 1 g = 0 a $ * & * 0 & & & j ; O 6 6 6 6 6 a * = ; $ e ; j W g r q q q 0 0 z 5 B x V c N 8 8 5 , c x c , c 1 : 1 < u $ $ $ + o   & f 6 Q U _ 6 t ",
".X7Xs.j.Z.5X*Xf.iX&Xa.h.j.uX+XQ.B.hXu.A.a.S.a.a.a.S.t.6.d.Z.Z.a.D.G.d.4.d.W.oXtX&XtX3X2XZ.u.a.r.f.j.8.).f.y.a.f.f.q.f.m.&.8.v.7.q.q.v., < $ : m./.<X<XkXkXGXFXPXNXK {.{.FXZXZXGXNXMXmXv.C.hX5XkXhXj.t.d.;X5Xj.V.r.H.BXL n w.7.7.c.0.w.q.)./.(.f.~.~.,.f.~.^.~.7.f.s.,XzX:.5.c [ 1 < <   8 b.lX!.Y.v.:.3.L K 5 > * i . o O.g Y 9.0.0.) : o o _ U.0.5 + % 2 % $ $ = e e f g 4 A $.Z o.= & & ; e $ * 0 * 9 & k ; a o.-.h Y 3 % : 2 o o : < - l r q 0 = e q t r 1 b n B c B 5 c 5 , c x c 8 5 , 1 i < a * $ $   o . = f D _ h < C C ",
".X7Xr.j.j.XX#Xy.qXtX:XS.Z.$X%X(.v.^.u.t.h.Z.a.D.Z.S.t.t.S.D.Z.a.D.G.d.4.s.Q.!.uX8XtX$X5XA.d.t.s.y.y.f.y.f.j.a.s.7.H 1.M.) 1.v.8.].v.~ h X X z H.hX,XkX,X[.SXFXPXnXMXZXNXNXFXZXNXNXmXmXm.C.kXOX7XS.Z.V.k.v.8.1.N.y.H.K.K H w.7.7.0.0.w.q.).h.E.f.f.w.J 9.^.Y.{.8.2.kXfX<.>.3., | @ w $ $ 6 l n F b.L v.7.I 9.c.h 9 r : O Z : R b.P 7.nXh o : / e.e.Y . d f = % X   & r r = ; e a 9 s w q q a a + & 9 9 q w @ t ..s e > h g = < : : 1 < a e [ t q - - u q q a 4 c x V c N c c 5 O c x c 5 8 1 4 1 < f = $ $   % = : 3 I.7 z j 1 / ",
">X-Xr.t.u.>X0X^.iX-Xp.j.t.T.7X/.b.^.u.D.Z.S.t.A.Z.Z.t.D.Z.D.Z.t.D.t.d.4.s.$X$XuX8XtX&X7X|.d.t.s.r.f.V.y.f.f.a.f.G 4 8 ^ n.J {.w.8.L 5 6 < < 4 n {.j.F.f.{.ZXGXPXI.ZXPXCXSXFXNXNXSXNXmXmXc.kXOX5XXXhXl., O 8 b m 8.) =.K F v.0.7.0.0.w.1.f.;XR.g.Y.f.q.f.~.Y.q.s.[.vXvXx.F.:.b %.5 9 0 r % * r 4 0.{.q.9.1.8.f.c.O ; * g 6 M 7 I I e.D 4 l h 4 n c.%.- p ] ] 0   % 0 @ + & 0 & @ @ q q w & a j @ 9 9 w q q t [ [ =.$.g % %   > % : ; : * p i 0 d d 0 & & w s f N x x 7 N c c 5 , c c c v 8 , 4 1 < f = + $ $ . 0 . C C O F 8 a Y ",
"5XuXd.u.a.A.wX4XfX*Xa.F.a.W.7Xy.m._.t.D.S.S.t.A.A.S.D.Z.A.D.Z.t.D.t.6.4.s.lXrXyX*XtXrXuX|.d.t.5.r.[.q.f.8.w.a.[.G * $ E H.H 7.8.7.) f f e 2 $.) jXV.B.mXNXIXGXPXAXFXFXFXSXFXFXZXZXNXMXmXnXC.kXS.hX[.F : - h E , 7.! K.L n c.0.7.0.0.w.k.f.5Xa.f.Y.^.B.f.Y.~.f.s.*XeXE.XX6.5.Y.!.[.3 o > g Q 9 E ^.5.d.qXd.3.j.8.P 3 0 r $.$.Y ].! c.D r 2 4 8 U.U.E X.d g ' t $   $ 0 0 - $ $ = = $ $ 0 0 * a + r w w t t t t d f 6 4 O > O 4 h 7 7 Y 4 g Q g d s s 0 & - w p c x 5 6 N c x 5 4 c c c Y 8 , 4 f < f *   $ . r   o @ @ R `.U.: 6 ",
"T.uXp.t.D.a.5X*XiXtXE.a.a.,X*XY.N.1Xh.d.D.D.D.t.S.S.t.Z.Z.A.A.t.,Xd.4.r.f.2XtX4X$XtX7XuXT.r.r.B.a.y.B.Y.q.Y.d.*Xc % * N n.1.v.q.0.&.% Z : > 4 nX{.d.J.FXmXFXFXPXAXFXFXCXFXFXZXZXFXFXCXZX].m.<XkXB.XX~ > :.c > : P q.=.%.n ( I K 3 b b.c.`.5X/.7._.^.j.Y.U.).y.y.uX.X5X.Xd.>X5X#X-XJ 9 o g p 6 SXp.N.J f.5.P V.V.P k.c c [ Z Z 9.L K 8 @ = o 4 R ` ! g o.k s s w + * * * j d p = $ * ; ; ; r p 0 0 p p w w r t w Y D o X O @ e.9.w.5 ! K 7 k a ] p p * e 9 w z c 8 8 V c 5 c c x c x b 5 4 8 , f u f %   + @ . o j o C h ~._.n p ",
"T.7Xp.u.S.d..X*XqXuX:Xp.S.p.&X`.B.(.j.u.D.D.S.a.D.D.A.Z.Z.D.A.t.S.G.t.d.j.oX&X4X*X9X3X9XW.D.G.d.8.v.s.d.s.j.g.U.O $ : 4 . H c.0.~ 5 $.1 %   : 1 mXB.mXNXZXFXFXPXAXZXFXZXFXFXZXCXZXnX7 ) '.n.S.S.hXu.1.B z.x B b <.v.&.! b q.c.3 e $ 3 0.+X|.^.0.`.y.f.y.~.~.q.y.7X;X;Xa.5.j.0X.XE.f., $ O > {.[.3.P c.P P B.<./.7.P b.9.R C E ].~ D 3 & o * 4 O O E f j ] = u 0 * = = = a j j j k k k d d o.] d d k ] s q ' p < : 4 O l y @ I w.'., T K 1 g u ] d d u e & w z N 8 8 V c 5 5 8 c b b c , 3 5 5 f u a o o * > X o = 2 W , ~._.G a ",
" X5Xu.d.S.d.a.%X8XuX:Xu.D.a.1X_.B.j.t.A.D.D.XXD.A.Z.A.D.Z.A.Z.A.D.G.G.G.t.W.&X4X*X9X$X9X$X6.d.v.M ) L B q.r.c.3   O f o < M ( K T 5 E $.  g > @ , L nXMXCXFXFXPXMXZXFXPXZXZXFXFXCX2 f h n.n.V.S.<XZ.N.l.>.>.z.b hXv.=.( J q.P > 5 M ; G hX+X^.q.!.y.N.f.f.U.f.).|.a.5X/.<.f.#Xr.d.hX8 0 4 f f.N.J q.,.v.I 1.u.f.q.k.7.P R Z h 7.c.K Y 0 + w $ : e s o 4 2 Z Z Z k k k k o.o.o.Z X.X.X.X.O.X.X.k k X.] d p 3 3 f 2 C D 7 > : ! _.I > G D @ < u k k d j u & w : N , , c c , 5 c c b n b 8 5 8 5 f u < o X $   X . f g 6 O ~.rXG a ",
" X%Xu.d.a.s.a.$X&X4Xi.t.u. X4X_.B.s.s.A.S.Z.XXZ.A.Z.A.A.S.D.Z.A.D.G.6.d.6.p.&X3X*X9XoX9X3X5.v.! . 2 3 > G f.O $ 1 4 @ u 2 > F 8 N > E f : : % s . , H.nXZXZXFXPXCXZXZXPXZXCXZXZXZX1 s l T n.V.hXS.<XH N >.V x , b.m.=.c.1.0.P L.:.:.M R [.4X(.8.).f.s.f.9.U.,.j.Z.S.,Xj.q.B.u.5.8.j.n : f % T T K c.1.r.,.2.j.<.1.J 1.L M E 6 0.L n.n i : - % o % Z A A A Z $.o.o.o.X.Z o.O.$.$.$.$.o.Z A o.O.O.o.O.X.a e > M 5 % $ O n U G ~ Y.7.( U : 1 ; a j j p k p 0 w : N , , x 5 , c c n n n b c 5 8 5 ; 0 < % $   $ . . l E X 3 `.`.G a ",
"oXOXu.t.a.5.u.E.3X4Xr.j.j.%X4X).B.s.d.XXS.Z.;XXXt.Z.D.Z.Z.D.D.A.S.D.6.d.r.u.%X3X*XtX:X8X3X8.H.Y 8 4 a 6 D m.: = 1 h $ s 2 % E $.> -.Z . g > 2 * ; + N nXGXZXPXPXCXIXFXPXZXIXZXCXW u & E ) n.V.j.[.q.O ] m , > O 8 BXK.n.L ,.~ ^ x c O 3 r.g.!.8.f.q.q.~.8.9.7.h.XXkXXXu.q.q.d.s.3.j.1.4 $ : @ f ) J 3.8.<.f.r.<.8.<.N.c.z E W 0.I L ! o > o   4 7 W E $.$.Z Z Z S X.X.X.X.X.X.o.o.o.o.o.Z o.o.o.o.$.O.k p R '.G 1 d h G ` '.Y.B.Q.U.P 5 o % a d d p k j p p ; c , , c , , c c b b b b c 5 n 7 ; e u a i   % . % 3 A e 7 `.`.I > ",
"oX2Xu.r.a.5.j.a.1XE.r.j.d.2X$XY.B.g.j.Z.D.p.Z.,Xt.D.Z.XXA.D.A.D.S.d.4.r.r.j.7XuX*XtX:X&X1XH n., h A d k 7 8 7 6 h *.g . : ; O f % g X f . r O 1 . w z VXFXZXFXPXCXPXPXPXZXZXZXZX3 a a 7 Y n.B.S.C.1 a M : = o & o E -.n.P n.5 . r z X ; L <.*Xy.q.0.8.~.0.8.B.j.r.r.d.s.m J r.d.2.Z.s., 1 > s O.v m.l.0.q.q.B.,.9.^.<.P h $.-.( U ( ! o @ 1 = $.&.W h $.o.$.$.o.o.O.O.O.o.O.O.X.X.X.] X.X.Z k Z k $.O.O.X.G ) %.o.j < a y 8 Y.[.f.jX9.8 & o a p j j Z k k u % 5 , 5 5 5 5 b b b b n b n c b M : u a k l % . % $ O h + D `.{.b.5 ",
"oX2Xj.r.j.5.r.p.4Xi.r.t.t.,X!.Y.B.^.u.Z.A.h.r.XXA.Z.D.S.a.D.A.A.u.t.4.d.t.t.7XuX*X7X:X$X$XH B.c & 2 , c 7 5 n N 7 l O O = : : o . ; : , ,   7 h $ & M ZXFXFXZXPXCXIXFXPXZXZXPXnX1 a 2 h M %.B.xXk.+ Z 8 4 2 @ p 6 o [ H.M.f 4 o $ % e + T 8.&Xy.q.q.0.b.0.v.z.1.2.k.J J B L r.a.q.u.<., : 4 i [ W b.1.1.c.v.s.P q.q.3.0.l h E N E f h o 6 g $.$.$.=.W E $.E E $.$.$.$.Q E Z E Q $.$.$.O.$.$.$.$.Z $.Z o.o.E $.E Y A k Z _ &.I w.7.~.^.n 3 o f p d d k k k a 1 5 , 5 , 7 v b b b c c b b b b b : u a o.$.f o u   Y Y + ! _.U.U.e.",
"oX5Xh.r.S.<.r./.7X).g.t.j.hX*XY.C.W.u.S.Z.hX<.a.S.<Xt.D.D.D.A.a.t.G.6.D.D.<.OX2X!.3X,X3XrXy.G.S.8 $ 2.A.M.T M.z D 4 M 3 a : 1 O a s 4 x V 5 W O % X 8 DXIXFXCXPXZXZXCXFXZXZXMXBXf a o h l h V.S.H 4 1 , n.4 . 1 O z i ( 8 f 3 a - 1 r : 5 j.2X8.f.U.L 0.7.7.w.9.~.].e.b.~ L x.a.y.V.s.T ;   u O.W ,.d.F.L q.f.{.v.m s.P f [ Z O.a ] l a o o E =.$.&.W W $.%.%.W Z h E &.H.H.H.H.) W E E $.-.$.$.A $.Z o.Z E Z g g f k 6 n.$.G 0.U.9.^.w.K : f u p p p k ] k Z M 5 , 3 D n b n n c c b b n n b O a g $.-.g ; . $ ) A 9 K `.].9.U ",
"R. XE.r.j.<.5./.7X*X,Xr.d./.#X/.w.jX+Xa.v.5Xt.d.Z.p.p.a.D.A.D.t.a.t.d.4.S.B ,.-X#X7X%X#X&X&X8 ~ n 3.u.C.m z.y.b N ~ x N 1 : f ; 1 . h 1 , x . 2 > > N BXFXIXFXPXZXAXCXFXCXZXAXBXg 2 2 a l T M.d.I f 0.! nXg o > a : : l o 4 : O o < = = f k.#XF.f.9.1.1.!.lX8XuXyXpX}.`.}.{.f.a.u.s.q.J M , R $.$.h 5 K J c.F m.J J j.k.l W R M n.b.U I 5 D Y W %.W Y E E F R D h M n Q &.) ) _ _ ! Y Y W D ! _ $.$.o.a d h Z o.o.h h k Z U.F v U U.].9.e.e.M z X d d ' A / $.R n b 8 4 n b b b c x b H n F D * p k ] k O.0 3 W Q *.> P }.U.U.].",
"E.$X:Xd.a.5.r./.tX*X:Xr.j.:X%XR.v.jX-Xr.2.5Xd.t.a.a.t.A.S.A.u.r.j.r.d.x.3.m f.zX*X4X2X!.uXxX3 X m D.B.2.G 6.).^ : v 5 z o o 1 : g O 3 , M B 5 O g h f LXPXPXVXZXCXZXZXPXZXFXn.H.h < 4 , 7 %.l.d.b.z H 3 O 4 : o o 6 1 4 f < g o g ; u 1 : P /.p.Y.lX[.).].pXpXbXbXsXcXvXiXg.<.V.s.y.,.n.v.%.g $.$.% g R ^ n h ) P q.7.F v K K c.`.Y.,.P e.0.0.I P P P ( F w.b.U c.b.e.0.I I L L ( _ ! K K %.) _ E o.o.k X.O.W Y Q 6 6 f M `.].G P 9.9.Y.w.Y.K F 4 & a k g ! l Q D n 8 c m G n b b c b F G K 8 o p d 1 k f $ Q W $.O.4 U.`.].U.e.",
"(.%X>Xd.a.r.r./.&X*X:Xr.u.oX%XY.M.{.&X2.y.j.y.$X%XS.d.D.a.A.S.5.d.d.5.N.s.3.,X9XQ.kXlX!.rX#XD ! 3.d.1.J 3.4.8.Y 1 1 f $ X : : : g 4 , , , x , : M K.) IXIXFXCXZXZXNXVXVXK.nXBX&.i * u g h Y c.F.M.% O $ e O % g 1 o O g f f a ; < i 1 : 4 H W.g.f.iX!.).q.f.rX`.}.rXY._.}.w.0.N.5.3.1.L e.&.7 W E h W ) &.R Q Y Y c.,.F 8 N ~.9.f.{.B.).0.0.c.c.0.0.( ^ M F T F ! ! ! ) R / R R W W W W R $.W W $.O.$.$.O.o./ R f @ r ! Q.`.`.7.w.].9.Y.].Y.7.`.( 8 Y 1 f ! h A Y , 5 v c m J m m m J H F ! v 3 r e 8 $.g g %.%.$.k 7 U.`.e.U.].",
":X3X.Xr.j.d.r.i.$X&X;Xr.t.|.:XQ.J.mXR.s.XXA.).H H 4X<Xd.S.A.Z.r.u./.r.q.b./.$X9X3X4X1X*X8X$XH t.6.q.<.3.6.s.H : Z h [ $ o j f > > f 1 5 c c z f &.J.DXmXCXFXAXnXVXVXBX%.$.h $.A l g 2 % l h mXhXm % + $ & g : f f l M g g Z 6 1 ; f 1 O l v 9.B.l.^.r.r.7.m.f.f.w.F f %.K.M.n.1.l.k.'.U M.}.]._.].{.}.{.U.AXmX&.&.c.1.T 8 5 T ! K K N F G v 7 v v 7 3 g i = s s g g k O.O.$.$.$.o.o.o.o.$.$.E E o.X.o.k k O.g : > D ( ].!._.Y.~.~.0.9.Y.b.b.I Y.7.c.e.G 7 ` %.R n ^ ^ 8 4 c b b H b H b h 5 C g 0 1 A / [ Z Q %.$.g D U.`.U.b.U.",
"(.3X.Xr.a.t.r.u.$X2Xj.r.t.a.,X_.].m.b.R.Z.+X7.: % U j.d.D.D.t.a.y.f.w.mXH.hX*X8XtX7X&X*X&X[.b n 3.4.5.D.5.! M e g E l . % > : O O M M T ) &.T %.VXAXmXDXJ.mXJ.J.nXBXA < k %.%.K.T 3 ^ ^ v o.&.n > 1 p : g f l W v H BX%.X h 4 O E 4 O 1 % M q.V.s.C.[.a.{.8 F b.H g d & A K.0.c.k.e.e.L 0.!._.8X1X_.!.jX9.0.) BXH.B.~ $.h s Z E g 4 h Q E $.Z l o.o.k o.O.A Z o.A A Z $.Q $.$.$.$.$.$.$.$.$.E Q O.X.k g Z [ ; : D 9.Y.Y.).).y.w.7.P e.Y.L P ( 7.9.b.B.U U ! ( ( G ! R 7 $ o X ; % : O 2 o $ O 2 p i Y R k Z W %.$.k F `.`.`.b.U.",
"(.3X:Xr.u.r.r.j.2X2Xt.s.d.a.4X[.Y.m.J._.r.g.n g S o b V.t.D.r.j.q.b.K ^ =.b._.$X!.7X%X!.4XE.h g B <.1.v.v.W > l 4 3 , 5 f : %.nXK D D ) CXMXAXVXBXnXmXJ %.J.J.J.C.K.h ; g Y T &.W 4 N ^ ~ =.) . 4 : i : h . . F m.c.H.&.a , E 4 5 T v O 1 M 7.p.a.j.V.r.V.i o 2 6 3 3 1 O J k.C.8.f.v.B.~._._._._._._.].~.H.H.H.U.W.q.F l j g j $.&.=.BX=.=.=.=.=.JX=.=.&.%.=.-.-.$.$.$.*.$.$.$.$.$.-.$.Q $.Q W O.X.o.E $.$.8 3 I w.[.y.Q.9.~.7.e.( ! e.K P n L {.^.q.8 D I P ( A S h R D 1 - p w = $ u p = = 2 j $ D $.f Z &.%.$.k v `.Y.U.U.].",
"1X%X.Xr.a.a.r.i.$X7Xu.d.d.h.!._.W.m.BXe.1.b.5 o.1 o n 8.d.A.t.w.~ H.b c c F c.[.i./.y.^.{.!.g ^ ^ H.D E l.m.K N . E 4 O l : 7 nXAXZXZXCXAXAXMXnXVXVXm.VXA 6 W L.z.z.b M M M Q A Y f o h H.&.( q 4 f E f o g $.Y _ H.nX&.4 g : Y F L c.! 7 D 7.S.a.a.j.j./.4 2 + g E r ; y n L.v.<.3.l.0.e._._.`.`.`.{.U.].K.K.n.b.y.a.<.$.Z h $.%._ &.! ) %.&.) W &.&.&.W ~ ( W R R Y Y $.Q Q Z o.O.$.$.$.W ) W o.X.o.E Q h F K e.y.1X^.[.~.w.7.w.I F e.c.c.3 F G `.P . > 7 U T p X.] F ].v O ; u ; : r r ; 0 a ; O Y -.g o.W T Q k 4 U.`.U.U.w.",
"4X&Xa.r.,X,Xr.y.!.7Xp.t.t.,X!.W.4XC.K.F ~ W O Z O 6 v 1.t.D.r.L c %.m.mXG f v q.V.g.y.B.P P J 1.z.&.h H ,.6.f.W < 1 o 3 l j . ) ZXFXZXZXFXIXFXFXIXIXFXMXCXg : N &.ZX_ &.T 6 T ) ) W W %.H.m.U w O l g r X M $.  ; h %.=.4 . a O F 0.w.L b U v.V.r.j.d.XXh.X : M h 3 O 2 6 v ( ! %.%.^ ~ 0.1.,.~ b.I n.'.n.&._ &.s.s.j.^.b 4 W W R ! ) ( ( =.-.&.%.&.%.=.=.q.e.( ! ) ! K R R R W $.$.$.$.&._ H.&.k k $.Q W g K v.f.!.Y.~.Y.).7.w.~.P F I P L M.8 5 e.H & - w G T g S ] v P e.8 . w & 1 1 1 ; X 9 O Y %.W l k R R Y d h 9.`.B.U.U.",
"(.$X1Xh.h.g.4.j.W.3X/.r.r.a.*XW.j.V.n.g Z 2 , O 2 d n s.d.D.r.K l T D R m n $.n f.,X,X8.H ~ P P s.x.3.k.v.x.D.,.7 f : h F h 5 %.&.BXBXZXnXnXMXVXnXZXPXLXmXVXmX^ _ PXPXVX&.^ W 6 ^ z.L.%.=.m.mXF . a o h : : . w < . k BX( > f o 8 PXZXnXAXnX=.BXm.a.a.hX3.F b a.H o a v 4 g P f.B.1.k.N.v.nXK.) ( H.nX'.m.k.N.z.v.8.8.).2.z T &.W %.%.) ~ %.-.*.-.JX=.-.=.&.E E D Y Q A / ` / W / / &.&.=.&.&.%.[ [ o.C R E K 0.U.Q./.B.Q.[.w.9.9.0.b c ( 1.7.k 2 T 5 3 : o 5 $.A W j 1 K 9.I F 5 , 4 : a < 6 M M &.E 7 Y D Z $.Q a i _ `.`.w.w.",
":X$X:Xr.p.h.r.y.oX3Xp.d.r.h.Q.1Xg.f.F o 1 g . ; A 1 8 q.G.4.t.P W W O g v $.k 8 {.m.! ~ L v.m.P 3.3.2.v.1.1.d.<.! 3 6 4 n.V.s.C.z.~ ^ %.Y j l -.=.CXZXFXNXmXDXZXZXZXMXVXBXJ.M < v ~ ~ H.m.{.{.mXBXW / -.= O j . 4 O O BXFXQ 9 @ 6 NXMXMXAX'.BXBXJ.r.t.r.1.[.d.G.5.c C < 4 8 n.v.8.<.d.S.P ~ w.B.l.8.b.n.I f.e.[.jX8.1.s.i.F G R _ Q Q R _ T W W $.$.$.$.%.-.A E Z l Q Q Z Q Y v H c.'.H.=.H.&.%.k k o.A T Y P P 0.Y.,XV.Y.~.e.0.e.e.J n F e._.J G H v 6 2 o 8 Y 4 Q Z A F U ( ( I I 0.J F A 3 7 Y E A A Q $.$.$./ 6 : R 9.w.U.~.",
"4X!.4Xr.u.a.j.y.oX7Xu.j.d.d.Q.1Xh.f._ 6 : 2 $ g 3 4 F ,.t.D.t.{.R O 4 W n 6 O ^ b.3 p M ,.5.B.mXv.2.<.3.k.1.d.5.z.8 1 3 v.6.3.x.x.x.1.v.2.z . s -.LXCXIXPXmXNXZXFXCXVXVXBXJ.W g M H mXmXI ~ mXZXIXPXZX6 > 1 e o . O 6 k &.IXI.C nXNXnXNXAXmXAX$.Y J j.<.n j.5.6.d.5.H g m m M.~ 2.u.,.J ~ B.9.7.C.f.T ;.~ e.w.Y.f.B.^.<.,XL H T R g $.%.) ( M.'.U.U.c.! T $.;.Y ! ! ! ! ^ F T T ! ! R W =.H.&.%.A S o.E T W w.B.b.^.,Xj.f.!.9.0.e.Y.9.U P K P P `.w.e.8 . 3 F Y g Z k k h Y Y C D P L K b Y Y v 7 Y E h Q E Q R _ h % K `.U 9.Y.",
"1X$X7Xj.u.a.j.u.T.7Xh.d.t.d.4XT./.q.&.6 O 2 F H O g ~ <.5.4.d.P 1 $ 5 1.r.L x L.m.D f N <.6.2.n b n.2.1.F 1.N.5.l.H O 1 F F.4.5.N.N.x.x.2.H 3   a BXFXZXIXZXMXVXZXMXVXVX=.K.Y 7 5 B v.n.c o 1 g A I.I.O $ 0 : O - w : $   3 FXGXGXNXGXMXVX^ W 2 a T N.1.) t.d.<.q.2.3.J <.,.^ L.f.s.L K K.z.H.'.0.^ *.$.8.v.q.8.v.c.7.q.q.2.3.1.v.v.c.v.w.'.].].U.].].{.'.I._ Y W W M Y ` W Y A $.&.&.&.%.&.&.%.E A $.W K ( 9.7.P 9.:Xj.f.!.9.q.q.9.Y.9.0.~ O n ~.w.4XJ f m.B.D k Z E Z T A Q E Y W Y Q A Y 7 Y Y Y R W Y / _ I ) h > Y U.) ( I ",
"(.&X:Xf.u.p.u.j.a.2X,Xr.r.d.,XQ.kXv.R O g K ,.3.H v P t.5.u.s.H h g ~ r.D.t.:.x v.M.3 v ,.5.2.c 1 5 M.b h 3.2.N.2.l.5 a 3 3.2.s.5.5.x.C.z.k.7   X T ZXZXIXFXZXCXZXCXVXBX=.K.D 3 l B 1.k.%.$.k o.; 1 1 % > : .   : > + ; : 6 =.$.R _ R %.1 : 4 4 3 b l.l.Y r.Z.4.8.N J ,.,.K U n.s.Q.b.1.s.2.%.%.c.M.W K V.2.<.q.w.c.B n.7.M.'.'.U U.}.'.'.'.'.{.mX'.U.U.U.'.`.}.{.e.( H.%.X.Z E ! _ _ &.&.&.=.=.$.Z $.^ 0.U f.~.]._.W.a.Y.).~.B.q.q.f.f.e.[.D 8 F T e.~ 8 9.9.G k Z Q C D F F D T ^ T Y 7 E g Z E R F ! K 6 F ` ` A e o.&.=.-.-.",
"1XrXE.r.t.p.r.j.a.1X,Xr.u.y.i.!.,Xm.7 O h 0.,.2.l.m m j.d.t.d.5.n 3 ( ,.1.5.z.x k.C.v 7 L x.C.F a 1 F D a 1.2.B.2.l.N = 2 : N m.x.6.d.N.1.k.c r a > ) ZXIXFXZXZXZXZXZXBX=.nXW g A F C.2.m.~ ~ %.%.E $ @ = o d M f.s.N k . -.: . % O o 3 5 Q 8 F ,.2.,.H 8 8 0.G.4.v F <.J L J 3.j.q.J 8.>.0.e.9.f.V.1.1.d.2.8.m.e.'.H.'.'.'.'.U.{.'.].U H.e.U.'.'.'.}.}.}.'.'.'.'.'.nX_ C $.W _ ( n.M.n.n.&.K.K.%.$.%.) c.].~.w.7.U.R.`.Y.^.Q.Q.8.8.f.Y.^.Y.7.I F Z C 4 F U.'.W p a 6 Z W Q Y C G K F D 7 W $.E h ! P L P k E R W o.w d &.-.-.-.",
"4X3X:Xr.j.p.d.j.a.W././.E.E.^.W.f.^ 6 2 O b k.2.3.z.,.h.d.u.4.6.K O v v.I J.:.x J V.~ O H x.<.l.1 u 3 7 Z ! l.v.v.3.^ : a d 6 M J l.C.C.3.1.%.l l   W PXZXFXZXPXCXMXmXK.=.mXN f 6 F k.3.,.2.1.v.J.%.$ 9 X w f nXA.r.~ 1 $ N '.I b N ( U L ) I f.t.r.2.J b 4 ^ B.,.U b ,.B m <.B J L J l.J M.8.f.s.hXy.r.r.v.v.mXJ.c.U.`.'.U.'.U.U.U '.U ) U.U.I ( '.'.U.U.U.{.mX'.'.) F ( L K U ! _ ~ ~ ~ ( '.nXH.&.&.&.&.M.w.b.c.b.Y._.b.).!.Q.9.w.Y.Y.].~.f.].G 6 4 $ T '.H.l k h A E D A Q / R D F v Y F Y Y M F L m.K Y M E $.[ w a =.=.=.=.",
"1X*X7Xj.j.p.j.j.R.W.i.hX:X1X/.W.~.T g C 3 6 k.3.m %.s.A.8.t.S.g.8 d M m ].z.m V 3.F.].T ^ x.4.2.7 d 3 5 1 g k.3.m.k.! 5 f O 4 6 6 v ) v.2.k.^ > g ; 7 ZXZXFXZXFXAXMXNXVXK.nXY 1 7 n J.z.~ L M.c.P ! > + o $ , q.C.2.3.m O ^.y.j.r.<.s.5.5.q.,.r.t.8.J m >.3.P F G k.N K H H H b ! ( q.f.M.w.q.L.k.m.,.l.2.e.H.( ( ( M.( '.e.( n.m.( _ ! ( H.nX_ F F T N N M 8 D ! ) _ K ) ! R K I L G R / L w.w.M.K.=.=.=.&.c.b.~ n.Y.Y.J 0.e.q.1.k.P G F F P 7 3 , T $.K M.H.4 / U ( _ ( K K K F T %.T v P F 7 v T ! ! T R ! ! Y g 1 = $.&.H.&.",
"$Xf.[.i.y. XW.).j./.y.Q.1XE./. XI a 8 n A 1 v B m m w.d.d.d.t.B.n 6 d 1 H 4.m m J mXmXR B G.5.l.B 2 2 g g A C T H.~ n Y 4 4 h h g A 7 J.<.l.v.! f . ~ ZXCXFXFXFXCXmXZXCXBXnXM ; g O c.q.l.n z.^ 7 O $ - :   O L q.8.B P v.f.<.d.t.2.1.q.2.K <.r.d.q.,.k.Q ^ J J m L T %.:.V J k.n 0.V.w.r.v.1.q.s.3.3.3.s.B.f.w.L k.L.M.m.b.I c.,.N.C.M.H.H.K.J.m.~ D Y N T ! ) ) T _ nX&._ _ W W W Q Q Q L e.I H.K.K.&.K.&.H.^ _ M.m.f.f.P 8 : 7 4 3 . e 6 o O z > o.CX[.Y.H.7 D ! P ! $.G ! K G T L P K ~ ^ ( %.^ P h S K F E $.Z u ; f w.W.y.",
"W.^.[.).u.,XR.4X(.E.(.(.j.^.f.(.K 4 v J T 6 g 8 ^ P 1.f.5.5.t.B.7 6 4 1 v k.k.m n H H.) 8 b v ~ J.Y : N T h Y c ) H c Q 5 M &.M Y 6 8 m.C.l.C.H N %.mXmXCXFXZXFXZXMXZXCXBX&.h f A 1 k.1.J ^ L 8 + : o - = - 5 S.d.3.H n F.<.N.r.r.3.2.,.2.L V.r.s.2.3.M.&.&.! b m J %.%.F m :.m n ~ v.q.q.B.<.3.5.N.v.v.m.B.w.~.9.~.f.8.9.y.~.{.0.8.f.V.q.<.d.q.f.i.w.! K c.c.~ n.c.U.b.n.0.c.c.~ ~ ! W %.%.&.&.=.=.K.H.H.H.m.~ n n.y.$Xe.0.L 1 + @ o . . . . o 9 = $.ZX[.{.) Z A Z W F U w.8.y.q.L L I ~ I F K G ~ F E A D D A Z k u < g K w.Y.",
",XE./.hXE.j./.(.Q.Q.,Xj.V.s.f.{.^ 6 b ,.J g 1 2 8 v.2.s.8.2.r.0.4 g 8 8 g Y ) b D 8 T &.A d d M M.n.^ K.m.) ~ H.nXm.J.n._ W &.W ! Y F nXJ.m.C.k.^ K.mXnXnXZXZXFXCXMXCXVXBX$.6 6 A z k.1.~ n.I O w . 3 u f X f n 5.5.0.k.<.r.d.V.s.J 2.8.<.C.r.s.s.m :.H.Q C W n.C.z.W Y C m >.B V b ( N.0.r.q.k.H.BXH.nXm.r.s.s.s.f.f.9.w.f.9.U.~.f.q.C.l.s.d.b.b.].mXH.H.n.n.I ].nXL.n.].c.v.b.c.c.^ ^ %.%.&.%.*.-.H.].[.Y.9.P G q.r.y.7.J ].0.n v H D D H ! ! 1 o h {.1X{.nXZ A / R I P b.,.8.w.! G G H ( W N K 7.I R Z Y Y E $.Z d a d W _ M.",
"y.T.2Xj.y.s.j.(.4XY.^.[.j.B.[.c.v 8 H 5.3.4 8 6 C c B.r.8.s.2.F 3 A 7 5 g 6 T D ! T 5 &.&.g f 5 L.ZXnXmXNXmXmXmXNXmXNXNXmXAXCXMXnXCXVXnXn.H.c.k.~ ~ C.ZXnXZXZXFXCXMXCXCXBX$.4 4 C f z.1.1.l.F X q . 7 5 7 : X % n P 1.0.l.t.4.V.,.J v.s.s.d.<.2.3.:.:.v A 6 R R n D 7 A C m :.>.V b c.V.f.q.c.^ &.&.H.m.B.B.B.V.r.s.q.q.q.~.w.8.,.,.3.q.,.~ l.mXH.=.K.&.) I M.M.M._ ) ! ( ! ^ _ _ _ ) ) ) e.M.&.=.=.H.].$XlXw.c n 1.C.s.c., '.pX!.^.1X,XV.f.].e.4 6 h m.u.].H.W ` ) n.c.^ R ( ].M.Q D U 1.R Y W K e.P U K Y Y Q Q Z d a d $.&.H.",
"d.|.uX8.].g.jXg.{.{.].g./.V.{.F 7 6 H s.2.H 0.b 6 l SXr.f.s.! 7 8 R v M 7 4 5 8 H z.M %.&.) W &.nXZXnX'.MXMXCXMXMXMXNXNXNXAXnXmXNXMXZXnXnX&.m.J H n.m.ZXnXZXZXFXCXMXZXCXVX-.4 6 C 5 k.,.1.k.> = = g b H n M 3 1 8 N J ,.s.r.j.q.1.,.q.3.d.<.s.2.1.:.V A C h G D 8 D C g 7 K n V B m 1.B.i.c.1.l.5.d.V.s.k.-.) B.8.s.:.>.>.B x V V z.:.m 5.k.r.{.%.=.H.].m.f.[.].].~ ^ %._ $.$.$.W ! I U U e.( %.$.$.&.nX].b.I R h H r.y.7.. ` `.~.f.`.!.y.e.U.U : e k n.{.) E F / &.&.nX&.` ) M.F M R e.0.W E $.$.%.) %.%.R R R Y h i = u E M.b.",
"[..X%X,.nX{.{.L c.n.n.].[.[.'.n 7 7 ~ <.1.J 4.5.N 6 F 8.v.1.Y 6 n R h M 7 M 5 v m m.T ^ K.&.) NXAXMXZXFXZXCXAXFXMXMXZXmXNXMXZXNXNXMX) _ nX&.H.J J n.z.VXnXCXZXZXCXMXZXCXCX-.4 4 C 5 1.v.m.N . 2 $ s F 0.b k.n 8 v %.s.6.4.5.d.1.1.q.3.2.3.8.2.l.3.:.B A 6 4 G D Y C D 4 Y F F m B m 3.8.t.r.<.hXS.D.S.<.L *.^ v.<.x.V V V x V B H k.C.3.x.2.a.J.$.J.g.B.e.w.v.w.].c.$.$.%.` ! ! ^ ^ ^ ~ ( ~ ~ ) ) ) &.H.M.H.F : . , k.f.0.5 K _.{.g.~.`.9.e.].b.4 % 4 e.mXBXW F L.n.U _ D G F K T E Y G D R R F ! ! I _ %.W / / _ W g ; = ;.n.e.",
"y.p.3X7.N nXH ~ ^ 8 v m.B.{.^ v D 7 L <.l.3.2.<.k.n 7 n ~ H 6 h 8 A g v 6 A 7 b J k.L T K.%.x m.AXNXZXZXZXFXFXCXMXCXnXMXMXH.H.nXH.H.c T T b m m b c x ) H.MXCXZXCXCXZXCXCX-.O 4 7 , k.v.~ > X O > + 5 1.b 3.m L n m S.d.d.<.3.2.J B.3.C.,.B.5.J V >.^ 1 6 a C D W v F 7 C F _ J :.m 3.q.s.t.8.{.].9.f.8.0.n.J 3.5.x.1.3.B.q.B.M.n.&.L.J z.v.h.) [ m.j.v.) H.'.m.J.H.'.) $.^ ) ) ) ( ( ( I ) ~ ~ 0.0.~ c.I c.L 5 O O N b.7.z n 4X,XT.^.~.9.f.^.f.T g T e.w.H.L 0.c.0.e.I ^ _ F R / Y D / *.] D K G ` D R F g C F _ &.E i < [ ) I ",
"y.u.uX].> v ^ L.c 4 O 8 J.].c T R v 1.4.2.l.P N.r.J A a v Y g Y 6 d h Y 6 6 Y B ! P 1.T -.:.V V x :.z.n.e.H.H.&.! ) v M T N b T v N N b b m z.z.B N c N &.MXCXZXCXZXZXCXCX&.3 i h f k.J > % - o % = . ^ b 4 q.:.P v L B.,.s.<.m.J j.s.3.1.{.>.m :.:.v A 4 6 8 R C 3 v F 1 K ! n >.>.J k.2.z.k.n.b.f.j.B.v.VXm.:.6.5.y.8.[.^.hX^.B.b.m.l.:.1.C.z.&.nXJ.L.^ n.mX].{.{.{.c.n.n.n.n.( ! R %.-./ T ! ( n.&.H.M.J.mX&.= w 4 '.L w 6 '.f.Y.].`.9.w.y.9.M 1 M ( ( P ].U.I $.%.P K H F U 0.7.b.M.j 7 G Y K Y ] D D o.A D _ &.E < X < R M.",
"4X(.!.[.5 8 4 H.L.f 4 , ) F d A 7 T 5.4.5.~ m v.4.s.F 6 Y h 4 A 6 6 4 Y g 4 M D ~ N k.2.C K.B x V V V V B ^ ~ 3.z.k.:.m :.z.3.k.3.z.2.2.3.z.z.J k.z.x c ^ nXIXZXFXCXCXCXCXI.4 8 A 5 N.b @ : : > = & > c ~ b 8 k.<.1.n H r.<.g.,.3.x.k.k.r.0.m :.>.B 7 D 8 4 7 T C 6 Y D 8 D D b :.:.J L m ^ W $.=.m.C.v.{.J.k.:.3.5.d.<.C.mX].].[.(.lXB.B 1.N.B.^.].b.) &.m.M.M.M.C.B.q.f.b.v.c.c.H.) ! ( / %._ ! ) H.mXBXBXBXBXZ o 1 H.L y 4 BX`.Y.Q.4XY.j.U.Y.c $ g E Z D K _ ) E E ! 0.( T e.0.9.].I F Y Y W Y R Y Y Y Q F ! W Y ! R o k ! ) ",
"(.(.-X`.M 7 7 , n c , D W 7 v 8 1 ^ <.2.5.J b k.5.d.k.T C 4 h 7 6 h 7 6 h 6 T n J b T l.T ;.=.K.^ B c N b B l.x.x.l.z.z.z.x.J v v b z.l.z.l.H , v ) B nXVXnXZXZXIXZXCXCXAXBX6 8 k 7 B.H . % : o ; = o 3 c M 1 O b 3 g 7 J s.2.<.8.l.2.<.C.1.m m :.m D A h C D Y 7 3 5 v 7 R R F m m m :.>.^ H L k.q.N.l.N.q.v.2.3.4.5.s.B.B.{.B.q.[.^.q.z.2.C.C.C.J.J.J.H.N.N.C.{.mXJ.m.J.M.m.m.m.m.M.n.m.) &.) M.n.m.'.nXBXH.H.W f > Y ~ . 7 MX{.g./.!.w.y.Y.b.! g Q Y A -./ I K D E Q A Z g D F 7.0.7.c.! K ! H ! F R T Y Y R Q Y Y h u O.&.&.",
"i.i.2X7.5 h 5 5 n m n 3 7 Y P P 6 T <.3.5.2.J 1.5.d.x.~ 5 6 E 6 6 6 A 4 6 C ^ J l.H D z.z.H =.K.K.mX_ h F F k.v.3.b 5 5 n x F 5 4 O v b m v.) r 1 &.%.nXMXnXCXZXZXZXCXCXCX&.2 3 g v N.c.1 $ : o % = % : O 1 - = . . w $.n ~ C.,.L v.<.s.v.:.m m m n Y 6 4 8 C 6 6 6 4 A C C D K m V B :.3.~ 8.Z.Z.h.s.2.s.y.[.N.3.3.<.s.s.r.y.f.V.{.f.].M.%.&.n.m.{.kX{.{.m.b.m.'.m.n.H.H.n.m.].].].b.c.c.e.M.c.e.n.H.&.%.&.H.c.F 4 4 6 ) 8 -.'.{.[.f.!.~.{.U.e.F Z &.( E Z R U G D E O.Z S A E T e.v.8.8.( K K R R T Q Y Y $.Q Y Q l 0 0 a $.$.",
"R.^.2Xe.7 4 x 1.v.V.,., Q H L s.b M 2.<.2.5.3.J l.d.N.~ 7 A g h 1 h 6 g 6 D ^ B x.J D k.l.,.&.=.K.H.'.7 W Y F ( k.b 2 Y D D ! Q f o 6 D T 1.4 - k ^ c.n.FXMXCXCXCXCXCXCXCX&.1 7 h v 2.v.c $ < : o : : % $ O $ $ 1 : + g H , ~ C.1.,.s.x.2.B B :.m D A 7 b J K D D Y 5 7 6 C D ~ B V V x m N.8.[.^.^.f.B.{.[.hXV.2.5.2.s.s.F.V.V.{.V.B.m.L.z.n.M.m.{.{.{.{.mXm.v.m.M.m.m.m.n.m.].].{.{.b.b.v.b.b.w.].m.M.) ^ ~ ~ ~ ! ` C D 7 E '.`.).^.[.`.~.P 7.I $.4 K _ C D ( _ / Q Q A Y R _ L 0.q.7.7.( K ! ! ! R W Y F Q Y F ) Z 0 0 < g k ",
"R./.:X].7 < d.d.<.r.<.H > J v.4.5.~ k.l.4.5.2.J l.2.N.L 7 Y h g g A g A h H B ~ x.2.H z.2.k.J.=.=.&.K.H E W W ! k.J 1 M F T F 7 o > 4 D A F f 1 O J N.~ ZXNXCXCXMXZXCXCXAXnXg 7 7 b 2.v.m 1 f 1 : : : = = O : . 4 : i . v 4 > b 3.5.C.b.m B m :.n h g K q.6.l.l.B :.V V n m m ^ m m m V V 5.3.n.J.{.B.v.q.f.f.B.2.x.3.<.5.s.[.jX{.kXjXq.m.m.n.H.L.J.J.{.{.mXm.m.J.J.m.].b.m.M.v.v.v.v.B.].N.B.b.].`.U.e.'.'.e.mXmXD 4 9 t , G jX).Y.Y.P U f.0.~.G . , H.H.) ! R D R K ( M.! F 0.b.e.7.L c.I 0.0.0.I 0.0.P K R R ( ( Y < ; 1 u k ",
"R.[.^.0.O g ,.A.4.s.N.J c m N.t.d.s.3.b x.5.s.l.k.J v.c.Y 7 M 7 4 h g 4 7 k.1.n.l.l.k.z.2.k.N.%.&.H.J.C.7 R W Y J k.h 6 F H F 8 4 2 C D v W . ; 8 l.l.v.NXNXNXCXMXZXCXMXAX) 4 v 7 b 2.m.l.1 : ; % : : : = > ; u . ; u o : 2   , k.l.k.k.m B m m 8 g 6 c.j.5.3.l.m :.V V >.:.>.>.V :.>.m B 6.2.~ L.B.j.V.V.f.f.V.<.3.3.3.5.B.].{.1.C.B.C.mXmXmXmXH.'.NXNXNXNXNXNXDXmXmXmXnXm.m.M.M.c.k.0.e.q.f.c.( M.n.%.) &.&.BXVXK.l + . > e.`.1X`.9.b K ].9.Y.0.l %.nX) ( K R K _ I I c.E 7 G I ! U R K L c.0.7.I e.e.7.I I I I I _ E % 1 = j ",
"^.[.[.L 1 3 5 q.6.2.c.c 5 N k.d.2.5.3.n ~ 2.5.x.J ~ J.J.H.~ ^ &.v &.T ) ^ n.2.c.z.l.k.z.k.1.J.K.%.H.mXSXk.L W W K L D 4 D ! H H c 6 C D N g f 1 3 H z.~ '.NXCXCXMXNXCXMXMX) g Y h v J K l., . = = o : : $ = $ $ * ; $ $ e u o : , H n.m m m :.B 5 g 5 ~ ~ 2.J J m V V m V >.>.>.:.>.>.m v 3.1.B z.5.s.C.[.[.jX{.s.2.5.5.N.s.8.].B.SXkXGXGXSXSXSXkXSXDXDXDXDXDXSXDXmXmXmXnXVXMXMXmXmXnXm.v.v.b.) ^ H.K.&.%.%.%.&.BXLX$.4 E g M.].3X!.0.~ P y.e.e.b.! ) n.U I I K K K K F ! Q D D G T K Y D K ( ( I U e.I I I 0.0.U ( nX&.p : - k ",
"9.q.f.P l 8 d M V.N.n v 4 W H.4.5.v.s.J g v.5.N.~ ^ H.v.J.m.J.H.H.^ H.mXJ.H.x.v.n.J.1.m.k.H.$.%.%.%.H.) jXF.F ^ 1.P ~ 7 N K F ~ c N 8 Y A O s O g 3 ~ ~ SXMXNXZXMXNXZXMXAX&.f h h h T n J 5 o < e o O : o i : o : O > 4 + X ; o o h J :.V :.>.N 6 6 c %.$.x.:.m >.z.B z.m >.>.:.m m B b C ^ ) x V V m ~ L f.[.y.f.5.5.5.5.C.[.].].SXSXSXSXSXmXmXDXDXDXSXSXSXSXmXVXnXnXAXAXVXMXAXAXMXMXVXH.m.M.&.H.nX) ) nX&.&.&.LXVXVXH.Y @ 3 SX{.Y.B.y.7.`.U.q.1.U P I e.U I F T ! ! R W K I ^ M.&.T Y W P c.e.e.e.0.P 0.K I I K ! _ E d j k Z ",
"[.0.T b b 3 7 8 H.T 8 v 5 W &.l.3.5.t.L 7 k.k.k.n.v.'.{.{.MXMXZXnXnXMXZXCXZXMXMXMXmXMXmXM.&.&.%.-.$.%.W ) x.F ~ l.k.x.m D J L H n ^ v 3 A : p > l D 3.B NXAXNXZXZXNXAXMXnX&.3 g Y T ^ F v 5 > 3 3 o r e O e u . - * , f g @ a - o 3 T B B :.b 6 2 v ^ T $.! J x :.>.V B V V l.R Y R W N T P.>.V k.B N V m m :.5.C.mX:.6.<.v.mX'.w.V.F.{.DXmXDXDXDXDXSXSXDXDXDXDXDXNXMXMXMXnXCXAXAXMXnXH.nX( _ ~ M.v.c.( ) H.) nXmXmXmX^ z r &.mXmXY.w.F P Y.~.9.G 3 K v.I c.e.( Y W R R ^ L P L _ W Q E Y Z Q ( 7.U I I U U ` Y T L L G l O.Z Y ",
"j.s.L 5 E &.O N T c N v 8 _ 4 D v.x.5.L ^ nXnXmXmXmXCXZXIXNXMXZXCXCXZXZXCXCXCXZXZXCXZXZXCXNX'.AXBX$.$.%.%.~ ( P B.B.v.H T 7 D R n ! v 7 N 1 < 4 o 8 z.~ NXAXZXMXCXZXZXVXH.&.D 4 M n ^ ~ b 8 . f 1 . f = = % O > 5 T T I c.1 % ; z , N b m >.N h g T ^ N $.T ^ V V >.V >.V V B ^ T b m L.v.x x 2.,.k.v.J m x x L.k.mXN.5.2.d.mXmXc.s.d.s.C.b.'.'.nXnXnXBXBXmXmXmXAXnXnXnXnXNXmXn.n.mXJ.n.~ W T ! L I c.n.H.BX&.H.{.{.].K F Z ( ].NXc., M 0.f.c.].T 1 K 0.e.e.7.9.I ! ! U I c.L L T T Y F K R K I e.0.L K H K K F ~ l.8.8.1.K L ~ ",
"r.j.2.g $.M > n L L b 8 Q H.E 1 v k.{.{.k.K mXGXZXMXCXCXAXCXMXCXCXZXZXCXCXZXCXZXZXCXCXCXCXmXMXMXVXBXH.n.nX'.mXn.n.n.n n J ! n M 7 5 3 6 3 4 4 7 O 8 ^ ^ MXnXMXnXNXmXv.H.H.&.Y 4 7 8 T n.b M l > 1 A h . 2 2 . > ^ z.8 v.C.n O 3 < o ^ z.2.V 5 i 1 7 N , f 3 B B B :.>.>.:.>.:.l.b n B ^ x l H 1.3.q.8.P ~ F c L.B b.V.d.x.6.V.nXH.b.B.N.s.x.C.N.v.v.v.v.m.J.m.m.m.H.H.J.v.&.) ( L L H F T F K ( M.M.H.H.K.W R ) I I M.K 3 . ( [.[.f.7.W e.jXL w.v . D c.U U U e.e.( I U 7.e.7.I P L L P 0.K U 7.e.c.( I L U I U _ n.7.c.c.q.q.q.",
"j.f.L 4 2 F ~ k.C.3.L m.H.v ) N 7 7 b mXmXm.mXmXMXCXZXNXZXCXCXCXCXZXZXCXFXZXZXZXZXCXCXCXAXVXnXMXMXMXMXmXmXnXJ.L.M N b H :.n v 5 Y T c c N 4 f O 6 N L.$.nXM.nXnXnXM.m J &.H.D g h 7 N c.k.5 5 4 h 4 @ * 6 o f F m.C.,.z.l.K.M % & = &.L.:.V x c c , x x , , > , x x x , 5 V m J J b b T R 7 F J C.2.B.m.0.~ H B :.,.d.t.d.s.m.K.K.'.b.v.c.N.N.2.l.l.l.z.z.0.k.k.k.k.~ k.J L L z.z.z.~ ~ K ( c.'.nXH.H.) I _ / ^ ! ) ) 5 : < e.).}.n.^ O e.Y.9.U.n . 8 ( U ( I c.~ M.0.0.0.I I U 7.e.0.L ( ( 0.I L K U U L L K ` -.-.$.-.-.%.^ ^ ",
"f.P 4 M 8 P 0.P P J L H H c.{.v.F 6 a v H.NXNXMXMXAXMXMXZXMXCXCXCXZXCXCXCXCXCXCXCXCXCXCXMXCXMXNXnXnXnXnXnXnXH n J :.z.n ^ H n , T F n N 7 $ k 3 6 ^ L.$.H.( AXAXnXmXm J ^ K.D g 6 6 5 k.l.8 5 3 . > @ @   + [ H.n k.F.v.c.%.Y 5 Y Y %.^ b x B b b J.J.m ~ &.&.&.T T &.%.W W W ) ~ J ~ ~ F T T H v.v.{.,.C.c.c.m 3.2.V.d.5.N.b.J.J.].f.M.c.s.B.N.N.C.N.N.N.v.v.l.x.x.2.v.l.n.~ k.n.v.J.VXZXNX'.( K K ! c.e.nXnXH.H.LX=.f [ k m.).7.x 8 8 Y.`.e.w.n . 8 m.( / _ ^ ^ M.~ ~ ( W T ! I L ) &.%.&.H.) Q Y R ! ! ~ K ! W %.$./ W ! ! %.",
"v.F 1 H P F K G G nX! 8 M [.4X[.c.D d 2 3 T nXCXNXMXZXCXAXMXMXMXMXMXmXmXnXnXmXMXmXmXVXmXVXCXAXCXMXnXnXnXn.b L.! K 3.5.m n.N.k., N ) m b n 4 1 4 3 ~ n.$.K.nXNXNXAXmXk.J ! &.F 5 4 6 3 ~ l.T , z O F ) ! W %.Q %.l ^ x.mX&._ CXCXFXCXMXZXCXCXZXCXnXAXMXCXZXGXFXFXNXZXZXZXPXnXn L 1.z.~ ! 8 c ~ n , n v.[.j.m.n.b B z.J.l.2.s.s.V.d.u.h.C.B.g.B.v.c.n.%.%.%.=.&.n.n.n.%.&.%.&.H.mXSX}.mXCXLXm.c.I I ( ( ( ~ L H.BX&.K.K.E 1 f J.{.U.( G K [.~.c.b.8 s M c 7 D T K ( ! W ! K W Y W W ! ) ) W ! _ _ T E Q W ! ! K _ ! ! ^ U K 7.7.0.",
"J P n b L H H K D Q 5 F n q.kXw.l.DXnX1 8 1 5 T nXmXCXCXCXCXVXVXVXnXnXVXmXmXVXVXVXVXmXmXmXnXVXmXH.K.H.^ ^ x.^ 8 3 ~ C.5.2.8 4 6 R J 3.5.:.z.3 3 n v.n.$.-.nXNXNXAXMXm.J ~ ! F 5 6 6 5 J l.&.5 : Y FXGXZXFXSXNX&.IXnXJ.MXnXZXPXIXFXFXFXPXZXZXFXFXFXZXZXZXZXZXFXFXZXZXZXZXPXH.c k.k.~ nXGXnXH.M.c.) T n SXa.B.n.b V k.m.2.3.s.V.j.t.d.d.d.s.5.d.5.5.N.v.J.nXmXmX{.mXmXnXmXmXmXC.C.B.B.v.m.C.VXBXnXnX'.'.'.m.nXH.BXnX&.&.W h A VXU.v l @ T [.`.0.].8 + % z f C Y R _ W E W ! R Y W R K I P G P P U K K R F K ` K _ W T ! ! ^ L 1.8.",
"J q.s.b P J H K K ! b n J [.[.kX1.8.hX;.< v c c B n b b T ! ! ~ n.~ J n.n.n.H.H.H.J.H.H.H.n.~ n.H b B ^ J z.T h h 5 m :.2.v O ; , m 5.F.N.3.F b J 0.M.=.-.) mX{.AXMXDXk.k._ D 5 6 6 E H J.AX_ ) ZXMXnXFXnX{.CXI.nXZXAXIXFXFXFXFXPXFXFXFXFXIXFXZXFXFXZXFXZXCXZXCXCXCXMXMXAXI.D ( L H nXZXnX'.nXmX].'.c k.`.f.m.x B 2.d.4.6.5.s.r.d.C.N.r.N.N.B.B.V.[.[.{.].j.b.n.K.BXnX{.V.B.B.b.B.B.v.B.C.nXBXBXBXH.nXm.c.c.H.&.) H.&.5 h / K.b.T 3 O K {.].b.U.F 1 3 T Y D Q E A R 6 l E E E E K 0.w.q.c.0.c.L I ( ! K I I I e.~ K U K K I 0.0.",
"5.4.s.2.:.,.P L ! R K N J {.jX~.B.0.b.mX! Y Y m b B :.m J b >.z.H m B z.B m B ^ ^ ) W ^ 3.^ ~ ^ B B ^ c 5 B.B 1 3 l 1 3.6.c 2 < ; H 5.V.3.m H H l.5.8.H.%.E H.nX'.{.].m.3.~ ^ g h 8 Y E m.&.H.CXnXnXnXAXZXmXZXZX'.MXZXMXCXCXZXZXCXMXCXCXCXZXMXCXCXCXCXZXAXZXCXZXZXZXnXnXCXCX! ) ! ) nXnXAXNXm.MX) 8 T m q.j.2.N m 1.J.<.3.4.q.m._.kXjXB.b.c.n.nXmXC.N.V.[.[.{.mXV.{.hX[.V.{.{.mXnX{.B.B.].V.b.M._ _ U I L ( ! K ( K.K.&.F M nXc.5 l z > m.].9.'.D D c ) U.M.c.) W Q W Q T $.W ! K I 0.e.e.0.0.0.0.0.7.7.7.I ( I K ^ ( U I _ I I ",
"<.J n.mXm b L c.P n L N n f.{.{.q.q.b.].SX) ^ ) K L.B l.z.1.:.z.B z.l.z.z.l.z.z.:.z.k.z.z.~ ~ J k.3.z.c 7 m.N g 3 7 1 m 4.c 2 N , m D.2.:.m H H 5.5.j.mX&.1 D &.H.J.m.&.~ 1.c.Y A Y M v l.H.! nXNXnXMX'.ZXNXmXNXZXZXMXCXCXCXVXVXCXMXMXMXMXZXCXZXCXCXCXZXZXZXCXCXAXCXCXCXCXNX( ! ! H.VXMXnXAX! m.F H J N.s.r.1.x m 1.N.<.:.r.j.SXjXy.kX{.L K.&.&.n.1.2.,.0.f.].mX'.].'.'.K.K.K.H.nX{.].B.B.U M.M.0.m.m.M.n.e.b.( %.g H.G . D _ ! 3 C 3 . h {.m.c.G / ( I ) c.I e.e.e.0.I M.L M.b.w.~.w.9.w.e.e.e.e.e.b.e.I 0.c.n.I U ( ! ! _ _ ( ",
"6.v.v.3.J 8 H.P P L P 5 ! 9.b.B.].[.N.B.kXSXz.Y ! mX5 b L.v.l.x.3.v.2.3.l.^ B l.v.C.B.z.H J ~ ~ v.5.l.n 4 m.T M n N , J 4.8 g 5 5 n t.2.:.m P 1.5.6.h.c.5 4 2 %.&.W &.%.&.J 1.K C Y 5 N F.m.mXMXnXNXMXNXZXNXmXNXNXZXmXmXmXVXnXVXZXZXZXZXZXMXZXZXCXCXZXMXMXMXMXMXmXVXnXnXnXAX_ ) n.H n.MX'.D ! H 1.z.C.2.s.t.3.x L B.N.<.3.s./.[.f.8.~.1.B c ^ H.n.v.N.v.v.m.M.M.~ %.=.-.$.-.-.[ $.$.E $.$.o.h R ( ( K R Z ! K '.$.O.&.M.W '.^ > > . 7 f . e.B.m.H.o R ) N $.E W ( n.n.) nXH.H.H.) H.) T T R D R &.%.Y E =./ / %.&.&.H.L.H.q.q.b.",
"v.C.m P c 5 ! F L L P T ( 0.~.jXjXV.s.s.v.[.C.Y T ].T > c J L C.l.k.l.x.v.1 v b.C.{.jX( 3 J ! ! m.d.d.b 4 8 &.E , Y 4 b x.m 6 4 $ 5 F.J 3.b n k.6.6.f.F 3 4 - %.L.W ) n.&.z.L K D 5 : N F.N.v.M.AXZXnXMXNXMXCXAXMXZXNXZXNXMXnXMXZXCXMXVXnXmXnXnXVXCXCXnXMXMXnXnXH.H.) / ! / CXH.~ ~ F 8 Y m z.3.2.v.2.,.q.d.:.x M.{.B.3.2.q.j.r.f.mXc.m B V v.mXB.s.N.2.2.2.2.2.k.v.J.b.'.U.b.! -.*.$.%.%.M.~ N W &._ ! _ $.W %.&.=.L.v.{.s.! > > N H.3 o 8 ].b.h e o ! c.#.o.Z Y Y R W $.%.Q Q A -.E Z A A A A Z o.[ @.*.*.*.%.&.=.H.9.Y.d.r.y.",
"7 m J M > T 8 F ! ) M.c '.mXg.hXs.g.jX8.b.B.jX~ M M.].1 . F F ~ l.F ~ k.! a M v.N.N.kXk.2 L ! H v.d.d.J h v O , 1 f h n 6.3.n n O b 5.m m b n k.6.6.v.D 6 2 - J G.z.l.v.$.H.H ! T 7 f 3 q.x.v.8 R VXT nXCXGX'.ZXMXAXZXCXFXGXNXMXMXmXMXCXnXnXmXnX_ ) VXH.) H.H.&.W &.&.&.E h &.! H k.~ T M x.3.x.2.q.1.v.1.x.m x 1.B.s.3.2.[.hXj.8.H c z.:.t.S.j.<.<.5.2.3.r.d.s.l.z.z.l.b.L.m.v.b.B.[.[.hXb.M.nX_ / R / R R $.M n.C.mX'.{.q.^ M 7 '.{.H 4 e c.m.M . O ) b.%.$.E Z Q Q Y W Q A E E Q E %.W ! ! K K ! ) ) ) 0.0.e.c.=.K.c.n.c.e.e.",
"N J T f b ^ F n D &.( > {.,Xs.{.b.P H J 0.m.b.L v %.~.F * Q Y F ~ n 5 Y v f M k.x.d.F.~ 6 ~ ~ ~ 2.d.d.z.c b 3 , %.5 > H 5.l.2.:.3.N.<.,.m H b z.6.5.v.5 6 3 ; m 6.x.5.r.T ^ J F T M h O v.F.k.%.O E O 4 O mXmXNXFXCX&.H.&.) &.nXAXCXCXZXnXH.) / &.&.&.&.BX&.&.&.%.%.Q h 6 E W ) ( L ~ T 7 x.x.2.N.1.v.l.2.l.x m n 2.3.3.2.8.u.j.f.k.~ VX5.d.r.<.,.2.2.q.s.l.q.r.8.1.z.l.b.j.r.j.j.g.g.y.i.) &.%.^ H.J.m.N.m.) 0.s.B.( mXm.'.5 $.$.H.mX_ > $ v mXK h Y n.H.W M A Z $.E E $.$.Z $.$.E E %.W I I e.w.w.9.e.9.e.( ( ( _ =.=.=.=.=.&.",
"k.l.v v J.T K v 7 Y G c L lXb.n.H.T M ^ b H K K 4 l B.q.  h D F ~ H O 6 7 4 4 K v.N.m.M 7 H ~ k.5.d.x.l.m b K z.m m l.n 5.3.3.3.4.6.3.3.B m m z.4.5.k.5 6 7 4 m 4.q.5.6.l.l.l.H F v 6 8 v.d.N.B , 1 : : 1 v ) T Y Y , 7 5 6 4 6 h Y / &.nXv 3 7 7 7 3 7 Y A 6 6 4 4 O O 6 3 M ) ~ ~ ! n v 1.v.2.2.2.2.1.v.J x m n 3.3.x.<.j.d.,.,.k.s.N.r.s.s.f.B.v.q.8.r.8.8.q.<.8.v.L.K.B.B.N.m.H.H.&.&.%.%.H.'.].~.].b.v.M.e.s.z.^ nXmX'.Q z N &.nXH.5 * > b ) nX'.I H.( ! _ _ W / Q / E E Z E $.W W ! e.e.e.e.c.m.( H D D Y D G R W W ( c.v.",
"F ^ 7 R ^ F F F v v n c M.J.L F 3 3 7 n b N L F ; 6 v.F.f 5 F G L n.O C v 7 3 D 2.5.1.3 D H L q.5.d.5.N.,.x K 2.6.4.4.J 3.3.r.H 1.3.m 6.B J k.x.6.4.L , 5 4 3 J x.s.5.6.s.d.d.m F D C W l.r.2.J 5 4 1 : > $ X f 1 h A A C 7 6 1 ; : : 4 h 7 6 E Y Y A A 6 h 6 6 6 h 6 g 6 h 4 M , T ^ b H L v.2.x.s.2.0.L m c m z.x.3.3.<.x.2.x B :.hXt.j.5.r.,X/.y.f.s.5.5.5.5.<.2.c.m.mX'.mXM.nXBX=.K.%.) L.H.n.M.M.n.n.c.L.%.n.K.H.n.m.mXn.M.'.J.m.mXn 2 Y T ! '.M.n.( n.n.m.c.~ ~ ^ ^ %.%.-.-.=.&.W &.m.q.q.f.g.8.8.w.f.q.7.0.&._ G W 0.c.v.",
"R F L b D K W A G k.n M.k.F Y 6 g 4 6 4 8 G ! ^ 3 h ~ 3X3.= K H F z.x 2 6 6 5 6 5.x.n 1 v H J c.2.N.5.6.<.n v T N.4.3.J J 3.3.L ,.3.5.3.J F J d.6.5.b 5 6 5 b 5.5.d.5.4.t.<.5.3.m n Y T 2.d.N.k.8 o f : O 1 O T M h h 6 6 7 8 h k g g h T A D T A h D v A A A A 7 h g 6 6 8 h g O 8 _ b c 2.2.s.s.<.5.1.1.n c V :.3.6.5.5.B.0.b :.2.,XR.s.r.d.f.C.m.v.v.N.B.q.8.,.5.x.K.&.L.L.z.^ ^ B :.J.J.J.J.H.H.H.) ~ ^ ^ &.K.BXBXBXBXC.J.SXmXV.{.mXc.H J.nXM.m.c.n.n.m.m.~ m.n.H H ~ %.%.&.&.=.&.c.^.g.s.B.B.q.r.j.a.j.a.i.M.m.f.f.v.M.q.r.",
"7 Y n H b J m F Y mXJ 4 3 4 a d h 7 3 g T K n.M o h ~ 1XC.7 b J G k.^ O 7 4 5 3 s.x.H 6 T H J 1.3.5.5.5.x.J c n J 5.l.H n <.1.L 3.3.3.3.b 8 J 5.4.s.J c Y E n ,.<.D.5.4.d.d.d.2.J b h D 2.d.s.v.n 4 f ; : $ o 7 D C h g 4 6 7 7 A 8 Y 7 T T D T Y Y F v 7 7 D 7 7 7 7 7 7 A 6 6 h Y T n J N.N.s.2.2.C.c.H 8 x B :.5.5.<.s.a.jXP m :.3.<.2.y.f.w.].].B.B.B.C.l.6.2.k.k.^ V x x V x N c N &.K.&.&.&.-.-.$.%.) n.nXnXnXnXmXmXmXmXmXmXmXmXmXmXmXJ.J.mXmXv.J.mXmXmXmXDXDXmXJ b 1.0.b.n.&.K.K.L.c.m.m.c.c.c.b.].b.q.L n F L M.H.M.n.n.",
"T W 4 T ~ T 0.b v c.N.b h Z k 4 F L F T H H.H.3 6 E c /.N.H n P G J k.3 h 4 6 8 s.5.m 6 b F L 1.2.6.5.5.5.m n n b 1.H n F 2.1.J J 1.2.J b v J 5.6.4.1.b H h n ,.<.u.5.6.d.r.d.2.1.b h 7 k.d.d.N.J b 4 ; % 1 4 4 6 1 1 h 7 A D R D ! D A T ^ 7 A 7 D Y Y Y Y Y D D D C 7 D g 6 7 h 7 N b ,.2.N.s.<.q.v.n.F 5 c V 3.d.V.5.r.d.d.:.m :.3.3.v.[.^.9.y.f.q.w.B.nXn.6.5.,.c.%.>.>.V n b ) nXmXC.mXC.mXM.nXJ.mXmXSXNXNXmXmXNXmXNXZXNXNXmXDXmXVXDXmXNXDXDXSXmXSXmXmXmXmXNXNXNXmXmXk.H.M.( ( _ H.H.) ( U U U U c.m.'.m.H.W Y R H.H.&.=.=.",
"! Y 2 5 k.~ T ~ J n.2.5.v 6 Z 7 L P J ~ ( ! n O A Z b 8.2.s.z.1.J H L n g 3 6 H 2.d.m C T F ~ 1.2.5.5.5.<.k.b v D F H b H P b n b L 1.H c 5 b 2.6.6.5.2.1.b H <.1.t.5.6.d.4.F.s.2.b h 8 H t.d.N.2.~ 8 4 : 1 g : = + ; g v M v 8 7 ^ T 5 v ^ 4 g 2 6 1 1 4 6 6 6 g g 6 6 g g 3 7 Y T H J k.1.2.s.s.q.J J b c c V 3.t.d.5.s.V.5.d.2.B :.3.q.g.{.[.[.hXg.w.b.I.n.<.1.1.v.L.:.V J v.l.k.M.mXSXSXSXSXmXmXSXmXSXmXmXmXmXmXNXMXMXVXmXmXmXmXmXmX{.SXmXNXmXNXNXDXSXDXDXNXDXDXNXDXNXmXVXBXH.&._ &.K.K.&.W R R ! ! H ! W W W &.%.%.%.%.$.-.",
"v 4 g Y z.N., ~ <.z.C.5.c 3 $.Z W b T R K v ^ 5 A E T f.2.<.l.3.,.H ~ J Z 6 7 k.3.d.:.D R G L 1.3.6.6.5.5.~ n 7 C v H J J F v 5 v F P F n 5 H 5.6.D.6.<.N.s.,.<.1.d.<.r.j.4.d.s.q.J v 7 J <.<.5.2.k.F D 8 , , O 6 7 Y M N H H v 6 W v M ~ L 8 A 8 v 6 4 8 6 6 6 6 6 1 1 6 5 5 D F G K F c b m J 1.c.H H H x c x s.4.4.5.s.[.i.j.~.q.m 3.,.q.s.r.r.d.f.B.v.,.l.<.1.l.x.l.:.x.P 3.C.C.( '.MXmXmXmXNXmXmXnXmXnXnXmXmXmXmXmXnXmXmXVXnXnXnXZXCXVXVXVXnXVXVXMXmXnXVXmXZXNXmXVXNXAXnXH.H.n.H.K.=.M E g 4 E W R K e.K ( U P G _ ( ( I I "
};
