/* XPM */
static char *wall_painting_portrait[] = {
/* columns rows colors chars-per-pixel */
"256 256 256 2 ",
"   c #000001",
".  c #030B04",
"X  c #03030B",
"o  c #0B0B0B",
"O  c #070808",
"+  c #061607",
"@  c #030413",
"#  c #03031C",
"$  c #080B17",
"%  c #0B1317",
"&  c #151616",
"*  c #130F0E",
"=  c #072709",
"-  c #08350B",
";  c #0C2811",
":  c #152817",
">  c #0C3813",
",  c #163717",
"<  c #122F0D",
"1  c #282A1B",
"2  c #030323",
"3  c #03032B",
"4  c #070C27",
"5  c #0A1528",
"6  c #141827",
"7  c #030433",
"8  c #060839",
"9  c #091637",
"0  c #141C37",
"q  c #172539",
"w  c #122730",
"e  c #262827",
"r  c #2D3132",
"t  c #251918",
"y  c #4E3A2E",
"u  c #18471A",
"i  c #0D4613",
"p  c #2A4E2B",
"a  c #245823",
"s  c #594D35",
"d  c #040947",
"f  c #091548",
"g  c #131946",
"h  c #040A57",
"j  c #081558",
"k  c #121956",
"l  c #0C2447",
"z  c #172747",
"x  c #162856",
"c  c #193658",
"v  c #123050",
"b  c #263755",
"n  c #27334C",
"m  c #020C6C",
"M  c #030866",
"N  c #03136C",
"B  c #071868",
"V  c #030C73",
"C  c #040B78",
"Z  c #031373",
"A  c #041B74",
"S  c #0A1C73",
"D  c #03147B",
"F  c #051B7C",
"G  c #0B1C7B",
"H  c #0A1576",
"J  c #121C71",
"K  c #09256A",
"L  c #162669",
"P  c #173867",
"I  c #05237C",
"U  c #0B237B",
"Y  c #082877",
"T  c #142878",
"R  c #09367B",
"E  c #173779",
"W  c #0A366C",
"Q  c #253573",
"!  c #2D4553",
"~  c #19477A",
"^  c #104775",
"/  c #2D4F70",
"(  c #29596C",
")  c #4B5050",
"_  c #6E6E4F",
"`  c #4B7578",
"'  c #5C5F61",
"]  c #413F43",
"[  c #8E7B48",
"{  c #688E72",
"}  c #A19B68",
"|  c #D9D253",
" . c #E4D955",
".. c #D5D571",
"X. c #E4DA6A",
"o. c #E3E371",
"O. c #BEBD74",
"+. c #051985",
"@. c #071A8E",
"#. c #0B2383",
"$. c #0B2B83",
"%. c #062887",
"&. c #142A86",
"*. c #0C3384",
"=. c #0B3C8C",
"-. c #083788",
";. c #153888",
":. c #072895",
">. c #093994",
",. c #163A94",
"<. c #142A92",
"1. c #253989",
"2. c #25368F",
"3. c #0B36A7",
"4. c #09478A",
"5. c #174789",
"6. c #0B558B",
"7. c #19568A",
"8. c #094896",
"9. c #164896",
"0. c #0A5597",
"q. c #175898",
"w. c #254889",
"e. c #27588A",
"r. c #264996",
"t. c #265897",
"y. c #355998",
"u. c #35508C",
"i. c #196599",
"p. c #146493",
"a. c #29658A",
"s. c #36668A",
"d. c #276797",
"f. c #376899",
"g. c #2A749A",
"h. c #387599",
"j. c #36738B",
"k. c #0A59A4",
"l. c #1759A5",
"z. c #144AA5",
"x. c #285AA5",
"c. c #2C54A6",
"v. c #1867A7",
"b. c #136AAE",
"n. c #2769A6",
"m. c #3669A6",
"M. c #2A75A8",
"N. c #3777A7",
"B. c #2877B5",
"V. c #3879B4",
"C. c #2969B4",
"Z. c #467998",
"A. c #4C7091",
"S. c #4579A6",
"D. c #4873AB",
"F. c #4F6192",
"G. c #2D7AC3",
"H. c #3A83A9",
"J. c #3984B6",
"K. c #2F85B2",
"L. c #38809D",
"P. c #48839A",
"I. c #59889A",
"U. c #58888C",
"Y. c #6B9495",
"T. c #4886A8",
"R. c #5589A8",
"E. c #5994AA",
"W. c #4788B5",
"Q. c #558BB6",
"!. c #4A93B9",
"~. c #5897B7",
"^. c #4C92A9",
"/. c #6798AA",
"(. c #659BB7",
"). c #6F96AC",
"_. c #78A4A8",
"`. c #6AA4B9",
"'. c #77A8B8",
"]. c #74ADB2",
"[. c #6EA1A5",
"{. c #3687C6",
"}. c #5898C5",
"|. c #4A91C5",
" X c #659BC4",
".X c #59A2C7",
"XX c #6AA6C6",
"oX c #76ABC5",
"OX c #7BB4C8",
"+X c #73B2D6",
"@X c #6FAFE2",
"#X c #7EC2E1",
"$X c #8FAC94",
"%X c #A9BA92",
"&X c #96B7A9",
"*X c #89B4B9",
"=X c #96B8B7",
"-X c #87ACAE",
";X c #A6BBA9",
":X c #939D95",
">X c #B4C691",
",X c #9BC2BB",
"<X c #A9C5B8",
"1X c #B8CBB6",
"2X c #B6CBAE",
"3X c #D1D68E",
"4X c #C6D5B7",
"5X c #CDD4AC",
"6X c #DEE099",
"7X c #87B7C6",
"8X c #95BBC6",
"9X c #89B7CE",
"0X c #A5BEC3",
"qX c #98C5C7",
"wX c #99C8D7",
"eX c #8CC4D3",
"rX c #A6C8C7",
"tX c #B1D1D0",
"yX c #A5D3E5",
"uX c #D6CDC4",
"iX c #DDD5CC",
"pX c #DCD5CB",
"aX c #DFD8D0",
"sX c #DFD7D0",
"dX c #C5D8C7",
"fX c #E0D7CE",
"gX c #E1D9CF",
"hX c #E5DDD4",
"jX c #E8DFD6",
"kX c #E7DFD8",
"lX c #E8DFD8",
"zX c #E0D7D0",
"xX c #E7E0D6",
"cX c #E8E1D7",
"vX c #E7E0D8",
"bX c #E9E2D8",
"nX c #EAE3D9",
"mX c #EAE1D8",
"MX c #EBE4DA",
"NX c #E9E5DA",
"BX c #ECE5DB",
"VX c #EDE5DB",
"CX c #EDE6DD",
"ZX c #EBE3DB",
"AX c #EFE8DE",
"SX c #EFE8DE",
"DX c #F0E7DE",
"FX c #F0E9DF",
"GX c #EEE7E0",
"HX c #EFE8E0",
"JX c #F0E7E0",
"KX c #F1EAE2",
"LX c #F4EFE9",
"PX c #F7F1E9",
"IX c #CDE3CE",
"UX c #C0B0A4",
/* pixels */
"BXhXhXhXhXcXBXjXcXBXBXBXBXjXBXBXBXBXxXBXxXhXxXcXcXcXBXBXBXcXhXhXhXBXcXhXcXhXjXhXhXhXhXjXhXhXhXhXhXhXhXhXhXhXhXcXjXBXBXhXjXBXBXBXBXBXBXBXcXxXcXBXBXcXBXcXBXxXBXBXvXSXKXSXHXBXBXBXBXcXSXxXBXBXSXKXBXHXSXBXBXBXBXBXSXBXBXBXhXcXBXxXBXBXBXBXBXBXBXBXKXBXBXSXBXxXBXxXcXBXhXjXhXfXhXhXhXcXhXfXhXhXhXBXBXhXBXcXhXcXcXhXcXhXcXhXhXcXcXjXhXhXBXhXhXBXcXhXhXhXcXhXhXxXxXxXBXBXxXxXcXhXxXBXhXhXBXhXBXcXBXBXcXhXBXBXBXBXBXBXKXSXKXBXBXBXBXBXBXBXcXBXSXBXBXBXhXBXBXBXBXBXBXBXcXBXBXBXBXBXBXBXBXBXBXBXBXBXhXhXxXBXBXBXBXBXBXBXjXBXhXjXBXhXxXHX",
"BXBXhXhXhXjXhXhXhXjXcXjXjXjXjXBXBXhXcXhXhXhXxXxXxXcXBXBXBXBXBXhXhXhXjXcXcXhXhXjXhXhXcXcXcXjXhXfXhXhXhXjXhXhXhXcXcXjXBXBXjXcXcXcXhXBXBXBXBXBXBXhXxXBXBXBXhXhXvXBXBXHXKXSXSXSXBXBXBXBXKXhXxXxXcXBXBXSXSXKXBXBXcXBXcXBXSXhXcXcXBXBXcXBXxXBXSXKXBXBXHXKXBXBXBXcXBXBXcXjXjXBXBXhXfXhXjXhXhXhXcXhXhXBXjXhXjXjXhXhXhXjXhXjXjXhXhXjXcXcXhXhXBXhXBXBXhXhXjXhXhXhXBXhXxXBXBXBXxXhXhXxXxXBXBXcXBXBXjXhXcXjXBXjXBXBXBXBXBXBXKXcXBXBXBXBXBXKXBXcXBXhXBXBXBXBXBXBXcXcXxXBXBXBXcXBXBXBXBXBXBXBXBXBXBXBXBXBXBXhXcXSXBXBXxXBXcXcXBXBXBXjXBXxXBXKX",
"BXBXBXjXBXjXhXhXhXhXjXBXcXhXhXhXBXcXBXcXxXcXBXcXxXxXxXBXBXBXKXBXhXhXhXBXcXBXhXhXhXhXhXcXhXjXfXfXhXhXhXhXjXjXjXcXBXcXhXjXBXBXBXhXhXcXBXBXBXBXSXBXBXBXBXBXhXBXKXKXBXKXKXKXKXKXFXBXxXBXBXhXhXhXBXBXSXBXKXKXKXSXBXBXSXBXcXhXBXBXxXBXBXBXBXBXBXKXBXBXBXBXHXSXFXBXhXhXjXBXhXhXBXBXjXhXfXiXfXhXhXhXjXBXhXhXcXBXBXBXhXBXjXhXhXhXBXhXhXhXhXjXBXjXcXcXBXjXjXhXhXBXBXBXBXBXxXxXcXcXBXcXcXBXcXcXcXjXjXcXBXBXBXBXcXBXBXBXFXBXBXBXBXBXBXSXBXKXBXBXBXxXBXSXBXxXBXSXBXxXBXBXKXSXBXBXBXxXBXBXcXBXBXSXBXBXBXBXBXBXBXBXhXhXBXBXBXjXjXhXcXjXBXSXBXBX",
"BXBXcXBXcXcXhXhXhXhXhXBXhXhXBXBXBXcXBXBXBXBXBXhXcXhXxXxXBXBXBXBXxXhXhXhXcXhXhXjXcXjXhXhXhXhXfXjXhXhXjXhXBXcXcXjXhXBXBXcXBXjXhXhXcXcXBXBXBXBXBXBXBXxXBXFXBXBXBXBXBXBXHXBXKXKXKXBXBXxXxXBXBXcXBXBXBXBXBXBXKXKXcXSXKXBXBXBXBXBXcXcXBXBXBXBXKXBXBXBXBXKXKXBXBXBXBXBXBXhXhXBXBXBXjXjXiXfXjXcXBXcXhXcXcXcXjXBXBXcXBXBXBXhXBXhXhXhXBXBXhXBXBXjXcXhXBXBXhXBXcXhXhXhXhXcXxXBXBXxXBXBXBXcXBXBXcXhXhXBXBXcXBXBXBXBXBXcXBXBXBXBXBXBXBXBXFXFXBXBXBXBXBXBXBXBXBXBXBXBXBXBXKXBXcXBXBXBXxXBXBXBXBXBXBXBXBXxXcXcXBXBXBXcXhXBXBXBXBXBXBXBXcXcXBXBX",
"BXBXcXjXcXDXjXhXhXhXhXcXhXjXBXjXBXBXhXxXcXBXcXBXBXhXBXxXcXBXBXBXBXBXBXhXjXBXcXjXhXhXBXjXhXhXhXhXhXhXhXjXjXjXjXcXBXjXBXjXBXBXhXhXxXxXhXcXcXBXhXBXBXBXFXKXFXcXkXBXBXhXlXhXDXBXBXBXBXhXxXhXxXBXBXBXFXhXhXBXBXFXBXBXSXSXSXBXBXBXBXBXBXBXBXBXSXBXBXBXBXHXBXBXSXKXFXBXBXhXBXBXhXfXhXhXjXhXcXjXjXcXcXcXhXBXjXjXBXBXBXBXBXcXjXhXhXjXhXBXhXBXDXcXBXBXjXhXcXjXhXiXiXaXhXhXBXBXBXcXBXcXcXBXBXcXBXhXhXBXBXBXcXhXBXxXBXBXBXBXBXBXBXBXBXBXFXBXcXBXBXxXBXcXcXBXBXcXxXcXcXBXBXBXBXBXBXcXBXBXBXBXBXFXhXBXBXBXBXBXBXSXBXBXBXBXBXBXBXBXBXBXBXhXBXSX",
"BXBXBXBXhXBXBXjXhXhXhXhXjXhXjXhXhXBXhXxXcXBXBXBXBXBXBXBXBXBXBXBXSXBXBXhXBXBXBXhXhXhXhXBXhXhXhXhXhXhXhXhXjXhXhXhXBXhXjXBXjXcXBXBXBXcXhXhXhXcXhXcXhXhXBXBXcXBXBXhXhXhXBXfXhXBXBXBXBXcXBXBXBXBXxXBXBXBXBXBXBXBXSXBXFXBXBXBXSXSXBXBXcXBXSXBXFXBXSXBXBXBXBXBXBXBXBXBXBXBXBXcXfXiXfXhXfXjXcXjXcXhXjXcXhXhXjXBXBXjXjXBXBXhXhXhXcXjXjXcXjXhXBXhXhXjXjXhXBXhXfXhXfXiXiXhXxXxXcXcXBXBXBXBXBXcXBXhXhXcXBXBXhXhXhXBXBXBXBXBXBXcXBXBXBXBXBXBXBXBXBXhXhXhXhXhXhXjXBXcXhXcXhXcXBXBXBXBXBXBXBXSXSXBXBXBXBXBXBXcXBXBXBXBXBXBXBXBXBXBXFXBXBXBXhXBX",
"BXBXBXBXBXlXBXjXBXBXjXhXjXhXhXjXhXxXxXxXhXcXBXBXSXFXBXBXHXBXBXhXBXBXKXBXBXBXBXhXcXhXiXBXBXBXjXhXhXfXhXhXhXcXjXBXBXBXjXhXjXBXjXjXBXjXcXhXhXhXfXhXBXBXcXBXxXcXBXhXxXhXKXhXhXxXBXBXBXBXBXHXHXBXBXBXBXBXBXxXcXBXBXBXBXBXSXBXBXBXBXBXxXcXBXBXKXBXBXBXBXBXBXBXBXBXBXBXBXBXcXhXxXhXfXhXhXhXhXjXhXhXhXjXBXjXhXjXcXjXhXjXBXhXjXjXBXhXjXcXBXcXBXjXjXhXjXxXhXBXfXhXhXhXhXhXBXBXBXhXcXBXBXxXxXxXBXBXcXxXxXBXhXhXhXxXBXBXcXBXcXhXBXBXBXBXBXBXcXhXjXhXhXBXcXjXhXcXjXjXhXBXBXBXBXBXKXBXBXBXBXKXFXBXBXBXBXBXBXBXBXBXBXBXcXBXDXjXBXBXBXBXBXBXxXBX",
"BXBXBXBXBXBXcXBXcXDXBXjXjXhXhXjXhXxXxXhXcXBXBXBXBXcXcXBXBXBXBXBXhXBXKXHXhXhXBXBXBXhXhXhXhXhXhXhXhXhXhXhXhXcXBXcXhXhXcXhXhXjXBXjXBXBXBXcXjXjXBXBXhXBXBXhXcXBXBXBXBXFXBXfXcXBXBXBXBXBXBXvXBXKXSXFXSXFXBXBXcXBXBXBXcXBXBXBXBXBXBXxXBXcXhXcXBXBXBXBXBXBXBXBXBXBXcXBXBXBXcXcXcXhXhXBXhXhXhXhXhXhXhXhXcXjXhXBXjXcXjXjXjXjXhXhXhXhXcXjXhXBXjXhXjXhXhXxXxXBXhXiXfXhXhXhXBXBXxXhXxXhXBXBXBXBXhXBXxXcXBXBXhXhXBXBXBXBXcXBXBXhXjXBXBXBXBXBXBXBXhXhXhXBXBXjXhXhXBXjXBXBXBXBXBXSXKXSXBXBXBXBXBXSXBXBXBXBXBXBXBXBXBXBXBXBXDXBXBXBXBXBXBXBXBXFX",
"JXHXKXBXvXBXBXcXBXhXcXcXjXhXhXhXhXhXhXBXhXxXBXBXcXBXBXBXBXBXBXBXBXBXBXBXBXhXvXBXBXBXcXhXBXjXjXhXjXhXhXhXhXhXhXjXhXhXhXcXjXBXcXcXjXBXhXjXBXcXBXjXBXhXhXBXBXcXFXBXBXBXhXxXBXBXBXBXBXBXvXhXBXKXKXSXKXFXhXcXBXBXBXBXBXBXBXBXBXBXBXSXBXBXBXhXhXBXBXBXBXFXBXBXBXBXBXBXBXBXhXcXxXBXcXhXxXhXBXhXhXjXjXcXcXhXBXjXjXcXhXhXjXjXhXjXhXhXjXcXjXBXjXhXhXhXjXcXxXBXBXhXiXfXhXhXhXBXcXcXBXhXhXhXcXBXxXBXBXBXBXBXBXBXBXBXBXxXhXcXcXBXBXBXBXBXBXBXjXjXhXjXcXBXBXBXBXhXBXBXBXcXBXBXcXFXBXBXBXFXBXBXBXBXBXBXBXBXBXBXBXBXBXBXBXBXBXjXBXcXBXBXBXBXBXBX",
"KXBXHXKXHXKXBXcXBXhXhXhXjXcXjXjXhXhXcXcXcXhXBXBXBXBXBXBXBXBXBXBXBXBXhXhXBXBXvXKXBXBXBXxXcXjXjXhXhXhXhXhXhXjXhXhXBXhXhXcXcXBXjXcXhXcXBXjXBXjXBXBXBXxXBXBXhXBXBXBXBXBXBXBXSXBXBXBXBXBXBXBXBXBXHXKXKXFXcXcXBXxXhXBXKXBXBXBXBXxXBXFXBXxXBXcXhXhXBXBXBXBXFXBXBXBXBXhXBXBXBXcXBXBXBXhXhXBXhXjXjXjXhXjXhXhXjXjXhXBXBXhXhXhXhXhXhXhXcXjXBXhXjXBXcXcXBXBXhXBXBXBXhXhXBXhXhXBXhXhXBXcXhXxXcXhXhXcXBXBXBXBXBXxXcXBXBXhXhXhXhXhXBXBXBXBXBXBXBXBXcXBXBXBXBXBXjXBXjXBXBXcXBXxXBXSXBXBXBXFXBXhXcXBXBXFXBXBXBXBXBXBXBXBXBXBXBXBXBXBXBXBXBXBXBXSX",
"BXBXBXBXKXKXBXBXDXFXBXhXcXjXjXhXhXxXxXhXBXhXBXBXBXBXBXBXBXHXBXBXBXBXhXhXKXvXBXKXSXBXSXBXhXhXhXjXjXjXhXhXhXjXcXjXBXBXDXBXBXBXBXhXjXBXjXBXjXhXBXBXcXBXhXxXhXhXBXBXBXBXxXcXBXBXBXBXBXvXBXBXBXLXKXBXBXKXSXBXBXBXBXBXBXKXBXBXBXcXBXBXSXBXhXhXcXhXcXBXBXBXBXBXBXBXBXcXBXBXBXBXBXBXBXBXhXBXhXhXhXhXjXhXhXjXjXjXcXcXBXhXjXjXhXhXhXhXjXhXjXjXjXhXjXjXjXxXhXBXBXcXcXjXhXhXjXcXcXBXBXBXhXBXxXBXcXcXBXBXhXxXBXBXcXhXxXxXxXhXcXjXBXBXBXBXBXDXBXBXBXBXBXBXBXBXjXBXhXhXjXBXBXBXHXBXBXBXSXBXFXBXBXBXBXBXSXBXBXBXBXBXBXcXBXBXFXBXBXBXBXcXcXBXBXKX",
"BXBXBXBXBXxXBXBXBXBXBXBXcXhXhXhXcXhXhXcXcXcXhXhXBXBXBXBXvXBXBXBXKXBXvXvXBXBXBXKXHXBXBXBXBXhXhXhXhXhXhXcXcXcXBXjXhXBXcXxXhXcXBXBXxXcXcXBXjXhXBXcXBXcXBXcXBXBXcXhXcXBXBXBXxXcXBXBXBXBXcXBXBXBXBXBXBXBXBXBXBXBXBXBXBXBXBXBXBXBXBXBXBXcXhXhXcXcXhXBXBXxXBXjXcXBXBXBXBXBXBXSXSXBXBXcXBXBXxXhXhXhXhXhXhXBXjXjXhXcXBXhXBXjXjXhXjXjXBXBXBXBXjXhXhXhXhXBXBXjXhXcXBXcXhXBXjXjXBXBXcXBXjXcXhXcXBXcXjXBXhXBXBXBXBXhXhXhXBXBXhXcXcXBXBXBXBXBXcXcXcXBXBXxXhXBXBXxXcXhXBXhXhXBXBXSXBXBXBXBXFXBXBXcXhXxXBXBXBXBXBXBXBXBXBXBXFXBXBXBXBXBXBXBXBXKX",
"BXBXBXBXBXBXBXxXhXcXcXjXcXhXhXhXjXjXhXcXjXjXhXBXxXBXBXhXBXBXBXBXBXBXBXhXBXBXkXHXBXBXBXBXBXcXhXhXjXhXhXBXhXhXhXjXhXBXBXBXhXBXBXxXxXBXBXjXjXjXhXjXjXBXBXhXBXBXcXcXcXjXjXhXcXBXBXxXxXBXBXBXBXBXBXBXBXBXBXBXBXBXBXBXBXBXBXKXBXBXSXBXBXhXBXxXcXBXBXxXhXBXBXlXBXBXBXBXBXBXFXBXBXSXBXBXBXBXcXhXhXjXhXhXjXBXhXhXhXhXBXBXBXcXBXhXhXBXcXjXjXcXjXjXhXhXBXcXcXjXhXhXjXBXBXhXBXjXBXcXjXjXBXBXjXhXhXcXBXBXjXjXBXBXhXhXjXjXhXhXBXBXBXjXBXBXBXBXBXBXBXBXBXBXBXxXBXxXxXxXcXBXhXhXBXKXFXFXBXBXBXBXBXBXhXBXBXBXFXSXBXBXKXBXBXBXKXBXcXBXhXBXBXxXhXBX",
"BXBXBXBXBXSXBXBXhXBXhXhXcXjXjXhXhXjXhXBXcXhXxXhXhXBXBXBXBXBXhXBXBXBXBXvXBXBXBXBXBXBXvXBXBXcXhXhXhXhXhXhXhXhXjXBXcXxXBXBXBXBXBXxXhXxXBXjXhXBXjXBXBXjXjXhXBXcXBXcXcXhXBXcXBXBXhXhXBXBXBXBXBXBXBXSXKXBXBXBXBXBXBXBXBXBXBXBXSXKXBXSXBXhXcXcXBXcXhXBXcXcXjXjXBXBXBXBXBXBXBXhXBXBXBXSXFXBXBXjXcXcXjXjXBXjXhXhXjXcXjXjXjXBXBXcXBXBXjXjXhXhXjXjXhXhXjXjXhXcXcXjXBXjXBXBXjXcXBXjXcXBXcXBXhXjXcXjXBXhXBXjXBXBXhXhXhXjXhXhXBXBXBXBXBXcXhXBXBXBXBXBXBXBXBXBXBXcXBXxXhXBXBXBXBXBXKXSXKXKXcXBXBXBXxXBXBXcXBXSXBXxXSXBXBXBXBXBXBXBXBXcXBXBXBXKX",
"BXBXBXBXBXBXBXBXhXhXhXhXhXjXcXhXhXcXhXcXhXhXhXBXBXBXBXhXhXBXBXBXBXBXBXvXBXBXBXBXBXBXBXBXBXBXjXhXhXhXhXhXjXjXhXhXcXxXBXcXxXBXxXcXhXhXcXDXjXhXcXcXjXBXjXcXBXBXBXBXjXhXhXxXBXBXBXxXxXhXhXxXcXhXxXBXBXBXBXBXBXBXBXSXhXBXBXBXBXBXBXKXSXhXhXhXBXBXBXBXcXBXBXBXBXBXjXBXBXhXBXcXBXBXSXBXSXSXBXBXjXjXhXhXBXBXjXcXBXBXBXcXhXhXBXBXhXBXBXjXhXhXhXhXhXhXhXhXhXjXBXcXjXhXhXjXhXBXBXjXBXjXBXBXBXBXBXcXhXjXjXBXBXcXjXhXhXcXhXhXjXjXjXBXBXBXBXBXSXBXBXBXBXBXBXBXcXBXxXhXhXBXBXBXSXBXBXcXBXSXBXhXxXxXBXxXBXcXhXBXBXBXBXSXBXBXBXBXBXBXBXBXBXBXBXBX",
"SXBXBXBXBXBXBXBXcXhXhXhXcXhXhXjXhXhXhXhXhXhXcXBXBXBXBXBXxXBXBXcXxXBXBXBXBXBXBXBXBXBXhXvXBXBXcXhXhXhXhXhXjXhXhXhXcXhXcXcXcXBXxXcXBXhXcXjXhXhXBXcXBXjXjXBXBXBXBXBXhXhXhXBXxXBXBXBXBXhXhXBXBXxXhXBXBXBXBXBXBXBXBXBXBXxXBXcXBXBXcXBXKXBXBXBXBXBXBXBXcXhXBXBXcXhXBXhXxXBXBXBXhXSXBXBXcXBXBXBXhXcXhXjXhXjXjXcXjXBXBXcXBXhXjXBXjXBXBXjXjXhXhXhXhXhXhXjXjXhXhXjXhXjXhXcXjXBXBXfXhXhXBXcXcXjXBXhXhXBXhXBXBXcXjXhXhXhXhXhXjXjXjXcXBXBXBXBXFXBXBXBXBXBXBXBXBXcXxXBXBXBXBXBXBXBXBXBXhXKXBXxXBXBXhXaXBXSXhXcXBXhXBXBXBXSXBXBXBXBXBXKXBXcXBXBX",
"KXKXKXKXBXBXBXBXcXxXBXBXBXjXcXhXhXhXhXhXhXhXcXcXxXBXBXBXcXBXBXxXxXhXBXKXBXBXBXhXhXBXhXhXBXBXBXhXhXhXfXhXjXjXcXcXcXhXxXxXxXBXBXBXhXhXcXhXjXcXBXBXhXjXBXBXBXjXBXjXhXhXhXcXBXBXBXBXBXcXxXBXcXxXxXxXBXBXBXBXxXBXBXBXSXBXBXxXBXBXBXBXSXSXKXSXBXcXcXBXBXBXcXxXcXhXBXhXhXBXBXBXBXBXBXBXhXxXBXhXcXBXxXhXhXhXBXjXcXBXcXjXBXhXBXcXjXBXBXhXhXhXhXjXhXhXhXhXhXhXhXhXBXBXBXBXhXjXBXhXhXBXBXjXcXBXBXjXcXjXBXBXBXBXBXcXcXcXBXBXBXBXcXBXcXBXBXBXBXBXBXBXBXBXBXBXBXhXBXBXBXBXBXBXBXBXBXBXxXSXSXxXcXxXBXhXhXBXBXFXBXcXBXBXBXBXBXhXSXBXBXSXBXBXBXBX",
"BXKXKXKXKXHXKXHXBXkXBXhXhXhXjXjXcXjXcXhXhXhXhXhXcXBXBXBXBXBXBXBXBXBXBXBXBXBXBXBXvXBXhXBXKXHXBXhXxXhXfXhXhXhXhXcXBXhXxXBXhXBXBXxXhXhXxXBXcXcXcXcXhXhXcXjXjXBXjXBXjXhXhXhXcXcXxXcXBXBXcXBXcXxXBXBXBXBXSXBXhXBXBXBXBXFXBXBXBXBXBXvXBXBXBXSXBXBXBXBXBXBXBXBXBXxXhXBXBXBXBXBXBXBXxXBXhXBXcXBXBXBXBXxXxXBXBXhXhXcXBXcXjXcXcXBXBXBXBXhXhXcXBXBXjXhXhXhXcXjXhXBXcXhXcXBXjXcXBXjXhXBXjXjXjXcXhXjXBXBXBXBXjXjXhXcXBXBXBXBXjXBXBXjXjXBXjXBXBXjXcXBXjX4XfXBXBXBXBXBXBXBXBXKXBXxXBXBXBXBXSXcXxXcXcXBXBXBXjXBXBXxXcXBXBXBXBXhXBXBXBXBXBXBXBXBX",
"BXBXBXBXKXBXBXBXBXBXBXjXhXhXhXhXjXjXcXhXhXjXhXhXhXxXcXcXBXBXBXBXBXBXBXBXBXHXBXBXBXvXBXBXBXBXvXhXhXhXhXhXhXhXhXhXBXBXxXBXBXBXBXBXcXcXhXjXhXhXhXhXcXBXcXhXBXBXcXhXhXfXhXhXhXBXcXBXBXBXBXBXBXBXBXBXBXBXBXBXBXBXBXBXBXBXKXBXBXBXBXxXhXcXBXBXBXBXSXBXBXcXBXBXBXhXBXBXhXBXKXKXBXBXBXBXBXBXhXhXBXBXBXBXBXhXBXhXhXBXBXBXjXjXBXcXBXjXhXhXjXjXjXcXcXjXhXhXhXjXhXcXcXjXBXcXjXjXhXhXhXhXBXBXhXcXhXhXcXcXBXcXjXhXhXcXBXBXjXhXjXjXjXcXjXBXBXBXBXBXBXBXjXfXBXDXBXDXKXFXBXBXBXSXSXBXBXBXBXBXBXBXBXcXhXjXBXBXcXcXxXBXcXBXBXhXBXhXBXBXBXBXcXBXBXBX",
"BXBXHXBXBXKXBXBXBXBXBXBXjXhXhXBXhXhXhXfXhXhXhXBXhXhXhXxXxXBXBXBXhXhXvXBXBXKXBXBXBXBXBXBXBXBXkXhXhXhXhXhXhXhXBXcXhXhXxXBXxXcXBXBXhXBXhXhXhXhXhXhXhXjXcXjXjXjXfXhXjXjXhXhXBXBXBXBXBXBXxXcXBXBXxXBXcXBXBXBXBXBXBXBXBXBXBXSXBXSXBXBXxXcXhXBXcXBXBXBXBXBXBXBXBXBXBXBXBXBXPXKXBXBXBXBXBXBXBXhXBXBXBXBXBXhXBXBXhXcXBXBXhXjXcXBXcXhXhXcXjXhXhXjXBXjXjXBXhXhXhXhXcXBXBXBXBXhXhXhXhXcXjXBXjXFXhXhXhXcXBXcXjXcXhXjXjXjXBXBXjXhXcXBXBXBXBXBXcXjXcXBXBXBXBXBXBXBXBXBXBXBXBXSXBXBXBXBXBXBXBXcXxXhXBXjXBXBXBXhXhXxXBXBXBXBXBXBXBXcXBXcXBXBXBXFX",
"HXHXBXKXBXBXBXBXKXBXBXDXBXBXBXBXhXhXiXhXfXhXhXcXBXhXhXhXhXBXBXcXhXhXBXvXBXBXBXBXBXhXkXBXBXBXvXhXBXhXhXhXhXhXcXBXBXcXhXBXBXhXhXhXcXhXfXjXhXhXhXhXhXBXjXcXjXjXhXhXBXjXhXhXhXhXcXcXBXBXBXcXBXcXBXBXBXBXBXBXBXBXBXBXBXBXBXBXBXSXBXxXBXBXcXhXxXBXBXSXBXBXSXBXxXBXBXBXvXBXKXBXvXBXBXBXcXcXBXcXcXBXBXBXcXcXBXcXBXBXBXBXBXjXjXBXcXhXhXhXhXcXhXBXBXjXjXBXjXhXhXhXhXhXhXhXBXjXjXhXcXBXjXBXcXjXjXhXjXBXjXBXcXjXhXjXhXhXhXhXjXcXhXhXcXBXBXjXjXjXcXBXBXjXBXBXBXBXxXBXBXcXSXSXvXBXBXxXxXhXBXBXhXcXjXhXhXjXjXcXBXxXBXBXBXFXSXBXBXcXBXcXBXBXSXKX",
"BXHXKXKXBXBXvXBXBXBXvXcXBXjXjXBXjXhXiXhXhXjXhXcXBXxXhXhXhXxXhXcXxXvXBXBXBXBXBXBXBXhXBXBXBXBXBXkXvXvXhXhXhXfXhXBXBXBXBXBXBXxXxXhXBXBXhXjXhXhXhXjXhXBXcXBXjXjXjXhXhXcXcXcXxXcXBXcXBXBXxXxXBXBXBXBXcXBXBXSXBXSXBXBXxXxXxXBXvXBXBXBXjXhXfXhXBXBXBXFXSXSXFXBXBXBXSXBXBXBXhXvXBXhXcXhXcXcXhXxXhXhXBXBXBXBXxXxXBXcXhXfXhXhXhXcXBXhXiXhXhXBXhXhXhXjXcXBXBXBXjXBXhXhXhXhXBXBXhXhXjXhXhXjXjXBXjXhXhXjXjXcXBXhXcXhXjXhXhXhXhXhXjXhXjXjXcXBXhXhXBXBXcXjXhXBXBXBXhXcXBXBXSXSXBXhXhXhXhXhXBXhXhXhXBXfXiXcXhXhXcXBXBXBXBXBXKXBXBXBXBXBXxXBXBXKX",
"BXBXHXBXBXBXhXhXlXhXhXhXjXcXBXBXhXiXhXhXjXhXhXcXcXBXhXhXhXxXhXhXhXBXBXhXxXBXBXBXBXcXBXBXBXBXhXhXhXjXhXhXhXhXcXjXhXhXBXBXBXBXcXhXhXcXhXjXBXhXhXhXhXBXBXBXBXBXhXhXhXhXhXhXhXcXcXcXBXcXhXxXBXBXhXBXSXBXBXBXBXBXxXBXBXhXhXvXcXBXBXBXBXhXhXhXBXBXBXBXBXBXBXBXFXBXSXSXBXBXBXhXxXBXBXcXBXxXcXcXhXcXcXhXBXBXxXxXcXhXjXfXhXjXhXBXjXhXjXhXhXhXhXhXhXjXjXhXBXBXhXhXhXjXhXhXBXBXhXhXhXhXjXBXhXhXjXBXjXjXBXjXjXcXBXBXBXhXcXhXjXhXcXhXcXBXhXhXjXhXhXBXhXhXhXjXBXBXcXcXcXBXSXKXBXhXhXhXBXhXcXaXaXhXcXcXhXBXBXcXBXBXBXKXBXhXBXBXBXBXBXBXxXBXcXFX",
"BXBXBXBXBXBXhXjXBXjXhXjXjXBXBXhXhXhXcXBXBXhXhXjXhXhXhXfXfXhXhXhXhXhXBXBXBXBXBXBXBXcXBXjXBXBXhXhXhXhXhXhXhXhXhXhXhXhXcXBXBXcXBXjXjXhXhXhXjXBXhXhXBXBXBXhXjXcXcXjXhXjXhXjXBXBXBXcXBXBXxXBXBXBXBXBXBXcXBXBXxXBXhXhXxXBXxXhXBXcXBXBXBXcXjXcXcXBXBXBXBXBXBXBXBXBXBXBXBXSXBXBXBXBXBXBXcXcXcXhXhXBXBXhXBXBXxXxXcXhXhXiXiXhXcXjXcXhXcXcXjXjXcXcXhXcXhXhXhXjXcXjXhXhXhXhXhXcXhXhXhXcXhXhXhXhXcXBXBXBXBXBXhXhXhXhXhXhXjXcXBXhXhXhXjXcXBXBXhXjXBXBXhXjXhXcXBXBXBXBXjXhXBXKXBXhXfXBXSXBXxXcXhXhXhXcXjXcXcXhXcXBXBXFXBXjXBXBXBXBXhXxXBXBXxXSX",
"BXBXBXBXBXBXBXBXhXBXhXhXjXhXhXhXjXjXBXBXhXhXhXcXhXhXhXjXhXhXhXhXjXcXcXBXBXBXBXcXjXjXBXhXBXBXhXBXBXjXhXhXhXjXcXhXfXhXhXhXBXcXcXcXBXjXhXhXhXhXBXhXBXBXhXBXjXcXBXjXhXhXhXhXcXBXBXBXBXcXBXBXcXBXBXBXhXhXBXBXBXBXBXBXhXhXBXBXxXhXxXBXhXBXcXcXBXBXBXBXBXBXBXBXBXBXxXBXBXBXBXBXBXcXcXBXBXBXhXhXhXBXBXhXBXxXxXcXBXhXiXiXhXBXBXhXhXhXjXcXhXhXBXBXBXhXcXBXBXcXjXBXjXhXhXhXBXDXhXhXBXhXhXjXhXhXcXBXcXBXjXcXBXjXhXhXhXjXjXhXhXBXjXhXjXhXBXjXhXcXBXBXBXjXhXBXBXBXcXjXBXjXBXSXBXxXfXhXBXBXhXhXhXiXiXhXcXBXjXcXBXBXcXBXBXBXBXBXjXjXhXBXhXhXhXSX",
"KXHXKXHXBXhXjXBXjXcXhXBXhXiXfXhXhXhXBXcXhXhXhXhXhXhXhXhXcXcXhXfXhXhXfXxXcXcXBXcXcXhXhXhXfXhXhXcXjXjXjXhXhXhXhXhXiXiXhXhXBXjXjXBXBXBXjXjXhXcXBXhXBXjXjXBXBXBXBXBXhXjXhXjXhXhXhXhXcXBXcXcXxXhXhXBXBXxXBXcXxXhXcXBXfXiXBXBXhXhXcXcXcXjXBXBXBXBXBXBXBXcXBXBXBXBXBXBXBXBXFXBXSXBXBXxXBXBXBXBXBXKXcXxXxXBXxXhXfXiXfXhXBXhXcXBXhXhXcXhXhXhXhXBXBXhXcXBXBXhXcXhXhXcXcXhXBXcXBXcXjXhXBXBXcXBXBXBXcXBXBXjXBXBXhXjXBXjXjXcXhXiXBXcXhXhXhXBXcXjXhXhXcXcXhXjXjXcXjXjXBXjXBXBXcXcXhXfXhXBXcXBXBXhXhXhXhXhXcXBXBXBXBXBXBXBXFXhXhXfXhXBXhXhXxXBX",
"BXBXKXBXBXBXjXcXjXhXhXjXhXhXBXcXhXjXBXcXjXcXhXhXjXcXhXhXhXhXjXhXjXhXaXhXcXcXBXBXjXhXuXjXhXiXhXjXjXcXBXBXhXhXhXhXhXhXhXjXjXjXhXcXjXBXBXhXcXcXhXhXjXjXcXjXjXBXhXBXBXjXhXjXhXhXhXhXjXcXhXhXhXhXhXhXhXBXcXBXBXhXBXBXBXcXBXBXcXcXSXBXBXjXBXBXBXBXBXBXBXBXBXBXxXxXcXcXBXBXBXBXcXBXBXBXBXFXBXBXBXBXcXBXcXxXhXxXhXaXBXhXBXhXBXjXhXhXhXhXjXhXhXBXBXcXBXcXjXjXhXjXcXjXcXjXhXhXcXBXhXBXBXBXBXBXBXBXBXjXjXfXhXBXjXjXjXBXcXjXjXjXhXcXcXBXBXBXjXhXhXhXjXjXBXBXjXBXBXBXKXhXBXBXxXxXxXhXiXhXBXBXxXcXhXjXhXhXhXBXBXBXBXBXBXBXBXhXhXhXhXcXBXBXcXBX",
"HXBXvXBXBXBXjXhXhXhXiXiXjXhXiXjXBXBXBXjXBXBXcXhXBXBXcXhXhXhXhXBXBXhXhXhXhXhXhXcXcXBXBXhXBXBXhXhXjXBXBXBXhXhXhXhXhXhXhXhXBXhXfXhXjXcXBXhXBXBXcXhXjXjXhXjXBXBXBXBXBXjXjXhXjXcXjXhXhXhXhXhXhXhXxXcXxXhXxXBXBXBXBXBXBXcXBXBXcXcXBXBXjXjXBXBXBXBXBXBXBXBXBXBXBXBXhXcXhXhXBXBXcXBXBXcXBXBXFXBXxXcXBXBXBXhXxXBXBXBXcXcXBXcXBXhXhXjXjXjXBXhXhXBXcXhXhXhXcXBXhXhXcXhXhXBXhXjXcXhXcXcXBXBXBXBXBXBXBXBXcXjXcXcXcXBXcXjXcXjXjXBXhXhXhXBXBXjXcXjXhXhXjXjXBXBXcXhXjXhXBXBXBXBXcXxXBXBXBXhXhXhXBXBXhXBXhXhXcXcXBXhXhXBXBXBXBXhXjXhXBXBXBXBXBXBX",
"BXxXhXhXBXBXhXhXBXBXhXhXjXhXiXhXhXhXBXBXBXcXxXhXhXxXcXcXiXfXhXhXcXjXhXhXhXiXfXhXhXhXhXjXhXxXcXhXhXcXhXcXhXhXfXhXhXhXhXhXcXhXhXhXjXcXBXBXcXBXjXhXjXhXcXcXjXhXjXDXhXhXhXhXjXcXcXhXhXhXhXhXhXhXjXjXjXjXhXBXBXBXBXBXBXjXBXBXBXBXjXjXhXjXBXBXcXcXBXBXcXBXBXxXBXBXBXBXBXhXxXBXhXhXhXhXBXcXcXBXBXcXhXxXBXBXcXBXhXhXBXBXcXBXBXcXhXcXhXhXhXhXhXBXcXjXhXhXcXcXhXhXhXjXcXBXBXcXBXcXcXhXBXBXjXBXBXBXBXBXBXBXBXhXcXxXBXBXxXhXcXBXhXcXjXhXcXcXjXcXcXhXBXBXBXhXjXBXcXBXBXBXBXBXBXBXBXcXBXhXhXBXBXBXxXBXxXxXBXhXjXhXhXBXBXBXBXBXBXBXBXxXcXhXhXBX",
"hXxXhXhXhXBXBXBXBXlXlXBXcXcXjXhXfXhXjXcXjXjXBXxXhXhXBXBXfXiXhXBXcXcXjXhXhXhXhXhXhXhXjXhXhXxXBXxXhXhXBXcXhXhXhXcXBXjXhXhXhXjXhXhXhXhXhXjXjXhXhXBXjXhXjXjXcXcXcXcXhXhXhXhXcXjXhXhXhXjXcXhXhXhXhXcXhXhXcXBXcXjXcXBXBXhXhXBXBXcXjXjXcXjXjXBXBXBXBXBXBXxXBXBXBXBXBXBXBXBXxXhXhXhXBXSXcXcXBXBXBXBXBXxXxXBXcXBXBXxXcXBXBXBXcXcXhXhXfXhXfXcXjXBXBXBXcXcXhXcXcXcXBXBXcXhXBXBXcXcXcXBXcXBXjXjXhXhXBXhXcXBXhXBXBXBXcXBXBXhXBXBXBXcXhXhXjXjXjXjXBXBXjXBXBXjXBXBXjXBXBXBXBXBXBXBXBXBXxXcXhXBXBXhXcXBXhXhXhXhXhXhXhXhXcXBXBXBXBXBXBXBXhXcXhXBX",
"BXBXBXhXhXBXBXlXBXBXBXBXjXcXhXhXhXhXjXjXhXhXxXBXhXcXxXBXcXhXiXfXjXBXjXcXhXhXhXhXhXhXjXjXjXcXhXhXBXBXjXhXjXcXBXhXhXBXcXBXjXcXcXhXhXhXhXhXhXhXcXcXhXBXjXhXjXjXcXhXjXhXhXhXjXcXcXcXBXhXhXhXhXhXcXBXjXhXhXBXjXcXcXhXBXjXBXcXjXhXjXBXjXcXjXhXBXBXcXxXxXxXBXBXBXBXBXBXBXBXBXcXBXBXcXcXBXBXBXcXBXBXSXBXBXBXBXcXxXhXjXcXcXcXjXBXhXhXhXhXfXfXhXcXBXBXhXhXxXxXBXcXBXhXhXhXcXBXBXBXhXxXxXcXjXjXjXjXcXBXxXhXhXBXBXBXcXBXBXcXBXxXBXcXhXhXhXcXhXhXhXjXhXhXBXBXhXhXhXjXBXcXBXBXBXBXBXcXcXBXBXcXcXcXcXcXcXxXBXcXhXfXhXhXjXBXBXBXcXBXcXcXxXBXcXBX",
"SXBXBXxXBXBXBXBXBXBXKXBXhXhXhXcXcXcXjXcXhXhXxXBXxXcXcXxXBXhXhXhXhXhXhXBXhXhXhXhXhXhXhXjXjXhXhXcXhXhXhXhXBXjXjXhXhXhXBXjXcXcXhXhXhXjXhXcXhXjXhXhXjXhXBXBXBXjXhXcXcXjXhXhXhXhXBXBXcXjXhXhXjXhXhXhXhXhXhXBXcXBXiXpXfXhXjXcXBXcXcXjXcXBXcXjXhXBXxXhXxXBXBXBXBXBXBXcXBXxXBXBXBXxXBXBXcXBXBXcXBXSXBXKXBXcXBXcXhXhXhXhXhXjXjXhXfXhXjXfXhXhXjXjXcXcXhXhXcXBXBXcXxXjXhXjXBXBXBXBXBXhXhXBXjXhXhXjXBXBXBXhXxXhXxXBXBXBXBXBXBXxXBXBXhXhXjXcXhXhXhXhXhXjXBXBXjXjXjXjXBXjXBXBXBXxXxXBXBXBXBXBXcXBXhXBXBXBXBXcXhXiXhXhXcXBXBXBXhXcXcXcXBXxXcXBX",
"xXBXhXBXBXhXBXBXBXBXBXBXBXhXhXjXBXBXBXBXcXBXcXhXcXcXcXxXcXhXhXhXhXhXhXBXjXhXhXhXhXhXhXhXhXcXhXhXiXhXhXhXjXhXcXhXhXhXcXjXhXBXhXfXhXhXhXfXBXBXBXBXBXBXBXBXBXcXBXBXhXhXhXhXhXhXcXcXBXBXjXcXjXhXhXcXcXjXhXjXBXhXhXfXiXhXcXcXBXcXcXhXBXBXBXBXBXhXBXBXBXBXBXBXBXcXBXBXBXBXBXBXBXBXSXBXBXBXxXBXBXBXBXBXBXBXBXxXcXcXhXhXBXjXhXcXhXhXBXBXBXBXjXcXBXBXjXxXBXBXxXhXhXjXhXhXcXcXcXBXBXBXxXBXBXjXhXhXhXhXcXhXxXhXcXBXBXBXcXBXBXBXxXxXvXxXhXBXjXhXjXhXhXcXjXjXBXBXBXBXBXcXBXBXcXhXhXBXBXBXBXBXBXBXhXxXxXBXBXcXhXhXhXhXcXBXBXBXBXhXhXBXBXBXhXBX",
"xXvXxXBXKXBXBXBXBXBXBXBXBXBXBXcXjXBXcXBXBXcXBXhXBXBXxXBXcXBXBXhXhXhXBXBXBXjXhXhXfXfXfXiXiXfXfXfXhXfXhXjXcXjXjXhXhXhXhXhXhXhXxXhXhXhXhXhXBXBXBXBXBXBXBXHXBXBXBXBXxXBXhXhXhXhXhXxXBXlXBXBXBXlXhXhXhXhXjXcXBXcXcXcXcXhXcXcXhXjXBXBXjXBXcXcXBXBXBXBXSXFXBXBXBXBXBXBXBXBXBXhXBXBXBXBXBXBXBXcXBXBXBXBXBXBXBXBXBXBXBXBXcXBXBXcXjXhXhXBXBXBXBXhXcXBXhXhXBXBXBXhXhXhXxXcXBXcXBXBXBXBXcXcXcXBXcXhXhXhXcXjXcXxXcXBXcXcXBXBXcXBXxXxXvXBXcXhXhXBXcXjXhXhXBXBXcXBXBXcXBXhXBXcXBXjXcXcXBXBXcXBXcXxXxXxXcXBXBXBXBXcXhXBXhXBXBXBXBXhXcXBXBXcXhXBX",
"BXBXBXKXHXBXBXBXBXBXBXBXBXBXBXBXcXhXcXjXcXjXBXBXBXBXBXBXcXBXBXxXhXhXjXBXhXhXcXiXfXhXfXiXpXpXpXiXfXfXhXhXhXhXhXhXBXBXhXhXhXhXxXBXhXcXBXBXBXBXhXBXBXBXBXKXBXBXBXvXBXBX                                                                                                                                                                                        BXBXBXBXcXBXBXBXBXcXjXhXcXjXhXfXhXBXhXjXhXjXcXcXBXcXcXBXcXxXcXBXcXhXcXBXhXhXBXhXhXcXBXjXcXBXBXhXBXBXBXBXjXcXBXBXBXBXBXBXxXBXBXxXcXcXBXBXhXxXhXcXhXBXBXjXBXjXBXBXBXBX",
"HXKXKXHXBXHXBXBXBXhXvXBXBXBXBXBXBXBXBXcXBXjXcXhXhXBXvXBXBXhXhXhXBXBXcXhXhXBXBXhXhXhXiXiXiXiXiXpXiXfXfXiXhXjXhXjXhXhXcXjXBXxXcXcXhXcXcXhXvXBXBXBXBXHXBXBXBXKXBXBXBXBX                                                                                                                                                                                        BXBXBXBXxXxXBXBXBXBXBXBXjXjXhXhXhXBXhXhXcXjXhXcXjXhXcXcXxXcXBXxXcXBXBXBXhXhXBXjXjXcXhXhXjXBXjXhXBXBXBXBXBXjXhXBXBXBXBXBXBXBXBXBXBXxXBXBXBXcXhXBXcXcXBXBXhXhXhXhXhXDX",
"BXBXBXKXKXBXvXBXvXBXBXBXcXBXBXBXBXBXBXBXBXBXBXBXBXxXvXxXxXhXhXhXBXBXjXBXcXjXcXBXxXcXfXiXfXfXiXfXiXhXhXfXhXhXhXhXjXjXjXfXhXBXBXxXhXcXBXhXhXvXHXBXvXBXHXvXhXBXBXhXBXBX                                                                                                                                                                                        cXBXBXBXcXBXcXBXcXcXhXfXBXjXhXBXBXcXjXhXjXBXjXhXhXhXhXxXxXcXBXBXcXcXhXBXBXBXBXcXBXhXhXhXBXjXhXjXBXBXBXBXBXBXhXhXSXBXBXBXBXBXBXBXBXBXBXcXBXBXBXBXBXcXBXBXBXBXcXhXhXDX",
"BXBXBXBXBXBXvXhXvXKXKXBXBXBXBXBXBXBXcXcXjXBXBXBXBXvXvXxXBXcXhXhXhXhXhXBXBXBXcXhXBXBXBXfXfXhXcXhXhXhXhXiXhXjXhXcXjXjXjXhXhXcXBXhXhXxXBXBXhXhXBXBXBXBXBXBXBXBXBXBXhXvX                                                                                                                                                                                        BXBXBXBXBXBXBXBXBXhXhXhXiXhXBXcXBXBXcXhXhXcXjXcXjXcXhXxXhXxXxXxXcXcXcXcXcXcXcXBXjXhXcXhXjXBXBXBXBXBXBXBXBXBXBXhXBXBXBXBXBXBXBXBXBXcXBXBXBXcXBXBXBXBXcXBXBXjXhXBXjXBX",
"HXBXBXBXBXBXBXBXBXBXSXKXBXBXBXBXBXBXBXBXBXBXBXcXxXxXvXvXBXBXhXhXcXhXhXhXcXBXcXBXBXhXBXBXBXhXcXBXcXhXhXfXhXhXhXhXhXhXjXjXjXBXcXhXhXhXhXvXvXBXBXBXBXBXhXHXHXBXBXHXKXHX                                                                                                                                                                                        BXcXBXBXBXBXBXBXBXBXBXBXfXhXBXcXBXBXBXhXhXhXcXBXhXcXcXxXhXBXcXxXcXBXcXcXBXBXcXBXBXhXjXBXBXjXBXBXcXBXBXBXBXcXBXcXBXBXBXBXBXSXBXBXBXBXBXBXBXBXBXBXBXBXBXBXBXBXBXBXcXBX",
"BXBXBXBXBXhXBXBXxXBXBXBXBXBXBXBXBXBXBXBXBXcXBXBXxXBXBXBXxXhXhXBXBXhXfXcXBXBXBXBXBXhXhXBXcXhXBXcXhXjXhXiXfXBXhXhXhXhXhXhXBXhXfXcXhXcXcXxXBXBXBXBXBXvXBXBXBXHXBXBXBXHX                                                                                                                                                                                        BXcXcXhXBXBXBXvXvXBXBXcXBXjXBXhXcXcXcXhXBXBXxXxXcXcXcXBXcXhXhXhXhXhXBXcXcXcXxXBXcXBXhXhXjXcXBXhXjXcXBXBXjXhXcXBXBXBXBXBXFXSXBXBXBXcXhXBXBXBXBXBXBXBXcXhXBXcXBXBXBXBX",
"BXBXBXBXhXhXKXhXhXBXBXSXBXBXBXBXBXBXBXBXBXxXBXBXBXBXBXxXxXBXBXBXxXaXhXhXBXBXBXBXBXcXxXBXcXhXhXhXhXcXhXiXiXhXhXhXhXfXhXBXjXiXxXhXhXcXBXcXxXBXBXBXBXBXBXBXBXHXHXkXBXBX            l.q.{.V.M.}.V.8.v.|.M.^ 0.q.0.V.m.4.R R Y Y T Y *.=.w.t.r.=.;.5.5.9.%.8.B.M.4.>.9.8.8.D. XE <.D &.2.m m m C +.C C @.:.:.3.3.z.3.:.@.@.@.@.@.@.@.+.D z.b.b.3.:.:.            BXhXxXBXBXBXxXxXBXBXBXBXhXhXBXBXcXcXBXcXxXBXhXhXcXhXBXcXhXjXjXjXcXcXxXcXxXBXBXxXcXxXxXBXjXjXBXcXjXhXhXhXcXBXBXBXcXBXBXBXBXBXBXBXBXBXBXBXBXBXBXcXcXcXBXBXBXBXhXBXBXBX",
"BXBXBXcXhXBXBXhXBXBXBXBXBXBXhXBXBXSXBXBXSXBXBXBXBXBXBXBXcXcXBXhXxXBXBXBXBXcXBXBXBXcXcXxXcXBXhXhXhXcXBXhXiXhXhXiXjXhXjXjXjXcXBXcXhXBXcXBXBXcXBXBXBXBXBXBXHXBXBXKXBXHX            l.G.B.V.|.l.v.v.b.k.^ R.7XV.i.=.*.4.*.Y Y R *.$.$.U A I Y *.=.5.5.q.m.*.=.C.b.8.8.k.k.4.N.).*.:.C &.C C m V +.+.+.+.&.<.@.+.@.:.:.@.@.@.+.+.+.+.&.C.C.z.>.:.3.3.            BXBXcXBXxXxXBXxXxXBXBXBXBXjXhXBXhXxXBXhXcXBXhXhXxXhXjXBXhXhXhXjXBXBXxXxXxXBXBXxXxXcXBXBXjXhXcXcXcXBXcXhXhXBXBXhXBXBXcXBXBXBXBXBXBXBXBXBXcXBXBXBXBXBXBXBXBXBXxXxXcXBX",
"BXBXcXBXBXcXhXcXBXBXFXBXBXcXhXBXBXBXSXcXBXSXBXBXBXBXBXBXBXhXBXBXxXcXxXBXBXBXcXBXBXhXhXBXhXhXhXhXjXcXjXhXhXfXfXiXfXhXhXBXcXcXhXcXhXcXhXBXBXcXxXBXBXBXBXBXBXBXBXHXBXBX            k.k.B.|.0.b.v.8.8.N.oX*X(.x.Y =.q.=.-.=.5.=.*.*.R T *.$.*.4.l.>.*.n.!. Xy.5.C.8.8.8.G.}.f.w.&.<.+.m C C m m m +.+.2.&.m C C +.@.@.+.@.:.:.@.:.3.z.c.:.@.:.:.3.>.            BXBXBXBXBXcXBXxXhXcXhXhXcXBXjXcXhXhXjXcXhXhXhXfXhXhXBXcXcXjXcXcXxXBXBXxXxXhXxXBXcXcXBXcXjXcXhXcXjXcXBXcXhXfXhXhXBXBXBXBXBXcXBXBXBXBXBXBXBXBXBXBXBXBXBXcXcXxXBXBXxXBX",
"BXBXcXhXcXhXxXfXhXcXBXBXBXcXcXBXBXxXBXcXBXBXBXBXBXBXBXFXBXxXxXBXxXcXBXxXBXBXcXBXBXBXhXiXpXhXiXhXcXhXfXhXhXhXfXiXiXhXBXhXjXBXBXhXxXhXxXBXBXBXBXcXBXKXBXBXBXBXBXBXBXBX            8.k.b.8.l.0.*.8.Q.I.E.T.S.=.*.=.=.*.*.5.E N J 1.L T T B N N U >.-.8.n.s.XXs.e.x.-.9.d.W.oXt.Z +.@.C C C C V m C @.D m C +.D @.+.y.D.S C @.:.:.:.:.:.@.r.z.>.>.*.            BXcXhXBXBXBXBXBXhXhXjXhXhXBXjXhXcXcXjXBXfXfXcXhXhXhXcXBXBXcXBXBXBXBXxXxXxXhXhXBXBXcXxXjXjXcXjXcXhXhXcXjXBXhXBXBXBXxXcXxXBXBXBXBXhXcXBXBXBXBXBXBXjXBXBXcXcXBXcXBXxXBX",
"BXcXcXxXhXcXBXBXcXhXBXcXBXcXBXcXhXhXxXBXBXBXBXBXxXBXBXBXBXBXBXBXBXcXxXhXBXBXBXBXBXcXBXuX4XhXfXhXiXhXhXhXfXhXfXiXiXhXcXBXcXcXcXhXcXBXcXBXcXBXBXBXBXBXBXBXBXHXKXBXBXBX            k.G.k.4.m.4.i..Xa.T.XXm.R Y *.Y Y Y J h d d k j h B I Y A Z N N U $.x.q.~  X~ A.9.>.x.m.T.}.$.+.+.+.C C C V D <.+.+.@.+.-.9.t.5.~ / y.r.D +.+.@.:.@.&.D.>.>.>.q.            xXhXBXBXBXBXxXBXBXBXBXBXBXcXhXhXxXcXjXcXBXBXBXBXjXxXhXBXBXhXjXBXBXBXcXcXxXBXcXcXBXBXcXcXcXhXhXcXhXhXBXBXcXjXhXBXBXcXxXcXhXhXxXcXBXBXhXxXBXBXcXBXBXBXBXBXBXBXBXBXBXSX",
"BXBXhXxXBXBXxXBXSXBXBXBXBXhXxXBXxXxXxXBXBXBXBXvXBXBXBXBXcXBXBXBXBXBXBXcXBXxXBXvXxXcXxXcXBXhXhXfXpXfXhXhXhXfXfXfXiXiXhXBXBXxXhXhXhXcXhXBXhXcXBXcXBXKXBXBXBXBXHXBXBXBX            {.{.6.(.T.M.|.d.S.@Xy.Y =.9.*.Y T B d h h h B E w.*.A U F I T T N S R v.*.~ D.;.x.t.5.x.q.~.f.Q.T +.C <.+.m +.@.D +.*.t.a.Z.I.).).u.W y.2.+.+.+.@.@.:.>.3.8.N.j.            hXaXBXBXcXxXhXxXhXcXjXhXhXcXjXhXhXxXcXBXBXBXBXBXjXBXhXhXcXBXBXcXBXcXBXBXBXBXBXBXBXBXBXBXBXcXxXBXxXjXBXcXBXhXhXBXBXjXBXBXhXhXcXxXcXcXBXBXBXBXBXBXBXBXBXBXBXBXBXBXBXSX",
"BXBXBXBXBXBXBXSXBXBXBXBXKXBXhXhXBXxXBXBXBXxXBXvXBXBXvXBXcXBXBXcXBXBXBXBXBXBXBXBXxXBXhXhXjXjXfXfXfXfXuXfXjXfXhXfXiXpXhXjXBXcXcXhXhXfXfXBXhXhXhXhXhXBXBXBXBXHXKXBXBXBX            |.j.(.f.n.B.4.^ }.t.Y v.C.*.N N J h B J N I 5.;.*.U A U I A S &.Z N Q t.z.Y ~ r.9.A.A.*.8.N.m.(.A.m +.+.V C @.+.F %.f.].U.{ %X:X$X-XA.f.Y :.:.+.@.3.:.z.>.r.`.U.            hXxXxXcXcXBXhXhXhXhXcXhXhXhXcXhXhXhXxXBXcXjXBXBXcXjXBXcXjXcXBXcXhXhXcXBXcXBXBXBXBXBXBXcXcXBXxXBXBXBXjXhXjXcXhXcXjXhXBXBXxXBXxXxXBXBXBXBXBXBXBXxXcXcXBXBXBXBXBXBXcXBX",
"BXBXBXBXBXBXBXBXSXBXBXhXBXSXBXxXBXxXBXBXBXxXvXBXBXBXhXhXhXBXcXcXcXBXBXBXBXBXcXBXBXBXcXhXhXhXhXfXiXiXiXpXhXhXhXfXfXhXfXhXhXhXhXhXhXfXhXjXcXcXhXiXhXBXBXBXBXBXBXBXBXBX            q.N.q.4.b.6.6.M.i.4.G.V.Y h B ;.J T T S A Y =.*.-.-.-.$.#.#.F N Z N E r.-.8.4.;.;.r.E.y.9.t.q.Z.7XZ +.V 1.S @.+.;.N.E.Y.$X%XO.O.%X$XY.tXF.+.:.@.@.@.:.l.w.E.[.-X            hXxXBXBXBXBXhXhXhXcXhXhXhXjXhXhXxXBXhXBXhXjXBXBXBXjXcXjXhXhXhXhXhXxXBXBXcXcXxXBXBXBXBXBXBXBXBXBXBXBXjXBXjXjXcXhXjXBXBXBXBXBXBXBXBXBXBXBXhXBXBXBXBXBXBXBXBXBXcXBXBXBX",
"BXBXBXBXBXSXBXSXBXBXBXBXBXcXBXBXcXhXcXBXcXcXhXBXvXBXBXxXxXcXxXBXBXBXBXBXBXcXxXBXBXBXBXhXhXcXcXhXfXhXfXiXhXhXfXhXhXhXiXiXhXjXcXjXfXfXiXjXhXBXhXhXhXBXBXhXBXBXBXBXBXBX            9.8.b.B.C.t.m.N.d.D.9.A M M T T B E I Y R 4.r.5.^ 7.e.1.S I $.A Z Z N I $.*.q.*.,.I f.Q.e.f.t.a.wX$.+.m F.&.@.D A.Y.Y.$X>X....X...5X` U.'.$.,.#.+.D >.8.R.I.E._.            BXBXcXBXBXcXhXhXhXhXhXhXhXhXjXhXxXBXhXxXBXcXcXhXBXBXBXjXhXBXBXjXhXhXhXBXcXxXxXhXBXBXBXBXBXBXBXBXBXcXjXBXcXcXjXhXjXBXcXBXBXBXBXBXxXcXBXBXxXBXBXBXBXBXBXBXSXBXBXBXBXBX",
"BXBXBXFXSXBXBXBXBXBXBXBXxXxXBXBXBXhXcXcXBXhXvXBXvXBXBXBXcXhXcXxXBXhXhXBXBXcXxXvXBXBXxXjXBXhXaXhXxXxXfXhXhXfXhXhXhXhXhXfXiXhXjXfXfXfXfXhXhXhXhXBXBXBXBXhXhXBXBXBXBXBX            8.G.{.n.r.d.N.d.V.T h m N T Q j T U A Y 4.d.W e.R.P.A.I.m.;.Y S N Z Z Z #.I 9.r.;.$.=.XXa.Z.m.5.wXr.D +.Z +.@.&.w.U.$X%X..X.X. .X.O.%X` 7.e.S.*.C +.>.5.5.N.7.[.            BXxXcXBXBXBXBXcXBXcXBXBXjXhXcXhXxXBXhXhXhXcXjXcXBXBXjXBXhXhXhXjXhXhXcXcXcXBXBXBXBXBXBXBXBXBXBXBXBXBXBXjXBXcXhXhXhXhXjXBXBXBXcXcXBXcXcXBXBXBXBXBXBXBXBXBXBXBXBXBXBXSX",
"BXBXBXBXBXBXBXBXBXxXhXhXhXBXBXBXcXBXBXcXxXcXBXBXBXhXBXBXxXxXxXxXBXcXBXhXBXBXhXhXhXxXxXhXBXxXhXhXhXxXBXhXhXhXhXhXhXhXhXhXiXiXiXiXiXfXhXfXhXhXcXcXhXhXxXhXBXBXhXhXBXBX            {.M.e.5.5.J.V.n.Y h Z J J 1.Q w.u.A ;.=.5.7./ /.{ { } $XY.a.y.y.U Z Z m U #.Y m.5.,.$.}.T.N.S.W 9Xm.A <.+.@.+.%.R j.$X%X..X.X.X.X.| 3X[.~ ^ (.r.Z :.$.F.~ E.T.[.            hXBXjXBXBXBXxXcXcXcXjXcXjXhXhXcXjXBXBXjXhXjXjXBXcXjXBXhXcXhXhXjXBXBXcXjXBXcXcXjXBXBXBXBXBXBXBXBXBXcXcXBXhXxXjXBXfXhXjXBXBXcXcXcXBXBXBXxXBXcXBXBXBXBXBXBXBXBXcXBXBXBX",
"BXSXBXBXBXBXSXBXBXhXcXjXcXBXBXBXBXBXBXBXBXBXBXBXhXhXhXhXxXBXcXxXBXxXBXBXFXBXBXxXhXhXcXxXBXhXhXxXhXxXxXhXhXiXhXhXhXhXhXhXhXfXfXfXfXhXhXhXhXhXhXhXhXhXcXBXxXBXhXvXBXBX            0.r.e.e.|.D.9.N M N G m T T ~ A.Y S *.t.5.a.P.{ ..o.X...%XY.( j.=.A G J E T U t.r.9.I V.}.m.}.^ 9XD.B &.+.+.@.Y e.Z.$XO... .X.X.X...3XY.y.^ m.2.:.>.:.;.5.`. XA.            hXjXBXcXhXxXcXcXcXcXhXhXcXjXhXBXcXhXhXBXBXhXhXhXcXBXBXcXhXBXjXhXjXBXBXBXcXBXhXjXBXBXBXBXBXBXBXcXBXBXBXhXcXcXcXBXhXhXcXjXhXcXcXhXBXBXBXBXBXBXBXBXBXBXxXBXBXBXKXBXBXBX",
"BXSXBXBXSXBXBXBXBXBXBXjXBXDXBXBXcXhXcXcXBXBXBXBXcXBXxXxXcXBXcXBXBXcXcXcXBXxXcXcXxXxXBXBXxXhXxXBXxXxXhXhXcXiXiXhXhXhXhXhXhXhXfXhXiXhXhXhXhXhXfXhXcXBXhXhXxXBXBXvXvXhX            f.u.y.|.n.B h J H F V V S *.N.5.N F Y m.^ h.` O.X. .|  .| >X$X( t.A #.T D.J S w.9.;.-.q.|.y.}.t.}.r.Y ,.@.+.J F.A.P.Y.} .. .X.X. ...$XA.d.8.>.F :.>.:.$.=.t.N.7.            BXBXBXcXiXhXBXBXxXcXjXjXjXjXjXhXcXhXjXcXBXhXfXhXjXjXcXhXhXcXBXBXhXhXhXiXhXBXhXcXBXBXBXBXBXBXBXBXcXBXBXhXBXBXBXBXcXhXBXBXBXhXhXBXhXhXBXBXBXBXBXBXBXcXxXBXBXBXBXBXcXSX",
"BXBXBXBXBXBXBXBXBXBXBXFXBXBXBXjXjXBXBXBXBXBXBXcXBXBXSXSXBXBXxXxXhXxXFXBXxXxXBXBXBXBXBXBXBXBXcXxXxXcXhXcXiXiXiXhXhXhXhXiXhXjXhXhXfXhXhXhXhXhXjXhXcXxXhXBXxXxXvXBXBXBX            ~ f.N.=.h h h S U F V V N 9.m.W r.Y *.y.a.e.` .. . .| |  ...>X( x.A N #.y.J A 5.q.5.m.q.|.y. Xl.0.*.2.<.+.+.Z u.f.a.P.{ .. .X.X...O.U./.d.8.9.A 9.,.#.,.m.W a.S.            BXBXjXcXcXxXhXBXBXcXBXcXhXBXhXhXhXjXjXhXBXBXhXhXjXjXhXfXhXcXBXBXBXhXfXiXiXjXBXBXjXBXBXBXBXBXBXcXBXxXBXBXBXBXcXBXcXhXBXBXBXBXhXcXBXhXxXhXBXxXBXcXBXBXBXxXBXxXBXBXBXFX",
"BXBXBXBXBXBXBXBXBXBXBXBXBXBXBXBXBXSXxXxXBXBXBXBXBXBXBXBXBXcXhXhXcXcXBXBXBXBXBXBXxXBXBXBXBXBXxXhXhXxXcXcXfXuXiXhXhXhXhXfXfXhXcXhXiXfXhXhXhXhXhXfXhXxXBXBXxXxXBXBXBXBX            r.x.B h h h M 2.$.m V Z N m.m.r.c.Y ;.w.S.~ ( .. . .| | X...&Xa.x.m m #.A T A w.d.S.S.d.|.s.XXk.0.;.r.<.+.D +.V T / U._.' O.....} U.I.f.=.9.#.%.c.$.#.$.w.y.T.P.            BXBXBXBXhXBXhXhXBXBXBXBXcXcXjXhXhXjXhXjXjXcXcXjXBXBXhXhXfXfXhXhXBXhXcXBXjXBXBXBXcXBXBXBXBXBXBXxXBXcXBXBXhXhXjXjXcXhXBXBXBXhXhXxXhXxXhXBXBXBXBXxXBXBXBXhXBXxXcXBXBXBX",
"BXBXBXBXBXBXBXBXBXBXFXBXBXDXBXBXBXBXBXBXBXBXBXBXBXBXcXBXcXhXhXhXBXBXxXBXBXBXBXBXcXBXBXBXBXxXcXcXBXBXhXfXcXhXhXhXBXjXjXcXfXjXcXBXhXhXhXhXhXhXhXhXhXhXBXhXcXBXhXBXBXvX            m h h d k J M V Z m V V T y.m.N.9.$.Y ;.~ / ^ >X .|  . .X.>XU.d.t.h N #.S G S u.s.~.S.M.C.e.XX0.8.w.9.>.+.+.@.D M D.A.-X_.( { { Y./.( t.=.-.+.>.:.+.I #.#.*. XZ.            BXBXBXBXjXhXhXhXBXcXhXBXhXcXcXhXhXjXcXhXcXBXhXhXcXBXhXhXfXhXhXhXhXhXhXhXBXBXBXcXjXBXcXBXBXBXBXcXhXBXBXBXcXhXcXBXjXhXBXcXBXhXhXhXhXxXhXBXBXBXxXcXBXBXBXBXBXBXBXBXBXSX",
"HXHXHXBXBXSXBXBXBXBXBXBXBXBXBXBXBXcXxXBXBXBXBXBXBXBXxXBXBXBXBXhXxXBXcXxXcXcXBXBXBXBXBXBXBXcXBXBXBXBXhXhXhXjXBXjXhXjXjXBXjXjXcXjXjXBXBXBXhXhXhXhXhXhXcXhXhXhXhXxXhXBX            h h h h h m m V V m V Z ;.5.t.l.r.#.A D.W Q.h.` ..X.X.3X$XU.s.5.w.I 9.A N A &.u.Z.`.V.C.R h.W.4.*.1.,.z.+.+.&.2.Z U w.P R.a.h.E.`.s.t.c.$.#.z.<.+.#.#.I $.-.=.E             BXhXBXBXBXhXjXBXhXhXcXhXhXhXjXjXhXhXcXBXBXBXhXhXhXBXxXhXhXBXcXhXhXhXhXfXfXhXBXBXcXjXBXhXjXBXBXhXcXxXhXxXxXxXcXBXcXhXBXcXBXcXfXhXcXBXBXxXBXBXBXBXcXBXBXBXBXHXBXBXBXHX",
"KXBXBXBXSXHXHXKXBXHXBXBXBXBXBXBXBXBXxXxXBXBXBXBXBXxXBXBXBXBXxXxXxXxXBXxXxXhXBXBXBXBXBXBXBXcXhXxXhXcXhXjXhXhXjXBXjXhXBXhXBXBXBXBXjXcXjXBXBXBXBXBXhXhXBXhXhXhXhXhXhXBX            M h h h M V V C m V D Z *.5.V.-.-.+.D r.$.E y.5.U.$X$XY.f.D.u.w.*.U &.N J U ;.~ P.XXC.i.e.Q.t.0.5.*.9.:.+.+.Z G +.@.+.F +.#.;.y.y.%.:.+.:.z.z.S #.*.J Z -.-.%.@.            hXjXhXBXBXBXcXBXhXiXcXBXhXhXhXjXhXhXhXBXhXBXxXxXhXBXBXxXBXBXBXBXBXBXhXfXhXjXBXBXBXBXBXBXBXBXcXjXhXhXcXxXxXhXcXcXxXhXhXhXBXBXxXBXhXxXBXBXcXBXBXFXcXBXFXKXBXBXBXBXBXBX",
"KXKXHXHXHXHXSXHXBXBXHXHXHXBXBXBXvXBXcXBXBXBXBXBXBXBXBXBXBXcXBXBXxXhXxXBXBXhXiXcXBXBXBXcXBXBXxXxXcXBXBXhXhXhXhXhXhXcXjXhXhXBXBXBXBXBXBXcXBXBXDXBXjXhXhXhXhXhXhXhXxXcX            M M M M m C C C Z Z +.D r.w.W.9.#.$.F &.&.+.+.,.e.s.A.A.e.L J 2.F N N N T U I a.~.|.-.T.T.D.7.W.t.l.9.+.D D m m F +.%.%.+.F +.D +.@.@.:.3.z.V A *.$.m I l.,.Y #.            hXiXhXcXBXhXhXcXBXhXBXBXhXhXhXhXjXjXBXhXhXcXBXBXhXxXBXxXhXBXBXBXBXBXDXhXhXBXhXBXBXBXBXBXBXBXcXcXhXfXhXxXhXxXhXBXhXhXcXxXhXhXxXxXBXBXBXBXBXBXBXBXBXBXBXSXBXKXBXvXBXBX",
"BXBXKXHXHXHXHXSXHXHXKXKXHXBXBXBXvXBXBXBXBXBXSXBXBXBXBXBXBXxXBXBXBXhXcXBXBXhXhXhXBXBXxXcXBXBXBXhXBXBXBXBXhXhXhXhXhXhXcXhXhXjXjXBXBXBXcXjXjXBXBXBXBXBXhXhXhXcXcXhXhXcX            M M M M m V C m 1.u.V +.,.E T.n.%.r.I F F F 1.T 2.r.,.;.A I >.%.N N m S T A 9.~.XXv.7.(.e.q.v.r.R C.*.C D V m V V G F F &.c.*.:.:.#.%.*.*.Z U -.;.N Y l.=.$.8.9.            BXBXBXjXjXjXjXjXcXBXBXhXhXBXhXhXBXBXhXhXBXcXBXxXBXBXhXxXBXhXBXBXBXBXBXBXcXhXhXBXhXjXBXBXBXBXjXhXhXiXhXxXhXxXxXhXhXBXcXhXhXBXBXxXBXBXBXBXBXSXBXBXBXBXBXBXKXKXvXBXBXHX",
"KXBXKXKXHXHXKXBXHXKXHXKXKXKXBXBXhXxXBXBXBXBXBXBXhXBXBXBXBXBXxXBXhXhXxXBXBXBXxXhXBXcXBXBXBXBXBXBXhXcXBXBXhXhXBXBXhXhXcXcXcXcXhXBXBXBXcXcXjXBXBXBXBXBXBXBXhXcXBXBXhXcX            m M h M m m D V T w.u.U U Y Z.XX8.I I A I Z u.w.m G #.#.2.#.%.F N N J S B 9.|.~.J.4.S.a.0.v.8.K ,.>.V 2.D m m m Z +.+.+.#.&.#.@.,.z.,.#.#.;.,.*.Z F 9.8.$.;.9.#.            hXjXBXBXjXjXjXjXhXBXjXcXjXBXBXBXBXcXjXBXBXBXBXBXBXBXBXBXBXBXBXxXBXBXBXBXDXBXBXhXhXjXcXjXBXBXBXhXhXhXxXcXhXhXBXBXhXhXhXhXhXBXBXBXBXBXBXBXBXBXBXBXBXBXBXBXBXBXBXBXBXHX",
"JXKXBXHXSXKXKXHXHXBXBXHXBXBXBXHXBXBXBXBXBXBXxXBXBXBXBXBXBXBXxXxXBXBXBXBXBXBXBXhXxXBXBXBXBXBXBXxXBXxXcXBXcXcXhXcXcXcXBXBXcXcXBXjXBXBXBXBXxXxXcXcXhXhXhXBXBXjXBXBXBXcX            m M h M M m Z D +.A w.Y Y #.T oX!.6.d.K N G T &.U F G S J N Z Z N 1.y.*.r.T.!.J.0.n.Z.7.{.q.Y ,.z.C V T N Z Z F F D D +.<.*.%.+.<.*.F &.r.*.#.Z Z U -.9.;.$.I Z             hXiXhXBXBXBXhXcXhXhXBXjXhXhXjXBXHXBXBXBXBXBXBXkXBXBXBXBXBXBXBXBXBXcXcXBXSXSXBXBXBXBXcXBXBXBXBXhXhXhXcXjXhXcXcXBXiXhXBXhXBXBXhXhXcXxXBXcXhXBXBXBXBXBXKXBXBXBXBXBXvXBX",
"DXBXHXHXHXHXKXHXHXHXBXBXHXHXKXHXBXKXKXBXBXBXBXBXBXxXxXBXBXBXBXBXxXcXBXBXhXjXcXcXxXBXBXBXBXBXBXcXcXhXBXBXBXcXhXhXhXhXxXBXxXhXcXBXBXBXBXBXcXxXcXBXhXfXcXBXBXcXcXxXBXBX            M V M M m m Z D +.$.Y 9.t.x.E e.W.M.!.N.J N Z T &.&.,.#.r.*.A +.&.w.5.t.r.N.W.0.n.W.7.V.i.R U ,.+.+.D m Z J Z F F F F F #.&.+.D +.F &.2.U A Z N S -.9.,.F A N &.            BXhXcXjXBXBXcXhXhXhXBXBXjXBXcXBXBXBXBXvXBXBXBXvXBXBXBXBXBXcXBXBXBXBXcXhXhXBXBXSXBXBXBXcXhXcXxXhXhXhXhXhXcXjXcXBXhXcXjXhXcXBXxXcXBXcXxXxXBXBXBXBXBXSXKXBXBXBXBXHXBXHX",
"HXBXHXHXHXHXLXKXHXHXBXBXBXHXHXKXKXBXBXBXBXBXBXBXBXcXBXBXBXcXBXcXBXhXhXjXhXhXhXcXxXBXBXcXcXBXxXBXBXcXxXBXBXBXBXxXhXhXxXBXcXhXhXcXBXcXBXBXBXcXBXBXxXhXxXBXBXBXBXxXBXBX            E V V M m V Z Z ;.9.q.S.I.].'.R.a.f.W.W.Q.E J N m m m N T J S Y K j J 9.n.N.v.b.S.7.G.v.R T ;.+.C D V m V D Z Z Z Z D Z G V V D D +.S T &.N N N ,.q.Y U F m Z *.            BXBXBXBXcXcXBXBXBXhXhXBXBXBXBXBXBXBXBXBXHXHXvXBXBXBXBXBXBXBXBXBXBXBXBXBXxXBXBXBXBXBXBXBXhXBXBXBXBXBXjXjXcXjXhXcXBXBXhXcXhXcXBXhXhXBXBXBXBXBXBXBXBXBXBXBXBXBXBXHXBXHX",
"BXBXBXHXHXKXKXKXKXKXBXBXBXBXBXBXKXBXBXBXBXBXBXBXBXBXBXBXBXxXxXBXcXjXhXhXhXhXcXcXcXcXBXxXBXBXBXBXBXcXhXxXBXcXBXBXBXxXBXBXhXhXhXhXBXhXBXBXBXBXcXcXBXBXBXBXBXBXxXhXxXcX            f.D V M M m Z S r.y.d.R.8X=X-X8X(.e.d.g.T.W.r.r.$.T J Y N I $.-.U ,.l.C.5.6.C.C.4.C.C.I T m.G D +.Z V V V A r.y.e.u.r.T T 1.S V Z F G G S N A U 9.*.T #.m V *.9.            BXBXcXBXBXBXBXBXBXBXhXBXDXcXBXBXBXBXBXHXHXBXBXHXBXBXBXBXBXBXBXBXBXBXBXBXcXBXBXBXBXBXBXBXxXhXxXBXBXBXBXBXBXBXBXBXcXBXjXBXcXxXxXcXBXBXBXBXBXcXhXxXBXBXBXKXHXBXBXBXHXHX",
"BXBXBXHXKXKXHXBXKXKXBXBXBXBXBXBXKXBXHXBXBXBXBXBXBXBXBXBXcXxXxXhXhXBXBXhXhXjXcXBXBXBXcXBXBXxXBXBXBXBXBXBXBXcXhXhXBXBXBXBXcXhXhXhXhXBXBXBXBXBXBXBXBXBXBXBXvXBXBXBXBXBX            w.+.Z M M M m &.*.5.S.7X=X;X1X<X*X/.^ M.i.M.n.B.V.n.x.t.9.,.-.$.Y 9.,.R 6.b.q.R l.q.K Y T T Z +.F Z V m Y D.Q.h.E.`.~.R.R.s.9.$.T $.&.Z A A A *.$.U $.Z m $.9.;.            jXBXBXBXBXBXBXBXBXBXcXiXBXBXBXBXBXBXBXBXBXHXHXBXBXBXBXBXBXBXBXBXBXBXBXBXBXBXBXBXBXBXBXBXxXBXcXBXBXBXjXcXjXjXBXBXBXhXhXBXBXBXcXBXBXBXBXBXhXhXxXxXBXcXBXBXKXBXBXBXBXBX",
"HXBXBXHXHXHXBXHXBXBXBXHXBXBXHXKXKXBXBXBXBXKXBXhXhXxXBXBXxXhXBXBXBXcXhXhXBXBXBXxXcXBXhXcXxXBXBXcXBXBXBXBXBXBXBXhXhXhXxXcXBXhXBXcXhXBXBXBXBXBXhXxXBXBXBXvXvXBXBXBXBXBX            %.@.V m M m m %.8.5.(.-X&XIXIXdX_.(.d.n.V.i.6.6.7.N.a.4.=.*.I Y 5.y.e.4.k.8.*.,.;.E r.&.m V +.,.F D Z r.D.Z.s.A./.Y.I.Y./.E.W.5.Y N S F S N ,.;.*.$.Z V $.9.=.m             BXBXBXBXBXBXBXBXBXBXKXBXBXBXBXKXKXHXBXBXBXHXBXBXBXBXBXBXBXBXBXBXBXBXhXBXBXBXBXBXBXBXBXBXhXBXBXBXBXBXBXBXBXcXcXBXBXiXhXBXcXBXBXhXBXBXBXBXhXvXBXBXBXBXxXBXBXBXKXKXBXKX",
"BXBXBXBXBXBXBXHXBXBXBXHXBXBXBXKXBXvXBXhXhXBXBXBXBXBXBXBXBXhXBXBXBXBXvXhXvXhXBXBXxXBXBXBXcXxXxXcXhXhXBXBXKXKXFXSXBXhXBXcXBXhXxXBXBXBXBXBXBXSXcXhXhXBXBXxXBXBXxXxXcXBX            +.+.Z V V V V +.,.q.~._.&X1XIX<X_.`.j.R m.W.0.q.Z.Y.-XU.e.R *.5.5.w.5.8.;.R ,.#.T D.T m V Z #.A V D D t.Z./.Y.&X&X&X&X&X-XU.*XQ.K F.J Z N U ,.I ;.U m Z =.9.N T             BXHXKXBXKXBXBXKXBXBXBXBXBXhXBXBXKXHXKXBXBXBXBXKXBXBXBXBXBXSXBXBXBXBXFXBXhXBXBXBXBXBXKXBXBXBXhXBXBXBXBXBXBXcXcXjXBXcXhXBXBXBXxXcXxXBXBXBXkXkXkXBXBXBXBXkXvXBXBXKXBXKX",
"BXBXBXBXBXBXBXBXBXBXBXBXBXBXBXBXHXKXBXBXBXBXBXBXBXBXBXBXBXBXhXBXBXBXvXBXvXhXBXBXxXxXBXBXBXBXBXcXhXhXhXBXBXBXFXBXBXBXBXBXBXhXBXBXBXBXBXBXBXKXBXcXBXxXBXBXBXBXxXxXxXBX            V m m V C V V m U 5.S.oX-X&X<X=X7XE.s.K Y ;.7.j.$X>X..>X[.5.=.*.A I Y W E ;.$.F G N m m D &.G V Z D F D._.:X%X>X%X%X$X%X<X=XU.7XI.F.T Z N *.=.$.&.N Z *.9.*.*.$.            BXBXBXBXBXBXBXBXBXBXBXBXBXBXBXHXBXBXKXKXKXBXBXBXBXBXSXLXBXBXBXBXBXBXBXBXBXhXSXBXBXBXBXBXSXhXBXFXBXBXBXhXhXBXBXcXcXBXiXhXBXhXxXBXhXBXBXBXBXvXhXhXvXBXBXBXBXhXHXHXHXKX",
"BXBXBXHXBXBXBXBXHXBXBXBXBXBXBXBXBXBXBXBXKXHXBXBXBXBXBXBXBXBXBXBXBXBXBXBXBXBXBXBXcXBXcXiXhXBXBXBXBXcXxXBXBXBXBXFXBXBXBXxXBXhXBXcXxXBXhXBXBXBXBXBXBXBXBXBXBXxXhXxXcXBX            m M m V m m M M &.A =.D.`./._.`.E.T.w.T 2.N B /.>X3X....[.4.R ~ u.u.F.D.V.9.A V V V V Z &.&.Z D V G 5./.Y.%X>X>X..X...3X%X&X).Y.7Xf.I G Z $.y.U m J S 9.R T 5.A             KXHXvXBXBXBXBXBXBXBXBXBXBXBXBXBXBXHXKXvXKXKXHXHXHXBXBXfXuXBXBXBXBXBXBXBXcXhXxXBXFXBXBXFXKXxXBXBXBXBXBXBXxXhXhXjXcXjXiXhXcXBXhXxXxXBXBXBXKXBXhXhXBXBXBXBXBXBXBXBXBXKX",
"lXBXBXBXBXBXhXkXBXBXHXHXBXHXKXHXHXHXBXBXBXHXJXBXBXBXBXBXBXBXBXKXBXHXBXBXBXBXBXBXBXcXBXcXxXxXBXBXBXBXBXBXBXBXSXBXcXFXSXBXBXxXBXhXhXBXhXBXBXBXBXBXKXBXBXBXBXBXBXBXcXBX            m m Z J m m m M M Z T r.r.S.~.T.N.e.J T T j h F.&X>X3X>X_.5.m.F.u.Q u.x.,.F Z C C D Z G &.Z Z D D $.r.P.-X;X>X.. . . .X.3X%X=X-XI.S.*.T m <.Y N T J Y 9.Y r.U J             HXKXHXBXvXBXHXKXBXHXBXvXBXBXBXBXBXBXBXHXKXHXKXKXKXBXBXiXhXSXBXhXKXBXxXBXBXBXhXBXcXBXSXBXKXhXcXhXxXBXhXcXhXhXhXfXjXjXiXfXBXhXhXcXBXBXBXBXBXBXBXBXHXBXBXBXhXvXHXBXBXKX",
"BXBXBXBXKXBXBXaXkXBXBXBXBXBXBXBXHXBXBXBXBXBXBXJXBXBXBXlXBXBXKXBXBXHXKXBXBXBXBXBXBXxXBXBXBXhXiXcXBXBXcXBXBXBXxXhXhXBXFXBXBXhXBXcXBXBXSXSXBXSXBXBXBXBXBXFXBXxXxXBXBXBX            Z G D Z Z m D D V m J T N K u.w.T M M T L N D M / U.Y.I.w.I F Z N N I U Z D +.+.D G &.2.N 1.1.F G $.w.A.-X:X>X|  .X.X.X.o.5X$X&X/.f.Y T S S 1.Q L B 9.;.U *.G T             HXBXKXHXBXHXHXBXBXBXBXBXhXHXHXKXKXHXHXKXBXKXKXKXKXBXBXBXKXBXBXhXaXBXBXBXBXBXBXcXhXBXBXhXBXhXhXcXcXcXcXBXhXBXhXiXhXhXfXiXBXxXBXhXBXBXBXBXBXBXBXHXHXBXHXHXBXhXBXBXBXBX",
"JXBXBXHXHXBXBXBXHXBXBXBXBXBXHXBXHXBXBXBXBXhXvXBXBXBXBXBXBXBXHXKXBXBXHXBXBXBXBXBXKXBXBXBXBXKXxXhXBXBXBXBXBXBXhXhXxXBXxXhXBXBXaXBXBXxXBXBXHXBXBXBXhXKXKXBXBXKXBXvXxXBX            &.<.<.#.c.2.F #.#.#.S m m h h m Z C Z N D %.%.+.B 2.E A C C C V Z G $.F +.#.D Z &.2.&.J N J M ,.#.A y.A.[.&X%X.. .X.X.X.o.5X$X$X/.a.y.Y G m Q T B U ,.B -.F ;.B             HXBXBXBXKXKXKXBXBXBXBXBXBXBXHXBXKXPXKXKXBXKXHXHXHXBXHXBXBXBXBXBXiXBXBXBXBXhXhXhXhXhXBXBXhXBXBXBXBXBXBXcXBXBXhXhXhXBXhX4XuXBXBXBXxXBXBXBXBXHXHXHXBXBXBXBXKXHXBXBXBXBX",
"HXhXiXBXBXHXBXBXHXBXBXHXKXBXBXBXKXHXHXBXBXvXhXhXBXBXKXBXBXvXHXKXKXKXHXKXKXKXBXBXBXBXBXHXBXBXBXhXhXBXBXBXBXhXBXBXBXBXxXxXBXBXhXxXBXBXBXBXHXHXBXHXHXHXBXBXBXKXHXBXBXBX            D C C V Z &.2.2.&.&.2.&.2.T J M m m m C C C V V V D Z G D D D F +.#.#.&.+.V &.u.1.T N m V Z F ,.#.Y ~ A.Y.,X$X>XX.X.X.X.3X2X&X$XY.j.D.N N N U S A ;.A Y <.F I m             KXKXBXBXBXKXHXHXKXHXHXBXHXBXHXHXHXPXKXKXKXKXKXBXHXvXBXKXKXBXBXBXSXcXBXcXBXBXhXBXFXBXhXBXFXSXKXKXBXBXcXcXBXcXBXBXxXcXxXhX4XxXBXBXBXBXvXBXBXBXHXHXBXBXBXKXKXHXBXBXBXBX",
"BXBXBXHXBXBXvXBXBXBXBXBXBXhXBXHXBXBXBXBXBXBXhXvXvXHXKXBXBXBXHXKXHXKXHXKXBXBXKXKXBXBXBXBXHXBXBXBXBXvXcXBXBXBXBXBXBXBXSXBXBXBXBXhXBXBXBXKXBXBXBXKXBXBXBXBXBXKXKXBXBXvX            c.,.C C V C N L Q Z G &.J S Z V D F F Z m V Z Z F D F F G G &.&.&.+.D m L F.u.Q T Q Z Z +.<.>.#.#.*.7.T.P.` _.:X3Xo.....>X&XY.Y.I.S.e.N N m G Z #.G N $.F F U I             BXKXHXBXBXBXHXKXBXBXBXBXHXBXHXKXKXHXKXKXKXKXKXKXKXBXKXKXKXHXBXBXhXxXBXBXBXBXBXSXBXBXBXBXBXBXSXBXBXcXcXcXcXBXhXxXxXBXBXBXiXhXBXhXhXBXBXBXBXHXBXBXBXBXBXHXBXBXHXBXBXBX",
"BXBXBXBXBXBXBXBXvXHXBXHXKXvXBXBXHXBXhXBXBXBXBXBXBXBXBXHXKXhXvXBXBXBXHXKXHXKXKXKXKXBXBXBXBXHXBXBXBXBXxXcXBXcXBXBXBXSXFXKXKXBXBXxXhXBXBXBXBXHXBXBXKXBXBXBXHXHXKXKXBXBX            +.#.@.@.@.@.<.Q / J m V V G +.&.%.+.$.r.*.,.<.*.-.-.$.2.2.&.&.G V Z D T F.Q M V V m &.F #.%.:.#.;.,.5.s.8X` U.Y.$XO.>X>X<X_.` Y.R.~ f.u.h S Z A F Z F U Z #.$.*.            BXBXHXHXKXBXBXKXBXBXBXHXHXKXHXKXBXHXBXBXHXKXBXKXBXBXKXKXBXKXBXBXSXcXBXKXcXBXFXBXFXKXFXBXcXxXBXFXBXcXhXhXBXBXcXhXxXxXhXBXiXhXBXBXhXhXBXBXBXBXBXBXBXBXBXHXBXBXBXBXBXHX",
"vXhXvXBXBXBXvXBXBXBXBXBXHXHXBXHXBXBXBXBXBXBXBXBXBXBXBXvXBXBXBXBXBXKXHXBXBXHXKXHXHXKXKXHXHXBXvXBXBXBXxXBXhXhXBXBXBXBXFXBXBXBXSXSXhXcXBXBXBXBXBXBXKXBXBXBXBXBXKXBXBXBX            J Z @.:.@.@.@.&.2.&.+.@.+.+.F %.%.F &.2.#.&.&.&.&.&.G G Z m m Z Z D Z Z V C +.D V Z m N Z Z #.#.-.*.Z E s._._.-X$X$X;X$X[.I./.8Xy.I r.L N U &.T Z U $.F Z -.$.-.            HXBXBXBXHXBXBXBXBXHXBXBXHXHXKXBXBXBXBXHXKXaXhXKXBXvXBXKXBXBXKXBXBXBXBXSXBXBXhXBXFXSXSXFXSXBXcXBXBXBXxXBXxXcXcXxXhXhXhXBXiXxXBXhXhXhXBXBXBXBXBXBXBXBXHXKXHXBXBXBXBXBX",
"BXBXvXBXBXBXBXBXBXBXBXvXKXBXBXKXBXBXBXBXBXBXBXkXBXkXhXvXBXBXBXKXBXBXHXKXKXBXHXKXHXKXBXBXHXBXBXvXhXBXBXBXxXBXBXcXBXBXBXBXBXBXKXBXFXxXBXBXBXBXBXBXBXHXBXBXBXBXBXKXBXBX            R.D.F @.@.%.%.:.@.@.@.@.:.+.Z V +.+.F Z D D D G Z m m Z G G G U A F $.&.,.2.1.2.r.,.%.I U G $.F Z M M m.5.W A.Y.U.Y.Y.Y.`./.R.u.Y ;.S N S ;.&.M m #.-.I #.>.$.>.            BXHXBXBXKXKXKXHXBXKXBXBXHXBXKXBXKXBXHXKXBXKXBXKXBXBXBXKXBXBXBXKXKXBXBXBXKXBXhXiXBXBXBXBXBXBXBXBXBXBXBXBXxXBXBXBXBXxXBXBXhXhXBXxXhXBXBXBXBXBXBXBXHXBXHXHXHXHXBXBXBXBX",
"vXBXBXBXBXBXBXBXBXBXBXBXBXBXBXHXKXHXBXBXBXBXBXjXhXfXhXjXhXhXBXDXDXKXKXBXKXHXBXBXBXHXBXBXBXBXBXBXBXBXvXhXcXBXBXxXBXBXBXBXBXBXHXHXBXBXhXBXBXBXBXBXBXHXBXHXBXBXBXKXBXBX            a.y.$.N M m V m Z V V C V m V D +.+.D Z Z F Z N J T T m Z G $.T ;.w.U &.Y s.D.$.Y A #.$.$.*.;.;.$.S M T =.*.~ P.E.T.S.T.N.e.R K w.w.N A $.*.N h m #.%.*.*.#.$.l.            BXBXHXBXKXKXKXKXLXPXBXBXBXBXBXBXKXKXHXHXKXBXBXKXKXBXBXBXBXBXBXHXBXvXhXhXBXBXBXBXBXBXBXBXBXBXBXBXBXBXBXBXBXBXBXBXBXBXBXcXBXhXhXBXxXBXBXBXBXHXBXHXHXHXBXvXBXHXBXvXBXBX",
"BXBXBXBXjXBXBXBXBXBXBXBXBXBXBXBXHXKXKXBXHXBXhXBXhXiXfXBXfXiXhXhXKXBXKXHXBXHXBXBXBXHXHXBXHXBXBXBXBXBXBXBXBXBXxXBXBXBXBXBXHXBXHXBXBXBXhXhXJXBXBXBXBXBXHXBXHXHXHXKXHXKX            (.j.V.c.M V V V V V m M m &.&.&.D Z A $.2.A 1.A.A.F.f.m.m.;.=.y.m.D.D.x.4.8.t.x.t.y.w.Y S Y E w.u.&.Z G Y ;.=.w.m.R =.,.Y -.,.;.*.Y I $.I Z Z Z F *.%.$.*.F 9.D.            KXKXBXBXKXKXHXBXHXKXHXHXHXHXBXHXKXBXBXHXHXBXKXBXuXvXBXBXKXHXBXvXBXKXBXBXKXSXBXFXKXBXcXBXFXSXSXSXBXBXBXBXBXhXxXBXBXBXBXhXBXcXhXBXBXvXBXBXBXHXBXHXHXHXBXhXHXBXBXBXhXBX",
"vXBXxXBXBXBXBXBXBXBXBXBXBXHXBXBXHXBXkXBXHXHXBXBXjXhXhXBXhXhXiXhXBXBXBXKXBXBXKXBXBXHXHXHXKXKXHXHXBXBXBXBXBXBXBXBXBXBXBXBXBXHXKXKXBXHXBXhXhXHXBXBXBXBXBXBXBXHXKXKXKXHX            _./.P.D.A +.Z V m V Z r.r.;.T Z F $.;.2.2.*.t.s.e.e.D.y.w.5.q.W.|.|.!.M.0.0.0.v.n.V.|.|.x.5.=.Y $.&.G G +.<.&.S S #.%.:.<.:.#.I :.:.*.#.Y r.*.%.*.I -.r.*.$.9.r.            BXHXBXBXBXKXKXKXKXKXKXHXKXBXBXKXKXKXKXBXKXKXKXhXBXLXBXKXKXHXKXvXvXBXKXKXHXBXhXSXSXKXBXBXFXSXSXFXBXBXBXBXBXcXhXBXBXBXBXBXBXcXhXxXBXxXBXHXHXKXBXBXHXKXHXBXBXBXBXHXBXBX",
"xXBXBXhXhXBXBXBXBXHXBXBXHXBXHXBXBXBXBXHXBXHXBXBXhXhXhXhXhXhXhXhXBXBXBXBXhXhXBXBXHXBXBXKXKXBXBXBXHXBXBXBXBXBXBXBXBXBXBXBXBXBXKXKXBXBXBXBXhXBXBXBXBXBXBXBXHXvXBXHXKXBX            %XY.].s.I V m M h M Y D.Q B N F $.5.t.9.5.8.8.4.4.4.5.7.a.d.N.J.M.i.d.N.J.J.N.q.7.4.8.0.q.d.D.r.=.$.&.,.#.D A ;.2.F #.%.*.*.I m.c.I $.I $.R Y *.Y t.r.5.Y $.*.-.            BXBXBXBXHXKXKXHXHXKXBXKXHXBXHXBXKXLXKXHXKXKXKXKXKXKXBXKXHXHXKXBXhXBXKXKXBXBXBXBXSXKXKXBXBXBXBXBXBXBXBXBXBXBXBXFXBXBXBXBXBXBXhXhXhXvXBXBXBXBXBXBXBXBXBXBXBXHXBXhXBXHX",
"BXxXcXBXBXBXBXBXBXBXBXBXBXBXBXHXBXvXBXBXBXHXhXhXBXjXxXhXhXhXhXBXcXhXkXBXBXBXBXBXBXvXBXKXKXKXHXBXBXBXBXBXBXBXBXBXvXhXBXHXBXHXBXBXBXKXBXBXBXhXBXvXBXBXBXBXBXBXBXHXHXBX            3XY.Y.R.Y N Z m J r.T h J &.I $.C.|.0.5.5.r.t.4.d.W.(.'.'.~.H.g.p.i.M.M.H.H..X+X~.N.d.d.N.N.R.~.Q.y.I U ,.#.+.#.*.#.+.+.#.*.%.;.;.2.$.U $.R D.S.a.h.W.!.x.=.=.,.            BXBXHXHXHXKXKXKXBXKXvXKXHXKXBXBXBXKXHXKXBXKXHXBXHXBXBXKXKXHXHXBXBXBXBXBXBXBXBXBXBXFXSXKXBXBXBXBXSXSXBXBXSXBXBXcXBXBXBXBXBXBXBXhXiXvXBXBXBXBXHXHXBXBXBXBXHXBXvXBXBXKX",
"BXvXBXBXBXBXBXBXBXBXBXBXBXBXHXBXhXBXBXBXBXBXBXBXBXBXBXBXcXhXcXBXhXhXBXvXBXBXBXBXKXBXKXHXKXKXKXKXKXBXBXBXBXBXBXBXBXBXBXBXBXBXBXBXBXBXBXBXBXhXBXBXBXBXBXFXBXBXBXBXBXBX            3X&XY./.E 1.S A ;.E T ;.;.Y 5.|.H.~ 5.}.}.!.N.d.W./.'.*X7XwXXXM.|..X.X~.!.W.H.W.~.|.N.W.W.T.R.`.E.T.d.=.8.>.#.:.,.9.*.D F #.>.>.U r.*.Y Y W.E.Z.h.h.s.h.f.4.9.9.            KXBXBXSXKXKXBXBXKXKXKXKXKXKXKXBXBXBXBXHXKXKXKXKXKXBXBXKXKXKXBXBXHXBXBXBXBXBXBXBXBXBXFXBXBXBXBXxXHXHXBXBXBXBXBXBXBXBXBXBXBXBXSXhXaXBXvXBXHXBXHXBXHXHXBXBXKXBXBXBXBXBX",
"vXBXBXBXBXBXBXBXBXBXBXBXBXBXBXBXhXBXHXBXBXBXBXBXcXBXhXBXBXBXhXBXvXhXBXBXhXBXKXHXKXKXBXHXKXKXHXKXKXKXKXBXBXBXBXBXBXBXBXBXBXhXBXBXBXBXKXHXKXBXBXBXBXBXBXjXBXcXcXBXBXKX            5XY.Y.R.7.R Y 9.U I -.#.$.q.V.a.( T.}.J.d.g.E.oX7X8X=X-X`.R.T.W.N.Z.R.`.'.].(.T.g.n.v.N.~.T.R.7X*XE.W.|.n.v.9.$.&.*.,.#.F ,.,.>.*.c.;.R e.j.].).).9X7X*XoXQ.4.8.            BXKXBXBXBXBXBXBXKXKXKXHXKXKXKXBXBXBXKXKXKXKXKXBXHXBXBXBXBXKXBXBXHXKXBXBXHXBXBXBXBXSXSXBXBXBXBXvXHXHXHXBXBXBXBXBXBXBXBXBXBXBXBXxXhXBXBXBXHXBXBXBXBXBXBXBXHXBXBXBXkXkX",
"vXBXBXBXBXBXBXBXBXBXHXHXvXHXHXBXBXHXBXBXBXBXfXiXfXcXcXcXBXhXhXBXBXxXhXBXhXhXBXHXHXBXBXHXBXKXHXKXKXHXHXBXBXBXBXBXBXBXBXBXHXBXBXBXBXBXBXBXBXBXBXhXFXcXhXiXfXpXfXhXBXKX            Y.A.R.7.4.;.T E ;.*.-.-.0.i.j.S.T.H.M.B.M.XXwX].)._.-X*X*X8X8X9X7X7X7X(.~.OXeX9X(.h.n.i.6.q.N.E.'.'.`.W.W.q.q.D.u.U F #.G F r.;.9.,.r.E / _.rX_._.Y._._._.OXQ.4.            BXBXBXBXBXBXBXBXKXKXKXHXBXKXKXBXBXHXBXHXHXKXBXBXHXBXBXHXBXBXBXHXKXKXBXBXHXBXBXBXBXBXBXBXBXBXBXBXBXBXKXKXBXvXHXKXBXBXhXBXBXhXBXBXhXBXHXBXBXHXBXBXBXBXBXBXBXBXkXBXBXBX",
"vXhXBXBXBXBXBXBXBXBXBXBXBXBXBXBXBXBXBXBXKXBX4XfXhXBXSXBXBXBXBXBXBXBXBXhXhXhXBXBXBXBXBXBXBXBXBXKXKXKXHXBXBXBXBXBXBXBXBXBXBXBXHXhXBXBXBXBXBXvXBXhXxXhXhXfXfXjXcXhXBXKX            /.T.N.m.;.T E d.i.9.4.7.Z.T.g.i.n.N.B.v.0.g.j.f.~.oX/./.].`.~.T.T.R.R.Q.N.d.h.(.9XOXW.n.v.0.6.q.N.(.(.`.Q.q.4.m. Xu.A F r.&.;.;.$.x.r.^ '.,X_.$X&X$X&X&X_._.`.D.            BXBXBXBXBXBXBXBXKXKXKXBXBXKXLXKXBXhXBXKXKXKXKXHXHXBXBXKXBXBXBXBXBXBXBXHXHXBXBXBXBXBXhXBXBXBXBXvXBXKXBXHXBXBXKXKXBXBXBXBXcXxXhXhXaXhXHXHXBXHXBXBXHXBXHXBXBXBXhXBXBXKX",
"BXBXHXBXBXBXBXBXBXBXBXBXBXkXiXBXBXvXBXHXBXBXiXiXiXBXSXKXHXBXBXBXBXBXhXhXhXaXhXBXBXHXBXBXKXBXHXKXHXKXKXBXBXKXBXBXBXvXBXBXkXBXBXBXBXBXJXHXHXBXkXhXiXcXBXjXBXBXBXBXBXSX            R.a.t.R *.y.W.J.W.S.N.~.D.p.M.J.J.n.6.6.n.V.~.~.~.T.R.(.~.R.E.~.T.N.d.f.y.x.4.^ 7.h.T.N.l.v.n.t.4.d.~.E.(.W.7.4.m.~.x.Z r.2.F m.*.N.7.S.=X$X;X2X>X5X3X2X<X-X_.R.            BXcXBXxXvXBXBXBXBXBXKXHXBXHXKXKXKXhXhXKXBXBXHXKXKXBXBXBXBXKXBXHXBXBXBXhXKXBXBXBXBXhXBXHXKXHXBXBXBXKXBXBXHXBXHXBXHXvXvXBXBXBXBXBXhXhXBXBXBXBXBXBXBXHXBXhXhXBXvXBXvXBX",
"BXBXKXHXBXHXBXkXBXBXBXBXvXBXhXvXvXvXBXBXhXBXBXiXhXhXhXBXKXBXHXHXBXBXBXBXhXhXBXhXBXBXBXBXBXBXBXBXBXKXKXHXHXHXHXBXvXBXBXBXBXBXBXBXBXJXJXHXHXBXhXhXvXBXBXBXBXjXBXBXBXKX            ~ R 5.q.v.!.W.N.S.T.W.q.i.J.|.M.0.0.n.J.T.~.E.P.h.f.Z.h.a.d.i.i.q.i.m.m.7.t.V.J.W.N.7.4.8.8.l.C.m.4.M.~.~.OXW.q.6.d.}.;.Z #.G ;.q.f.a.P.Y.&X%X3X3Xo.o.3X%X;X-XI.            BXKXBXBXBXBXkXHXKXBXBXLXBXuXBXKXKXBXvXBXBXBXHXHXBXKXKXKXKXBXKXBXBXBXBXBXBXBXBXBXBXBXBXHXBXKXBXhXBXBXBXBXBXBXBXBXHXhXBXBXBXBXBXBXcXhXBXBXBXBXBXBXBXBXBXhXhXhXBXvXBXBX",
"BXBXBXBXHXBXBXBXBXBXBXBXBXhXcXjXhXvXhXBXBXhXvXhXhXBXkXBXBXBXBXKXKXBXBXBXBXkXhXkXBXBXBXBXHXBXvXBXHXBXBXHXBXHXKXKXHXBXBXBXBXBXhXhXkXBXJXBXBXBXBXvXBXBXvXvXHXBXvXBXKXKX            / W.b.i.J.d.t.N.q.v.n.N.T.XXi.0.b.J.W.^.`.'.`.E.R./.(.e.5.t.q.q.d.d.i.N.N.N.n.6.d.~.+XW.q.4.8.q.C.l.0.n.M.wX7XS.~.W.Z.D.#.#.,.#.;.5.d.E.$X$X>X3Xo.X.o.6X3X2X;X[.            SXBXBXBXBXvXBXHXBXKXBXBXKXhXhXKXKXHXKXKXBXBXHXBXBXBXHXKXKXBXBXBXBXBXBXBXBXBXBXSXHXHXKXKXKXKXKXBXBXHXKXBXKXBXBXBXBXxXxXBXBXBXBXBXBXfXcXBXBXBXBXBXBXBXBXvXvXkXhXhXBXBX",
"BXBXBXBXBXBXBXBXBXkXBXBXBXhXBXBXBXBXhXBXBXBXhXhXhXBXBXBXBXHXBXHXHXKXHXBXBXBXBXBXkXhXBXBXHXBXBXBXBXBXBXBXBXBXBXHXBXBXBXBXBXBXlXBXlXhXBXBXHXBXhXhXhXBXBXBXBXBXhXBXBXKX            T.6.i.V.a.h.N.8.n.J.N.).yXOXd.|.|.H.(.7X_.Y._.oX7X9XR.5.4.*.*.E A.S.Z.T.S.N.J.V.6.^ N.oXXXN.8.8.z.9.4.0.0.m.wX/./.7X).(.c.Z x.z.*.*.7.`.Y.;X4X3Xo...3X6X3X5X;X-X            FXFXBXBXBXvXBXBXBXhXHXBXKXKXBXhXBXKXKXHXKXHXHXHXBXKXPXLXKXHXBXKXHXhXhXBXvXBXSXHXBXBXKXBXKXBXBXBXBXBXKXBXBXBXBXBXBXBXxXBXBXBXBXBXBXBXBXjXBXBXBXBXvXBXBXBXvXkXhXhXhXBX",
"BXBXBXBXHXBXBXBXBXhXBXSXBXBXBXBXBXHXBXhXvXvXBXhXhXBXBXBXBXBXHXBXBXBXKXHXKXBXBXBXkXhXhXvXBXBXBXBXBXBXKXKXKXKXBXBXBXBXBXBXBXBXBXJXKXKXBXBXBXkXkXBXhXhXBXBXBXvXBXBXBXBX            ^ V.}.Z./.~.6.n.H.W.7XyX7X/.XXJ.i.T.)./.'.7XoXW.M.d.5.*.=.5.;.*.E w./ / e.w.f.|.|.N.^ Z.~.XXW.8.8.8.0.8.l.5.Z.(.R.'.*X`. XT Y 9.$.*.a.oX` &X4X3Xo.o.o.o.3X4X&X-X            BXKXBXBXBXBXBXBXBXBXBXBXKXKXKXhXhXKXKXBXBXBXHXKXBXHXKXKXKXKXHXHXBXHXKXKXHXBXKXBXBXHXHXHXBXBXBXkXBXBXHXHXBXBXBXBXBXSXhXBXBXBXBXBXBXhXhXBXBXBXBXBXBXBXBXBXvXvXBXBXhXBX",
"BXBXBXBXBXBXvXBXBXBXHXBXhXhXxXhXhXhXBXBXhXiXBXhXhXBXhXBXBXBXBXBXBXBXBXBXBXBXBXBXBXhXhXhXvXBXBXBXBXBXBXHXHXHXHXBXBXBXBXBXBXBXJXBXJXJXBXBXBXBXBXBXBXBXBXBXBXBXHXBXHXBX            .X.XH.~.P.q.v.N.'.wX7X(.~.~.v.0.i.I.7X9X).Z.h.q.0.q.8.=.;.*.$.$.-.R R ;.5.5.E ~ d.V.t.a. XT.XXW.4.0.0.C.8.t.e.7.m.(.8X/.(.y.N x.=.R a.9X` &X%X%X3Xo.o.3X>X;X-X-X            SXBXKXSXKXBXBXKXBXBXBXBXhXBXKXBXHXKXKXBXHXKXvXBXKXBXBXHXBXKXHXkXBXKXBXHXLXBXBXBXBXBXHXBXBXKXHXBXvXBXHXHXBXhXBXFXBXSXxXBXBXBXBXBXBXhXhXBXhXBXBXHXBXBXBXBXBXBXBXvXBXBX",
"BXBXvXBXvXhXkXBXvXHXHXhXaXxXhXxXxXiXhXhXvXBXiXhXvXhXBXBXHXBXBXBXBXBXBXBXvXBXBXBXBXBXvXhXhXhXvXBXHXBXKXBXBXKXKXBXBXkXBXBXBXBXBXBXBXBXBXBXKXBXBXBXvXBXBXBXBXBXHXKXLXLX            H.i.7.W.~.d.!.eXwX`.W.h.H.i.0.h.7XyX].Z.Z.R.D.5.Y $.$.*.5.w.;.*.t.r.E B $.t.C.5.R r.m.R e.R.P.OXm.6.v.n.C.d.~.7.4.f.*X'.h.N.*.f.y.;.5.(.Y.-X1X;X%X%X>X>X;X$X=XY.            hXcXBXBXBXhXBXBXBXBXBXBXhXhXBXHXHXHXKXBXBXKXBXkXvXBXBXHXBXHXBXvXKXKXBXKXKXBXJXBXBXBXBXBXBXBXHXBXBXBXHXBXBXBXBXBXBXBXxXBXBXBXBXBXBXcXhXBXBXBXBXBXBXBXBXhXBXBXBXBXHXHX",
"BXvXBXBXBXBXBXhXBXBXhXhXxXxXhXhXhXBXhXhXkXiXuXhXBXvXBXBXBXBXHXBXBXBXBXBXBXBXBXBXBXHXBXvXhXhXhXhXBXBXHXHXHXHXBXBXBXBXBXBXvXBXBXBXBXBXBXhXxXBXhXBXvXhXhXBXHXBXBXKXLXKX            d.T.+XOXR.oXyX*X/.h.d.M.6.i.!.eX7XA.I.).s.E $.$.A I >.9.D.t.=.=.9.q.m.y.B B R m.5.R Q.D.R f.R.(.oX7.N.d.V.W.T.8.8.4.Z._.T.q.q.7.5.*.=.4.R.U.$X$X$X;X$X$X$X=X_.j.            hXBXBXBXBXhXBXBXBXBXBXBXBXxXSXSXBXBXBXBXhXBXBXBXvXBXBXBXKXBXBXBXBXKXBXHXKXHXKXJXHXBXBXBXBXBXHXKXHXBXKXBXBXBXBXhXBXBXhXBXBXBXBXBXBXcXhXBXBXBXBXBXBXBXBXBXBXBXBXvXvXBX",
"BXBXBXvXBXBXBXBXjXcXBXhXcXaXiXhXcXhXBXcXhXhXBXkXBXBXBXHXHXBXvXBXkXBXBXBXBXBXBXBXBXBXBXBXBXfXhXhXhXjXBXBXHXHXBXBXBXBXHXHXvXkXBXBXBXjXhXjXBXhXhXBXBXvXBXvXBXHXvXvXLXKX            `.OX].Y.'.]./.(.T.d.i.6.n.|.j.Z.I.].A.K I *.U J #.,.%.I B U ;.>.8.q.l.J.}.w.B ~ T.W ( /.f.e.(.R.'.XXe.W.Q.~.~.0.8.>.d.(.(.q.5.t.4.8.Y >.*.a.'.Y.Y.&X$X$X;X-X( Q.            BXBXKXBXBXBXBXvXBXBXFXSXcXBXBXBXFXBXSXBXxXKXBXBXBXBXBXBXBXBXBXBXvXBXBXHXBXBXBXHXKXBXBXBXKXKXHXBXHXHXHXBXBXBXBXBXBXBXBXBXBXBXBXBXSXSXaXhXSXBXxXxXBXBXBXBXBXBXHXBXhXBX",
"BXvXvXhXvXBXhXhXcXjXBXBXhXfXhXBXhXhXcXjXBXhXhXBXhXBXBXvXBXBXhXhXBXHXBXBXBXBXBXBXBXBXBXBXKXhXhXhXhXhXBXBXBXBXBXKXHXBXBXHXBXhXBXBXhXjXiXhXhXhXhXBXBXvXBXBXhXBXHXhXhXBX            ( E.`.OX`.R.E.~.J.6.6.J.J.7.j.7X7XE N #.-.S M Y 9.=.*.;.E u./ / f.5.l.l.t.W.r.I x.D.~ y.D.W Q.(.A.9XZ.h.Q.~.oXT.l.8.0. Xh.m.4.q.0.b.*.=.*.R m.W.P./._.*X/.j.d.5.            BXBXBXBXvXhXHXBXvXBXBXKXBXBXBXSXKXBXBXBXBXBXvXBXHXHXHXHXkXBXBXHXBXBXBXBXBXBXBXBXBXBXHXBXBXKXKXBXBXBXkXBXBXBXBXvXBXBXBXBXBXcXBXhXxXBXhXhXBXxXBXxXxXBXBXBXSXBXBXHXBXBX",
"BXBXhXhXvXhXhXhXhXjXBXBXhXiXcXcXhXcXcXBXhXhXkXBXBXBXBXBXBXBXBXvXBXHXBXBXBXBXBXBXBXHXBXBXBXBXhXhXfXhXhXBXBXBXKXHXBXBXBXBXBXvXhXhXBXjXfXhXcXjXjXxXhXHXBXBXBXBXHXBXBXBX            +X9X'.~.h.R.(.V.6.6.V.n.^ a.7XoXE #.:.I S h E G.-.5.}. XoXoXoX7X9X).5.q.C.d.m.w.I S.f.5.N.w.~ 9XU.).OXa.N.W.'.XXS.q.4.~.h.d.4.0.q.9.-.$.y.T.4.0.d.h.j.Z.j.T.f.f.            BXBXHXBXBXBXBXHXBXxXhXBXBXBXBXBXBXBXSXBXBXBXBXKXBXBXBXBXBXBXBXKXBXBXBXBXvXBXKXBXBXBXKXBXBXHXHXBXBXBXKXBXvXBXBXBXBXBXBXBXBXBXcXxXSXBXBXxXaXxXBXBXBXBXBXBXBXBXBXBXBXBX",
"BXBXhXhXvXhXjXhXhXcXBXBXhXpXhXhXhXfXcXBXBXBXhXBXBXBXBXBXBXBXBXBXBXBXBXHXBXBXBXBXvXBXHXBXhXBXhXfXiXhXhXhXhXBXBXHXBXBXKXBXBXBXhXhXBXcXuXfXBXhXcXxXhXBXHXHXBXBXBXvXvXBX            `.E.T.j./.OXM.6.6.m.g.g.T.OX`.5.#.#.I I Z N x.c.T XX~.S.W.^.W.E.OXyXwXh.d.W.N.m.E E y.R N.f.W /.*XZ.eXA.N. XoXR.M.J.4.N.T.m.q.8.9.8.9.+.*.m.m.8.0.v.!.T.T.m.e.f.            BXBXBXHXBXBXBXHXBXBXBXcXSXBXBXcXBXBXhXKXBXBXHXHXHXBXBXKXBXBXHXHXKXBXBXBXBXBXBXBXBXBXBXvXBXKXHXBXHXHXHXkXBXBXBXhXvXBXBXBXjXhXhXBXSXBXBXBXhXhXxXBXBXBXBXBXBXBXBXBXBXBX",
"BXvXhXhXhXhXjXhXhXcXcXcXaXuXfXhXaXBXBXhXBXhXhXvXBXBXBXBXBXBXHXBXBXvXBXHXBXHXBXvXBXBXBXBXBXBXhXhXhXhXBXBXBXBXBXBXKXBXBXBXBXBXkXhXjXjXiXhXhXcXBXBXBXBXHXBXhXBXBXBXBXBX            R.`.~.`.OXT.q.0.m.h.`.].].R.P.7.R I F Z Y ;.r.T Q.~.P.`.OX~.Q.(.'.E.wX9XN.m.N.J.d.R -.Y t.M.5.s.7XA.'.E.N.}.OXXXd..Xf.m.N.i.l.8.-.l.l.<.F Z #.<.>.>.*.-.-.-.>.-.            HXBXBXKXPXKXBXBXKXKXBXBXBXFXBXBXBXcXBXBXBXBXBXHXKXBXBXBXKXBXBXKXBXBXBXBXBXHXBXBXBXBXBXBXHXBXBXkXBXHXHXvXBXHXBXvXBXBXBXBXBXBXhXBXBXBXcXBXhXxXBXBXBXBXBXBXBXBXBXBXBXBX",
"BXhXhXhXhXcXjXjXhXhXhXjXhXhXhXhXhXiXhXBXBXBXBXvXBXBXBXvXBXBXBXBXBXlXhXBXBXBXBXxXBXHXFXBXBXBXcXxXBXBXBXBXKXBXcXBXBXBXBXBXHXBXBXBXBXcXhXBXBXBXBXBXBXBXBXBXHXBXHXKXKXBX            yX~.M.B.q.H.d.n.h.`.-X&X$X-XY.P.5.;.;.U r.9.$.D.~.~.~.(.E.W.~.XX XN.h.+XN.M.M.m.N.t.R *.d.d.q.7.XXY.7X'.d.W.oX7XW.`.Q.M.N.7.l.=.=.>.8.l.$.U $.#.+.:.%.%.>.>.>.8.            BXBXBXBXKXKXBXBXBXBXBXFXBXBXcXcXBXhXBXBXBXBXhXBXBXBXKXhXhXBXBXBXBXBXBXBXBXBXvXvXBXvXBXBXHXBXhXBXHXHXBXBXvXBXBXBXBXBXKXBXhXBXBXBXhXvXBXBXhXxXBXBXBXBXcXBXBXBXBXBXcXFX",
"cXjXcXBXjXjXhXcXcXhXhXhXfXhXhXjXhXiXhXhXhXBXBXBXBXBXBXBXBXBXBXBXBXBXhXBXKXBXBXFXhXhXBXFXBXcXBXBXhXBXBXBXSXBXBXBXKXLXBXHXBXBXBXBXBXcXcXhXBXBXBXBXBXBXBXBXBXBXKXBXBXvX            E.g.M.6.W.!.d.^ a.-X&X2X%X>X>X=XR.5.;.*.9.Y m.!.T.`.R.T.oXW.T.!.j.W.M.H.T.q.N.5.n.f.E t.J.e.n.4.W.).9XoXT.OX7X8X`.`.T.g.N.q.l.-.>.%.>.k.-.>.x.x.z.3.>.8.>.8.8.8.            hXxXSXBXBXBXBXBXxXBXSXBXSXBXBXhXBXBXBXBXBXaXiXiXBXBXBXvXhXBXhXBXBXBXBXhXhXvXvXvXBXBXBXBXHXBXBXBXBXHXBXBXBXBXBXBXBXBXHXBXBXBXcXBXcXxXxXBXhXBXFXBXBXBXcXBXBXBXBXBXBXFX",
"jXcXBXhXcXcXhXhXhXhXhXhXhXfXjXcXBXBXBXhXxXBXhXBXHXHXBXHXBXHXKXBXBXBXhXBXBXcXBXBXBXaXBXBXBXBXxXhXBXBXBXBXSXSXBXiXhXBXBXBXBXBXlXBXBXBXBXBXBXBXBXvXxXBXHXBXHXKXHXBXKXKX            9XoXj.~.~.S.W ~ ).&X2X%X>X>X%X;X_.f.*.-.-.*.V.N.W.}.j.(.+XN.!.~.S.Q.T.M..XM.W.5.d.e.A.d.M.d.M.6.n.T.9XoXoXqX7X8X_.oXR.J.W.8.k.>.>.%.>.>.>.=.*.9.>.%.-.;.5.8.8.8.            hXuXBXBXBXxXBXBXhXhXhXBXFXBXSXBXcXBXxXhXaXBXhXiXiXhXvXBXBXBXhXSXKXBXBXhXhXBXBXhXBXBXBXBXBXBXHXBXBXBXBXBXBXKXBXBXBXBXhXhXBXBXBXhXBXBXBXxXhXBXBXBXBXcXxXxXBXBXBXBXxXBX",
"cXcXBXBXhXjXjXcXjXhXhXcXjXhXhXBXBXcXBXcXcXBXBXBXHXBXBXBXBXBXBXBXBXBXBXBXBXjXBXBXBXhXhXcXBXBXhXhXxXhXxXBXBXBXBXBXhXBXBXBXBXBXBXBXBXBXcXBXBXBXBXxXvXBXBXBXHXHXBXBXHXBX            I.( R.e.~ *.5.m.~.&X2X%X%X;X2X;X-XN.=.$.,.-.q.H.~.V.a.'.!.d.Q.D.t.N.N.j.N.n.J.0.7.~.XXH.V.m.N.q.n.|.oX'.8X8X*X*XU.9X(.J.C.-.>.=.>.>.5.S.9.>.9.t.;.,.;.5.t.5.9.8.            BXBXBXBXBXxXBXxXhXhXhXhXSXBXBXBXBXBXKXBXxXBXBXBXBXBXhXhXBXBXBXBXBXBXBXKXhXhXvXBXKXBXBXBXHXBXHXBXBXBXBXBXBXBXBXBXBXBXBXkXhXhXBXSXBXhXcXcXhXhXBXBXBXBXBXBXBXBXBXhXcXBX",
"BXcXBXBXjXcXjXjXcXjXhXBXBXhXcXBXBXhXhXBXBXcXkXBXBXBXHXBXBXHXHXBXvXBXBXBXBXBXBXBXBXBXBXBXSXBXcXBXhXhXhXxXBXBXBXBXBXBXBXhXvXKXBXBXcXBXBXBXBXBXhXhXBXBXBXBXBXBXBXBXBXBX            ~ Q.w.r.x.9.q.-.N.].>X>X%X;X&X&X/.r.U #.,.9.M.!.~.M.f.~.g.d.}.V.Y C.h.D.W.q.n.6.7.eXeX.Xi.V.M.d.n.J. X'.7X'.oX/.Y.wXT.i.q.>.%.9.x.>.=.w.*.>.>.%.=.8.8.>.R Y $.8.            BXBXBXBXBXBXcXcXhXhXBXcXxXBXBXhXhXBXKXBXcXBXBXBXBXBXhXBXBXBXBXBXSXBXBXSXBXhXBXBXBXBXBXBXBXBXKXHXBXBXBXvXBXKXBXKXKXHXHXBXBXcXhXBXFXxXhXhXhXcXcXBXBXcXBXBXBXBXBXBXBXBX",
"BXBXBXBXcXBXBXcXjXcXjXBXcXjXBXBXBXxXBXBXBXBXBXBXBXBXBXBXvXBXBXBXBXBXBXBXcXhXhXBXBXBXBXBXcXBXBXcXBXBXfXhXBXBXBXBXBXlXBXBXvXBXBXBXBXBXBXBXBXBXhXxXBXBXBXHXHXBXvXBXBXBX            XXE q.C.>.9.=.I R (.&X;X;X$X$X*XT.r.N *.9.m.N.!.W.N.s.N.J.d.|.t.-.n.~.h.@Xi.v.n.t.T.~.d.p.@X7.V.B.M.XXoXOXT.`.[.eXoXd.n.9.8.>.-.9.4.>.9.r.t.=.>.=.=.z.k.n.N.f.5.            hXBXhXxXhXhXBXBXxXhXhXhXhXhXfXhXhXhXhXBXhXBXhXcXBXfXhXBXhXBXBXBXBXSXBXFXFXBXKXBXBXBXBXBXBXBXBXBXBXBXBXBXBXKXBXBXBXHXBXBXBXBXBXBXhXBXcXfXiXBXBXBXBXBXBXBXFXBXKXBXBXcX",
"BXcXBXcXcXBXBXBXBXBXBXhXcXhXhXhXBXhXBXBXhXjXBXBXBXBXBXBXBXBXBXBXBXBXBXBXBXhXBXBXBXBXBXcXcXBXBXhXhXhXBXhXjXBXBXBXBXBXBXBXhXBXBXBXBXBXBXBXBXBXhXBXBXKXBXBXBXKXBXBXhXBX            E -.b.>.8.=.$.*.;.s.^._.-X-X].S.w.I S r.m.(.N.H.XXN.7.V.|.d.B.y.5.*.OXT.~.H.i.m.e.~.a.h.#XW.0.V.B.!.(.9XT.j.`._.XX!.n.n.x.x.>.9.9.x.N.N.t.0.8.0.k.8.>.-.=.y.S.y.            hXxXcXxXjXiXhXhXjXhXhXhXBXhXiXfXhXhXBXBXBXhXxXcXaXhXhXhXhXhXBXBXBXSXBXBXBXBXBXBXBXBXBXBXBXBXBXKXBXBXBXBXBXBXxXBXSXFXSXBXBXBXBXBXBXBXhXjXpXhXFXBXBXBXBXFXSXBXFXFXBXBX",
"BXBXBXhXcXBXBXBXcXBXBXhXcXfXxXhXcXcXjXjXBXBXBXBXBXvXBXBXBXBXBXkXBXBXxXhXhXcXcXBXBXcXBXBXBXBXBXcXcXcXjXBXcXBXBXlXkXBXBXBXlXBXBXBXBXBXBXBXBXBXvXBXBXBXBXBXBXBXHXBXhXBX            -.l.8.8.5.I #.,.,.R 5.e.S.T.4.*.A D &.;.d.OXT.~.+XJ.d.N.}.d.8.f.u.Y }.T.N.+Xd.d.w.~.+XOX!.m.J.|.|.~.~.'.H.`.`.T.H.m.;.x.m.r.r.=.r.r.7.0.k.v.V.B.v.b.b.k.8.4.4.4.            iXBXxXcXBXhXhXcXhXhXhXBXBXBXiXfXBXhXcXBXcXxXBXBXBXKXhXxXxXcXBXBXBXBXSXBXcXBXBXBXcXBXSXBXKXHXKXKXBXBXBXBXBXHXxXBXBXBXFXBXBXBXBXBXBXcXjXhXhXhXcXhXBXBXBXBXBXBXBXBXBXBX",
"BXBXSXhXBXBXBXBXBXBXBXhXBXBXBXBXBXBXBXhXcXhXBXBXBXvXBXBXBXBXBXBXlXBXBXBXxXBXBXxXBXBXBXBXBXBXhXBXBXBXBXBXBXBXhXjXlXBXlXhXkXBXBXBXBXvXBXBXvXhXKXBXBXBXBXBXBXBXBXvXHXKX            8.8.9.9.;.J U A U r.Y -.4.4.-.-.Y *.>.>.V.oXW. XQ.W.~.7.}.m.8.f.f.I t.N.4.}.!.q.D.e.B.B.M.J.W.W.W.R.~.~.`.'.N.v.n.-.8.l.0.d.e.R 5.t.q.8.l.6.7.7.6.q.n.B.J.N.n.6.            fXhXBXcXBXhXhXBXcXhXfXhXhXBXhXjXBXDXhXfXiXBXBXKXKXSXBXhXxXBXhXxXhXBXBXBXBXBXcXBXxXBXSXBXKXKXKXKXHXBXBXBXHXBXiXhXhXBXBXBXBXBXBXBXhXhXjXjXcXhXhXxXcXBXBXcXBXxXBXKXKXBX",
"cXcXBXBXBXBXBXBXcXBXBXhXBXBXBXBXBXcXBXcXcXBXhXvXBXBXBXBXBXBXlXBXBXcXBXBXBXBXBXxXxXcXBXhXcXjXBXjXhXBXBXBXBXBXcXcXlXBXBXBXkXkXBXBXBXBXBXkXhXBXBXBXBXBXBXBXBXBXBXBXBXBX            k.8.=.Y S Y Y r.*.I 9.8.z.9.*.9.>.z.z.9.J.~.(.XXN.Q.wX7.V.C.6.r.A.Y #.5.R =.}.M.N.S.0.v.{..X.X~.XX`.W.E.(.~.v.l.5.n.l.0.6.4.0.8.4.7.e.Z.R.T.W..XXX(.Z.j.~. X}.V.            BXhXhXhXBXhXhXjXBXBXhXiXBXBXhXjXhXBXBXcXhXhXSXBXBXKXxXhXhXBXBXBXhXcXBXBXBXBXBXBXBXKXBXHXKXKXKXKXKXHXBXBXBXBXBXhXhXSXBXBXBXFXBXxXxXjXhXhXjXhXcXBXBXxXBXBXBXBXBXBXBXBX",
"BXBXBXSXSXBXiXhXBXBXBXBXBXBXBXBXBXBXcXBXBXhXvXvXBXBXvXvXBXBXBXlXhXBXcXcXBXBXBXBXcXxXBXBXhXcXBXBXhXBXBXDXBXcXcXBXBXBXBXBXlXBXBXhXBXBXBXhXBXHXBXBXBXBXBXBXBXBXBXBXvXBX            l.8.*.;.;.W u.r.A -.8.=.-.B *.9.x.9.,.q.V. XoXXXS.~.wXh.V.l.6.4.w.A.P I r.K ~ T.6.C.C.q.4.q.m.N.N.j.~.OX(.D.*.^ S.y.5.4.6.C.0.6.H.~.'.9X8XwX8X9X7XoX(.Z.R.'.'.oX            cXBXcXhXhXjXcXhXfXBXhXhXBXBXhXhXfXjXBXjXBXhXhXhXhXBXxXBXSXxXxXxXBXxXBXBXBXFXKXBXxXBXBXBXBXBXBXKXHXHXBXBXhXBXcXBXBXBXSXBXhXBXcXBXcXcXhXhXhXiXhXBXcXxXcXBXBXBXBXKXBXBX",
"cXjXcXBXBXcXhXBXBXBXBXBXBXxXBXBXBXBXcXjXBXxXxXxXvXBXBXxXBXBXjXhXBXBXcXxXhXBXBXxXBXBXBXBXBXcXBXBXBXBXBXBXBXBXhXhXBXBXBXBXBXBXBXBXBXhXBXKXBXhXhXBXPXKXBXBXBXKXBXBXBXSX            S.8.=.r.w.y.Y A $.=.8.-.I *.*.;.;.Y >.l.N.(.oXXXN.T.9XT.M.4.n.d.I u.A.S D.=.K y.e.d.N.J.W.d.5.=.4.N.XXP.~ Y w.D.e.Z.7.8.v.q.N.^.`.qXqX*X*XqX7X9X8X*X7X7X`.(.'.-X            BXBXBXBXhXhXhXBXhXBXhXBXBXcXBXhXaXfXhXhXcXcXhXhXuXfXfXhXhXfXaXhXBXBXBXhXhXBXFXBXBXcXBXxXxXhXhXBXBXBXBXxXBXhXBXBXBXBXKXBXhXhXBXBXcXhXhXhXBXhXhXBXBXBXBXcXBXBXBXSXSXBX",
"BXBXBXBXBXBXSXBXBXBXBXBXhXhXxXBXBXBXhXhXBXcXxXcXxXBXBXBXBXxXBXBXBXBXBXBXBXBXxXBXBXBXBXBXBXBXBXBXBXBXBXBXBXxXxXhXfXhXxXBXBXhXhXhXhXhXBXBXBXBXBXvXKXKXBXBXBXBXBXBXBXSX            ~ Y *.E F.T A $.,.q.l.$.>.8.>.,.I y.5.l.m.~.(.oXm.N.oX~.!.t.n.|.-.*.f.*.;.y.Y B Y w.|.J.M.M.d.N.m.d.5.Y ,.=.e.*.q.h.6.v.d.~.OXeX9X(.T.T.T.T.T.~.XXoX7XqXOX'././.            BXBXBXBXBXBXBXuXhXBXhXcXBXhXcXiXhXBXBXcXhXBXfXBXhXiXiXBXBXBXBXjXBXBXBXjXBXBXcXBXBXjXhXhXhXBXaXhXBXBXBXBXxXBXKXBXBXhXlXBXBXBXcXhXBXxXhXhXcXhXhXBXBXBXBXBXcXBXBXFXSXBX",
"BXBXBXjXBXBXBXBXBXBXBXBXBXBXBXBXBXBXBXcXBXxXBXcXcXBXBXcXxXBXcXBXBXxXBXBXcXBXKXBXxXBXcXcXBXBXBXBXBXBXBXBXBXBXcXcXhXxXBXBXBXhXBXhXhXBXBXBXvXBXBXBXBXHXBXBXBXBXxXBXSXBX            Y 9.-.;.Y A #.9.z.8.-.>.>.>.>.$.;.5.5.9.m.(.E.eXT.M.XX'.~.W.-.C.C.-.8.-.I 9.x.S N B R 9.*.R 5.r.e.5.;.r.t.4.5.q.v.0.i.M.~.wX7X/.T.E.7XQ.7.n.N.V.N.T.T.(.wXqX7XoX            BXhXxXBXBXBXBXiXhXhXcXBXjXBXBXhXhXBXhXcXxXBXiXcXBXBXBXcXhXBXBXBXBXBXBXBXBXhXBXBXBXBXBXcXBXFXhXhXcXBXBXBXBXBXSXKXBXKXBXBXSXBXBXhXxXxXxXhXhXxXhXhXBXBXhXBXhXxXBXSXBXBX",
"hXBXcXcXBXBXBXBXBXBXBXBXBXxXxXcXcXBXBXBXxXhXhXcXBXBXcXxXcXcXxXBXBXBXBXBXBXBXBXBXcXBXBXBXBXBXBXxXBXBXBXBXBXBXBXxXhXxXhXBXBXxXBXBXxXhXBXHXKXBXBXBXBXvXBXBXBXHXBXBXBXBX            k.4.9.;.I -.l.9.-.-.-.%.R =.>.-.-.8.8.9.q.~.R.Q.XXW.R.OXT.N.6.l.{.0.k.k.-.I r.c.*.U I U *.*.Y Y Y #.>.4.-.n.f.d.J.d.T.}.XX`.E./.`.oXA.~ 7.4.*.4.0.y.W.H.(.wX*X7X            hXhXfXhXhXfXBXBXBXhXhXhXhXBXBXBXiXhXBXBXBXBXjXBXBXBXBXBXhXhXhXBXBXBXBXhXBXhXBXBXBXBXBXBXBXfXhXBXBXBXBXBXBXBXBXHXKXKXKXKXFXBXBXBXBXBXxXxXhXxXhXhXBXBXBXxXBXhXhXBXBXBX",
"jXcXhXBXcXcXxXcXBXhXxXcXBXhXxXBXBXBXBXcXhXBXxXBXBXBXxXBXxXxXcXBXxXBXhXxXBXcXBXBXBXBXBXKXBXBXcXBXBXBXxXBXBXBXBXBXxXxXhXxXBXBXxXxXBXxXBXBXBXBXBXBXvXBXBXkXBXHXKXBXBXBX            4.x.r.Y 8.l.9.=.9.*.Y $.9.>.>.8.n.k.0.8.9.J.(.7.W.XXT.Q.S.N.N.4.q.n.8.k.8.9.$.$.,.9.*.$.$.$.r.;.Y Y q.n.0.n.N.J.g.`.eXh.( Z.S.~ 4.R R 8.0.l.l.l.0.8.7.!.L.`.wX_.            BXcXhXBXhXaXhXhXxXhXhXfXhXcXhXBXhXBXBXcXSXDXjXBXBXBXBXBXBXhXiXhXcXBXcXBXcXBXBXjXBXBXBXFXBXhXBXBXBXBXBXBXBXxXxXBXHXHXBXKXBXhXBXBXBXxXBXSXcXxXcXhXhXBXBXxXBXBXhXhXBXBX",
"jXhXjXBXBXcXcXcXBXxXcXBXcXhXhXBXBXBXhXcXhXBXcXhXxXBXBXBXcXBXBXxXBXxXvXhXhXcXBXBXBXBXBXBXBXBXBXBXBXBXiXBXBXBXBXBXhXhXxXBXBXvXBXSXBXxXBXBXBXBXHXBXBXvXBXBXvXSXBXhXBXBX            f.5.=.n.B.4.*.9.;.I *.*.N.N.8.N.i.0.B.q.;.v..XN.H.'.E. XR.A.N.n.5.r.q.8.4.9.l.-.$.$.9.x.r.,.R ^ a.Q.~.i.v.J.h.g.oXR.~ s.A.~ K *.8.8.v.b.v.0.0.v.b.b.0.W.~.a.9X9X            cXBXhXBXSXxXxXhXhXcXjXBXBXcXhXhXhXxXBXBXFXBXBXBXBXBXBXBXBXcXjXhXhXjXBXBXBXBXjXhXBXBXBXBXBXBXcXBXBXBXBXBXBXBXvXBXKXHXHXSXFXBXBXxXhXcXFXSXSXBXBXhXfXBXBXBXhXBXBXhXhXBX",
"xXhXcXcXBXcXBXjXhXhXBXBXhXhXBXhXBXBXBXBXcXBXhXhXhXhXBXxXxXBXBXhXhXBXBXvXBXBXBXBXBXBXSXBXBXBXBXBXBXBXBXBXBXBXBXvXkXvXBXBXhXBXBXBXHXKXHXBXKXKXBXBXBXcXcXFXBXhXhXxXcXBX            R q.m.C.6.4.y.*.I $.*.8.C.i.7.P.j.0.6.4.5.8.V.|.M./.Z.OX(.Q.f.N.q.8.5.m.V.0.k.8.-.=.,.5.y.N.~.XX~.f.4.0.v.W.T.}.f.A./.j.K I n.6.6.6.0.n.M.i.0.0.v.i.n.i.}.h.P.9X            BXBXBXxXBXBXBXcXBXBXhXhXBXBXBXaXiXhXcXBXBXcXBXBXBXBXBXxXcXBXBXhXhXBXBXBXBXBXBXcXBXcXxXBXBXBXBXcXcXBXBXBXxXBXBXSXKXBXBXBXBXBXBXBXBXFXBXBXSXBXBXhXhXhXBXBXBXhXcXcXjXcX",
"BXBXBXcXcXhXhXBXBXhXhXhXhXhXxXhXBXBXxXBXcXBXBXxXxXxXcXxXBXBXBXhXhXBXkXvXBXBXBXBXFXBXBXBXBXBXBXBXBXBXBXBXBXBXBXBXhXhXBXhXvXBXBXkXvXBXBXBXBXKXKXBXBXBXxXBXBXxXhXhXBXBX            x.q.0.q.t.D.5.Y R n.J.v.e.E.qX=X[./.~.~.S.a.7.N.q.T.(.Y.`.N.W.4.8.8.*.E x.q.k.n.J.n.4.T.+X+X~.N.t.0.b.v.J.W.M.6.Q./.W B *.q.q.d.v.v.p.H.~.XXT.6.H.W.!.m.W.~.(.~.            BXBXBXcXcXBXBXBXxXBXBXBXhXcXBXBXhXhXhXBXBXBXBXBXBXBXBXBXhXhXhXhXcXBXcXBXBXBXBXBXBXhXcXBXBXBXjXcXBXBXBXBXBXBXBXBXBXBXBXBXBXBXBXBXBXBXBXBXSXBXBXBXhXcXBXBXxXcXhXhXBXhX",
"BXBXBXhXBXhXpXBXjXcXhXfXcXhXhXBXBXBXxXBXcXBXBXBXxXcXxXhXBXBXcXcXxXBXhXhXBXBXBXKXSXBXBXBXBXBXBXBXBXBXBXxXBXBXxXBXBXhXhXBXBXBXBXHXBXBXvXBXBXBXBXBXhXhXBXBXBXcXxXcXBXBX            8.q.C.d.m.9.=.-.^ H.f.e._.=X2X4XdXdXrXtXtXtX'.S.d.7.~.E.R.W.d.q.C.|.5.R 0.0.0.B.W.J.i.0.0.6.d.~.|.i.v.M.M.h.D.5.5.B I 9.C.v.J.W.g.H.~.OXR./.yXg.g.OX(.W.W.XXXX}.            BXBXBXhXxXcXBXBXhXhXcXBXBXcXcXhXhXBXBXhXBXBXBXhXcXBXhXBXBXhXfXhXBXhXhXBXBXBXcXBXBXcXcXhXjXjXjXBXBXBXhXBXBXcXBXBXBXBXSXBXBXBXBXBXBXBXBXBXBXBXFXSXKXBXBXBXhXBXjXhXcXBX",
"BXBXBXBXBXxXjXcXBXhXhXhXhXxXBXhXhXhXBXxXhXBXBXBXBXxXhXhXBXBXcXcXBXBXvXhXBXBXBXBXBXBXcXBXBXBXBXBXBXBXBXBXBXBXhXBXBXhXhXBXBXBXHXBXBXBXvXhXBXBXBXHXBXhXBXBXBXBXBXxXcXhX            i.B.q.q.q.k.8.8.|.R.A.tXtX;X1X4X2X2X1X1X2XdX=XA.Z.a.7.}.R.~.}.g.d..X@X|.M.T.R.T.h.N.n.i.i.W.XX(.a.h.W.a.W.Q.E A A 9.l.b.v.i.v.6.a.oXOXN.7.^ W..Xg.XX~.}.T.'.(.}.            BXBXBXBXBXBXBXBXcXxXxXxXBXBXBXKXBXxXBXcXhXBXBXBXxXxXBXBXBXfXhXhXhXhXBXSXBXBXhXBXBXcXBXjXhXcXBXhXBXhXhXcXBXcXBXBXBXBXKXBXBXBXBXBXBXBXBXhXBXBXBXBXBXBXBXBXhXhXBXBXBXBX",
"BXcXBXBXBXBXhXBXhXjXBXBXcXxXhXBXBXhXcXcXBXcXBXBXhXxXcXBXBXBXBXBXBXBXvXBXvXhXBXBXBXBXBXBXBXBXBXBXBXBXBXBXBXBXBXBXBXBXhXhXBXBXBXBXBXBXHXBXhXhXhXhXBXBXBXBXBXBXBXBXBXBX            M.6.8.x.8.>.k.0.!.'.tXdX4X4X4X4X4X1X1X4X1X;XdX_./.yXh.N.(.h..X!.M.e.h.~.oX(.R.I./.oX~.~.XX(.Z.7.M.W.e.A.y.B j Y 8.B.b.0.k.b.b.p.~.OXH.6.b.0.0.J.N.H.W.T.h.OXoXW.            BXBXBXBXBXBXBXBXBXhXxXxXxXBXBXBXBXBXxXBXcXxXcXcXxXhXxXxXBXBXhXxXBXxXcXBXBXBXBXBXBXBXcXhXhXhXcXcXcXBXxXxXhXxXcXBXhXxXBXBXBXBXBXBXBXBXBXhXBXBXBXBXBXBXKXBXhXhXBXBXBXBX",
"cXBXBXcXBXBXjXcXjXBXhXcXcXhXhXjXhXBXhXxXcXxXhXBXhXBXBXBXcXBXBXBXcXhXBXhXxXvXBXBXBXBXBXBXBXBXBXBXBXBXBXBXBXBXBXBXBXBXBXvXvXBXBXBXBXHXBXBXBXBXvXBXBXcXBXBXBXBXBXBXBXBX            k.q.W.8.-.8.=.i.N.rX1X2X2X4X5X4X2X2X4X4X4X2X4XdXY.7XQ.d.T./.a.V.n.W.W.s.P.(.oX~.d.d.N.W.T.R.S.V.d.7.E K N Y 5.k.b.0.4.0.v.n.K.J.~.(.i.q.|.n.6.N.i.g..XN.`.7X`.T.            BXBXhXBXvXhXBXBXBXBXhXhXhXcXBXBXcXcXBXBXxXcXcXhXcXxXcXcXcXcXhXBXBXcXhXhXhXBXBXcXcXcXhXjXhXhXBXcXBXBXBXBXhXxXBXcXBXhXBXBXBXBXBXBXBXBXBXBXBXBXcXBXBXhXBXKXBXBXBXBXBXBX",
"cXBXcXBXhXBXjXiXBXjXhXjXhXhXjXjXcXxXhXxXBXBXcXBXBXxXhXhXcXxXBXcXBXhXhXhXxXBXBXBXcXjXBXBXBXBXBXBXBXBXBXBXvXBXBXBXBXBXBXBXhXBXBXBXBXBXBXBXBXBXBXHXBXBXBXBXhXBXxXBXBXxX            0.4.8.8.8.>.5.7XtXtX2X4X5X5X5X5X5X5X4X4X4X4X1X4XtX-X6.N.a.W.R.7.q.6.M.}.~.N.N.V.B.b.B.C.V.m.y.5.w.u.T K *.9.6.0.4.4.q.i.B.K.b.H.~.oXd.n.M.J.!.H.H.!.!.~.OX).E.!.            HXBXhXkXBXhXBXKXJXlXhXhXcXhXjXBXBXBXBXxXhXBXcXxXBXBXBXhXhXBXBXjXBXBXBXhXhXBXBXcXcXcXjXhXhXhXBXDXBXxXBXhXBXhXBXxXxXxXBXBXBXBXBXhXBXBXBXBXBXBXxXcXBXBXBXBXBXKXFXBXxXBX",
"cXjXhXBXBXjXBXiXhXjXhXBXBXhXjXjXBXhXhXcXxXcXBXcXcXBXcXcXhXhXxXBXhXcXxXBXBXcXcXcXjXBXBXBXBXBXBXBXBXBXhXBXBXBXBXBXBXBXBXHXBXBXBXBXBXvXBXBXBXBXvXBXBXBXBXBXhXBXBXBXBXBX            8.l.k.8.8.8.i.*X&X4X4X4X5X5X5X5X5X5X5X5X4X4X4X4XdX8X^ H.S.f.S.S.r.8.q.7.a.N.d.4.4.5.9.5.*.I I 5.r.E U 1.5.-.4.i.0.J.K.B.n.k.p.B.~.oXS.8.J.W.~.~.!.W.T.XX'.E.XXN.            BXBXBXBXvXhXBXBXBXBXhXhXBXBXhXhXcXhXcXcXhXxXBXcXBXcXcXhXhXcXBXjXhXBXBXBXBXhXhXBXBXBXjXhXhXhXhXhXcXcXBXBXBXBXBXxXcXBXBXBXBXBXBXBXBXBXBXBXKXBXBXBXBXBXxXcXBXBXBXBXFXBX",
"jXhXcXjXBXBXhXhXhXBXBXBXBXjXhXhXcXBXBXBXBXxXxXxXxXcXBXBXxXxXhXhXxXxXcXBXBXcXcXjXjXBXcXcXBXBXBXBXBXxXBXBXBXBXBXBXBXBXHXHXBXBXBXBXBXBXBXBXBXBXBXBXBXBXhXBXBXcXxXBXBXFX            k.k.8.8.8.q.~.=X;XdX1X4X5X5X5X6X6X6X3X5X4X4X4X4XdXrXZ.7.5.5.q.t.D.r.y.R.Z.e.y.t.5.R 4.4.8.9.9.r.u.5.4.n.q.4.0.!.k.b.v.0.v.b.k.b.H.(.oX7.4.n.d.d.g.T.XXOXE.~.|.-.            KXBXBXHXBXBXBXBXBXlXhXhXhXcXcXhXhXhXhXcXcXBXBXBXBXcXBXjXjXhXcXhXBXcXjXBXcXBXjXjXcXhXhXhXhXhXhXcXBXBXBXBXBXBXxXcXBXBXBXBXBXBXBXBXBXBXBXBXBXSXBXBXBXBXBXBXhXcXBXBXBXSX",
"hXhXcXBXBXBXfXBXjXjXjXBXBXBXhXhXhXaXhXBXhXxXxXcXcXBXcXxXxXhXcXhXcXcXxXBXcXhXhXhXBXBXjXcXBXBXBXBXBXBXBXBXBXBXBXBXBXBXBXHXKXBXBXBXBXHXKXBXBXBXBXBXSXBXxXBXcXxXBXBXBXBX            m.D.l.l.8.S.qX;XdXdX;X4X5X5X6X....3X6X6X4XdX1XdX1X<XqXS.5.9.q.-.R 9.9.Y / f.t.q.q.9.l.k.l.9.9.*.4.0.k.0.0.i.v.0.0.k.4.0.B.k.k.k.8.S.oX'.f.m.T.~.oXOX7X(.~.N.4.h.            KXBXBXBXBXBXBXBXBXhXhXjXhXBXBXhXhXcXcXhXhXBXBXBXBXcXBXhXcXhXhXhXhXhXhXhXcXhXjXjXhXiXhXjXhXhXhXBXBXBXBXBXBXxXcXcXcXBXBXcXBXBXBXBXBXBXBXBXBXBXBXBXSXBXBXxXxXxXcXxXBXBX",
"hXBXjXcXjXBXjXBXcXjXhXiXhXBXcXcXhXhXhXxXhXcXBXBXBXcXxXhXcXxXxXBXcXcXcXBXxXxXBXjXjXcXhXjXBXBXBXBXBXBXBXKXKXBXHXKXKXBXBXKXHXKXKXBXBXHXHXHXKXBXvXBXSXBXBXxXBXBXBXBXcXBX            D.q.0.k.0.Z.,X1X4X4X1X4X5X6X.. .6X3X3X6X5XdXdXdX1X1XtX(.0.l.m.C.q.=.9.k.8.4.q.q.q.q.q.8.=.-.8.0.k.0.8.6.n.n.v.b.0.0.v.b.k.0.k.8.8.6.V.OX'.R.T.E.'.7XoXS.d.f.R.A.            BXBXBXBXhXvXBXBXBXcXhXcXhXhXhXhXhXBXBXBXBXxXBXcXxXxXhXBXhXhXcXhXhXhXhXhXBXhXBXjXcXhXhXjXBXhXjXcXBXBXBXBXBXBXxXcXBXBXBXBXBXBXFXBXBXBXBXBXBXBXBXBXBXBXcXBXhXhXhXBXBXBX",
"BXBXvXBXBXBXBXhXcXBXcXjXjXjXjXcXhXjXcXcXBXBXjXjXcXBXjXBXjXhXjXhXcXcXfXpXcXBXlXcXjXhXjXjXcXxXxXBXBXBXBXBXBXBXKXBXBXBXBXBXBXHXBXKXBXBXBXBXSXBXBXHXHXBXBXBXBXBXhXcXBXhX            k.b.b.v.0.h.qXdX1X4X2X4X5X6XX.X.6X6X3X3X5X1XdXdX<XdX&Xh.n.M.7.7.V.n.0.v.C.b.v.0.8.8.8.8.8.l.k.k.l.0.b.B.J.i.6.4.q.b.b.0.0.v.v.v.b.{.0.v.W.E.~.~.XXXXS.h.f.f.~ E             BXBXlXBXhXBXBXcXBXBXhXhXhXhXhXhXfXcXBXhXjXcXBXBXBXBXhXBXjXhXBXcXhXhXhXhXBXcXBXBXjXjXhXhXcXjXhXjXBXBXcXcXBXhXBXcXBXBXBXBXBXBXBXBXBXBXBXhXhXcXBXBXBXBXBXhXhXiXxXBXBXBX",
"kXhXhXBXBXcXhXBXcXxXcXhXBXhXjXjXhXhXhXjXjXcXBXBXBXBXjXjXjXjXjXhXhXhXhXhXBXBXBXcXcXjXjXcXcXBXBXBXBXBXKXBXBXhXBXKXKXBXBXBXBXhXBXKXBXBXBXBXvXBXKXHXkXBXBXBXBXBXBXhXBXhX            b.k.k.v.{.!.].&XdX4X1X5X5X5X.. .o.o...3X5X1X4X1X2XdX,Xp.0.B.V.i.v.n.v.i.m.m.x.9.>.>.8.q.8.0.0.k.v.b.B.v.q.q.t.x.l.v.0.M.J.M.i.v.i.M.v.6.7.7.p.d.7.~ e.s.R -.l.C.            BXBXBXBXBXjXBXBXBXhXhXhXhXjXjXhXhXcXhXiXhXBXBXBXBXBXhXjXjXjXhXjXhXhXhXhXBXBXhXBXBXhXhXhXhXhXBXjXcXBXBXjXjXhXBXBXcXhXBXBXBXBXBXBXBXcXjXBXhXhXjXBXBXBXBXBXcXhXxXBXBXcX",
"hXhXhXhXhXxXBXhXhXhXBXjXhXcXhXjXcXcXBXhXcXBXcXcXcXhXBXcXBXBXjXjXhXjXcXBXcXcXcXhXjXhXjXcXBXBXBXBXBXKXSXBXBXBXBXHXHXhXBXvXvXvXBXvXBXBXBXHXBXBXBXBXvXBXHXBXBXvXcXhXhXcX            0.k.k.0.q.N.^.` tX1X2X4X5X5X3X......3X5X5XIX1X<XdX1X1X`.n.v.n.q.t.n.C.N.m.7.8.8.9.9.8.8.0.v.b.b.b.k.0.8.k.b.0.8.k.b.b.J.g.g.J.N.T.E.R.h.D.N.q.4.q.m.7.N.W.|.v.8.            BXBXBXBXBXjXcXBXcXhXjXhXhXhXhXhXhXhXhXhXBXhXBXBXcXBXhXjXhXhXhXBXjXhXjXBXBXcXjXhXjXBXhXhXcXhXhXBXBXBXcXjXBXBXBXBXSXBXcXxXBXBXBXBXcXcXBXcXBXjXjXBXhXBXBXjXBXcXhXBXBXBX",
"vXhXhXhXcXfXhXhXhXjXcXfXhXcXhXjXBXBXcXhXBXBXBXBXjXlXjXBXBXjXjXjXhXhXvXBXhXhXBXhXhXhXhXjXcXcXBXBXFXKXKXBXBXKXKXKXBXvXBXBXvXBXBXBXBXBXBXHXBXHXBXBXvXvXBXBXBXBXBXBXhXxX            b.k.k.k.B.V.(._.<X1X2X4X5X5X5X3X3X6X5X4X4XIX1XtX4X4XtXOXb.B.J.m.q.8.q.q.q.8.8.8.0.k.b.B.B.b.v.k.k.k.k.k.k.4.N.|.b.b.i.a.T.oX'.'.*X-X7XOX/.P.g.h.~..X!.E.T.h.i.T.            BXlXlXhXhXjXhXhXcXjXBXBXjXhXhXhXjXBXfXiXhXhXhXcXjXjXBXBXjXhXhXhXhXBXjXBXcXjXjXjXBXBXhXhXhXhXhXjXBXjXBXjXjXjXBXxXBXBXBXhXhXBXhXBXcXBXBXhXhXBXBXhXhXjXjXhXhXcXxXBXcXBX",
"vXBXxXBXBXxXfXhXhXhXhXhXhXhXhXhXBXhXhXxXxXBXcXBXBXcXhXBXBXBXBXBXjXBXBXBXBXBXcXhXhXhXhXhXhXBXBXSXBXBXBXBXBXBXKXBXvXvXkXvXhXBXBXhXBXBXBXBXBXBXBXBXBXHXHXBXHXBXBXBXvXvX            i.k.k.k.B.i.W.tXtX1X4X4X5X5X5X5X5X4X5X4X4X4XtXtX1X<X/.g.v.k.v.v.n.l.0.q.0.v.v.v.k.v.b.v.0.0.k.l.v.k.0.6.j.'.eX!.i.h.E.9XqX=X*XqX*X-XqXqXqXwXwXwX7X*X7X*X7X].eXyX            BXBXBXBXiXiXhXiXhXjXjXjXjXcXcXhXhXjXhXfXfXhXjXcXcXcXBXBXjXBXBXhXjXhXjXcXBXjXBXhXBXjXBXcXcXhXjXhXhXhXhXjXjXjXxXhXhXhXcXBXBXBXBXBXhXBXBXfXhXBXBXjXBXjXhXhXhXxXBXBXBXBX",
"hXhXhXhXBXBXcXhXhXfXiXhXhXhXhXBXBXhXhXBXBXhXhXBXBXBXBXBXBXjXBXBXjXhXBXBXhXhXcXBXcXhXhXhXBXBXBXBXBXBXBXBXKXBXKXBXBXvXkXvXBXBXBXkXhXhXBXBXBXBXBXBXHXHXHXBXBXBXxXBXBXBX            q.v.4.0.6.0.7.'.1X<X2X4X4X4X5X5X4X2X2X4X1X1X1X&X<X&X/.g.M.0.k.k.v.b.v.n.C.M.B.b.b.k.0.0.v.b.b.b.0.6.T.'.qXqXR.Z.'.*X*X*X*XrXrXqX*X-X*X=XqX7X'.'._.=XtXtXqX'.E./.            jXBXlXlXjXiXBXhXfXhXhXcXcXBXjXhXhXhXhXhXhXjXhXBXhXhXcXjXBXhXjXBXjXhXjXcXcXhXBXBXBXBXBXBXcXhXhXhXhXhXhXjXjXhXhXhXxXhXhXhXBXhXBXBXhXBXBXBXBXBXBXcXBXBXjXhXhXBXBXBXBXBX",
"hXhXhXhXBXcXBXcXjXiXhXcXcXcXjXcXhXhXBXBXBXBXhXlXBXlXlXlXhXBXhXlXBXhXBXcXBXcXcXBXcXcXBXxXBXBXBXBXBXBXBXBXBXHXHXvXBXvXvXBXBXhXhXBXkXvXBXHXBXBXvXvXBXBXBXBXBXBXBXsXBXBX            a.i.K v.v.B.0.T.qX&X<X1X4X4X1X2X2X2X2X4X1XdXtXtX=XtXZ.4.4.q.7.a.R.T.h.a.t.N./.'.`.(.~.M.i.v.b.v.M.`.qX&X&XqX*XtXtX7X[._.*X,X=X_._.qXtXtXqXOX'.9XwX9XOX~.j.a.W.`.            hXhXjXBXjXhXjXBXcXhXhXBXcXBXcXhXfXhXfXhXhXhXhXBXhXiXhXjXBXjXjXcXjXjXhXhXhXhXBXBXjXBXBXhXhXhXcXjXjXhXhXhXhXhXhXjXjXjXjXjXjXhXBXBXBXBXBXBXBXvXBXjXjXjXcXjXhXhXcXBXBXFX",
"hXhXhXBXBXhXfXhXfXcXhXBXcXBXhXjXhXBXkXBXvXBXBXBXBXBXBXhXBXBXBXlXhXhXBXBXBXBXBXhXBXBXxXhXhXvXkXBXBXBXKXBXBXBXHXBXBXhXBXBXBXvXBXBXkXhXBXBXBXHXBXBXBXBXvXKXBXBXvXhXiXBX            ( 7.x q.8.4.8.k.g.Y.rX1X4X4X4X1X1X2X2X1X1X2X;X=X8XA.S.~.oXeXoX`./.R.7XyXIXtXtXqX*X=XqX9X(.T.L.L.`.*X-X-XrXrXtXrXrX'.[.*X,X,XtXtXwX]./.'.'.~.^.T.h.N.v.i.~.eXoX9X            fXfXhXhXhXcXhXhXjXBXhXjXhXhXBXhXhXhXhXjXhXhXhXhXhXhXhXhXjXBXcXBXjXjXhXhXhXjXhXjXhXjXBXhXhXhXhXcXcXjXhXhXhXhXhXhXhXhXhXhXhXjXBXBXcXBXBXBXkXBXBXBXBXhXhXhXhXBXBXcXBXBX",
"hXlXhXBXBXhXiXfXfXhXjXcXcXhXjXcXhXhXvXBXBXBXlXBXBXlXlXhXhXBXBXBXlXjXBXBXBXcXjXhXBXBXhXhXBXBXvXBXBXBXBXBXBXBXHXHXBXBXBXBXvXvXhXBXBXBXBXvXBXHXBXBXBXBXBXhXhXBXBXBXBXBX            A.s.5 q.B.B.B.b.k.~.qX;X<X2X1X<X1X2X2X1XtXtX-X=XI.I.wXyX].P.T.T.E.7XwX/.T.P.Y._.'.'.=X*X`.~.E.].qX,X<X8X0XrX<XeXOX`._.qXqX'.E.P.L.P.(.h.6.i.g.M.H.M.b.J.@X}.d.j.            hXhXhXhXjXhXhXhXBXjXjXBXcXcXjXhXjXjXBXBXjXhXhXhXjXhXhXhXhXjXjXjXhXcXjXhXjXhXhXjXBXjXhXhXhXfXhXhXhXhXhXhXxXhXhXhXhXBXcXhXhXBXBXBXcXBXBXcXhXhXBXcXhXhXhXhXhXhXhXBXBXBX",
"hXhXhXhXlXhXfXfXhXhXhXjXhXhXhXjXBXvXvXBXBXBXkXlXBXlXhXhXhXhXhXhXBXBXBXBXBXBXhXcXcXBXBXxXBXBXBXBXBXBXhXBXBXvXBXBXhXBXvXBXvXvXBXBXHXBXhXvXBXBXBXBXBXBXBXhXHXBXBXBXBXBX            ! / 4 n.B.v.W 6.b.v.T.Y.qXrX&X<X<X2XdXtXtX~.`.*X8XrXrX/.U.).8XrXrX<X-XE.`.8XrX=X=XrXrXrX'./.*X,X2XtX8X-X<XqXoXM.6.`.].R.H.K.H.}.~.!.N.H.|..X|..X~.!.K.0.8.6.i.J.            hXhXhXhXcXBXcXhXhXhXcXBXjXhXjXBXBXjXhXhXBXcXcXBXcXhXhXhXhXhXjXhXhXjXjXhXcXhXBXcXhXhXcXjXhXhXhXhXhXhXhXhXxXcXhXhXhXhXcXhXhXjXBXBXBXhXhXcXcXcXhXjXjXBXhXhXBXhXhXBXBXhX",
"lXhXhXhXhXjXcXhXjXhXhXhXhXhXcXhXBXBXhXvXhXkXhXhXlXlXhXhXhXhXBXiXhXjXjXBXhXhXcXBXcXhXcXcXhXkXBXBXBXBXvXBXBXvXBXBXBXvXvXBXBXvXHXHXBXhXBXhXvXvXvXBXBXBXBXBXBXBXvXBXBXBX            ! ) # q.0.q.v ~ 0.0.i.T.j.'.*X*XqXrX*XI.Z.~ /.rX=X_.[.*XyXtXrXrX<XrXrX<X<XtXrX*X8X=X0XtX8X*X,XrXqX[.U.qXeXH.6.0.k.M.N.W.N.i.a.W.g.p.i.!.J.g.d.d.h.h.g.W..X|.K.H.            hXhXhXhXcXjXjXhXhXhXhXfXhXhXhXjXcXjXhXhXjXBXjXjXBXhXhXcXjXhXhXhXhXhXhXhXhXBXBXBXhXhXcXjXjXhXhXhXhXhXhXxXhXhXhXhXhXhXhXhXhXhXcXcXcXpXiXiXcXcXcXhXjXhXhXhXcXBXxXhXBXBX",
"hXhXhXhXlXhXcXhXhXhXhXBXhXBXBXcXBXBXjXjXjXBXjXhXhXjXjXhXhXhXBXhXjXhXhXcXhXhXjXhXhXhXjXBXhXjXjXcXBXBXhXhXBXBXBXhXvXBXBXBXBXBXBXHXKXHXBXBXBXhXBXhXhXBXBXBXlXhXBXBXBXBX            r & X 7.b.W.w ~ b.k.v.p.i.g.H.p.d.e.7.g.~.oXeX].[.<XtXrX-X[.=XrXtXtXrXtXtXtXeX/./._.8X=X-XqX8X8X=XqXqX~.q.0.0.n.J.B.v.6.6.d.T.~.oX.X!.H.g.g.~.`.'.*X9X'.P.h.T.(.            jXcXjXcXBXcXBXjXjXjXhXhXhXcXhXcXjXjXhXhXhXhXjXjXjXhXhXhXhXhXhXBXBXBXBXBXBXBXBXBXhXhXhXhXhXhXhXhXhXhXhXjXhXhXhXjXhXlXjXhXhXcXcXjXjXBXhXhXhXhXjXcXcXBXhXcXhXhXBXBXjXBX",
"hXhXhXhXBXBXBXBXhXhXcXhXhXcXBXjXBXcXjXhXhXjXBXBXcXjXhXhXhXhXhXhXhXhXhXhXcXjXjXhXhXcXBXhXhXBXjXhXjXBXBXkXkXBXBXhXBXBXvXvXBXBXBXBXBXBXBXvXBXBXBXBXBXBXBXBXBXhXhXlXkXBX            & . X 7.B.S.O ! s.M.B.n.M.i.6.^ 7.T.OXeX9X(._.-XtXtX;X-XqXwX8X,XIXtXtXqXE.h.p.g.`.7X=XqX8X-X*XqX9XT.j.4.0.v.0.v.0.0.b.{..XXXOX'.Y.A.` A.s.A././.~.~.~.E.(.)./.A.            jXcXBXcXcXBXjXjXBXjXBXhXhXhXhXjXjXhXjXjXhXhXhXhXhXhXhXxXhXcXxXBXBXBXBXBXBXBXHXBXkXvXhXvXhXhXhXhXhXhXhXjXhXhXBXhXhXhXhXhXhXhXjXjXjXhXBXBXjXhXjXhXjXBXBXBXjXhXBXBXBXjX",
"vXhXhXxXBXBXBXBXBXhXcXhXhXcXhXfXhXcXjXhXjXBXBXBXhXjXhXhXjXjXhXcXjXhXhXhXjXjXhXhXhXhXjXhXfXcXcXjXhXhXhXhXlXhXlXBXvXBXvXBXBXBXBXvXBXBXhXvXHXBXhXBXBXlXBXkXBXBXhXhXBXBX            .   # 7.B.(   ! n A.H.H.W.~.`.7XwXtXqX-X_.-XrXdXtX<XtXeXT.P.*XyXOXd.g.g.g.H.!.`./.-XtXrX*XqXOXT.i.0.H.M.v.l.B.b.b.K.B.t.~ / x 8 8 7 8 7 2 # 2 f / h.h.a.^ W W W             cXjXBXcXjXcXcXhXBXjXjXjXcXhXcXhXhXhXjXjXjXjXcXhXhXjXcXBXBXBXxXhXBXBXBXBXBXBXBXBXBXkXvXBXhXhXhXhXhXhXjXjXhXhXhXhXBXhXhXhXhXcXjXjXjXhXcXcXjXjXhXhXhXjXcXjXBXjXBXBXBXjX",
"hXhXBXBXBXBXBXBXcXBXBXhXhXcXhXhXcXjXhXjXhXhXBXBXjXBXhXhXhXjXjXcXjXjXhXhXjXhXjXBXBXhXhXhXhXhXhXBXhXhXhXhXBXlXhXBXBXvXBXHXvXBXBXBXBXBXhXhXhXBXhXhXlXhXhXhXhXhXhXlXhXBX            .   X a.B.(   r & ` eX*X8XwXtXqX*X-X=XqXqX-XtX=X-X7X~.i.M.oXoXd.6.i.!.~.N.E.'.=XtXtX7XP.H.T.p.i.K.n.h.i.v.B.{.v.y.E g 7 3 3 7 d j j j d 8 7 3 2 # # l 5.q.v.b.v.            BXBXBXjXjXcXBXBXjXhXBXBXcXhXjXhXhXhXjXjXBXcXhXcXBXBXBXBXhXhXcXBXBXHXBXBXBXBXvXBXKXkXvXBXBXBXhXhXhXhXhXhXhXhXhXhXlXlXBXhXcXcXhXhXjXhXhXhXjXjXhXhXhXjXcXhXBXhXhXhXBXBX",
"hXhXvXBXvXBXBXBXBXBXBXjXhXhXBXjXhXBXcXhXhXhXjXcXBXcXcXhXhXjXcXhXjXjXhXhXcXhXjXhXhXhXhXhXhXjXcXBXBXBXjXhXhXhXhXhXBXBXBXBXBXBXBXvXHXBXHXBXBXhXhXhXhXhXhXhXhXhXhXlXhXBX            .   X ^ !.(   e + ! qXqX7X*XR.Z.7XtX8X_.).*X*X_.E.~.M.|.XXN.4.6.W.+XE.R.`.E.7XyX7XT.6.^ i.M.!.!.m.q.g.b.b.0.R L 8 8 8 d j h j T L j f d d d d d 8 8 2 # 9 c ^ i.            BXBXjXBXBXcXcXcXcXhXBXBXBXBXBXhXjXjXhXhXjXBXBXBXjXjXBXBXBXhXcXcXBXBXBXBXBXBXhXhXBXKXhXBXBXBXhXhXxXhXhXhXhXhXBXBXBXhXlXhXjXjXcXhXjXcXhXhXjXcXhXhXhXhXhXhXjXcXjXcXBXBX",
"hXhXvXhXhXBXSXBXSXSXBXhXhXhXcXjXhXcXBXfXcXBXBXjXBXjXBXBXBXBXjXhXhXhXBXjXhXhXBXBXBXjXBXjXcXBXBXhXBXBXhXhXhXhXhXkXhXvXBXBXKXBXBXBXBXHXBXBXvXBXBXBXBXlXBXBXlXBXhXlXBXKX            +     A.oX! o     + ` T.a.j.`.wXqXE.I./.*XOX`.E.H.d.v.0.4.0.V.V.N.^ ^ N.d.6.h.7.4.4.i.W.`.XXh.^ 4.6.d.7.4.W d 8 d d f j j h h k j j L L j f d f f 7 2 # X X $ 8             hXhXBXBXhXBXBXhXBXjXhXhXBXBXBXhXhXcXhXhXhXjXBXjXhXBXFXBXBXBXxXBXBXBXBXBXvXBXHXBXBXBXKXBXBXBXvXhXhXhXhXhXhXhXhXBXBXBXhXhXhXjXhXhXhXBXjXhXhXjXhXhXjXjXhXhXhXBXBXcXjXBX",
"hXvXhXhXvXBXSXBXBXKXBXvXvXhXBXBXvXBXBXxXcXcXBXjXBXhXcXBXBXBXcXcXhXhXBXlXhXBXlXcXcXcXcXBXBXhXhXhXhXBXBXBXBXBXkXhXhXhXhXvXBXBXBXBXvXBXBXBXBXvXHXBXBXBXBXBXBXBXlXlXBXKX            o   % A.A.% &     O q / 7.~.eX[.E.T.R.E.E.a.a.n.q.5.7.q.x.l.q.*.R d.q.0.0.0.0.0.k.v.m.A.( 7.4.8.0.0.^ x k d d d h j j d j h h d j j j d 8 7 7 2 # # # # X X $ q             BXBXBXcXcXcXBXhXjXBXjXcXBXcXcXhXBXcXxXxXhXBXcXBXcXcXcXhXBXDXBXBXBXBXBXBXvXhXBXHXHXBXHXHXBXBXBXvXhXvXBXhXhXhXhXhXhXhXhXhXhXhXxXxXhXcXcXcXhXjXhXjXhXhXhXhXhXcXBXBXBXBX",
"hXvXkXBXBXxXBXBXhXBXBXBXBXhXBXBXvXxXBXhXcXxXBXjXjXjXjXjXBXjXjXjXjXhXhXhXlXBXhXcXBXcXBXcXhXhXhXjXjXBXBXBXBXhXBXBXhXhXhXhXBXBXBXBXBXBXBXhXhXvXkXBXBXhXBXBXBXBXlXBXJXJX                r wX).X o O       / Z.! Z.h.f.t.d.6.7.h.N.q.5.n.m.5.4.-.-.8.8.8.8.8.4.4.8.6.6.7.a.N.q.8.8.0.4.E L h j j h J B h d B *.Y N J B j d 7 8 3 2 # # # 2 2 # c y.E             hXcXBXcXhXjXBXBXjXhXcXjXcXcXjXjXBXBXcXxXhXhXcXhXBXcXBXhXcXhXjXjXBXBXBXBXBXBXvXBXKXBXvXBXBXBXBXBXBXkXhXvXvXvXBXBXhXaXiXhXhXhXxXBXBXhXhXBXjXhXcXBXhXhXcXhXhXBXcXcXBXBX",
"aXhXvXBXhXBXBXBXxXhXBXBXvXBXBXBXBXhXxXBXcXcXBXcXjXcXcXBXjXhXcXcXhXhXhXhXhXlXBXxXxXcXBXBXhXhXhXhXhXhXBXkXhXBXvXBXvXBXBXBXBXBXvXBXBXHXBXvXhXBXBXhXhXBXlXlXBXBXBXBXBXBX                  / Z.X           w ! $ / 4.-.4.7.N.~.j.7.d.!.J.5.4.8.8.8.8.4.8.4.4.8.i.m.q.n.!.W.e.4.0.6.Y L j k h h h J T d d K 9.-.A A B h d 7 2 3 7 8 g g g 3 8 / t.$.B             hXBXKXBXhXhXBXcXhXhXjXcXhXjXBXBXBXcXBXcXhXhXhXcXjXBXBXBXBXjXhXBXBXhXvXBXBXBXBXBXHXBXBXBXBXBXBXBXBXhXBXBXvXhXvXBXBXhXiXhXfXhXhXxXBXBXBXhXBXcXBXjXhXhXcXcXjXBXBXBXBXBX",
"hXhXhXhXBXBXBXxXBXhXcXBXBXBXBXBXBXBXBXBXxXcXBXBXhXBXBXcXhXcXBXBXhXhXhXlXhXhXhXBXBXhXcXFXhXfXiXhXjXjXvXvXhXBXBXhXhXBXBXBXKXvXBXBXkXBXBXBXBXBXBXkXBXBXBXlXlXBXBXBXBXKX                  % / %       o         q W 7.Z./.Z.~ q.W.W.N.-.-.8.4.5.R R E 5.9.C.B.n.n.l.i.6.~ V.J.t.B j B j T B h h j d d B 5.-.B N J Y h 8 3 d k k k x x f l s.t.=.I I             cXBXhXhXhXBXhXhXcXhXhXhXjXhXBXBXxXcXBXxXhXhXhXcXBXBXBXBXBXjXjXBXBXBXBXBXBXBXBXBXBXBXKXBXHXBXBXvXBXvXBXBXhXhXhXhXhXvXhXhXBXxXhXhXBXcXcXhXBXBXBXcXhXjXhXjXhXhXhXBXBXBX",
"iXhXhXBXBXBXBXBXBXBXBXvXBXBXBXBXBXBXcXBXhXhXBXBXBXhXjXBXjXBXcXBXjXhXzXhXhXlXhXhXSXcXBXBXcXiXiXhXBXBXBXBXBXBXBXhXBXBXBXBXBXBXBXBXBXvXBXBXBXBXBXBXBXBXBXBXBXlXlXBXBXBX                    e O             +     c s.u.e.i.V.N.e.t.*.4.5.W f f 8 7 7 f x Q w.y.B.l.4.8.4.R K d h K N 1.P x h h j d N Y Y N N j d k d k L L x d k x 9 P N.0.8.*.B T             hXhXxXBXhXhXBXjXhXhXBXBXhXhXcXcXcXBXBXcXhXhXhXjXBXcXjXjXcXcXjXcXBXhXBXBXBXBXBXBXBXBXBXBXBXHXBXBXBXHXBXvXBXhXkXhXvXhXhXiXfXBXBXhXcXxXcXhXhXBXBXcXhXBXcXhXhXxXhXBXBXBX",
"aXhXxXBXBXBXBXBXBXBXBXBXxXBXBXBXBXBXBXBXBXcXcXBXBXhXcXhXxXxXBXhXhXBXhXhXhXBXhXBXBXxXhXBXBXsXiXaXBXBXBXBXKXHXBXHXKXKXKXKXKXBXkXBXBXhXvXBXBXBXBXBXBXhXBXHXHXBXBXBXBXBX                                    . o   $ e.n.q.8.^ 7.N.m.5.P j h h j j j d d 7 2 # g ~ t.7.W K B h B T N E E l b d h B B B A N j d d d d h r.E 8 7 x Q d 5.G.8.8.8.K E u.            BXBXhXhXBXcXjXjXhXfXhXhXhXhXjXhXjXBXBXhXfXfXhXhXhXBXBXBXBXBXBXBXBXBXBXBXBXBXBXBXBXKXBXBXBXKXHXBXBXBXBXBXvXhXvXvXhXaXhXiXfXhXhXBXhXhXhXxXhXBXBXcXcXBXcXjXBXhXhXBXKXBX",
"hXhXhXBXhXBXBXBXcXxXcXBXxXxXBXBXBXBXBXBXBXBXBXBXBXcXxXcXBXBXBXBXSXBXBXvXvXhXhXBXBXBXBXkXHXvXhXhXBXhXBXKXBXBXHXKXBXKXKXKXKXHXBXHXBXhXBXvXBXBXBXBXBXBXHXHXHXKXHXBXBXBX              t                       O     6 ~ 4.q.V.T.~ f d d N U N Y &.Z J J J j 8 2 2 x L L T A Y T N B E j g ) d N A A N Z B h j L B B Q x 3 7 k L K w.V.4.8.C.R E y.5.            lXBXBXhXhXhXhXjXhXhXfXiXhXjXjXhXhXjXfXhXhXhXhXhXcXBXBXBXBXBXBXBXBXBXBXBXBXBXBXBXBXHXkXBXBXBXBXBXBXBXhXBXBXBXBXhXhXhXhXhXBXBXfXhXhXhXhXhXhXhXBXcXBXBXcXBXBXBXhXxXBXBX",
"hXhXjXhXBXcXhXBXhXxXhXcXBXhXhXBXBXBXBXhXBXBXhXfXhXhXhXhXBXBXBXBXBXBXBXBXBXBXhXhXBXBXBXhXBXKXBXBXhXhXBXKXBXBXKXKXBXKXKXKXHXHXHXKXBXBXBXBXBXBXBXBXBXBXBXHXBXBXHXBXBXBX              & o                           % ! h.e.~ g d h N *.,.$.S N N M h h h B j 7 g Q ;.$.Z A Y N h B j d b / h S J J N B N j L Q f 9 g d d L E ;.;.C.6.4.V.r.E e.5.t.            hXhXBXBXcXhXBXBXhXhXfXiXiXfXhXjXhXhXfXhXjXjXhXhXjXhXhXxXxXcXBXBXBXBXBXBXBXBXBXBXBXHXBXBXBXHXKXHXBXBXBXBXvXhXBXBXvXhXkXBXhXBXhXuXuXjXBXxXxXxXhXhXhXxXBXBXBXBXhXBXBXhX",
"cXhXBXcXhXcXBXBXBXBXxXcXBXhXcXxXBXBXBXBXcXcXhXhXiXhXhXhXBXxXBXBXBXBXBXBXvXBXvXBXBXBXBXHXBXHXHXBXhXBXKXKXBXBXBXHXBXKXKXKXBXHXHXBXBXKXBXHXBXvXBXBXBXBXKXBXBXBXKXBXBXBX            . + o                               5 d d T I I Y *.I N h h h h h d 8 7 d E r.;.Y J M B h h h h B L Q F.B S j j B h f f x d 2 8 d B 5.V.q.Y *.8.8.8.=.R 5.5.n.5.            lXhXhXJXBXcXcXhXhXiXhXiXiXpXfXhXhXhXhXhXjXcXjXcXhXcXcXxXhXcXcXxXBXBXBXBXBXBXBXBXBXBXHXBXBXHXBXHXBXBXBXBXBXvXhXBXBXvXhXBXBXhXhXhXuXhXhXcXcXxXhXxXBXBXBXjXBXBXcXBXBXhX",
"BXBXBXBXBXBXBXBXBXBXBXBXhXcXBXcXxXBXBXxXcXBXhXfXiXaXhXxXBXxXBXBXBXBXBXvXBXvXBXvXBXBXBXBXBXBXBXBXBXBXBXBXHXBXBXLXHXHXBXBXBXBXHXBXBXHXBXHXBXBXBXBXBXBXBXKXKXKXKXBXhXBX            o * o                               3 h T E h h B j d d d d h h d 8 d E w.E N N L N h h d h h N 1.J k F.B T j j h j f f 8 8 j j L 5.t.5.K Y 5.=.R R =.E W n.~ ^             lXBXBXJXBXBXcXhXhXfXiXfXhXiXiXhXhXhXhXhXhXhXcXcXhXjXBXxXhXcXhXcXBXBXxXBXBXBXBXBXBXBXBXBXBXBXBXBXBXBXHXBXvXvXkXBXBXBXBXBXhXhXjXjXhXiXfXhXhXxXhXxXBXSXBXBXBXBXBXBXBXiX",
"cXcXDXBXBXBXcXBXBXBXcXhXhXxXBXBXcXcXxXcXBXBXhXiXiXhXBXhXxXhXhXBXBXBXBXvXvXBXBXBXBXBXBXlXvXBXBXBXBXBXBXBXHXKXKXKXHXHXBXBXBXBXBXBXBXBXBXvXBXBXBXBXBXBXBXBXKXBXHXBXBXHX            o & o                     &         5 L B f f j f f k k k j d d h Q r.=.j d h h h h d d h h N S J N x s.K Y L f d h j f d f B R u.5.E f d K Y K E ~ ~ P L P ~ ^             BXhXhXhXjXBXcXhXhXhXhXhXhXfXhXhXhXhXhXjXhXhXhXjXBXBXBXBXxXxXcXBXBXBXBXBXBXBXBXvXBXBXBXBXBXBXHXBXBXHXHXBXBXkXBXBXkXBXBXvXcXBXBXhXBXhXiXaXhXaXhXhXhXBXBXBXBXBXhXBXBXhX",
"jXBXDXBXBXFXBXBXxXBXBXBXBXFXSXxXhXcXBXcXhXhXiXfXhXBXhXcXjXhXhXcXBXBXBXBXhXBXBXBXBXBXBXhXBXBXBXBXBXBXBXBXBXKXKXHXBXBXBXBXKXBXBXvXBXHXKXBXBXBXKXKXKXBXBXBXBXBXBXHXBXBX              o &                     o o       # 8 d k d 8 8 8 8 d d g k d Q ;.B d 8 f j h d 8 8 8 j j h d d h k A.k j f 7 k k f f g j R w.x 8 8 d x ~ / ` / 5 8 c l 9 l 9             BXhXhXhXfXhXhXhXfXhXhXhXhXhXhXhXhXhXhXhXhXhXhXhXjXBXBXBXcXjXBXBXcXBXSXBXhXcXxXcXBXxXBXBXBXhXBXBXBXBXBXBXBXBXBXBXBXBXBXvXkXhXhXjXhXhXhXBXhXhXhXvXhXBXvXBXBXBXBXhXhXhX",
"cXBXBXBXBXBXBXBXBXBXKXBXBXBXxXBXBXhXjXBXBXfXhXjXhXcXhXBXhXhXjXjXhXBXBXBXBXBXxXBXBXBXlXhXBXBXBXBXBXBXBXhXBXHXBXBXKXHXKXBXBXKXBXBXBXKXKXBXKXKXBXKXKXBXBXBXBXHXHXHXBXBX                *                                 # 2 8 8 8 8 8 7 7 3 3 3 8 f d d f b x x x x x d d 8 8 7 8 k k x A.c v z z v c ( ( ( x x P s./ l v / ( ! ( ! ! / / / v c !             lXhXzXhXBXhXhXhXhXhXhXhXhXhXjXhXhXhXhXhXhXhXhXhXhXhXhXhXcXcXcXBXxXcXhXBXBXBXcXBXBXhXBXHXBXkXBXHXBXBXBXKXBXBXBXBXBXBXvXBXBXhXhXhXhXiXhXhXhXkXhXvXhXhXBXhXBXcXhXhXhXjX",
"cXhXcXBXBXcXBXBXhXBXFXBXBXcXcXcXBXjXhXBXcXBXBXcXhXBXBXBXhXhXBXcXhXBXcXBXBXBXBXBXBXBXlXlXBXBXBXBXBXBXBXhXBXBXBXBXBXKXKXBXvXBXHXBXBXKXBXBXKXBXBXKXHXHXBXBXBXBXKXBXKXKX                o                               o X # 7 8 8 8 d f g 4 # # 2 3 g k k x 9 9 q 0 9 f f x / A.A.` n ! I./ ^ c v v c ( z q v v v A./ c c l 4 9 v c / / ! v x c /             BXiXzXhXhXhXhXhXxXBXhXhXjXhXhXhXfXjXhXhXhXhXhXhXhXhXhXhXhXBXjXjXhXhXhXhXhXBXhXhXBXhXBXvXBXHXBXBXBXBXBXBXBXBXBXBXBXBXBXBXhXhXhXhXBXhXhXhXhXlXBXhXhXiXhXhXhXcXjXhXhXBX",
"cXhXjXjXBXhXBXhXhXBXBXBXBXBXBXhXBXBXBXcXBXhXhXBXBXcXcXcXhXhXjXhXhXhXhXBXBXBXBXlXBXBXkXlXlXBXBXBXBXBXBXBXBXBXBXBXBXBXkXhXBXBXBXKXBXBXBXKXBXBXKXKXKXHXHXHXBXBXBXBXKXKX                  o o           o o             . X & # 7 d d 8 8 3 2 4 # $ 6 # 5 6 @ X $ 0 9 q z g f x / z 8 0 / T./ c ^ ( 9 z 9 9 ( ( v v l 9 v P c z v z 9 9 5 4 $ z v 9             BXhXhXBXhXhXxXiXhXhXfXhXcXjXhXhXiXiXhXhXhXhXhXhXhXhXhXhXhXhXhXhXhXhXcXhXcXhXhXxXBXBXBXBXBXBXBXBXBXBXBXBXBXBXBXBXvXBXBXBXBXBXBXhXhXhXhXhXhXhXBXhXhXiX4XvXhXhXhXhXhXhX",
"jXBXjXjXjXhXhXBXBXxXBXBXBXBXxXxXBXBXBXBXBXcXhXBXBXcXcXBXhXhXhXfXfXhXcXBXBXBXcXBXhXhXBXhXBXBXBXkXlXBXBXBXBXBXBXBXBXhXvXBXBXBXBXHXBXBXBXBXBXHXBXHXBXBXHXBXBXBXBXBXBXHX                  * o                                   X # 4 4 2 4 $ 4 4 5 6 5 5 # # @ # # $ 6 9 9 9 c ! ! oX/ ` ^./ 4 9 q 4 9 n ! U.w l v c v 4 l b 4 5 6 5 4 # 4 # $ $ $             hXhXhXhXBXBXxXhXaXiXhXiXhXjXhXhXfXfXhXhXhXhXfXhXjXhXjXhXhXhXhXhXhXcXhXhXxXBXBXhXBXSXBXBXBXhXhXBXvXBXBXBXvXBXBXBXHXHXBXBXBXBXhXhXjXhXhXBXhXhXhXaXhXhXiXiXiXfXuX4XhXhX",
"jXcXBXcXcXcXBXBXBXBXhXBXxXBXBXBXBXcXBXcXcXcXjXhXcXBXcXBXhXhXhXfXhXiXfXjXBXBXBXBXhXkXhXBXBXBXBXBXBXBXBXBXBXhXvXBXBXBXBXHXKXBXBXHXKXHXBXBXHXKXBXBXBXBXHXBXBXkXBXBXBXHX                  o               o             o     O $ X X # # 6 # 5 / / n b b 9 g g 9 z n x l 9 $ r 6 % ` n n A.z 5 / ( q ! 6 ! w 6 g 9 9 4 z n 9 q 9 0 q # 2 2 # X X X             zXhXhXBXBXBXBXBXBXhXhXhXhXhXhXhXhXhXjXcXhXBXhXfXjXjXhXhXhXjXjXjXcXhXhXhXhXBXBXcXhXcXxXBXhXhXBXhXBXBXBXBXBXvXBXBXBXBXBXBXHXKXBXBXBXhXhXBXkXBXhXvXvXhXBXBXhXiXuXuXiXhX",
"jXhXBXBXBXBXxXBXxXxXBXBXBXBXBXBXBXcXcXBXxXcXhXjXhXcXBXcXhXhXhXjXhXhXhXjXBXBXBXBXkXhXhXBXlXBXBXBXBXBXBXBXBXBXBXBXBXBXBXHXBXHXHXBXHXBXBXBXKXKXBXBXBXKXKXKXHXBXhXBXHXHX            o     o             o r               .   $ 5 5 4 # # 4 g l x k 8 2 2 / / f l g 9 x x 5 X % q 5 # v v f l P z 0 5 5 b ).A.x z q ! v z c c P P x 9 9 z c z z 9 5             hXhXiXlXBXBXBXvXBXxXhXcXaXiXhXcXhXhXhXcXBXBXBXhXjXcXjXjXjXhXcXhXhXhXhXhXhXcXhXBXhXfXhXfXhXhXcXBXBXcXBXBXBXBXBXBXBXBXBXHXBXBXHXHXBXBXhXvXhXhXvXBXvXBXBXBXlXhXBXzXiXhX",
"jXBXBXBXcXBXBXBXBXSXSXhXBXBXBXBXBXcXBXBXxXcXcXcXjXBXhXhXBXjXhXBXjXBXBXjXBXBXBXhXlXBXBXhXhXBXBXBXBXBXBXBXhXvXvXBXHXBXKXBXBXHXKXKXBXBXBXBXBXBXvXhXBXBXKXHXHXBXBXHXKXHX            & o   &               o                   % q z 0 4 4 g l 5 # 4 5 4 4 n 0 # b n c / / n 5 ( M.e.6 / ~ P f x 5 X $ q z z 9 b ' r 0 b b 8 c z 0 % X 8 l 9 l v c 9             hXhXiXhXkXhXvXvXBXvXhXhXBXiXiXBXhXhXhXhXhXhXBXBXcXjXcXBXBXcXjXhXhXjXhXhXhXBXhXcXcXBXhXhXhXhXhXBXhXcXBXBXBXBXBXBXBXBXBXBXBXBXBXHXBXBXBXvXhXBXBXhXhXhXhXvXkXhXhXhXBXBX",
"hXcXBXBXjXBXBXBXBXBXBXBXxXBXBXxXBXBXBXBXBXBXBXBXcXhXcXBXjXjXhXhXBXjXBXBXcXBXBXhXlXBXlXlXBXBXBXBXHXBXBXBXBXhXBXBXHXBXBXvXKXKXKXKXBXvXBXBXvXvXBXBXBXHXKXHXBXBXKXKXKXKX            & &   +                                   X $ 4 z / c z X 0 n $ 4 4 # 4 n 5 r 5 q z q O @ ~ B.~ # / P c z n r   X $ X X 6 q 5 $ 9 9 b x 4 4 ` ! O 0 w w 4 z / /             hXBXhXhXBXhXhXhXhXhXhXhXhXhXhXjXcXhXjXhXhXhXhXBXcXjXBXcXBXcXBXBXDXDXBXhXhXhXhXhXhXhXhXcXhXhXBXhXcXcXBXBXBXxXBXvXBXvXBXBXBXKXKXHXBXBXBXBXBXvXBXBXBXkXhXvXBXhXhXlXlXBX",
"hXjXjXBXhXBXBXBXBXBXBXBXBXcXcXBXBXcXhXcXBXBXBXBXBXhXjXjXjXhXjXhXhXBXBXhXBXBXBXBXBXBXBXhXlXBXBXBXhXBXBXBXBXkXhXBXBXkXkXhXhXBXBXBXBXBXhXhXvXBXBXBXBXBXBXBXBXBXKXHXBXHX              o   o .                     o               O 5 q v w X q ` q X 6 q z / l $ % q b ! w r w / c z ( j.c x z n O & X       X b s./ 6 q z # 9 c q $ 4 4 $ 5 ) / !             hXBXhXiXkXhXhXkXvXhXhXxXhXhXfXfXhXjXhXhXhXhXfXhXjXhXBXBXjXBXBXBXBXBXBXBXhXhXhXcXxXBXSXhXhXhXhXxXhXhXhXhXBXBXvXhXvXBXBXHXBXBXBXBXBXBXBXBXBXBXhXhXBXBXvXBXkXhXhXlXBXBX",
"jXjXhXjXBXhXxXBXBXBXxXBXBXBXBXhXBXBXhXBXBXBXBXjXhXhXhXhXhXhXjXcXhXhXBXBXBXBXDXBXhXlXlXBXBXBXBXBXhXlXKXBXvXBXBXBXvXhXhXvXkXBXhXhXvXBXBXBXBXvXBXBXBXBXHXBXBXBXKXKXBXBX                  X                       o       o           X % w   & r %   O 6 8 4 6 $ & e e % r n 6 9 P b a.h.c x x q # 5 q w ! b n ! v q e _ %   6 z # $ $ 4 q q ! ! '             hXBXhXhXBXBXBXvXhXBXBXcXBXhXhXhXiXhXhXjXBXjXhXhXhXhXBXBXBXjXjXBXBXBXBXBXBXcXhXhXxXBXxXhXhXhXhXhXxXxXvXBXvXBXvXBXBXBXBXHXBXBXvXBXBXkXvXhXhXhXhXvXvXvXhXvXkXkXhXhXhXBX",
"BXlXBXBXBXBXxXBXBXBXhXBXBXBXBXBXhXhXBXBXcXxXcXcXBXBXBXBXxXhXxXcXhXhXhXBXBXlXBXBXkXBXhXBXBXBXBXHXBXkXBXBXBXBXBXBXvXhXhXhXBXBXBXBXhXHXHXHXBXBXBXHXBXHXBXHXKXBXBXBXBXBX                  X X + *                                     o $ 6 %   % + .   # 2 5     o r e # 4 # # 4 5 9 h.Z.c W x z & 4 z z c ! q r r 6 % & 6 # 5 5 9 q 4 4 5 $ $ n !             hXBXBXBXBXBXkXBXvXBXhXhXvXhXhXhXfXiXhXjXhXBXBXjXhXcXcXBXBXBXBXcXcXBXBXBXBXBXBXhXxXhXhXvXvXhXvXvXhXhXBXBXhXhXBXBXBXBXBXBXHXHXBXBXBXvXkXBXhXhXhXBXBXBXBXhXhXkXzXhXhXBX",
"BXBXlXBXlXBXBXcXBXBXBXBXBXBXBXBXcXxXxXBXBXxXcXBXxXxXBXBXBXcXxXhXfXhXhXhXhXlXBXhXBXBXhXvXvXvXBXBXHXBXBXBXHXBXBXBXBXBXhXvXBXHXBXBXvXBXBXBXBXBXBXBXBXBXBXBXBXBXBXkXhXvX                  O % & &           o                         & 5 $ o   . O     X 4 q e r 6 6 9 l l 9 q z 5 q h.h.P W P z 6 5 z 5 z 0 1 } ) %   X z $ X 5 5 $ X #   X # 4 z             hXhXhXhXhXhXhXBXhXvXBXvXvXvXhXhXhXhXiXhXuXBXhXhXhXjXBXBXhXhXcXxXhXxXcXhXhXBXBXvXhXhXvXBXvXBXhXhXBXhXvXvXhXBXBXBXBXBXHXBXBXBXBXBXBXkXhXhXBXhXvXkXBXvXhXhXhXBXhXhXhXhX",
"BXlXlXlXBXBXBXBXBXBXSXBXBXBXBXBXBXBXxXxXBXhXxXBXBXhXBXBXBXBXBXBXhXhXlXhXlXkXBXBXvXBXvXBXvXBXvXvXvXBXHXBXBXBXBXBXBXBXBXBXBXBXvXhXhXHXKXHXBXBXBXBXBXBXBXBXBXKXKXKXBXBX                      & t           o                           & e         & o     e ) r b ( P W v n ^ / v q ~ j.W l l b e $ w @ b v r _ : X * ) $   e :   6 r q r 6 # ! /             vXhXhXaXiXBXBXhXhXhXBXBXBXvXhXhXiXhXhXhXhXiXhXhXhXhXhXhXhXhXhXxXxXBXSXhXhXBXBXkXhXhXBXvXhXBXBXvXHXhXvXhXhXvXBXBXvXBXHXBXBXBXBXBXkXhXhXBXBXBXBXBXhXhXBXkXhXBXBXBXhXlX",
"BXBXlXlXBXBXcXcXhXBXBXBXBXBXBXBXBXBXBXcXhXBXBXBXKXcXBXBXBXBXBXBXhXBXhXhXiXkXlXvXvXvXBXBXBXBXBXKXBXhXBXBXvXBXBXBXBXBXBXvXvXBXvXBXBXHXKXKXBXBXBXBXBXBXBXvXBXHXHXBXBXBX                      & &           o                           % e     +   _ r & & & r o v s.c x 0 5 b c b v a.j.P 8 9 n q # X X # X         & ) %   } _   ' D.s.F.e $ $ X             BXBXhXhXaXBXBXhXvXvXhXhXBXvXhXhXhXhXcXhXhXhXhXBXBXBXhXhXhXhXhXxXBXhXxXBXcXhXBXhXhXhXhXhXhXhXvXvXBXhXBXvXBXvXBXBXhXBXBXBXBXBXBXBXBXBXBXBXBXBXhXhXvXBXBXvXhXBXlXBXlXBX",
"hXlXhXhXkXBXhXcXBXxXxXBXBXBXBXBXBXBXBXxXxXBXBXBXBXBXBXcXBXBXhXhXBXjXBXhXsXhXBXBXhXBXvXhXhXhXBXKXBXhXBXBXBXBXhXBXBXBXBXvXBXBXBXBXBXBXBXKXBXBXBXBXvXBXBXvXBXBXBXBXHXKX                  % o     o         o     O       o             & O       X * O % o X 6 5 % 6 # # % o % 6 6 z N.a.P K x v 0 5 9 5     X             X * & e X 5 9 ! ) & $ 6             BXBXBXhXhXvXhXhXvXhXBXBXBXhXhXhXhXhXjXBXhXhXiXfXBXhXhXBXBXBXcXhXhXhXxXBXcXBXBXBXBXhXhXBXhXvXvXBXBXaXvXBXBXBXBXBXBXBXBXBXBXBXhXvXBXHXBXhXhXhXhXvXvXhXvXBXBXBXBXkXkXlX",
"hXBXhXhXlXBXBXBXBXxXBXBXBXBXBXhXxXxXBXBXxXBXBXBXBXBXhXhXhXjXhXhXBXhXBXhXlXBXBXhXBXBXvXiXhXBXBXhXhXBXBXBXBXHXBXBXBXBXBXvXBXBXBXBXkXhXvXBXBXBXBXBXvXvXhXBXBXBXBXBXBXBX                  e &   o & &           o o                     & e O   X 5 $         % q 6     & 5 X X     % b h.W W c l 4 5 l 9 $ 4 X   X               e r @ # % 6 5 q 6             BXBXBXBXhXBXBXBXvXhXBXvXhXhXBXhXBXhXhXBXBXhXhXhXhXhXhXhXSXBXhXhXBXvXhXxXBXBXBXBXhXhXhXBXBXhXBXBXBXaXvXBXBXHXBXBXBXBXBXBXBXBXBXBXKXKXHXHXHXBXhXBXhXvXhXhXBXBXBXBXkXBX",
"kXBXhXlXBXkXBXBXBXhXhXvXvXBXBXBXBXBXBXkXBXBXBXBXBXBXhXBXBXlXlXlXlXlXhXhXkXhXkXhXhXhXBXlXzXBXBXhXhXhXBXBXHXBXvXBXBXBXhXBXBXBXBXvXhXvXBXBXBXBXBXBXvXhXhXBXBXvXBXBXBXBX                  & .     + o           O .                     O e     % q q % q w n z 5 $ X   % $ X X $ % % % c v l 8 l 9 9 9 4 5 5 e r         X   X   X 6 #     X X % X             BXBXBXBXhXBXBXBXhXBXhXhXhXvXBXvXhXhXaXiXBXBXvXhXBXBXhXBXvXhXhXhXhXvXhXhXBXvXBXBXBXhXhXhXhXBXBXhXBXiXBXBXBXBXvXBXBXBXBXBXBXBXHXHXBXBXBXBXHXBXhXvXBXBXBXvXBXBXvXBXBXBX",
"hXlXhXhXhXhXvXBXBXhXhXhXhXvXhXBXBXBXvXBXBXvXBXBXBXhXhXhXlXlXlXBXBXkXhXhXhXvXhXhXhXhXkXBXhXBXvXhXkXhXhXBXBXBXhXBXBXBXBXBXKXHXkXkXhXvXBXvXBXBXBXBXBXvXvXBXBXvXBXBXBXBX                          & o           O                       o &     O 6 6 % q z c z 4 5 $   $ # $ # $ $ X X X 4 9 8 x x l f 4 5   } %X  % 4 9 6 X e w 6 5 5 5 5 4 X X X             BXvXBXBXhXBXhXaXhXBXBXBXhXhXBXBXhXhXhXvXhXhXBXvXhXhXvXvXBXBXhXhXhXiXhXhXhXBXBXBXvXhXhXvXhXvXhXhXBXiXBXBXBXBXBXBXvXhXBXHXBXBXHXBXBXBXBXBXBXBXBXBXBXBXBXBXvXBXBXBXhXaX",
"hXkXhXhXhXhXhXkXhXhXvXBXhXBXBXvXBXBXkXBXhXvXBXhXhXhXvXhXhXlXhXhXBXlXhXhXBXBXBXBXBXzXhXKXkXBXBXhXkXBXBXBXBXBXBXBXBXBXBXKXHXBXhXhXBXvXvXvXBXBXKXBXhXBXvXBXBXvXBXBXBXBX                          &             & o         e o                     o   X 5 8 4 4 g # % q q 9 9 9 l f 5 $ 5 8 f x c c l 9 0 X 1 e # 5 0 z 4 % X 5 $ $ $ 4 5 4 9 l l             BXBXBXBXBXvXBXvXBXBXvXBXvXhXBXhXhXvXHXKXBXhXhXBXhXhXBXvXBXBXBXhXhXhXaXaXhXhXBXBXBXBXvXBXBXhXBXBXvXhXBXBXvXBXBXBXBXBXKXBXvXBXBXBXHXKXhXBXBXBXBXBXBXBXvXBXBXBXBXBXhXhX",
"lXBXBXhXhXhXhXhXvXhXhXBXvXvXvXhXvXhXhXBXhXBXBXvXhXvXBXvXhXzXhXhXBXBXhXBXBXBXBXBXBXhXBXBXBXBXBXBXkXhXBXBXBXBXBXBXBXBXBXHXBXBXBXBXBXBXvXvXhXhXBXBXhXhXBXvXBXBXkXhXBXhX                                        o .         e           &   o &       X X # $ 2 2 $     5 9 8 5 0 9 8 8 $ $ # 2 4 # # 4 w 5 X     % 6 # 5 0 6 r X r *   X   5 ^ ^ ~             BXBXBXBXvXBXBXBXBXBXhXvXBXhXBXhXBXBXBXvXBXBXhXBXhXBXBXhXBXBXBXkXhXhXhXhXhXvXhXvXBXBXBXhXvXBXBXBXhXhXBXBXKXHXBXBXBXHXHXBXBXBXBXBXBXHXBXvXvXvXBXvXBXBXBXBXBXBXBXBXvXvX",
"BXBXBXhXhXhXhXhXvXvXhXhXhXBXvXvXBXvXBXBXiXBXBXBXBXBXBXvXhXhXhXBXhXBXvXBXhXhXBXBXhXhXkXhXkXhXhXBXkXhXvXvXBXBXBXBXBXBXHXBXBXHXBXBXBXBXvXvXhXhXhXBXBXBXBXBXBXBXkXkXBXvX              . O                                               o   & &           & z c v $     $ q l l q 5 z c q & r e e r & e t O   X X $ % X $ 5 5 n O ] &   O O 6 ^ f x             BXBXBXBXBXvXBXBXBXBXvXBXhXvXBXBXvXBXhXhXBXBXBXhXvXhXvXhXhXvXhXBXBXvXaXhXhXhXhXhXBXBXBXBXBXBXHXKXhXhXHXKXPXBXBXBXBXBXBXBXBXBXBXBXHXHXBXBXBXBXkXBXBXBXBXBXvXBXBXBXhXvX",
"kXhXBXhXhXhXhXhXBXBXhXvXBXBXBXBXhXBXHXBXHXBXBXvXBXBXBXBXhXhXBXBXBXBXlXBXBXsXlXhXkXhXBXhXhXBXvXhXhXhXhXkXBXBXHXHXBXBXvXBXBXBXBXBXBXBXKXBXvXBXBXhXBXBXHXBXvXBXBXBXBXBX                  o o                                 o             + &           5 c 4.5.9       % v v 9 n b ! n r _ r r ' t s & q z x z l z z g 0 0 4 4 X O X X $ # z f f             BXBXBXBXBXBXBXhXBXvXhXBXhXBXhXuXBXBXBXBXvXvXBXvXvXiXBXBXBXKXvXkXlXhXhXhXlXhXiXiXhXBXvXHXKXBXBXBXhXBXBXBXBXkXBXBXBXBXBXBXBXKXBXHXBXBXBXHXBXBXBXvXBXBXBXBXvXBXBXBXBXHX",
"hXhXhXvXhXhXhXBXBXBXBXiXhXvXBXBXhXvXhXhXvXBXvXhXhXhXvXBXBXkXhXhXBXhXlXlXlXBXhXBXBXBXBXhXBXBXkXhXhXvXhXBXBXBXBXvXvXBXBXBXBXhXhXBXBXBXBXvXBXhXhXhXhXvXBXBXBXBXHXBXBXhX            o &   o       o                           &             & o           # f k x 5       X 5 6 % r # 2 # * s & ' ) & r % l 5 4 9 l f f l l l 5 2 4 5 5 4 4 5 8 8 9             lXBXBXBXBXBXBXhXhXhXhXvXhXBXlX;XhXBXBXvXvXvXvXhXhXBXBXhXKXHXBXhXBXhXhXhXhXBXhXhXhXhXBXBXBXBXBXBXBXBXBXBXBXBXBXBXBXhXBXHXBXBXHXHXBXkXvXBXBXBXBXBXvXBXBXBXBXBXBXhXkXvX",
"hXvXBXBXvXkXkXhXBXBXaXhXhXhXhXvXBXBXiXBXvXvXBXhXhXhXkXkXhXlXBXBXhXlXhXhXhXBXkXBXBXBXBXBXBXBXkXhXhXBXBXBXvXBXhXhXBXBXBXBXhXhXhXhXhXBXBXvXBXvXhXhXhXvXkXHXKXBXBXJXBXBX              o             o                     & o o       o     &             X 4 $ # X O o     X X # 4 4 8 4 X ] & ) y o w z f 9 4 4 c 7.6.p.e.x 8 4 4 4 5 9 9 9 9 4 4             BXlXhXhXBXBXBXBXhXhXhXBXhXBXBXzXhXBXBXBXBXBXBXBXhXhXvXBXBXHXHXhXBXBXBXBXkXzXiXuXhXhXhXhXBXHXvXBXBXBXBXBXvXBXBXBXBXkXvXBXBXBXHXBXhXBXBXBXBXBXvXBXBXBXBXBXBXBXBXvXkXBX",
"BXvXvXhXkXkXBXBXBXvXhXhXhXhXhXhXvXhXhXhXhXBXvXBXvXhXhXvXhXhXlXBXhXBXlXlXhXBXBXBXBXBXBXBXBXBXBXhXhXBXBXBXBXBXBXvXvXBXhXhXhXBXBXhXhXBXHXBXhXhXhXhXvXBXBXBXBXKXBXhXBXBX              o o   o     o &                     o           o     o             % r r O ! Y.A.A.U.A.0 q q q z q X r & e 1 % z z 9 9 5 4 4 ^ p.~ l 8 5 4 $ 5 9 5 8 5 5 5 9             lXhXhXhXBXBXBXaXhXkXBXBXBXBXlXBXlXhXvXvXvXBXBXBXhXkXhXhXkXBXBXBXBXBXBXlXBXhXBXBXBXhXhXiXaXvXBXBXhXBXBXBXBXBXBXkXhXBXBXBXBXBXHXBXaXvXBXBXHXBXBXBXBXBXBXBXBXvXBXBXBXhX",
"hXvXBXvXkXhXhXBXBXvXhXhXkXhXhXaXhXhXvXhXBXhXhXBXBXvXaXBXlXhXhXlXBXhXhXhXhXlXBXBXvXBXBXBXBXBXBXBXBXBXBXBXvXhXhXhXvXhXvXaXhXkXBXBXhXBXvXvXhXkXBXhXhXhXBXKXBXBXKXBXBXBX            o o                                               + .       o         e w % # ! ` ( A.P.` n n n b b n 6     e : $ e 6 & & 6 t & 5 q 5 % 5 5 X 5 b / ^ / n / ! /             hXhXhXkXkXBXHXBXBXhXhXiXhXvXvXhXhXlXkXBXBXBXBXBXBXkXhXhXaXBXBXBXhXhXhXlXhXkXlXlXhXhXlXBXvXhXkXBXhXBXBXBXBXvXBXBXvXvXBXBXBXBXBXBXBXBXBXBXBXHXBXBXBXBXBXBXBXvXBXkXvXBX",
"BXBXBXhXhXBXhXhXBXhXiXhXBXhXhXhXhXvXhXhXhXkXBXBXvXBXBXBXhXBXhXBXBXBXBXlXkXBXlXBXBXBXBXBXvXBXBXBXhXhXhXhXhXhXhXvXBXhXvXBXBXhXvXBXBXBXBXBXkXvXBXBXvXvXBXBXHXHXBXBXKXBX            &                                   o             * o   o o o             X # n z 6 q z w n b c x c v n % % e e e r t r & t y t r       @     b / / e.u.v f.b /             hXhXhXhXhXBXBXBXBXBXBXhXhXBXvXBXhXhXBXBXBXvXBXhXhXvXhXhXBXhXhXvXBXBXhXlXhXhXkXhXhXhXBXhXhXBXBXhXhXBXBXBXBXBXvXhXhXhXhXvXBXBXBXBXBXBXBXBXBXBXBXHXBXBXBXBXBXBXBXkXBXBX",
"BXBXkXhXzXhXhXhXhXBXlXBXlXhXhXhXhXvXvXhXvXBXBXBXBXhXhXhXhXlXlXBXlXhXBXBXBXlXBXBXBXvXBXBXBXBXBXhXhXhXhXhXlXkXhXhXhXhXBXBXBXvXBXBXBXBXBXBXkXBXBXBXvXvXBXBXBXBXJXBXBXBX                                                o             . .             X       X O % $ 6 $ 5 4 6 z c b ^ ! q 6 e e r r e e t r y y s e n ) ' 6 ) ' b z 0 c ^ c e.c P             BXhXhXkXvXvXBXBXBXBXBXBXBXkXhXhXBXlXBXhXBXBXhXiXhXhXhXvXvXhXvXBXBXhXhXkXBXhXhXhXvXkXBXHXhXBXBXkXBXhXBXBXBXBXvXhXhXhXhXBXvXvXBXBXBXBXBXBXBXBXBXBXBXBXBXBXBXBXlXhXBXBX",
"hXhXhXhXhXhXhXhXhXlXhXhXhXhXBXBXhXhXhXhXBXaXhXvXhXhXhXhXlXlXhXBXBXlXBXlXBXhXhXvXkXBXvXkXBXBXhXiXhXhXhXhXhXhXhXhXhXhXvXBXBXBXkXBXBXBXBXBXBXBXBXBXBXBXBXBXBXBXBXlXBXBX                                                &                       o   X # 4 $ # X X # # # 4 0 6 # 4 6 % X         X   e : * * & & * & o & t e % r r q A.Z.T.S.S.S.Z.S.            lXlXlXlXvXhXBXBXBXBXvXBXhXiXsXhXBXBXhXBXBXBXBXhXhXBXhXhXhXvXBXBXhXhXBXBXBXvXvXvXBXkXlXBXhXhXBXhXhXhXhXHXBXBXvXhXhXhXBXBXhXvXvXBXBXBXBXHXKXBXBXBXHXBXBXBXBXBXlXhXkXlX",
"hXhXsXBXBXhXBXlXhXhXhXBXlXhXBXhXsXvXhXsXvXvXhXhXBXhXhXBXBXhXhXlXBXlXhXkXhXBXBXBXvXhXBXBXBXlXhXhXhXlXhXlXhXBXhXhXkXvXBXBXvXhXhXkXBXhXBXBXBXBXBXBXBXkXkXBXBXBXBXBXBXBX                                                                        r & X 2 7 2 2 3 3 g z # 0 5 5 2 5 4 $ # & % % $ 4 # ) { _ _ _ _ _ s e r &         6 I.I.A.A.A.A.A.A.            BXlXhXBXBXvXKXBXBXBXBXBXvXhXaXBXBXBXBXhXhXBXBXBXBXBXBXBXvXBXaXiXhXhXhXBXBXvXvXBXvXhXhXBXvXBXhXiXhXBXBXBXBXBXhXBXhXhXhXhXkXBXBXBXBXvXHXBXBXHXBXBXBXBXvXBXBXBXBXlXBXBX",
"BXBXBXBXhXhXlXBXBXhXkXhXlXBXlXhXhXBXhXiXhXBXaXhXvXhXkXBXkXkXhXlXhXlXlXlXlXlXBXBXBXhXBXBXBXjXhXhXlXlXhXlXkXBXhXhXkXhXhXvXhXhXhXBXhXhXBXBXvXhXhXBXvXvXBXBXBXBXBXBXBXBX                                                                      * *   X 4 8 8 8 8 7 7 3 2 2 2 2 2 2 # # 4 0 q $ # 0 4 # & 1 1 1 e & O % r ) ' ' ) s ' r                           BXJXBXBXHXHXHXBXBXBXhXvXBXBXvXBXBXBXBXsXhXkXBXkXBXBXBXBXBXBXhXaXhXBXBXBXhXBXBXvXBXBXhXBXBXBXhXhXBXBXlXBXBXlXhXBXhXkXhXhXBXBXBXBXBXvXkXBXBXBXBXBXHXBXBXBXBXBXBXBXlXBX",
"BXhXiXhXlXlXhXlXBXBXBXiXuXBXlXBXBXxXBXBXvXBXhXhXBXBXvXvXkXlXhXhXBXlXlXBXBXhXkXhXhXkXkXBXBXlXlXhXBXBXhXhXhXhXhXhXhXvXhXhXhXhXvXBXBXhXBXBXhXhXhXBXhXhXBXkXBXBXlXBXBXBX                                        o                             o     # f L f g 8 7 8 z 4 3 3 2 2 2 2 2 2 2 # # # 5 8 4 4 # 4 0 0 4 8 k 8   & r ) ' p o $ 0 g g g z z             BXHXBXlXhXBXBXBXBXvXBXBXBXBXvXBXlXlXBXlXhXBXhXvXBXBXvXhXhXhXHXKXBXvXBXBXBXBXvXBXHXBXBXvXBXBXhXhXhXBXhXhXBXhXkXBXBXBXvXBXBXBXBXBXBXhXBXBXBXBXBXBXBXBXBXBXBXBXBXBXBXBX",
"lXzXhXhXlXhXlXhXBXBXhXBXhXlXlXlXBXBXBXhXhXhXlXhXlXBXBXkXvXhXhXsXhXhXBXkXkXlXhXhXBXhXhXBXlXhXzXhXBXlXhXhXhXhXiXhXhXhXaXhXvXhXBXBXvXhXBXBXBXBXBXBXkXBXBXBXHXHXBXvXBXBX                                        o                               o o X 8 j d 3 7 8 8 8 3 2 3 3 3 3 3 3 3 3 3 3 2 4 f d 7 8 d f j h h J d # X         X 2 8 d f f f f             KXBXBXBXBXvXhXBXhXvXBXBXBXBXhXkXlXBXBXBXJXBXhXBXBXBXBXhXhXvXvXvXhXvXvXvXBXvXhXBXBXBXhXBXvXhXhXhXhXBXlXhXlXlXhXlXBXBXBXBXBXBXKXBXBXBXBXBXBXBXBXvXvXkXBXkXkXBXBXBXhXlX",
"BXlXhXBXlXhXBXlXlXlXBXhXlXBXlXhXBXvXvXBXhXBXBXlXhXkXBXhXhXhXhXhXhXhXvXhXhXvXhXhXhXhXBXBXBXhXzXiXhXhXhXhXhXBXiXhXhXhXhXhXvXhXBXBXBXBXBXBXBXvXkXBXBXBXvXBXBXBXBXvXBXBX                                                                            X d h j 8 # d B J J J N N h h d d d d d 8 7 5 f d d d d d d d d h h k B f 2 # 4 5 d h h j j j j             BXBXBXBXhXvXhXkXhXkXhXBXBXBXvXkXBXBXBXBXBXBXBXBXKXBXBXHXvXvXvXBXBXvXvXvXvXvXBXvXhXBXvXBXBXvXhXhXhXlXhXBXhXlXBXhXkXkXBXBXBXBXBXvXBXKXBXBXBXBXBXBXBXhXhXkXkXhXkXBXvXBX",
"lXBXhXBXhXlXlXBXBXzXzXhXBXBXhXhXBXvXvXkXBXkXBXBXhXhXhXhXBXBXhXhXiXBXBXBXvXBXvXhXhXkXBXBXKXBXhXsXhXhXhXhXhXBXhXhXhXBXvXhXhXhXhXvXBXBXhXvXBXBXBXvXBXHXBXhXvXhXBXBXBXhX                                                                            X f B J f $ 4 j J J J J S N M h h d d d d d g g h j h d d d d d d j d d 8 8 d j E *.$.$.T J K B             HXBXBXBXBXBXBXhXvXkXkXkXBXhXhXhXkXBXBXBXBXBXBXBXBXKXKXKXHXBXBXBXxXvXvXhXxXhXiXvXvXvXBXBXBXBXkXhXkXhXhXlXBXlXhXhXhXiXhXBXhXBXhXvXvXHXBXBXhXvXhXhXhXhXBXkXvXBXvXBXvXBX",
"BXBXBXhXBXBXlXBXhXhXhXhXhXhXBXBXBXhXhXhXhXhXBXlXBXkXlXBXBXBXkXuXiXBXBXBXvXhXhXvXBXBXhXhXBXBXiXhXhXBXhXhXlXBXBXBXvXvXkXvXvXhXhXBXBXhXBXBXBXBXBXBXhXBXKXvXBXhXhXhXBXBX                                                                            X 8 j B 8 X # j h h h h h h J B h h h h h d q 3 j h h d d d d 8 d d 7 3 7 d h B Y Y E *.Y Y E *.            BXhXKXvXBXBXBXBXBXhXhXBXvXkXhXvXBXBXBXBXBXBXBXBXBXBXBXBXBXHXBXBXBXBXBXvXaXhXhXhXvXhXhXvXBXBXBXiXkXBXhXhXBXhXhXhXBXBXhXhXhXhXhXBXhXvXBXhXhXhXhXvXhXvXvXvXBXBXhXBXBXBX",
"BXBXlXBXBXlXlXhXBXlXlXhXlXlXBXBXlXBXhXhXhXhXBXBXlXBXBXhXBXvXBXhXaXkXhXaXhXBXBXkXBXkXhXkXhXhXBXjXhXhXhXhXhXhXBXBXvXkXvXBXvXhXBXBXBXvXhXkXBXBXBXBXhXBXHXBXBXBXBXBXBXvX                              & & +                                           4 j x 0   X 8 S S B S J B I A N B N N h f q # j h d d d 8 8 8 d d d d d h h h h h h h h N Y ;.            BXBXBXhXBXBXBXBXvXkXhXBXBXBXBXvXBXvXBXBXBXBXBXBXBXBXBXBXBXBXBXBXBXBXBXBXkXhXBXBXhXBXBXvXBXBXBXvXhXBXhXhXBXBXlXhXhXjXBXkXhXhXBXhXvXHXvXBXBXBXhXhXBXhXhXkXvXhXhXvXvXHX",
"BXBXhXzXhXhXBXiXuXkXhXhXBXBXBXBXhXBXBXhXhXhXBXBXlXBXBXkXBXBXBXhXhXBXBXhXhXBXvXhXvXBXBXBXhXhXBXBXBXlXlXBXBXBXBXBXBXBXBXBXvXBXBXBXBXvXBXkXBXBXBXBXBXBXBXvXiXhXhXBXvXBX            :                 r r ; = .                                       4 k 4 4     # f f 4 d M A A A J J T G B 9 z # k Y B B h d d h h h h N j j B B B B B h B B J S             vXBXBXBXBXBXBXBXkXBXhXhXBXBXhXBXvXBXBXvXBXhXkXBXlXBXBXBXBXBXBXhXBXBXvXBXvXvXkXkXhXhXBXBXBXhXhXvXhXBXlXlXkXvXBXhXhXhXhXhXhXhXhXhXvXBXBXhXhXBXhXhXhXvXBXkXBXvXhXhXhXvX",
"BXBXHXKXhXhXhXhXhXhXBXBXBXkXBXBXBXBXvXvXBXBXhXBXBXBXBXBXhXaXhXhXBXBXBXBXvXBXvXBXBXHXvXhXhXBXBXhXvXBXBXBXBXBXBXBXBXBXBXBXBXBXBXBXBXkXhXvXBXBXhXBXKXBXHXHXBXhXhXBXvXvX            u .   o o           + u u , &                                     $ 5 % $   o & 2 4 X 7 h N B B N A A $.k 4 x # 8 K J B B d j N M h h h h h h N S S J B B N B B             HXBXBXBXBXBXBXBXBXhXhXhXBXBXvXvXvXvXvXvXkXhXhXBXBXBXBXvXvXvXBXHXBXBXBXBXBXvXBXvXBXBXBXhXvXvXhXiXBXBXhXvXhXhXBXvXhXhXhXhXhXhXBXBXhXvXhXhXhXhXhXaXhXvXhXhXBXvXvXhXhXBX",
"BXBXkXBXhXkXBXBXBXBXHXBXHXBXhXBXBXBXBXBXBXBXvXBXBXBXBXBXkXhXhXBXhXhXBXBXBXBXBXBXvXBXBXBXHXBXBXBXhXBXBXvXBXkXhXBXBXBXBXBXBXhXBXBXhXBXBXkXkXBXBXBXBXBXBXhXvXBXhXhXhXhX            ; + = , ; .         ; > = & .         X                           % r   X       X # 6 8 h N N N N N S T 0 # x X X f B B J d d h h h h h h h h N B K K B N h h N             BXBXHXBXvXkXBXBXBXBXhXvXBXBXBXBXBXBXBXBXhXhXhXlXlXBXBXBXBXBXBXBXBXBXBXBXBXvXBXBXBXBXBXhXBXhXhXiXBXBXhXhXvXhXhXaXhXhXBXhXhXBXBXvXvXBXvXBXhXhXhXBXBXBXvXkXhXvXBXkXBXBX",
"BXhXvXhXhXhXBXvXvXBXBXBXBXBXBXhXBXBXBXBXBXBXBXiXhXvXBXvXhXBXHXhXhXBXBXBXKXBXBXBXhXhXBXKXKXBXBXKXkXkXBXvXkXBXhXBXBXBXBXvXBXhXhXvXhXBXBXhXBXBXBXBXBXBXvXvXBXBXhXhXvXhX            = + u a = p :   : p - > > o   X                                   o &             X & 4 Y I I #.S B G K 4 X 6 O X 2 f J J d d h h h h h h h N h h N B I *.r.r.r.            BXBXBXBXhXkXBXBXBXBXBXvXBXBXBXBXBXBXBXBXlXlXlXBXBXlXkXBXBXBXBXvXvXBXBXBXBXBXBXBXBXBXBXBXBXkXhXBXBXvXhXhXBXhXhXaXhXhXhXhXvXhXvXhXvXhXBXBXBXBXBXBXvXvXhXvXBXBXBXBXBXBX",
"vXBXBXkXhXhXBXBXBXBXBXHXBXBXBXvXBXBXKXBXvXBXBXvXhXBXBXBXhXhXBXvXhXBXBXvXvXvXBXBXBXvXBXBXBXBXBXKXBXhXvXBXvXvXBXkXBXBXBXBXBXvXhXhXhXvXBXhXBXBXkXBXBXBXvXhXhXvXBXBXBXBX            + . p a - u ; : p i i - ; + o                                           o         X   2 K U F F A A &.Q #   % O   X 5 j K d d N N B B Y U $.Y A B N A $.9.9.=.-.            vXBXHXHXBXBXBXBXBXBXBXvXvXvXkXBXBXBXBXhXBXBXBXBXBXKXBXhXvXBXBXBXBXBXBXBXBXBXBXBXBXBXHXBXBXBXBXBXBXkXhXhXhXhXvXBXhXhXhXBXBXBXkXhXBXvXBXBXBXBXBXBXBXhXhXvXBXBXBXBXvXBX",
"BXBXhXvXBXBXBXBXBXBXhXhXBXBXBXBXBXBXBXKXBXvXvXhXhXaXhXhXhXhXvXBXkXBXvXvXvXBXBXhXBXBXBXBXBXBXvXBXBXvXvXBXBXBXBXBXBXvXBXBXvXBXBXBXBXBXBXBXBXvXvXBXBXBXBXBXBXvXBXvXhXvX            + + + < - - = + + = = = = ; =                     . + +                       o   X   4 B N N N Z m J 0 # @       X 6 g W 7 d B A I U $.U U I I B K U I I I A A             BXBXBXHXBXBXBXBXBXBXBXBXHXBXBXvXhXhXBXBXBXBXhXhXBXhXBXvXvXBXvXvXvXvXvXBXBXBXBXBXBXBXBXHXBXkXaXBXvXhXhXhXBXhXhXBXhXhXBXBXvXBXBXvXBXhXhXBXBXhXBXBXBXBXBXvXBXBXBXBXBXKX",
"hXBXhXBXBXBXBXBXBXBXBXvXBXBXBXvXBXBXhXBXvXKXvXvXkXiXhXhXhXBXhXBXBXhXBXBXBXhXhXvXkXhXBXhXhXhXvXhXBXBXBXBXBXBXBXvXBXlXlXkXhXBXBXBXvXBXBXBXBXBXBXBXKXBXBXBXHXBXBXBXvXhX            + + + = = + + . . + + : u - - +                 + a a u ; +                           $ K K B A U Y x # # # X     X X 9 x 3 f Y I I I A B B N d x Q L A A N N J             BXBXBXBXBXBXBXBXBXBXBXBXKXBXhXBXhXhXBXBXBXBXBXBXhXhXvXvXBXBXBXBXSXBXhXBXBXBXBXvXBXBXBXHXBXvXiXKXBXBXhXhXvXkXhXBXxXBXBXvXvXBXBXBXhXBXkXhXBXBXBXhXBXBXBXBXKXhXhXBXBXKX",
"hXBXBXBXBXBXvXhXBXBXBXBXBXBXBXBXkXvXBXBXBXBXhXBXvXhXhXhXhXhXhXBXhXhXhXBXBXvXiXhXhXhXBXKXBXvXBXvXvXBXBXvXBXBXhXhXBXBXlXkXlXhXhXkXBXBXBXBXBXBXvXBXBXBXBXBXBXBXBXBXBXBX            . . . + + + O   . + . + - - - ; e +   & & + . . . u a a p +   o                       $ K J B Z U E b 1 t o * o X     $ 5 # d A Y B B B j B h u.A.Z./ B K B B A             BXhXlXBXBXBXhXBXBXBXHXBXHXBXvXBXhXBXBXBXBXBXBXvXhXhXBXvXvXHXBXvXHXBXBXBXBXBXBXvXBXvXhXvXBXBXhXKXBXhXhXhXhXhXxXBXBXBXxXxXvXxXBXhXhXhXvXhXBXBXBXBXBXhXhXBXvXvXhXBXBXHX",
"vXBXBXBXhXhXvXvXBXvXBXBXBXBXBXBXBXhXBXBXBXhXvXhXhXvXBXhXhXlXBXhXlXhXhXhXBXBXBXhXhXhXBXBXHXhXBXBXBXBXBXvXBXBXBXhXhXlXkXhXkXhXBXBXBXHXBXBXBXBXBXHXBXBXBXBXBXBXBXBXBXBX                . . . + % + = , + = > > > = ; > = : : + : ; ; = p r = = - ; o &                   # j J J T T P } s y y _ & % t r r 6 X f ~ x d x 8 4 x f / ` / b d h j B Y             BXlXlXhXhXvXhXBXBXBXBXBXBXKXBXBXkXBXBXBXBXBXBXBXBXhXhXhXBXBXBXkXvXBXvXBXBXBXBXvXBXBXBXBXvXvXvXvXBXBXBXBXBXBXhXhXBXBXBXBXvXBXvXhXhXhXhXhXkXaXhXBXBXhXBXBXBXBXBXBXBXKX",
"BXBXBXBXBXkXvXBXkXBXBXBXHXHXBXBXBXhXhXBXBXhXBXhXhXvXvXBXBXBXhXhXhXhXvXBXhXBXBXhXhXBXBXhXhXvXhXvXBXBXhXBXBXhXBXvXhXBXkXhXkXBXBXBXBXBXBXBXBXvXBXBXBXBXBXBXBXhXhXBXBXBX                .         : u p , > > = > > - i u = > > - - - > , = ; i u i : & . O             X X k J N N j f } y 1 y [ * r _ t } _   6 / 5 # r     5 4 # X 6 # f I U *.;.            lXhXhXBXBXhXhXBXvXhXBXBXhXBXvXhXBXBXBXBXBXBXBXBXHXHXBXBXKXBXvXhXhXBXvXBXBXBXBXBXBXBXHXBXBXBXvXBXBXBXBXvXBXBXhXiXhXBXSXBXhXhXhXvXhXhXhXhXhXvXhXvXhXvXBXBXBXBXvXBXBXBX",
"hXBXHXBXBXKXvXkXvXBXBXBXBXBXBXBXBXBXvXBXhXhXvXkXhXhXhXlXhXlXhXzXhXhXhXHXBXhXBXhXiXBXBXvXkXBXBXBXhXvXhXhXKXBXhXBXBXJXBXBXlXhXBXhXvXBXBXBXBXhXhXvXBXBXvXBXvXhXBXBXhXvX                          : u + + + + + = + , - = = = = p u > + . . + i a a u , ; ; & O           X f S A x z 0 } s s s } * e _ * O.[   5 z n n z z q z g 4 4 6 0 Q 9.9.w.u.            BXhXhXlXhXhXBXhXBXBXhXhXhXhXhXBXHXSXBXBXHXBXHXBXKXBXBXKXHXKXBXBXxXvXvXhXhXhXBXvXvXBXBXBXBXBXBXBXHXBXBXvXBXKXBXhXcXhXfXhXBXBXhXhXhXhXhXhXvXvXBXvXhXBXBXBXBXBXBXkXBXKX",
"BXvXBXBXBXHXBXBXBXBXBXBXhXvXBXBXKXBXBXBXBXiXhXBXhXhXhXkXlXhXhXBXhXkXvXvXhXBXBXhXhXBXBXBXvXhXhXhXhXBXBXBXBXBXBXHXBXBXJXBXBXhXvXBXhXBXBXBXBXBXBXBXBXBXvXBXBXvXBXBXhXhX                    & + . : p +   . . + + + + p p > > ; > u ; + > , > - i i i u > = , r           X f I B x ) e } s s s } * e _ * } _   & 5 0 0 q q q r q 0 z ' n 9 x l l 0             lXBXhXhXhXBXhXhXhXBXvXvXkXhXBXHXBXBXBXBXBXvXBXHXBXBXHXHXKXKXBXSXBXvXvXvXvXBXBXBXvXBXBXBXBXBXBXHXHXBXhXBXBXBXBXBXcXhXhXhXhXBXvXhXhXhXhXhXBXhXhXBXhXvXhXhXBXBXBXBXBXKX",
"lXhXlXBXJXBXBXBXBXhXhXBXBXcXhXjXhXlXBXBXhXhXhXhXhXhXBXhXhXzXlXBXhXhXvXhXBXvXaXhXBXBXBXBXhXBXBXhXBXvXBXBXhXBXBXBXBXBXBXHXkXBXhXBXBXhXBXBXBXvXhXvXBXHXBXkXBXhXhXvXBXBX                    + p p ) ; +         + + + , u u , - ; > , > i i i = > ; - i a u > ;           X x Y E b 4 * } [ } s } * r _ t } s   * o o                 o     X # # #             hXBXhXiXiXhXBXhXhXhXlXlXkXiXBXBXBXKXBXvXvXkXvXBXBXHXHXKXKXKXKXBXBXBXBXvXhXvXBXkXBXBXHXBXBXhXBXBXBXBXvXhXBXBXBXBXBXvXhXaXhXBXBXvXhXhXvXhXBXhXhXBXhXhXvXaXhXaXhXhXvXHX",
"BXBXBXhXhXBXBXBXvXhXhXhXBXhXhXhXhXhXlXkXlXBXhXiXhXiXhXBXhXhXlXhXBXBXlXvXBXhXaXhXhXhXhXBXkXBXBXHXHXBXBXBXBXBXBXBXBXBXBXBXHXBXBXBXBXBXHXBXBXBXvXvXBXHXlXBXlXlXhXkXvXBX                    o , p + , :                 ; - = + = = > p i i > = - ; ; i > u u ; + & .     X 4 8 f 8 8 @ s _ [ [ } * e ] e e & X & ) r X       X               4 g j             hXBXkXhXhXhXjXhXhXhXBXkXhXhXhXhXBXHXHXvXkXvXBXBXBXKXKXKXKXKXKXHXBXSXHXBXBXvXhXvXBXBXKXKXBXBXHXBXBXBXBXhXvXvXBXBXhXBXhXaXhXBXBXBXhXhXvXhXBXBXBXBXBXhXhXhXhXhXBXhXhXBX",
"lXBXlXhXBXlXBXBXBXhXhXhXcXBXhXiXiXhXhXhXBXlXhXBXvXBXhXhXhXhXhXBXkXlXhXkXBXhXvXBXBXhXhXkXBXhXhXBXBXHXHXBXBXBXBXhXBXBXBXvXBXKXBXBXHXKXKXKXBXKXLXKXKXBXBXBXhXhXBXvXhXhX            +         + & & , . . p ;     < _ , : > + + + + - - - i i u - > u - = > a u = p > + + X 5 x Q P x 9 4 $ # & & $ # # # X 2 f k f f 8 9 0 4               X 8 d f             hXBXBXlXlXjXhXhXhXhXlXhXlXkXhXhXBXKXBXhXkXhXBXBXHXKXKXKXKXKXHXHXHXHXKXKXKXBXkXBXHXBXHXKXKXBXKXHXBXBXKXBXhXBXhXhXBXBXhXBXBXvXhXBXhXhXhXBXhXvXBXBXhXBXBXhXhXhXvXBXBXKX",
"BXBXBXBXBXhXvXBXBXhXBXjXBXBXiXhXhXhXhXBXlXBXBXBXhXhXvXhXhXhXkXBXhXhXBXBXBXBXvXBXkXhXBXhXBXBXhXhXiXBXBXHXBXBXBXhXKXBXBXvXHXHXBXBXHXPXKXKXHXKXKXKXKXhXhXsXBXhXhXBXBXhX            +                   : a i u > i a a p + . , > > - - > > - ; = > - > - = > - > > > > i ; w n v b u./ x l f 8 8 8 7 7 7 7 d j j j j j J J d # X # # X X # g k d d             hXhXlXhXcXhXhXhXcXhXhXhXlXhXhXhXBXBXHXBXBXBXBXBXBXKXKXKXBXKXHXKXKXKXKXKXBXBXBXBXBXBXBXBXBXBXBXBXBXBXHXKXhXBXBXBXBXkXhXhXBXBXBXvXvXBXvXBXhXhXhXBXBXBXBXhXBXhXhXhXhXBX",
"lXBXBXkXBXhXhXBXBXBXBXjXcXjXhXBXhXhXhXhXhXlXBXhXhXBXkXkXhXhXBXBXhXhXBXiXuXhXBXhXhXBXhXhXBXBXBXhXhXhXBXBXBXvXhXvXhXBXHXvXBXBXBXBXHXKXLXKXLXHXHXHXBXBXhXiXBXBXBXiXiXhX            . .         . o O   + - i u - - u p ; + . , u - - = = = + + + = - - ; , = ; , ; = > i > , > + 2 3 8 8 f f 8 f d 8 d d j Y *.=.f 7 d j j B k f 8 8 4 4 8 h h j N             BXhXhXlXhXhXhXhXhXBXBXhXBXBXhXkXBXBXBXBXBXBXBXhXhXBXBXHXKXBXKXHXBXBXBXJXJXKXBXBXBXHXBXBXBXBXBXBXBXBXBXKXBXBXBXKXBXBXHXHXiXhXBXBXhXvXvXvXhXBXvXBXBXvXBXhXhXvXvXhXhXBX",
"BXlXhXhXsXhXhXHXKXhXhXhXlXhXBXBXBXhXBXlXhXhXhXhXkXhXkXhXhXBXBXBXBXhXhXhXhXBXxXBXlXBXlXhXBXBXBXBXBXBXBXvXBXBXhXBXhXHXKXkXvXvXBXBXKXKXKXKXBXHXBXBXBXBXBXHXBXBXBXhXhXBX            : = .   + + p p   % & > ) < = = ; = ; > p p ; = - = . + = = ; - - ; p > > a = = = + : > > i u 5 2 3 8 3 3 7 d d d d j L I *.r.L j j k j j j d 8 3 2 # # 2 2 3 8             kXhXhXhXhXhXhXhXhXBXBXhXkXhXhXhXvXBXBXvXBXBXBXhXkXBXKXBXHXBXKXKXBXBXKXBXBXBXBXBXkXBXHXkXBXBXBXBXBXHXBXBXBXBXBXBXHXBXKXKXhXhXhXhXBXBXBXBXBXvXBXhXvXBXvXhXaXhXBXhXBXKX",
"hXBXBXBXBXkXBXHXBXvXvXhXBXBXBXBXBXkXBXlXhXBXhXBXhXhXhXhXvXhXhXkXBXBXBXBXBXBXvXkXhXhXlXBXBXBXhXBXBXBXBXBXhXBXBXBXvXBXBXBXBXvXHXBXKXKXHXBXBXBXBXBXBXBXBXBXBXlXkXhXBXBX            + + .   ; : < > > p r + : > u = . = > p p > = = u > + , > = = , - = + + - > = + + + + : : u u > 5 4 3 g g 8 d d h B T r.B h j j d d 8 7 3 3 3 3 3 4 # # # 2 7 8             hXhXhXhXhXhXhXhXhXvXhXlXlXBXhXhXhXBXBXBXBXBXvXkXkXBXKXKXHXBXBXKXBXBXBXBXKXBXBXlXBXBXBXhXhXBXBXBXKXBXKXBXKXHXBXhXvXBXBXBXhXkXkXhXhXBXBXBXBXhXkXhXBXBXhXhXBXhXhXvXvXKX",
"BXBXBXBXBXBXBXkXvXBXhXvXBXBXBXBXhXlXhXhXlXBXhXhXBXBXBXvXBXhXhXBXhXvXBXvXBXBXhXBXBXBXBXBXBXkXhXBXBXBXBXBXBXhXBXBXBXBXkXBXBXBXKXBXBXBXBXhXhXvXBXBXBXHXBXBXBXBXBXBXhXBX            + .     : , > + > , + + = , , .   & r + ; = = - u - p , - = = : = = = + + + + . . + + + . + = > p w 5 2 7 8 d d j j P E d 8 7 7 8 8 d d 8 8 3 2 3 3 7 8 d j j j             vXhXhXhXhXhXBXhXBXBXBXBXBXBXBXkXBXhXkXhXBXBXkXvXBXKXHXKXKXKXKXBXHXHXBXBXKXKXhXBXBXBXhXvXhXBXKXBXBXBXHXHXBXKXBXBXBXBXBXBXvXhXhXvXvXhXBXBXBXkXBXvXBXBXBXhXvXhXhXBXBXBX",
"BXBXBXBXBXBXBXBXhXBXvXkXBXBXBXBXBXBXBXhXlXBXhXvXBXvXBXBXBXBXBXBXhXvXBXhXBXvXhXBXBXBXlXlXBXBXBXBXBXhXvXvXvXBXhXvXvXhXBXKXHXKXKXKXKXBXBXBXBXBXBXBXBXBXBXvXBXBXBXlXhXhX            +     + + , , .   + + + + + + . . . = + = + + = = ; = : = = + o . & r , = = : = = + + o .     % p > r % 4 8 d 8 8 4 4 8 k Y T Q J h T B x f 8 3 3 7 8 8 d 8 8 d             BXvXhXhXhXhXBXkXhXhXhXBXBXBXBXBXBXhXhXhXBXBXKXBXBXKXKXBXKXKXKXKXHXBXBXBXBXBXBXBXBXBXBXBXHXBXBXBXBXBXBXBXBXKXBXBXBXhXBXvXvXvXvXBXBXhXBXvXhXvXBXBXHXBXhXhXhXvXhXhXkXBX",
"BXBXBXBXBXBXBXBXBXhXhXBXvXBXBXvXBXBXBXBXBXlXBXBXvXBXkXBXvXBXBXBXhXhXhXvXBXBXBXJXBXBXBXlXBXKXBXBXBXBXBXBXhXvXBXhXaXhXKXKXBXvXBXKXKXBXBXBXBXBXHXBXBXBXBXBXBXBXBXBXhXhX                                                                                                                                                                                        hXBXBXhXhXhXhXhXhXhXlXlXhXlXBXBXBXvXvXhXBXBXBXHXBXBXBXBXBXBXKXKXKXKXHXBXBXBXBXBXBXBXBXBXBXBXHXHXBXBXBXBXHXKXBXhXvXBXBXhXhXBXvXvXBXhXvXhXBXBXBXhXvXhXhXvXBXBXvXvXhXBX",
"lXhXhXBXBXBXBXBXhXhXkXvXvXBXvXvXBXBXBXBXBXBXhXhXBXBXBXhXBXBXvXvXhXhXvXBXvXvXBXBXkXhXBXBXKXBXBXHXhXBXHXBXBXBXvXBXBXKXKXBXBXBXBXBXBXBXBXBXBXBXBXBXBXBXBXBXvXBXBXBXhXhX                                                                                                                                                                                        hXvXvXBXhXhXhXhXBXlXBXlXhXhXBXBXBXBXBXhXhXhXvXBXvXBXBXKXKXKXKXKXKXKXBXBXBXBXhXiXJXBXBXkXBXHXBXBXBXBXBXBXhXBXBXhXhXBXhXvXhXhXBXvXvXhXBXhXvXhXvXBXhXBXvXhXBXhXvXBXhXBX",
"BXBXhXhXkXBXBXBXBXhXBXHXBXBXBXBXBXBXKXKXBXhXaXuXhXHXBXBXBXBXBXhXBXHXBXBXBXBXBXhXhXBXBXBXvXBXBXBXHXBXBXvXBXBXKXKXBXKXBXBXBXBXBXHXHXBXBXBXBXHXBXBXBXBXHXBXBXBXBXBXjXcX                                                                                                                                                                                        kXhXhXBXBXvXvXkXBXBXlXhXlXlXBXBXkXkXkXhXhXhXhXhXhXBXBXBXBXBXBXBXKXHXBXBXBXBXhXBXKXBXHXhXHXHXBXHXBXBXBXBXhXaXBXhXBXvXhXvXhXhXBXBXBXvXvXhXvXhXhXvXvXBXBXhXBXBXBXBXkXBX",
"BXkXkXhXhXBXBXBXBXBXBXBXBXBXBXBXBXkXBXBXBXBXBXkXhXBXBXBXBXBXHXvXvXvXBXBXBXBXBXBXBXBXHXBXBXvXBXBXKXBXhXBXBXKXHXBXKXBXBXBXBXBXKXBXhXBXBXBXBXBXBXBXBXBXHXBXhXhXBXhXjXBX                                                                                                                                                                                        hXBXKXkXBXBXHXBXKXBXlXBXhXlXlXBXvXkXhXkXkXBXkXlXBXBXBXBXBXHXHXHXHXBXBXBXBXBXBXHXKXHXBXBXBXBXHXBXBXBXBXBXhXhXBXvXBXBXkXhXhXhXBXBXBXvXhXhXBXhXBXBXhXvXBXBXvXvXhXhXBXBX",
"BXBXhXhXhXBXBXBXBXBXHXBXhXBXHXhXBXvXvXBXBXvXBXBXBXhXhXBXKXBXhXBXBXKXBXBXBXBXBXKXBXBXBXBXBXBXKXBXHXBXBXBXBXKXKXKXKXBXBXhXhXhXaXvXBXBXBXHXHXHXBXBXBXBXBXBXvXBXBXhXcXBX                                                                                                                                                                                        hXhXBXBXKXBXBXBXBXBXhXBXhXBXBXJXBXBXBXBXkXBXlXhXBXBXBXvXBXHXKXHXBXHXBXBXHXBXvXKXBXhXhXhXBXBXBXBXBXBXvXkXkXBXHXBXhXvXBXBXhXhXvXhXhXhXBXhXhXhXhXBXBXBXPXBXBXBXhXhXhXBX",
"kXkXhXhXBXBXBXBXBXBXvXBXBXhXBXBXKXBXhXHXBXhXhXhXhXBXhXaXBXBXBXBXBXKXBXBXKXBXBXBXBXBXBXBXvXHXKXBXBXBXBXBXvXhXBXBXBXBXKXBXvXhXhXBXBXBXkXBXHXKXHXBXBXBXBXBXBXBXBXBXBXjX                                                                                                                                                                                        hXhXBXBXBXHXvXBXBXBXBXhXBXBXkXBXBXBXBXBXJXlXkXBXBXBXBXBXBXBXBXBXBXBXBXBXHXHXhXBXBXBXBXhXkXBXBXBXBXvXBXBXhXvXKXBXBXhXBXBXBXhXhXBXBXhXvXhXkXhXhXBXBXBXKXKXBXBXBXBXBXBX",
"vXvXhXkXBXBXBXvXBXBXBXBXBXBXBXHXHXKXBXBXhXhXhXiXhXhXhXkXkXBXKXBXkXvXBXBXBXBXBXhXBXBXBXBXBXBXBXBXBXBXBXvXvXBXBXBXBXBXHXBXHXBXHXHXHXHXBXBXBXHXHXBXBXBXBXhXhXBXBXBXBXhXfXhXjXhXhXBXhXhXhXBXhXvXhXhXkXBXKXhXhXBXhXhXhXhXvXhXhXhXhXhXBXBXhXBXBXBXBXBXBXBXHXBXBXBXBXHXHXBXBXBXHXBXBXBXhXhXhXHXHXBXhXvXhXBXBXBXBXhXBXhXhXhXlXBXBXBXBXhXBXBXBXhXlXBXlXBXhXhXhXlXlXBXhXlXBXhXhXhXvXBXBXBXBXBXBXkXhXBXBXhXvXkXhXBXlXBXBXlXlXHXBXBXBXBXBXhXBXKXBXBXhXhXBXBXvXhXBXBXBXhXBXBXBXBXhXhXKXHXBXBXvXkXBXBXBXvXBXhXhXBXBXBXBXvXhXvXvXHXHXBXBXBXBXHX",
"BXhXBXBXBXBXBXBXBXBXBXBXBXBXBXHXBXBXBXBXBXBXxXhXhXhXhXBXhXaXhXxXhXBXvXhXBXvXBXvXBXBXKXHXBXBXhXBXBXBXhXBXvXBXBXhXhXBXBXBXBXBXBXHXKXKXKXKXBXHXHXBXHXHXBXBXBXBXBXBXhXhXjXhXhXhXhXhXBXhXhXBXkXhXkXhXkXhXvXhXiXBXBXBXhXhXBXBXBXhXhXxXhXhXhXBXBXBXBXBXBXBXBXBXBXBXBXBXKXBXBXBXBXBXBXBXhXhXhXBXBXvXaXBXBXBXBXBXBXBXlXlXlXhXhXBXBXBXBXBXcXhXBXBXhXlXjXhXhXBXhXhXhXlXhXBXhXhXhXhXhXBXBXBXBXhXBXhXBXBXhXhXBXKXhXhXBXBXBXBXhXhXvXBXlXhXhXBXhXHXhXhXhXvXHXBXhXBXBXBXvXhXBXBXBXBXvXBXBXBXBXBXkXhXhXhXkXBXBXBXvXBXBXBXBXhXhXhXhXBXBXhXBXBXkXHX",
"HXBXHXBXBXvXhXBXBXBXBXhXhXkXhXBXBXBXBXBXBXBXBXhXcXhXhXhXaXaXBXBXBXBXhXhXBXBXHXBXhXhXBXBXvXKXHXBXBXBXBXvXBXBXBXBXBXBXHXBXBXHXBXBXKXBXvXKXBXHXBXHXKXJXBXBXhXBXBXhXhXhXhXBXhXhXhXhXvXBXBXhXhXhXhXvXhXxXBXvXiXBXBXBXBXhXhXhXhXBXhXhXhXjXhXhXBXHXBXvXBXBXBXBXBXBXBXBXBXBXBXBXBXBXKXBXBXBXBXhXhXBXhXBXvXBXBXBXBXkXhXhXhXhXhXBXhXBXjXhXiXfXjXjXBXcXhXhXcXBXcXhXjXcXjXjXcXjXlXBXhXKXkXkXxXxXxXhXBXKXBXhXHXvXhXBXBXBXBXBXBXBXKXBXBXBXBXBXhXBXBXhXhXhXHXHXhXHXBXBXhXBXvXBXhXhXBXvXvXvXBXBXBXkXkXBXBXBXBXvXvXhXhXvXhXBXBXvXhXvXBXvXBXBXhXBX",
"BXBXBXBXBXBXBXBXBXBXBXkXHXBXBXBXBXBXBXkXhXhXhXhXhXfXhXhXhXhXhXxXBXBXBXBXvXBXHXKXHXBXhXBXKXHXBXBXBXBXBXBXBXBXBXBXBXHXKXBXHXHXBXHXHXHXSXBXKXBXKXkXBXKXBXBXBXBXBXBXBXlXhXBXBXhXhXhXhXkXBXBXlXBXhXhXhXBXkXhXiXBXBXBXBXBXBXBXBXvXhXhXhXhXBXjXBXBXBXBXBXBXBXBXBXvXBXHXBXBXBXBXBXHXBXBXBXBXBXBXBXBXBXvXkXhXvXBXBXvXBXBXkXlXBXBXcXjXhXhXhXhXhXjXBXjXhXcXjXjXBXjXBXBXcXfXhXhXhXBXhXBXBXBXhXBXhXBXBXhXBXvXhXkXBXBXvXBXBXBXBXlXBXBXBXBXBXBXhXlXBXhXBXhXBXBXhXvXBXBXvXBXBXBXhXkXhXhXBXBXBXBXBXBXBXlXBXlXhXhXhXhXhXhXBXBXBXBXhXvXhXhXhXhXhXBX",
"BXBXhXhXBXBXBXBXHXBXHXHXHXKXKXHXBXBXBXBXBXhXhXhXiXiXiXiXhXBXBXBXBXBXvXBXBXhXhXKXKXBXBXBXHXBXBXhXhXaXBXBXhXBXBXBXBXBXHXBXBXBXBXBXBXBXHXKXBXBXKXBXhXhXhXKXBXBXBXBXBXkXhXhXhXhXhXhXhXhXBXBXBXBXBXBXhXBXhXBXiXBXBXBXHXKXBXBXBXBXhXhXjXcXhXhXBXBXvXBXhXvXBXBXBXBXBXBXBXBXBXBXBXBXBXkXhXhXvXBXBXBXBXBXHXBXBXHXBXhXBXBXBXBXlXlXcXjXhXcXhXhXhXBXhXBXhXBXjXhXBXhXhXhXBXjXBXhXhXBXlXlXlXBXBXhXhXcXBXhXhXhXBXBXBXhXBXBXBXBXBXBXBXBXBXBXBXBXhXlXBXBXBXhXBXBXhXBXBXBXBXBXBXBXBXBXkXBXBXKXBXBXvXhXkXhXBXBXhXBXvXhXvXvXBXvXBXBXhXhXhXhXhXhXhXBX",
"BXBXBXhXvXBXBXBXBXBXBXHXBXBXBXBXBXKXKXKXBXkXKXiXiXhXhXhXhXhXBXBXBXhXvXvXBXvXBXBXBXBXBXHXBXhXBXhXBXHXkXBXBXBXvXBXHXHXBXBXBXBXHXBXvXSXBXBXBXHXKXxXhXhXBXKXlXBXBXBXBXBXBXBXkXBXkXBXvXBXBXkXhXhXhXBXkXkXhXBXiXvXvXkXhXvXhXvXhXhXhXhXhXhXBXcXcXvXhXhXkXBXBXBXBXBXBXvXlXhXBXBXBXBXBXBXvXkXBXBXBXBXBXBXvXBXBXBXhXhXBXBXBXkXkXBXBXBXjXhXcXjXcXBXjXBXhXcXcXcXhXjXhXjXjXhXBXBXjXBXlXhXBXjXhXcXBXhXhXvXhXhXBXBXBXBXBXBXBXBXBXBXhXBXlXBXBXBXBXhXBXHXBXBXhXBXhXBXBXBXHXBXBXBXvXhXBXBXHXHXhXvXBXhXkXkXhXlXhXBXBXhXhXxXhXBXvXBXhXhXhXhXhXhXhXBX",
"hXhXhXhXBXBXBXBXBXBXBXBXKXBXBXBXBXHXLXKXBXvXJXhXhXhXiXjXBXBXBXBXxXhXKXBXBXBXBXBXBXHXBXBXBXBXBXBXBXBXvXBXBXBXBXBXBXBXvXBXBXHXHXBXvXBXvXBXHXHXBXKXKXhXlXKXJXBXJXBXBXBXBXBXBXBXBXkXvXBXlXBXBXBXhXhXhXhXhXBXuXhXBXBXhXaXvXBXhXvXBXhXhXjXBXcXhXhXBXhXhXBXBXvXvXvXBXBXBXlXBXBXlXlXBXBXBXBXBXBXvXBXBXBXBXBXkXBXhXhXBXBXBXlXhXBXBXcXBXBXBXjXcXBXBXBXjXhXBXBXiXhXBXjXhXcXhXhXBXhXhXlXBXFXBXhXBXBXcXBXBXBXhXhXBXhXHXBXhXhXBXBXBXBXBXBXBXlXBXBXBXBXBXBXkXhXhXBXBXBXBXBXBXvXBXBXBXBXhXKXBXBXvXhXhXhXhXhXlXBXhXhXhXBXhXhXvXBXvXhXhXhXhXvXBXBX",
"kXkXhXhXhXkXBXBXBXBXBXBXBXBXBXBXBXBXJXBXBXBXhXlXBXDXhXhXhXBXBXvXBXhXBXBXBXBXBXBXBXBXBXBXBXBXBXvXBXBXBXBXBXhXKXBXBXBXvXBXBXBXHXvXhXvXBXKXBXBXHXBXBXKXBXBXBXhXkXBXvXBXBXBXBXBXBXBXBXjXBXBXhXjXhXBXhXhXBXhXuXBXBXvXhXhXBXhXBXvXvXBXhXhXhXiXhXBXBXhXhXlXBXvXBXBXBXBXBXBXBXBXBXBXBXBXKXBXBXBXBXBXlXkXBXBXBXvXBXBXvXhXBXBXBXhXxXBXxXBXBXhXcXhXcXjXjXhXBXBXhXhXBXlXBXhXhXlXBXkXhXvXHXBXBXxXxXxXxXBXcXSXBXBXBXhXBXHXhXvXhXlXBXlXlXBXBXBXBXBXBXBXkXBXBXBXvXBXBXBXBXvXBXBXBXBXBXKXhXBXHXKXhXhXhXhXhXhXxXcXhXhXhXBXBXBXBXhXhXkXBXvXhXBXBXBX",
"hXhXhXhXlXBXBXBXBXBXBXBXBXvXBXBXlXlXBXBXBXhXhXhXhXBXBXhXhXkXBXBXBXBXvXBXKXBXBXBXhXBXKXBXBXBXKXBXBXBXBXBXBXBXBXBXKXBXBXKXHXHXHXvXBXHXBXBXBXKXHXBXBXKXBXBXKXBXBXhXhXhXBXBXBXBXBXBXBXBXBXBXjXjXjXhXhXhXlXzXiXKXBXBXhXBXhXhXBXBXkXBXhXiXaXaXvXhXhXhXkXBXkXhXhXBXBXBXBXBXBXBXJXBXvXBXKXHXHXBXBXBXhXhXBXBXBXvXBXBXxXxXBXBXBXhXBXBXBXhXSXBXcXcXBXcXBXhXhXhXhXjXhXkXBXBXlXBXBXBXhXhXhXhXhXfXBXBXhXxXcXSXBXhXBXBXBXBXkXkXhXBXlXhXkXBXBXHXBXBXBXBXhXBXBXBXBXBXvXBXBXhXBXBXKXBXvXBXBXBXBXBXvXhXcXxXhXhXhXhXhXcXhXBXBXlXlXBXhXhXhXBXhXBXBXBX",
"hXBXBXBXBXBXBXBXBXvXBXBXBXBXBXBXBXhXBXBXkXhXhXhXaXhXBXBXBXkXBXBXBXBXKXBXKXBXBXBXBXBXBXBXhXBXBXBXHXBXKXHXBXBXBXHXBXBXvXHXKXBXHXBXBXBXBXhXBXBXHXHXBXHXBXhXBXBXBXBXBXHXhXBXHXBXkXBXBXBXBXBXhXhXjXlXhXlXlXhXhXBXBXBXhXaXiXvXvXBXhXvXhXhXhXhXvXBXhXhXhXhXhXBXBXBXBXBXBXBXBXBXBXBXBXBXBXBXBXBXBXBXBXBXhXBXBXBXBXBXBXxXBXBXBXBXBXhXSXhXhXBXjXBXFXBXBXcXhXhXhXhXhXhXBXJXBXBXBXvXhXkXhXhXcXxXxXBXBXBXxXhXhXhXBXHXBXaXBXvXlXBXlXBXlXBXKXBXlXBXBXBXvXBXhXBXvXBXHXBXBXBXBXBXBXBXBXBXBXBXBXBXBXhXhXxXhXfXhXhXhXhXhXhXxXhXBXBXlXhXhXhXhXBXhXBX",
"BXBXhXBXBXBXBXBXBXBXBXBXBXBXBXBXBXBXBXBXBXhXkXBXKXBXBXBXBXBXvXBXHXBXKXBXBXkXkXHXhXBXKXhXhXhXhXKXBXBXHXKXHXBXBXBXBXBXBXHXBXSXHXHXBXBXBXBXHXHXBXBXBXHXBXhXBXHXBXHXBXBXBXBXBXhXkXBXBXBXBXBXjXjXcXlXhXBXhXkXhXBXBXhXiXiXBXkXhXhXhXhXBXhXhXhXBXBXhXhXhXhXhXhXBXBXBXKXBXhXlXhXhXkXBXBXBXBXBXlXlXhXBXBXBXBXBXBXBXBXBXhXBXBXcXBXBXBXxXhXiXhXhXBXjXBXBXjXhXfXhXBXhXhXlXBXBXhXvXvXkXBXBXhXhXxXhXBXxXxXSXBXhXxXhXBXhXBXBXvXlXBXhXBXBXBXBXBXhXBXBXBXhXvXBXBXBXBXKXBXBXBXBXBXBXBXBXBXBXBXvXBXBXxXhXhXhXBXxXaXhXhXhXhXhXBXBXBXBXhXhXhXaXhXvXBX",
"BXBXkXkXBXBXBXBXBXBXBXhXBXBXBXhXkXBXBXBXhXhXhXvXHXHXHXKXBXBXBXBXKXKXBXBXBXhXBXBXBXBXHXBXBXBXBXBXHXBXKXKXKXBXBXBXBXBXhXvXBXBXBXBXBXBXBXvXvXBXHXBXBXBXhXBXBXBXKXHXBXBXBXBXBXBXBXBXBXjXjXcXBXBXBXkXlXlXkXhXaXBXBXhXaXhXaXvXvXhXaXhXhXhXhXhXBXKXBXJXBXBXkXvXhXhXBXBXBXBXBXlXkXkXBXvXBXBXBXhXhXhXhXBXBXkXBXBXBXBXBXhXhXBXhXBXxXxXhXhXhXiXiXBXBXDXBXhXhXjXhXBXhXlXhXhXhXlXhXhXBXhXhXBXxXhXxXBXBXhXBXBXhXhXhXBXBXhXBXBXhXBXBXBXBXBXuXhXKXBXBXBXhXBXBXhXBXBXHXBXBXBXBXBXBXHXBXBXBXBXBXBXBXhXhXcXcXhXhXhXhXhXhXxXhXhXBXBXhXhXBXBXBXhXhXBX",
"kXBXkXhXBXHXBXhXkXhXhXhXBXBXhXsXhXBXBXBXBXhXhXBXBXBXvXBXBXBXBXBXBXBXBXKXBXBXBXhXBXBXBXBXBXHXBXKXBXBXvXBXBXHXBXHXBXBXBXBXBXBXBXBXhXBXBXBXBXBXBXvXBXBXBXHXBXBXBXHXHXHXKXBXBXBXBXBXBXjXhXhXhXhXvXBXBXhXhXhXiXvXBXhXhXBXBXBXhXBXHXhXxXvXhXhXBXBXHXBXBXBXkXBXhXhXBXBXkXhXBXkXkXkXvXvXBXBXvXlXkXkXvXBXhXvXBXBXBXBXBXhXBXcXBXhXcXhXBXhXaXhXhXBXhXcXBXBXhXcXBXcXhXkXlXlXhXBXvXkXBXhXhXBXFXBXxXBXBXBXBXBXKXBXhXBXBXBXBXhXhXBXhXlXBXBXhXBXKXBXBXBXvXBXhXBXBXBXHXBXvXBXBXBXHXBXHXBXBXBXBXBXBXhXxXBXhXhXhXxXhXfXhXxXhXhXhXhXhXhXhXhXvXBXhXBX",
"hXhXhXvXBXBXBXBXhXhXhXvXBXBXBXBXHXBXBXHXvXBXHXBXBXBXBXBXHXBXBXBXBXKXHXHXBXBXHXBXBXvXBXBXHXHXLXPXLXBXBXBXBXvXHXHXKXHXvXHXBXBXBXBXBXBXBXBXHXBXBXhXBXBXBXBXBXBXBXBXHXHXHXBXvXBXBXhXhXBXBXBXvXhXhXBXBXhXhXvXiXhXvXBXhXBXHXhXhXBXBXhXxXBXBXhXhXHXvXiXBXBXBXBXBXBXBXBXBXvXhXBXBXhXvXvXBXBXBXBXBXBXBXBXvXvXkXBXBXBXhXlXlXBXBXBXjXjXBXjXjXhXBXBXhXvXvXBXBXBXBXBXBXlXlXlXhXhXhXhXvXBXBXBXKXBXxXcXhXvXBXBXKXBXhXlXBXlXBXBXcXxXBXhXhXBXBXBXBXHXBXBXkXHXBXBXvXBXBXBXBXBXBXBXHXKXBXhXBXhXhXvXBXBXBXBXhXBXhXhXhXfXhXxXcXhXjXhXiXhXBXvXhXhXvXBX",
"BXBXhXBXhXhXiXhXhXlXBXBXBXBXBXBXBXBXHXBXBXBXHXBXBXBXHXBXBXKXHXBXBXKXHXBXBXBXHXKXBXhXhXBXKXPXPXPXHXHXBXBXBXBXBXBXBXBXBXBXBXKXHXBXBXHXBXBXBXvXvXBXBXBXKXBXBXBXBXBXBXBXBXBXBXBXBXBXBXBXBXhXhXvXvXvXBXBXvXhXhXBXvXBXBXBXBXhXhXvXBXhXhXhXhXBXKXhXiXBXBXvXBXBXBXBXBXBXvXkXhXhXhXBXvXhXBXhXvXkXBXBXBXBXBXBXBXBXBXBXBXBXBXlXBXBXcXcXjXhXcXhXhXhXBXBXvXBXBXBXBXlXBXBXlXhXhXlXhXBXBXBXBXBXBXBXKXBXhXxXvXvXHXBXkXBXhXlXBXlXBXhXcXBXhXxXhXvXHXBXBXBXhXBXBXKXKXBXvXBXBXvXkXBXBXBXhXvXBXaXhXBXBXBXvXBXBXBXBXhXfXhXhXhXxXBXiXiXiXhXhXBXvXvXBXBX",
"hXBXhXBXBXBXBXhXhXBXcXBXBXBXBXBXBXBXHXBXBXHXBXBXBXBXBXBXBXKXBXBXvXBXHXBXBXBXHXKXHXBXBXhXvXLXLXLXHXHXBXBXBXBXBXBXBXBXBXBXHXKXKXHXBXBXBXBXvXBXBXBXBXBXBXhXBXBXBXHXBXvXBXvXBXvXBXBXBXhXhXhXBXBXBXkXvXBXBXBXhXvXBXkXhXhXhXhXhXhXhXhXhXxXxXBXhXhXBXBXBXBXBXBXBXBXBXvXBXBXkXBXhXhXBXBXvXvXvXBXBXBXBXBXBXvXBXBXBXBXBXBXBXBXhXBXBXcXhXhXBXBXBXBXhXBXBXBXBXBXBXBXBXBXBXlXhXBXhXvXBXBXBXhXhXBXBXBXBXhXvXBXKXBXBXKXlXhXBXlXBXhXhXxXBXBXBXBXBXBXBXBXhXBXHXKXKXBXBXBXBXBXBXBXBXBXBXhXhXvXBXBXBXBXBXBXBXhXvXhXhXhXhXhXhXhXiXiXfXhXhXhXvXBXvXBX",
"hXhXhXBXBXBXhXfXBXfXhXhXhXhXhXhXhXBXBXBXBXBXKXHXKXLXHXBXBXBXBXBXBXBXKXKXKXHXBXBXHXBXhXBXhXvXKXLXHXBXvXBXBXBXBXBXvXBXHXKXKXvXBXKXBXBXBXBXHXHXHXBXHXBXBXBXBXBXHXKXBXBXBXBXBXBXBXvXvXBXvXBXBXBXBXBXvXBXBXBXhXaXBXkXhXvXhXvXhXhXhXhXxXBXBXhXhXvXvXhXBXBXBXBXBXBXBXBXBXBXBXvXhXiXhXBXvXhXkXBXBXBXBXBXBXBXBXBXBXBXBXlXBXlXkXlXhXBXBXBXiXfXcXxXhXhXBXBXBXlXlXBXBXhXBXBXlXBXvXhXBXBXhXvXhXBXBXBXBXBXBXBXBXBXhXBXBXhXhXhXxXxXBXBXBXBXBXBXBXBXBXBXhXKXBXKXHXhXBXBXBXBXBXBXBXBXBXBXhXBXHXBXvXHXvXBXBXBXBXxXhXhXhXhXfXfXhXfXhXhXhXhXhXBXBXBX",
"hXhXBXBXvXhXfXhXBXhXhXBXvXvXBXBXBXBXHXBXBXKXKXBXBXBXvXBXBXBXBXHXKXBXBXKXKXBXBXBXKXKXBXBXKXBXHXBXBXKXBXBXBXhXBXBXBXBXBXHXHXiXBXBXBXBXBXBXBXBXBXHXKXKXBXHXBXBXBXkXBXBXBXBXBXBXhXBXBXBXhXhXBXhXhXBXhXhXhXvXhXiXBXhXvXBXhXvXhXiXhXBXhXBXhXhXhXhXhXvXkXvXBXBXvXkXvXBXBXBXKXBXhXhXhXhXhXvXBXBXBXBXvXBXBXkXBXBXBXBXBXBXBXlXBXkXhXcXBXBXhXhXjXhXcXBXBXBXBXhXjXhXBXlXBXBXBXBXhXvXvXBXhXBXhXBXBXBXcXBXHXKXBXBXBXBXBXBXlXhXhXxXhXBXhXBXBXBXBXBXBXBXhXBXBXKXKXBXkXBXBXBXhXBXkXBXBXBXhXvXvXvXkXBXBXBXBXBXBXBXhXhXhXhXhXhXhXhXhXBXBXlXBXBXhXBX",
"kXBXBXBXBXBXhXBXlXhXBXBXBXBXBXBXBXBXHXBXBXHXBXBXvXkXBXBXHXBXhXBXBXBXKXKXBXBXBXHXLXKXBXBXBXHXBXHXkXBXBXBXBXBXBXBXBXBXBXHXKXHXBXBXBXBXBXBXhXBXBXBXBXKXKXBXBXhXvXBXBXBXkXBXBXhXBXBXBXhXhXhXxXhXBXBXBXBXBXlXhXiXhXhXhXhXkXhXhXiXsXBXvXhXBXhXhXBXkXvXBXvXvXHXBXhXkXBXBXBXBXBXBXBXBXBXiXhXBXBXBXhXvXBXBXBXBXBXBXBXBXBXBXBXBXBXBXhXhXBXBXBXBXBXBXvXBXkXBXkXhXBXBXvXHXBXBXBXBXBXBXBXhXxXcXBXBXhXxXhXhXBXBXBXBXBXBXhXvXhXhXhXjXBXhXhXBXcXBXBXBXBXhXBXBXKXKXHXBXBXBXhXhXBXHXBXBXBXvXBXBXvXvXvXBXKXBXBXhXhXBXhXhXBXhXhXhXhXhXBXBXiXfXBXhXhX",
"BXBXBXBXBXBXBXBXlXhXBXBXBXBXlXlXhXBXBXBXHXBXBXBXhXBXHXBXBXvXBXHXBXhXBXBXvXBXHXhXhXhXBXBXBXBXBXHXBXBXBXBXBXBXBXBXBXBXBXHXKXHXhXBXkXhXBXvXBXBXBXkXBXBXBXvXvXBXBXBXhXhXBXBXhXBXKXHXBXBXSXBXBXxXhXhXhXBXhXhXhXiXzXhXhXhXlXBXhXzXhXhXhXBXhXhXvXBXkXvXBXvXBXBXHXhXvXBXBXKXBXBXKXBXBXBXhXhXBXvXhXhXvXhXBXBXvXvXkXBXBXxXcXBXcXBXBXvXhXvXBXBXBXvXBXvXBXBXBXBXBXBXBXBXBXBXBXBXBXBXBXxXcXhXcXBXBXhXhXBXvXBXBXBXBXBXBXBXvXvXBXhXBXBXjXhXhXBXBXBXcXBXhXBXhXBXBXBXHXHXBXBXBXBXvXBXhXvXBXBXvXvXBXBXvXBXhXvXhXBXBXBXhXBXvXhXhXhXvXvXBXfXuXhXjXhX",
"vXBXBXBXBXBXBXzXhXhXBXBXBXBXhXBXBXBXBXBXBXHXBXBXBXBXvXBXBXBXKXBXBXhXvXBXBXKXKXhXhXhXvXBXBXHXvXBXHXBXBXBXBXBXBXBXBXBXhXhXHXBXBXBXhXHXBXhXKXBXhXHXBXBXHXBXBXBXiXhXvXBXBXBXvXBXBXBXBXBXBXBXxXBXhXhXBXBXhXhXhXzXhXhXhXhXlXhXBXBXhXhXkXBXhXBXhXhXkXBXBXvXBXBXBXvXBXBXBXBXBXBXBXBXBXKXBXBXBXBXvXBXhXBXBXBXBXvXBXBXBXBXhXBXBXBXBXBXBXBXBXBXBXhXvXvXvXBXBXBXBXBXBXBXHXBXBXBXxXxXxXxXcXBXBXcXhXBXxXBXBXBXvXBXBXBXKXBXvXBXBXhXBXBXjXhXBXBXBXhXBXBXhXBXBXKXBXBXBXBXBXBXBXBXBXBXkXBXBXBXvXvXBXBXhXhXaXhXvXBXBXKXBXvXBXBXBXBXBXkXhXhXhXhXBXBX",
"hXkXkXhXBXBXBXhXBXlXHXHXKXHXJXBXBXBXBXBXBXBXBXKXKXhXhXBXKXKXBXhXBXKXBXBXKXBXBXHXvXkXhXkXHXBXBXBXKXHXKXBXBXhXBXBXBXBXhXBXBXBXBXvXhXhXBXBXKXBXBXKXBXvXBXBXBXaXvXBXKXBXBXBXHXHXBXhXhXBXBXxXBXxXxXhXhXhXjXhXiXzXhXhXhXhXhXhXBXhXhXhXhXBXhXBXvXhXvXBXBXBXBXBXBXBXBXBXhXkXBXHXHXBXBXHXKXHXBXBXHXBXHXBXBXBXBXBXBXBXxXcXxXhXhXBXBXhXBXvXBXBXBXBXBXBXhXBXvXBXHXHXvXvXBXBXhXBXxXhXBXcXhXcXcXcXBXhXhXBXvXhXvXkXvXkXBXBXBXBXBXBXhXBXBXBXBXBXBXcXxXxXhXBXBXBXBXBXKXBXBXhXBXHXBXBXBXBXBXBXhXhXBXBXBXhXhXhXBXhXBXBXvXvXvXBXBXBXvXBXhXSXBXhXhXBX",
"vXvXhXkXBXhXhXJXBXBXBXHXBXBXBXBXBXvXBXBXHXBXBXBXhXaXhXBXHXBXKXHXBXBXBXBXvXhXHXBXkXvXhXkXvXBXHXvXBXHXBXKXHXBXKXBXBXBXBXBXBXhXBXhXkXKXBXBXBXBXBXBXaXaXvXBXBXBXBXBXBXvXBXBXBXBXkXBXBXhXBXxXxXBXhXhXhXhXjXhXzXiXhXhXhXhXhXhXhXlXhXhXhXhXBXBXBXvXvXBXvXvXBXBXBXvXBXvXBXBXBXHXBXBXBXBXBXHXHXHXKXBXHXKXBXBXBXBXBXvXxXBXxXhXxXhXvXhXhXvXvXBXBXBXBXBXhXhXvXBXBXBXBXBXvXBXBXhXhXxXBXhXhXhXcXxXhXhXhXvXvXvXBXBXBXBXvXBXBXBXBXhXiXhXBXBXcXBXBXBXBXBXaXBXvXHXBXBXhXhXBXkXBXBXBXBXBXBXBXBXvXhXBXBXBXBXBXBXBXBXBXhXhXvXhXBXBXBXhXBXBXxXBXhXhXBX",
"BXkXkXkXBXkXhXBXBXBXBXHXBXBXBXBXlXBXvXhXkXkXvXkXBXHXHXBXHXHXKXHXBXBXBXBXBXhXhXBXBXBXBXvXvXBXBXBXBXvXBXBXHXHXKXKXBXvXvXBXBXBXBXBXKXHXhXBXBXBXvXBXhXhXBXhXBXKXBXBXBXBXBXBXvXaXBXKXhXhXxXxXxXhXjXjXhXhXhXhXhXfXhXhXhXhXhXhXBXBXBXBXvXBXBXBXBXBXBXBXvXkXBXkXkXBXBXBXBXBXBXKXBXBXBXHXBXBXHXBXBXBXBXBXBXBXBXBXBXBXBXxXxXxXhXhXhXvXhXhXhXBXBXBXBXhXBXhXBXBXBXBXBXkXBXBXvXvXxXBXxXBXSXBXxXxXBXxXcXxXBXBXHXBXBXBXvXBXBXBXBXBXjXhXjXBXjXBXhXBXBXhXhXHXBXKXHXvXhXBXBXvXhXBXBXBXBXBXHXBXBXBXBXBXHXBXBXHXBXHXBXhXhXhXhXhXhXhXhXhXvXvXxXxXhXBX",
"hXkXBXkXlXBXHXvXvXBXvXHXBXvXhXhXhXBXvXhXhXhXhXBXBXHXBXKXHXLXsXhXLXBXBXBXBXBXHXHXBXBXBXBXBXBXBXBXBXBXBXBXBXBXHXKXBXBXBXkXBXvXBXBXBXvXBXKXKXBXBXBXBXBXBXBXBXhXBXBXhXhXcXcXxXhXhXxXhXfXhXhXhXhXhXhXhXhXhXhXhXfXhXhXhXhXhXBXvXhXvXhXvXBXhXhXBXBXBXBXBXBXBXBXBXhXBXBXBXBXBXBXBXBXBXBXBXKXhXhXBXhXBXBXBXBXBXBXBXvXhXhXxXhXhXvXhXBXhXhXBXBXcXBXBXBXBXhXhXvXBXBXBXBXBXBXBXvXvXvXhXBXBXBXBXBXBXBXhXhXhXBXBXhXhXBXBXBXBXBXhXBXlXBXBXBXhXlXBXhXBXhXBXBXBXBXBXvXhXBXBXvXhXhXhXhXBXBXhXBXBXBXBXBXBXHXBXBXBXBXBXBXhXhXhXhXhXhXhXhXvXBXBXhXhXhX",
"hXkXhXlXBXBXBXvXBXBXhXBXBXhXBXBXBXBXBXBXBXBXhXBXhXBXBXKXPXKXvXKXHXBXBXBXBXBXKXHXBXBXBXBXBXBXBXvXBXvXvXBXBXHXBXKXBXvXHXvXvXBXBXBXaXvXBXBXKXBXBXvXhXBXBXKXHXBXcXxXhXhXhXBXhXhXBXxXcXhXhXhXjXhXfXhXfXfXhXfXhXfXhXhXjXBXhXhXkXBXhXBXvXvXhXhXBXvXvXvXBXBXBXHXBXhXBXBXBXBXHXBXBXBXKXvXBXBXBXBXBXBXBXBXBXBXHXHXBXBXBXBXxXBXcXxXBXhXvXhXBXxXcXBXBXhXhXkXBXBXvXBXBXBXBXvXhXBXBXBXBXvXBXBXvXhXBXBXhXBXBXkXhXvXhXhXhXhXxXhXhXBXBXlXlXBXBXlXBXBXBXBXxXBXHXBXBXBXBXBXBXvXhXhXhXhXBXBXBXBXBXBXBXBXBXBXHXBXBXHXBXBXBXvXvXBXBXBXvXBXBXvXBXBXBXvX",
"hXhXhXlXBXBXHXBXBXBXBXvXhXvXBXBXBXBXBXBXHXKXKXBXBXBXBXHXLXvXkXHXBXBXBXBXBXHXHXHXBXvXBXBXhXhXBXvXBXBXBXBXBXBXBXBXBXHXBXBXBXBXBXBXBXBXvXvXBXBXBXBXhXBXBXBXBXBXhXhXhXaXcXhXBXBXBXxXBXBXhXjXjXhXhXhXhXhXhXiXfXfXhXhXhXBXkXkXhXvXBXBXBXBXhXhXvXBXvXvXBXBXBXBXBXBXBXBXBXBXBXHXBXBXBXBXBXBXHXHXhXBXBXBXBXBXBXBXBXBXBXxXxXxXhXhXBXBXhXvXhXxXxXxXhXxXBXvXvXBXBXBXBXHXBXBXBXBXBXBXvXvXBXBXBXBXBXBXBXBXBXBXBXBXBXcXhXhXBXBXhXBXBXBXlXlXBXBXlXBXKXhXBXBXBXBXBXBXHXvXvXBXhXhXhXhXBXBXBXBXBXBXBXBXhXBXBXBXBXBXBXBXBXBXvXBXBXvXvXvXBXvXBXBXhXBX",
"BXlXhXzXhXBXBXBXBXBXHXkXhXhXhXhXhXBXBXBXHXHXHXBXhXBXBXHXHXHXKXHXHXBXHXKXHXHXKXKXKXKXBXBXBXBXBXBXBXKXHXHXBXhXHXHXBXBXhXBXBXBXvXBXBXHXBXBXBXBXBXBXBXhXBXvXhXhXhXhXxXiXhXaXBXxXhXBXhXhXhXhXhXhXjXhXhXcXhXhXhXhXfXjXhXhXhXBXBXBXhXvXBXBXvXhXBXBXBXBXBXHXvXkXvXBXBXBXBXBXHXhXhXhXhXBXvXvXKXBXBXBXBXvXkXvXKXBXBXBXBXhXxXBXxXBXkXhXhXvXhXBXxXhXhXcXBXhXBXBXvXBXBXBXBXBXBXBXBXBXBXBXBXBXBXBXBXBXvXhXBXhXBXBXBXBXBXBXBXBXhXhXhXBXBXBXBXBXBXkXBXhXBXBXHXBXBXHXLXKXvXBXvXhXkXhXBXBXBXhXaXBXSXBXBXBXBXBXBXBXBXBXBXBXhXvXBXhXhXvXhXhXhXBXvXhX",
"hXhXhXhXhXBXBXhXBXlXhXkXhXhXhXhXBXkXKXBXvXBXBXvXhXhXBXKXLXLXKXHXBXHXKXKXKXHXHXvXBXHXKXBXaXhXvXBXBXBXBXBXBXBXBXBXvXHXHXBXBXBXkXkXlXBXBXBXBXBXBXBXvXBXBXvXhXBXBXBXBXxXxXxXhXhXBXBXhXhXhXhXhXhXiXiXiXhXhXhXhXfXiXhXhXhXBXBXBXBXhXhXBXvXvXBXBXBXBXvXBXHXBXBXkXkXvXhXBXBXBXBXBXBXBXHXBXHXHXBXBXhXBXhXaXBXBXHXBXBXBXBXhXBXcXhXhXBXkXvXhXhXBXhXhXBXBXBXBXvXBXhXhXBXBXBXBXBXBXhXvXBXBXBXvXHXHXBXBXBXhXhXhXBXBXBXBXBXhXxXBXlXhXBXBXBXkXlXBXBXKXlXBXBXBXKXBXBXvXBXBXBXBXkXBXBXBXBXBXiXiXBXBXBXBXBXBXBXBXBXBXvXBXBXBXBXBXkXhXhXhXhXhXhXiXaX",
"hXhXhXhXhXjXjXjXlXhXzXBXBXhXvXBXBXBXKXKXKXHXBXvXhXvXvXHXLXHXBXLXLXKXBXBXKXKXHXvXvXBXBXBXBXvXvXhXhXaXhXhXBXKXBXHXBXBXBXBXhXBXBXhXkXHXBXBXBXhXBXBXBXvXkXBXBXBXBXBXBXhXBXBXBXhXhXBXhXhXjXBXjXhXhXiXiXhXhXcXjXhXfXhXhXhXhXhXvXBXBXhXhXBXBXBXBXhXBXBXBXvXBXBXhXvXhXvXkXBXBXKXKXHXBXHXBXBXBXBXhXBXBXKXhXhXBXBXBXHXKXSXxXxXxXhXlXkXlXhXhXBXhXvXBXhXlXBXBXBXvXhXkXhXhXBXBXvXxXhXvXBXxXvXvXBXBXBXKXBXhXlXhXBXBXBXBXhXBXBXBXBXhXBXBXBXBXBXBXBXBXhXBXBXBXvXBXHXBXBXBXBXBXhXhXhXBXhXhXBXBXBXBXBXBXBXBXBXBXBXvXvXvXBXBXBXBXBXhXhXvXBXBXvXiXaX",
"fXhXfXiXhXfXfXhXhXfXhXhXBXBXBXBXBXHXKXKXLXLXvXvXBXBXBXBXLXLXLXHXHXHXBXBXBXKXBXBXBXBXBXhXBXBXhXhXaXiXvXBXBXBXBXBXBXBXBXhXBXBXBXKXBXHXBXvXhXBXKXKXhXhXkXhXBXHXBXHXBXBXBXBXBXvXhXvXBXBXBXhXBXhXiXfXfXjXfXcXhXjXfXhXhXhXhXhXhXBXvXBXBXBXhXhXvXBXvXhXBXBXBXkXhXvXvXBXvXBXBXBXBXKXBXHXHXhXBXBXBXBXBXKXBXvXHXBXBXKXFXBXBXxXxXhXlXlXhXhXhXBXkXhXhXhXhXhXBXBXhXBXhXvXBXhXkXvXhXBXBXBXBXBXBXxXBXxXSXBXhXBXBXhXBXBXBXBXkXBXBXBXBXBXBXhXBXBXBXBXBXBXBXBXBXKXBXBXBXkXBXBXhXhXhXxXBXBXBXhXBXHXBXvXBXBXBXBXBXBXBXBXBXBXBXBXBXkXhXhXBXBXBXBXaXhX",
"jXjXiXpXKXhXiXiXhXjXhXhXhXBXBXBXBXBXvXBXKXKXHXvXBXBXBXBXvXLXLXHXLXHXBXBXhXBXBXvXBXHXhXaXhXBXBXvXhXBXBXBXHXhXhXBXkXhXvXvXvXhXhXBXKXBXBXBXcXhXKXBXhXBXBXhXhXhXBXBXBXBXBXBXBXBXBXhXKXBXBXlXjXiXpXfX5XuXjXcXfXjXpXfXhXhXhXBXBXBXBXvXHXhXhXBXBXBXvXhXBXBXkXBXBXhXhXvXBXBXBXBXBXKXBXHXBXBXBXBXBXHXKXBXBXBXvXBXBXHXBXBXSXBXcXhXhXhXhXhXBXBXBXhXhXhXhXhXhXlXBXhXhXhXvXBXhXkXhXxXBXBXBXBXcXBXxXxXBXHXvXxXxXcXBXhXBXBXBXBXBXBXBXBXBXlXkXBXBXBXBXHXBXBXBXBXBXvXBXBXBXhXhXhXhXxXSXBXvXBXBXBXhXhXBXBXBXBXBXBXBXBXBXhXBXBXBXBXBXhXvXBXBXvXhXvX",
"jXhXhXBXhXhXjXhXhXcXjXhXhXBXBXBXvXiXsXvXHXKXKXKXBXBXvXBXBXKXHXKXLXHXBXBXBXBXBXhXvXKXBXaXhXBXBXBXhXBXBXhXBXvXBXBXhXhXhXBXBXvXBXBXKXBXhXBXhXfXhXhXhXhXhXhXhXhXBXBXBXhXBXBXBXBXBXBXBXBXBXhXhXjXiX4XUX:XuXhXhXjXiXfXhXhXhXvXBXBXhXBXBXBXhXBXBXhXBXHXBXhXvXBXBXBXhXvXhXkXBXBXBXBXKXHXBXhXkXvXHXKXKXBXBXHXBXBXBXHXFXBXBXSXBXBXlXhXBXBXhXhXBXlXBXhXhXBXkXhXlXlXhXvXvXhXhXhXxXcXxXBXcXcXxXhXcXcXcXvXBXBXhXcXBXhXBXBXBXlXBXBXBXBXBXBXBXBXBXBXvXKXBXHXBXBXBXhXBXBXhXBXBXxXxXhXhXhXBXBXBXvXvXBXBXBXBXBXBXBXBXBXBXBXvXBXBXBXBXhXhXBXhXBXhXhX",
"jXhXjXhXiXhXhXhXjXjXjXhXhXBXvXvXvXBXBXvXBXKXHXKXLXHXBXBXvXHXBXHXHXBXBXBXBXHXBXBXBXkXBXBXhXhXvXBXvXBXhXBXKXKXhXBXBXhXBXBXHXvXhXBXBXkXBXhXcXhXhXhXhXhXvXhXhXvXlXBXkXhXkXhXBXhXhXhXhXBXhXhXhXhXhXfXpXuXfXfXhXjXiXfXhXhXhXhXBXhXkXhXvXBXHXvXBXhXBXvXBXvXBXBXBXBXhXhXhXkXvXBXBXBXBXHXHXBXBXBXKXHXKXBXBXBXBXBXBXBXSXBXBXBXBXBXBXlXBXlXhXBXBXlXBXBXlXhXlXlXhXhXBXhXhXhXhXhXhXhXhXBXBXBXxXBXhXcXBXhXvXBXBXBXFXhXiXBXjXlXlXlXhXBXBXlXBXBXkXBXhXBXHXKXBXHXHXBXHXBXvXBXBXxXxXhXBXBXBXBXhXhXvXBXBXvXBXBXBXBXBXBXBXBXBXvXBXBXBXvXhXvXhXBXhXhX",
"hXBXhXfXhXhXhXhXBXhXhXvXhXvXhXhXvXBXBXBXBXBXHXvXBXKXKXKXBXHXHXHXHXBXHXBXBXBXBXBXBXBXBXBXhXhXhXhXBXBXhXhXHXBXvXvXvXBXHXBXBXBXhXhXvXBXBXBXBXfXhXBXBXvXBXBXBXhXBXBXBXJXkXBXBXhXsXhXBXBXBXlXBXiXfXiXhXhXhXhXcXcXfXfXhXhXhXvXBXvXBXhXhXhXhXhXBXhXvXBXvXBXBXvXvXBXhXhXhXhXhXhXhXBXBXBXBXBXHXBXBXKXKXBXHXKXKXBXBXvXBXKXBXxXBXBXhXhXBXBXhXBXlXlXlXhXBXhXhXhXBXhXBXhXhXBXvXBXBXBXhXhXBXBXBXBXcXBXBXvXvXBXBXSXBXhXhXhXjXjXlXBXBXlXhXhXhXhXBXBXaXBXHXSXHXHXBXBXKXKXBXBXBXhXhXhXBXBXBXhXBXhXhXhXvXBXBXBXHXBXBXBXBXBXkXkXBXBXBXBXhXBXBXBXvXBX"
};
