/* XPM */
static char *wall_mona_5[] = {
/* columns rows colors chars-per-pixel */
"128 128 227 2 ",
"   c #000000",
".  c #090602",
"X  c #020A04",
"o  c #0D0A02",
"O  c #080909",
"+  c #130C03",
"@  c #110E09",
"#  c #1A0F05",
"$  c #051003",
"%  c #03150A",
"&  c #041A0A",
"*  c #151202",
"=  c #1A1205",
"-  c #1F1B01",
";  c #15110C",
":  c #1C140A",
">  c #041F11",
",  c #1C1711",
"<  c #130716",
"1  c #201C02",
"2  c #241709",
"3  c #27190B",
"4  c #2B1B0A",
"5  c #321F0D",
"6  c #221D13",
"7  c #27181A",
"8  c #092408",
"9  c #113607",
"0  c #133D07",
"q  c #052312",
"w  c #062B15",
"e  c #062E18",
"r  c #0A2E10",
"t  c #093516",
"y  c #093916",
"u  c #063119",
"i  c #073415",
"p  c #0F2C0D",
"a  c #292403",
"s  c #34210E",
"d  c #372608",
"f  c #373003",
"g  c #3A3304",
"h  c #3C330A",
"j  c #2A2318",
"k  c #392712",
"l  c #352D1D",
"z  c #3B2914",
"x  c #3C341F",
"c  c #203810",
"v  c #2A0E33",
"b  c #332A20",
"n  c #372926",
"m  c #3E3326",
"M  c #3F3428",
"N  c #1D0923",
"B  c #463C03",
"V  c #443A08",
"C  c #44321A",
"Z  c #463518",
"A  c #432C10",
"S  c #63380C",
"D  c #4E3E23",
"F  c #453929",
"G  c #503F23",
"H  c #4D3E30",
"J  c #553334",
"K  c #15450A",
"L  c #184C09",
"P  c #164A0B",
"I  c #1A520A",
"U  c #1D5C0B",
"Y  c #0F4115",
"T  c #0A4219",
"R  c #0B4C1D",
"E  c #064B18",
"W  c #144B14",
"Q  c #0E511B",
"!  c #195B11",
"~  c #125519",
"^  c #165714",
"/  c #004C0F",
"(  c #25511C",
")  c #2D4C15",
"_  c #1E630D",
"`  c #1F6A0D",
"'  c #1C6312",
"]  c #226C0D",
"[  c #22660C",
"{  c #23710D",
"}  c #246B11",
"|  c #225427",
" . c #4D430A",
".. c #4F480B",
"X. c #4D4203",
"o. c #594D03",
"O. c #53490B",
"+. c #515415",
"@. c #645604",
"#. c #665804",
"$. c #735611",
"%. c #4E690F",
"&. c #7A6418",
"*. c #514629",
"=. c #5B4C2C",
"-. c #544528",
";. c #574835",
":. c #60512F",
">. c #625533",
",. c #695B36",
"<. c #6C5E38",
"1. c #645439",
"2. c #6E603A",
"3. c #7E6D20",
"4. c #361140",
"5. c #481657",
"6. c #643747",
"7. c #551B65",
"8. c #662572",
"9. c #5B225C",
"0. c #725E47",
"q. c #675441",
"w. c #7B644C",
"e. c #494A62",
"r. c #52565D",
"t. c #894D10",
"y. c #935E12",
"u. c #935311",
"i. c #895A12",
"p. c #877505",
"a. c #8E6418",
"s. c #A56615",
"d. c #BC6C17",
"f. c #B26D17",
"g. c #95681B",
"h. c #C36E17",
"j. c #C97118",
"k. c #C77117",
"l. c #C4700F",
"z. c #816950",
"x. c #8D7358",
"c. c #997D5F",
"v. c #93785C",
"b. c #936D68",
"n. c #855562",
"m. c #988306",
"M. c #A18B06",
"N. c #AA9206",
"B. c #A48666",
"V. c #AC8C6C",
"C. c #A68868",
"Z. c #B1916F",
"A. c #B69572",
"S. c #CBA67F",
"D. c #C7A47B",
"F. c #77268D",
"G. c #71488F",
"H. c #9631B1",
"J. c #A036B9",
"K. c #8F47AF",
"L. c #AA40B8",
"P. c #D27EB7",
"I. c #D05A8D",
"U. c #B33AD4",
"Y. c #C13EE5",
"T. c #BB46D9",
"R. c #B341C7",
"E. c #C248D6",
"W. c #C844EA",
"Q. c #CE43F2",
"!. c #D745FF",
"~. c #DB45FF",
"^. c #D144F6",
"/. c #D45DE0",
"(. c #E246FF",
"). c #E549FF",
"_. c #D370C8",
"`. c #CCA780",
"'. c #CEA981",
"]. c #D1AB83",
"[. c #D7B087",
"{. c #D09FA7",
"}. c #DED6CC",
"|. c #DED6CB",
" X c #DFD8D0",
".X c #D9CFC5",
"XX c #E0D7CE",
"oX c #E1D9CE",
"OX c #E5DDD5",
"+X c #E8DFD6",
"@X c #E7DFD8",
"#X c #E8DFD8",
"$X c #E0D7D0",
"%X c #E7E0D6",
"&X c #E8E0D7",
"*X c #E7E0D8",
"=X c #EBE2D9",
"-X c #EAE3D9",
";X c #EAE2D9",
":X c #EBE3DA",
">X c #E9E2D8",
",X c #ECE3DA",
"<X c #ECE2D9",
"1X c #EBE4DA",
"2X c #EBE4DB",
"3X c #EAE5DA",
"4X c #ECE5DB",
"5X c #ECE4DB",
"6X c #ECE6DB",
"7X c #EBE5DC",
"8X c #ECE5DD",
"9X c #EDE6DC",
"0X c #ECE7DD",
"qX c #EEE7DD",
"wX c #EEE6DD",
"eX c #EDE6DE",
"rX c #EAE3DB",
"tX c #EFE8DE",
"yX c #EEE8DE",
"uX c #F0E9DF",
"iX c #F0E6DF",
"pX c #EFE7E0",
"aX c #EFE9E1",
"sX c #EFE8E0",
"dX c #F1EAE2",
"fX c #F2EBE5",
"gX c #F7F3ED",
/* pixels */
"=XOX+XOX+X=X&X=X=X%XOX&X&X=X=XOXOX=X&XOXOX+X+XOXOXOXOX+X=X&X&X=X=X=X=X=X=X=X%X=XtXsXtX=X=X=X&XtXtXtX=X=X=X=X=X=X=X=XtX=XtXtX=X%X&X&XOXoXOXOXOX&X+X+X+X+X+XOXOX+XOX+X+X+XOX+X&X&X=X%X%X&X&X=X&X=X&X=X=X=XtX=X=XtX=X=X=X=X=X=X=X=X=X=X=X=X=X=X=X%X=X=X=X=X=X&X=XtX",
"=X&X&XOXOX&X+X+X=X=X&X&X%X%X=X=XOXOX=XOXOX+XOXOXOXOX&X&X&X&X=X%X%X=X=X=X=X=X=X=XtXdXdXtX=X&X%X=X=XuXdX=XtX=X=X=X=X=XtX=XtXuXtX=X+X&X=XOXXXOX+X&X+X&X=X=X&XOXOX+X&X=X&X&X+XOXOX=X=X=X=X&X=X&X+X=X=X=X=X=X=X=X=XuX=X=X=X=X=X=X=XtX=X=X=X=X=X=X=X=X=X%X=X=X=X=X=X=X",
"=X=X=X&XOXOX+X+X=X%X=X=X=X=X=X=X=X=X=X=XOX+XOXOXOXOX+X+X&X&X&X&X&XOX%XOX&XtX=X#XOXOX&X=X&X=X=X=X=X&X=XtXtX=X=X=X=X=XtX=X=X=XtX=X=X=XOXOXOX&X+X+X+X&X=X=X&XOX+X+X=X=X+X&XOXOX}.OX=X=X=X=X=X%XOX=XOX%X=X=X=X=X=X=X=X=X%X%X%X&X&X=X=X=X=XtX=X=X=X=X=X=X=X=X=X=X=X=X",
"=X=X=X&X=X&XOXOXOX%X&X=X=X=X=X=X=XdX*X=XOXOX&XOXOXOXOX&X+XOX+X=X=X+XOXOX&X%X&X=X=X%XOX=X=X=X=X=X=X=X=X=X=X=X=X=X&X=XtX=X=X=X=X=X=X&XOXOXOXOXOXOX+X+X&X+X+XOXOX+X=X+XOXOX=XOXOXOX=X%X&X=X%X=X&X=XOX&X=X=X&X=X=X=X=XOX&X&XOX&X=X=X=XuX=XtXtX=X=X=X=X=X=X=X=X=X=X=X",
"tXsX=X=X=X+XOXOXOX%X%X=X=X=X=X=X=X*X=X=X=X%X+XOXOXOXOXOXOX+X=X&X&X&X=X=X=X=X=XtX=X&X=X=X=X*X=XdXuX=X=X=X=X=X=X=X=X%XOX=X=X=X=X=X=X&X=X=X%X+XOX+X+X+X&X+XOXOXOX+X+X+X+X&X=X&XOXOXOX%X&XOX=X=X=X=X=X=X%XOXOX=X=X=X=X&X=X=X&X=X=X=X=X=XtX=X=X=X=X=X=X=X=X=X=X=X=XtX",
"=X=X=X=X=X=X&XOXOX%X%X=X=X=X=X=X=XOX=XsX=X=XOXOXOXOX&X+X&X=X&X&X&X=XOX=X=X=X&X=X=X=X=X=X=X=X=X=X=X=X=X=XtX=X=X=X=X%X%X=X=X=X=X=X=X=X=X=X&XOXOXOXOX+X&X=X+XOXOX&X&X+XOX&X&X&X&X+X&X=X=X&X&X&X=X&X=X%XOX&XOX=X=X=X=X=X=X=X&XOX=X%XtX=X=X=X&X=X=X=X=X=X=X=X=X=X=X=X",
"=X=X=X=X%X%X&XOXOX&X=X%X=X=X=X=X=X=X=X=X=X=X=XOXOXOXOXOX&X=X=X=X%X=XOX+X=X+X=X&X=X&X=X%X=X=X=X=X=X=X=X=X=X=XtXtX&X%X=X%X=X=X=X=X=X=X=X=XtX&X+XOX=XOX+X&X=X&X&X&XOX+XOX+X+X+X&X+X&X=X=X=X+X+X=X&X=XOXOX+X=X=X=X=X=X=X=X=X=X%X=X&XtXuXtX=X=X=X=X=X=XtX=XtX=X=X=X=X",
"=X=X=X=X%XOX&XOXOXOXOX=X=X=X=X=X=X=X=X=X=X=X=X+XOXOX+XOX%X&X=X&XOX&XOX&X&X=X=X=XOXOX=X=X%X&X&X=X=X=X=X=X=X=X=X=X=X&X=X=X=X=X=X=X=X=X=X=X=X=X+XOX+X&X=X=X+X&X=X=XOXOXOXOXOX+XOXOX=X&XOX=X=X=XOX=X=XOXOXOX+X=X=X=X=X=X=X=X&X&X=X=X=X=X=X=X=X%X=X=X=X=XtX=X=XtX=X=X",
"sXdXtX=X=X=X+XOXOXOXOXOX=X=X=X=X=X=X=X=XOXOXsX=XOXOXOX&X%X%X=X=XOXOX&X&XOX=X=X=XOXOX=X=X=X=X&X=X=X=X=X=X=X=X=X=XtXtX=X=X=X=X&X%X=X=X=X=X&X=X=X%XOX&X&X=X&X=X=X&XOX&XOXOXOX+X&X=X&X+X+X&X&X&X=X=X=X=X=X&X=X=X&X=X=X=XOX&X=X=X=X=X=X=X=X=X&X&X=X=X=X=X=X=X=X=X=X=X",
"=X=X=X=X=X=XOXOX+XOXOXOXOX%X=X=X=X=X=X=X=X=X=X*XOXOXOX&X&X=X=X=X&XOXOXOX&X&X&XOXOXOX&X=X=X=X=X=X=X=X=X=X=X=X=X=X%X=X=X=X=X=X=X=X=XdX=X=X=X%X=X=X&X&X&X=X&X=X+XOXOX&X&XOXOX+X&X=X+XOX+X=X=XOX&X=XOX+X=X&X+X&X=X=X=X=XOX=X=X=X=X=X=X=X=X=X&X&X=X&X%X=X=X=X=X=X=XtX",
"sXdX=X=X=X=X=X=XOX}.OX&X%XOX%X&X%X=X=X=X=X=X=X*X%XOXOX=X=X=X=XOX&XOXOXOX+X=X+XOX+XOX%X=X=X=X=X=X=X=X=X=X=X*X=X=X+XOX=X=XtX=X=X=X=X=X*X=X=X=X%X=X=X=X=XOXOX&X+XOXOXOX+X&X+XOXOXOX=XOX+X&X=X+XOX=X&X+XOXOXOXOX=X=XOX&X=X=X=X&X=XtX=XOXOX%XOXOXOX&X&X=X=XtX=X=X=XtX",
"=X=X=XOX+XOX&X=XOX+X+XOX&XOXOXOX&X=X=X=X=X=X=XOXOXOXOXOXOX=X=X&X+XOX+XOX=X=X&X+XOXOX=X=X&X%X=X=X=X=X=X&X%X%X=X=X&XOX=X=X=X=X=XtX=X=X=X=X=X%X%X%X=X&X&XXXOX&XOXOX+X+X+XOX&X+XOXOX&XOXOXOXOX&X=X=X+X+XOX+X+XOX&X&XOX=XOXOX=X&X&XdX=XOX=XOXOXOX&X&X=X=X=X=X=X=X&X=X",
"sX=X=X=X&X+XOXOXOX=XOXOXOXOXOXOXOXOX=X&XOXOXOX+X+XOXOXOXoXOX=X=X=XOXOX+X=X&X=X=XOXOXOX+X=X=X&X=X&X=X%X=XOX=X%X&X=X=X=X=X=X=X=X=X=XtX=X=X=X%X=X=X&X&XOXXXOX&XOX+XOX=X=X&X&X+XOX+X=X&X+X&X&X=X=X&X&XOX+X+XOX+XOX&X+X=X=X&X=X=X=X=X=XOX%X=XOXOX+X&X=X=X=X=XOXOXOX=X",
"sX=X=XOXOXOXOXOX=X&X=XOX&XOXOX&XOXOXOX+X+XOXOXOX&X=XOXOXOXOX+XOX=X+X&XOX+X+X=X=X=XOXOXOXOXOXOXOX%X=X=X=X=X=X=X=X&X=X=X=X=X=X=X&X=X=X=X=X=X=X=X=X%X%XOX&X=X+XOX+XOX&X=X+X&XOXOX&X+X&X&X=X=X=X=XOX&X&X&X&XOXOX&X=X+XOX+X=X=X=X=X=X=X%XOX&X&XOXOX&X&X=X=X=XOX&X=X=X",
"*XOX=X#X=XOXOXOXOX&X=X%XOX=XoXOX=XOXOXOXOX+X%X&X%X&XOXOXOXOXOXOXOX&X&X+XOX+X+X=XOXOX&XOXOXOXOX&XOX=X=X=X=X=X=X&X&X&X=X=X=X=X=X=X=X%XOX%X=X=X&X%X=X=X&X&X=X&XOXOXOX=X=XOX%X%X+X+X=X&X&X=X=X=X&X=X&X=X=X%X&X&XOX&X+X&X&X=X&X=X=X=X=X=X&X%X=X&X%X%XOXOX=X=X=X=X%X=X",
"=X&X=X=X=X=XOXOXOX+XOX&X%X&XOXoXOX&XOXOXOX+X+XOXOXOX&X+XOX=X&XOXOXOXOX+XOX&X&X+XOXOXOX=X&XOXOX+XOX&X=XOXOX&X&X&X&X&X=X=X&X=X=X=X=X=X=X=X=X=X=X=X=X=X%XOX+X+XOXOXOX+X=XOX%X=X&XOX=X=X&X&X+XOX=X%X%X=X=X=X=X=XOX+XOXOX+X=X+X+X=X=X=X&X=X=X=X=X=X=XOXOX&X=X&X&X&X=X",
"*X=X=X=X=X=X&X&X=X=X=X=X=X%X=XOXOX=X&XOXOXoXOXOXoXOX+XOXOXOX+XOXOXOX=X=X=X=X=X=X&XOXOXOX=X=X+XOXOX+X=XOXOX&X+X&X=X=X=X=X=X=X=X=X=X=X=X=X=X=X=X=X=X=X=X&X=X&XOX+X=X&X&XOX=X%XOX&X=X=X=X&X&XOXOX&X%X&X=X=X=X%X%X+X+XOXOX=X=X=X&X=X&X&X=X=X=X%X=X=X%XOX&X=X&X=X=X&X",
"=XdXsX=X=X=X=X=X=X=X=X&X*X=X=X%X=X&X+XOXoX}.}.}.oXOXOXOX+XOXOX&X%X=X=X=X=X=X=X=X=X=X=XOXOX=X=XOXOX+X&X+X&XOXOX+X+X&X=X=X=X=X=X=X=X&X&X=X=X=X=X&X%X=X=X=X%X%X+X+X=X=X=X=X=X=X=X=X=X=X=X=X+X&XOXOXOX+X&X+X&X=X=X%X=XOX+X+X+X=X+X=X=X&X=X=X=X=X=X&X=X=X&X=X=XOXOX=X",
"=X=X=X*X=XtX=X=X=X=X=X=X=X=X%XOXOX&X=X%X&XOXOXOXOXOXOXOX&XOXOX%XOX%X@X=X=X=X=X=X=X=X=X=X=XOX=X&X&XOXOXOXOXOXOXOXOX+XOX=X=X=X=X&X=X=X=X=X=X=X=X=X%X=X%XOX=X&X&XOXOX=X=X=X=X=X=X=X=X=X=X=XOXOX&X=XOX+X+XOX%X%X&X&X=X=X=X+XOX&X&X=X=X=X&X=X=X=X=X=X=X=X=X=X=X=XOX=X",
"=X=X=X=X=XtXtX=X=X=X=X=X=X=X%X%XOXOX=X                                                                                                                                                                                    =X&X&X=X=X=X=X=XtX=X=X=X=X=X=X=X=X=X=X",
"=X=X&X&X=XtX=X&X=X=X=X=X=X=X&X=XOX%X=X                                                                                                                                                                                    +X&X+XOX&X=X=X=X=X=X=X=X=X=X=X=X=X&X=X",
"=X=X%XOX=X=X=X%X=X=X=X=X=X=X=X=X=X=X=X          o 1 - - - - - - - - - - - - - - - - - - - - - - - - - - - - - - - - - - - - - - - - - - - - - - - - - - - - - - - - - - - - - - - - - - - - - - - - - - - - 1 o           +X&X&X=XOX%X=X=X=X=X=X=X=X=X=X=X=X=X=X",
"=X&X&X=X=X=X=X=X%X&X=X=X=X=X=X=X=X&X=X          g M.M.M.M.M.M.M.M.M.M.M.M.M.M.M.M.M.M.M.M.M.M.M.M.M.M.M.M.M.M.M.M.M.M.M.M.M.M.M.M.M.M.M.M.M.M.M.M.M.M.M.M.M.M.M.M.M.M.M.M.M.M.M.M.M.M.M.M.M.M.M.M.M.M.M.M.M.M.g           &X&X&X=XOX&X=X=X%X%X&X=X=X=X=X=X=X=X=X",
"=X=X=X=XtX=X=X&X=X=X=X=X=XOX=X=X=X=X=X          g N.M.M.M.M.M.M.M.M.M.M.M.M.M.M.M.M.M.M.M.M.M.M.M.M.M.M.M.M.M.M.M.M.M.M.M.M.M.M.M.M.M.M.M.M.M.M.M.M.M.M.M.M.M.M.M.M.M.M.M.M.M.M.M.M.M.M.M.M.M.M.M.M.M.M.M.M.N.g           =X=X=X&X+XOX&X=X=X=X=X=X=X=X=X=X=X=X=X",
"=X=X=XtX=X=X=X=X%X=X=X=X=X=X%X&X&X=X=X    o g g X.#.@.p.M.M.M.M.M.M.M.M.M.M.M.M.M.M.M.M.M.M.M.M.M.M.M.M.M.M.M.M.M.M.M.M.M.M.M.M.M.M.M.M.M.M.M.M.M.M.M.M.M.M.M.M.M.M.M.M.M.M.M.M.M.M.M.M.M.M.M.M.M.M.M.M.p.@.#.X.g g o     =X=X=X&X&XOX+X=X=X=X=X=X=X=X=X=X=X=X=X",
"tX=X=X=X=XOX=X=X=X=X&X=X%X%X&X&X&X&X=X    1 M.N.#.    o.M.M.M.M.M.M.M.M.M.M.M.M.M.M.M.M.M.M.M.M.M.M.M.M.M.M.M.M.M.M.M.M.M.M.M.M.M.M.M.M.M.M.M.M.M.M.M.M.M.M.M.M.M.M.M.M.M.M.M.M.M.M.M.M.M.M.M.M.M.M.M.M.o.    #.N.M.1     =X=X=X&X&X&XOX=X&X&X=X=X=X=X=X=XtX=X=X",
"=X=X=X=X=X=X=X=X&X=X=X=X=X=X=X%X=X=X=X    - M.M.@.    o.N.M.M.M.M.M.M.M.M.M.M.M.M.M.M.M.M.M.M.M.N.M.M.M.M.M.M.M.M.M.M.M.M.M.M.M.M.M.M.M.M.M.M.M.N.M.M.M.M.M.M.M.M.M.M.M.M.M.M.M.M.M.M.M.M.M.M.M.M.M.M.N.o.    @.M.M.-     =X=X=X=X=X=X+X=X=X&XOX%X=X=X=X=X=X=X=X",
"=X=X=X=X=X=X=X=X=X=X=X=X=X=X&XOX=X=X=X    - M.M.p.o.o.X.B B B B B B B B B B B B B B B B B B B B B B B B B B B B B B B B B B B B B B B B B B B B B B B B B B B B B B B B B B B B B B B B B B B B B B B B X.o.o.p.M.M.-     =X=X&X=X&X=XOX=X&XOXOX%X=X=X=X=X=X=X=X",
"dX=XtXsX=X=X=X=X=X%X=X=X=X&X=X&X&X&X%X    - M.M.M.M.N.B                                                                                                                                                 B N.M.M.M.M.-     =X=XOX%X%X=XOX%X&XOX=X=X=X=X=XtXtX=X=X",
"sXsXsXsXsXdXsX=X*X&X=X=X=X=X=X=X%X=X&X    - M.M.M.M.M.B                                                                                                                                                 B M.M.M.M.M.-     =X&XOXOX%X%XOXOXOX=X=X=X=X=X=XtXsX=X=X",
"sXsXsXsXsXsXdX=X=X=X=X=X=X=X=X=X&X=X=X    - M.M.M.M.M.B     r y y y y y y y y y y y y y y y y y y y y y y y y y y y y y y y y y y y y y y y y y y y y y y y y y y y y y y y y y y y y y y y y y y r     B M.M.M.M.M.-     =XOXOXOX%X&XOXOX&X&X=X=X=X=X=X=X=X=X=X",
"=XsXsXdXsX=X=XdXdXtX=X=X=X=X=X=X&X&XOX    - M.M.M.M.M.B     y R R R R R R R R R R R R R R R R R R R R R R R R R R R R R R R R R R R R R R R R R R R R R R R R R R R R R R R R R R R R R R R R R R y     B M.M.M.M.M.-     &X&X+X+X+X&X&X+X%X%X&X=X=X=XtXtX=X=X=X",
"=XtXdXdXdX=X=XsXpX=X=X=X=X=X=X&X&XOXOX    - M.M.M.M.M.B     y R R R R R R R R R R R R R R R R R R R R R R R R R R R R R R R R R R R R R R R R R R R R R R R R R R R R R R R R R R R R R R R R R R y     B M.M.M.M.M.-     &X=X=X=X=X=X+X&X=X%X=X=X=X=X=X=XsX=X=X",
"=X=X=X=X=X=X=XsXpX=X=X=X=X=X=X*X=XOXOX    - M.M.M.M.M.B     y R R R R R R R R R R R R R R R R ' ] ] ] ] I   X X X X     X X X X X X X X X X     X X   y R R R R R R R ~ ] ] ] ] ] ~ R R R R R R R y     B M.M.M.M.M.-     =X=X=X=X=X=XOXOX=X%X=X=X%X=X=X=X=XsXsX",
"=X=X=X=X=X=X=XsX=X=X=X=X=X=X=X=X=X=X=X    - M.M.M.M.M.B     y R R R R R R R R R R R R R R R R _ ] ] ] ] I                                             y R R R R R R R ~ ] ] ] ] ] ~ R R R R R R R y     B M.M.M.M.M.-     =X=X=X&X%X+X+XOX=X%X=X=X=XOX=X=X=X=XdX",
"=X=XpX*X=X=X=XsX=X=X=XpX=X=X=X=X=X=X=X    - M.M.M.M.M.B     y R R T T T R R R Q Q Q Q Q Q Q Q ` ] ] U U K                                   o o       i T T R Q Q Q Q ! ] ] [ U U W T T R R R R R y     B M.M.M.M.M.-     &X%X=X&XOXOXOX}.%X%X=X=X=X=XsX=X=X=X=X",
"=X=XsX=X=XpXpX=X=XsX=X*X=X=X=XdXdX=X=X    - M.M.M.M.M.B     y R R X   X R R ~ ] ] ] ] ] ] ] ] ] ] _                                       * g g =           _ ] ] ] ] ] ] { 9           T R R R R y     B M.M.M.M.M.-     =XtX=X=X=XOX=X X X=X=X=X=X=X=XsXdX=X=X",
"=X=X=X=X=XsX=X=X=X=X=X*X=XsX=X=X=XdXsX    - M.M.M.M.M.B     y R R X   X R R ~ ] ] ] ] ] ] ] ] ] ] _                                       * g g =           _ ] ] ] ] ] ] { 9           T R R R R y     B M.M.M.M.M.-     =XtX=XOX=X%X&X=XOX=X=X=X=X=X=XsX=X=X=X",
"=X=X=X=X=X=X=X=X=X=X=X=X=X=X=X=XsXsXpX    - M.M.M.M.M.B     8 i i     X i i Y ] ] ] ] ] ] ] ] ' ' !           , F m m m m m m m m M b     * g g =           _ ] ] ] ] _ P L 8           W ~ ~ R R y     B M.M.M.M.M.-     =X=X=X=X=X=XOX%XOX=XOX=X=X=X=XsX=X=X=X",
"=X=X=X=X=X=X=X=XdX=X=X=XOXOXOX&XdXsX=X    - M.M.M.M.M.B                     8 ] ] ] ] ] ] ] ] Q R T           ;.[.].].].].].].].].].V.    * g g =           _ ] ] ] ] P                 U ] ] R R y     B M.M.M.M.M.-     tX=X=X=X=X=X=X=X*X=X=X=XpXpXsX=X=X=X=X",
"=X=X=X=X=X=XsX=X=X=X=X=XOXOXOXOX=X=X=X    - M.M.M.M.N.B                     8 { { { { { { { ] Q R T           ;.].S.S.S.S.S.S.S.S.'.B.    * g g =           _ ] ] ] ] L                 U ] ] R R y     B M.M.M.M.M.-     =X=X=X=X=X=X=X=X=XOX*X=XsX=XsX=X=X=X=X",
"=X=X=X=X=X=X=X=X=X=X=X=X=X=XOX=X%X=X=X    - M.M.M.M.M.B           % % %     $ 9 9 9 9 9 9 9 9 8 q q     , q.1.v.'.S.S.S.S.S.S.S.S.'.B.    o - - - - -       _ ] ] ] ] L     X & &       U ] ] ! ! Y     B N.M.M.M.M.-     =X=XtX=X=X=X=X=X=X=XOX=X=XsX=XpXsX=X=X",
"=X=X=X=X=X=X=X=X=X=X=XOX&X=X=X=X=X&X%X    - M.M.M.M.M.B           r u r                                 b ].].'.S.S.S.S.S.S.S.S.S.'.B.          1 g g o     _ ] ] ] ] L     & u u X     U ] ] ] ] I     B M.M.M.M.M.-     =X=X=XsX=XtX=X=X=X&X*X=X=X=X=XsX=X=X=X",
"=XsX=X=X=X=X=X=X=X=X=X}.OXtX=X=X=X%XOX    - M.M.M.M.M.B           r e q                                 b ].].].].].'.S.S.'.].].].].C.          1 g g o     _ ] ] ] { L     % u e X     U ] ] ] ] I     B M.M.M.M.M.-     sX=X=XsX=XdX=X=X=X&XOX=X=X=XsX=X*X=X=X",
"=X=X=X=X=X=X=X*X*X*X=XOXOX=X=XsX=X=XOX    - M.M.M.M.M.B     & q q r e r q > r L L 9 > q X               @ F m m m m c.'.S.;.m m m m H x.v.;.    1 g g o     & 8 8 8 8 8 q > q e e X     U ] ] ] ] I     B M.M.M.M.M.-     dX=X=XsXtX=X=X=X=X=X%X=X=X=X=X=XOX*X=X",
"=X=X=X=X*X=X=X=X=X=X*X*X*X=X=XpXsXdX=X    - M.M.M.M.M.B     q u e e e e e e Y { { W e u X                           w.].S.6         6 ].].z.    1 g g o               X u e e e e X     U ] ] ] ] I     B M.M.M.M.M.-     =X=X=XdX=X=X=X=X=X=X&X=X=X=X=X=X=X*X=X",
"=X=X=X=X=X=XOX%XOX@XOXOX*X=X=X=X=X=X=X    - M.M.M.M.M.B     q e e e e e e e Y ] ] W e u X                           z.].S.j         j S.].z.    1 g g o               X u e e e e X     U ] ] ] ] I     B M.M.M.M.M.-     =X=X=XsX=X=X=X=X=X=X&X=X=X=X=X=X=X=X=X",
"=X=X=X=X=X%XOXOX%XOXOXOX=X=X=X=X=X=X=X    - M.M.M.M.M.B     q e e e e t _ _ _ ] ] ] _ _ y q q           j Z.Z.1.    z.].S.Z.V.V.V.V.Z.S.].z.    1 g g o           q q r e e e e u X     X $ $ $ $ X     B N.M.M.M.M.-     sXsXsXsX=X=X=X=X=X=X=XOX=X=X=X=X=X=X=X",
"=X*X=XOX+X=XOXOXOX=XOX=X=X=X=X*X=X=X=X    - M.M.M.M.M.B     q e e e e i ] ] ] ] ] ] ] ] Y e e X         b ].].0.    z.].S.`.`.`.`.`.`.S.].z.    1 g g o           e e e e e e e u X                     B M.M.M.M.M.-     sXdX=X=X=X=X=X=X=X*X=X%X%X=X=X=X=X=X=X",
"=XOX*XOXOX=X}.OXOX=X=XOX=X=X=X=X=X=X=X    - M.M.M.M.M.B     q e e e e i ] ] ] _ _ ] ] ] Y i i < < <     b '.].0.    z.].S.S.S.S.S.S.S.S.].z.    1 g g o         X e e e e e e e u %                     B M.M.M.M.M.-     =X=X=X=X=X=X=X=X%X=X=X=XOX=X=X=X=X=X=X",
"=XOX%X&XOXOXOXOXOXOX=X=X=X=X=X=X=X=X=X    - M.M.M.M.M.B     q e e e e i ] ] ! e e W ] ] ] ] } T.^.U.O   b '.].0.    z.].S.S.S.S.S.S.S.S.].z.    1 g g o     r r r e e e e e e e e r e e       r r q     B M.M.M.M.M.-     =X=X=X=X=X=X=X=X=X=X%X*X&XtX=X=X=X=X=X",
"=X=X+X&XOXOXOX+X=X%X&X=X=X=X=X=X=X=X=X    - M.M.M.M.M.B     q e e e e i ] ] ! e e W ] ` ] ] } T.~.Y.O   b '.].0.    w.].S.S.S.S.S.S.S.S.].z.    1 g g o     r e e e e e e e e e e e e e       r e q     B M.M.M.M.M.-     =XsX=X=X=X=X=X*X=X=X=X%XOX=X=X=X=X&X=X",
"=X=X&X=X&X&X&X=X=X=X=X=X=X=X=X=X=X=X=X    - M.M.M.M.M.B     r y y y y Y ] ] ! u i | r.r.| ' ' T.~.Y.O   n {.{.n.j j c.'.S.S.S.S.S.S.S.S.].z.    1 g g o     > q q e e i y y y y y i e e % X X r e q     B M.M.M.M.M.-     =XsXsX=X=XtXsX=X=X=X=XOXOX=X=X=XtX=X=X",
"=X&X&X=X=X=XOXOX=X=X=X=X=X=X=X=X=X&X%X    - M.M.M.M.M.B     I ] ] ] ] ] ] ] ' R E G.(.~.e.E R T.~.Y.O   4.~.Y._.S.'.`.S.S.S.S.S.S.S.S.S.].z.    1 g g o           e e Y ] ] ] ] ] Y e e e e e e e q     B M.M.M.M.M.-     =XpX=X=X=X=X=XtX=X=X=XOXOX=X=X=X=XtX=X",
"=X=X=X=X=X=X=X=X=X=X&X=X=X=X=X=X=X=X=X    - M.M.M.M.M.B     I ] ] ] ] ] ] { ' R E G.(.(.e.E R T.~.Y.    v ~.!._.D.S.'.].].`.S.S.S.S.`.].[.z.    1 g g o           e e Y ] ] ] ] { Y e e e e e e e q     B M.M.M.M.M.-     dXdXsX=X=XOX=X=X=X=X%X+XOXOX=X=X=XtX=X",
"=X=X=XOX=X=X=X=X=X=X=X*X=X*X=X=X=X=X=X    - M.M.M.M.M.B     K ' ! ! ! ! 0 0 K R E e.K.G.G.e.G.W.~.Q.8.7.F.~.!./.P.P.b.0.0.A.`.S.S.`.A.0.w.H     1 g g 1 = =       e e Y ] ] U W W y e e e e e e e q     B M.M.M.M.M.-     =X=XsX=X%X=X=X=X%X=X%XOXOX&X=X=X=XtX=X",
"=X=X=X=X=X=X&X=X=X%X&X%X=X=X=X=X=X=X=X    - M.M.M.M.M.B     y R R R R T     % R R E E / L.(.~.!.!.~.~.~.~.!.!.!.!.~.5.    B.'.S.S.'.B.          1 g g g g g       e e Y ] ] W e e e e e e e e e e q     B M.M.M.M.M.-     =XOX=X=X=XtX=X=X=X=X%X%X%X%X=X&X&X=XtX",
"&X=X=X=X=X=X&X&X=X=X%X&X=X&X&X=X=X&X=X    - M.M.M.M.M.B     y E E R R T     % E E E E / K.~.!.!.!.!.!.!.!.!.!.~.~.).7.    V.].].].].V.          1 g g g g f       e e Y ] ] W e e e e e e e e e e q     B M.M.M.M.M.-     =X=X=X=X=X=XdXdX=X=X=X=X&XOX=X=X%XOX=X",
"OX&X=X=X&X=XOX%X=X%X=XOXOX=X=X&X%X*X=X    - M.M.M.M.M.B     O.a.&.8 & &     4 a.&.n.K.K.W.~.!.!.!.!.!.!.~.!.~.J.5.7.N     m H H H H m           1 g g g g g       e e Y ] ] W e e e e e e e e e e q     B M.M.M.M.M.-     =X=X=X=X=X=XsXtX=X=X=XtX=X%XOX=X&XOX&X",
"=X=XOXOX=XOXOX%X=X=X=X=X&X%X=X&X%X@X=X    - M.M.M.M.M.B     u.j.d.+         d j.l.I.~.~.~.!.!.!.!.!.!.!.!.!.~.F.                                1 g g g g g       e e Y ] ] W e e e e e e e e e e q     B M.M.M.M.M.-     =X&X=X=X=X=X=X=X=X=X=X=X=X=X=X=X&X&X&X",
"=X=X=X+X&X&X%X%XOX=X&X=X%X%X=X=X=X=X=X    - M.M.M.M.M.B     u.h.d.+         d k.l.I.!.!.!.!.!.!.!.!.!.!.!.~.~.F.                                1 g g g g f       e e Y ] ] W e e e e e e e e e e q     B M.M.M.M.M.-     OX&X=X%X&X=X=X=X=X=X=X=X=X=X=X=XOX=X=X",
"&X=X=XOXOX&XOXOX&XOX=X&X%X&X=X=X%XOX&X    - M.M.M.M.M.B     u.h.d.+         o 2 2 7 v v U.~.!.!.!.!.!.~.R.J J C a a +     z.C.B.B.B.B.B.V.q.    1 g g g g f     X U _ _ ] ] W e e W _ _ _ _ ! u e q     B M.M.M.M.M.-     OX=X=X=X&X=X%X=XtX=X=X=X=X=X=XtXtX=X=X",
"+X&X=XOXOX=X=XOX&X&X&X&X&X&X%X%XOX&X=X    - M.M.M.M.M.B     u.k.d.+                     H.~.!.!.!.!.!.~.R.f f g g g *     C.].'.'.'.'.'.].z.    1 g g g g f     $ ] ] ] ] ] W e e ! ] ] ] ] _ u e q     B M.M.M.M.M.-     OXOX=X=X=X=X=X=X=X=X=X=XtX=X=X&X=X=X=X",
"OX=X=X+X&XOX=X&XOX%X&X&X=X&X%X%X&X&X%X    - M.M.M.M.M.B     t.d.f.=               . < O H.Q.Q.!.!.!.Q.Q.L.Z Z h f f *     B.'.S.S.S.S.S.].z.    1 g g g g f     $ ] ] ] ] ] W r r I [ [ ] ] _ u u q     B M.M.M.M.M.-     OX+X=X=X=X=X=X=X=X=X=X=X=X=X=X=XOX&X=X",
"@X=X=X=X&XOX+X+XOX+X&X=X=X&X+XOX+XoX=X    - M.M.M.M.M.B     o o o V  . . . .f     8.^.Q.5.O < U.~.W.Z Z 6.Q.^.F.          B.'.S.S.S.S.S.].z.    1 g g g g f     $ ] ] ! u t &         X U ] ] R R y     B M.M.M.M.M.-     +X+X=X=X+X=X=X=X=X=X=X=XOX=X=X=XOX=X=X",
"OXOXOXOXOX+XOXOX=X&X=X=X+X=X=X&XOX&X&X    - M.M.M.M.M.B            .O.O.O.O.h     F.(.~.5.    U.~.Q.V f 6.~.(.F.          B.'.S.S.S.S.S.].z.    1 g g g g f     $ ] { ! e u %           U ] ] R R y     B M.M.M.M.M.-     OX+X=X=X=X=X=X=X=X=X=X+X&X=X+X+X&X=X=X",
"OX%X=XOXOXOXOXOX=X%X&X=X=X=X=X=X=X=X%X    - M.M.M.M.M.B            .O.O.O.O.h o o 8.E.E.J 2 3 H.U.J.d a J T.T.8.    , j j V.`.S.S.S.S.S.].z.    1 g g g g f     X I U P q q %           U ] ] ~ ~ y     B M.M.M.M.M.-     OXOXOXOXOXOXOX%X=X=X=X+X=X=X&XOXOX=X=X",
"OX#X=XOXOXOX=X+XOX=X=X=X=X#X=X=X#X=X=X    - M.M.M.M.M.B            .O.O.O.O.O.O.O.O.O.O.s.h.h.=         o g g 1     z.].S.S.S.S.S.S.S.S.].z.    1 g g g g f                             U ] ] ] ] I     B M.M.M.M.M.-     OX+XOXOXOXOXOX+X+X=X=X=X=X=X&XOXOX=X=X",
"OXOXOXoXOX+XOXOX%X=X=X=X=XOXOX#X=X=X=X    - M.M.M.M.M.B            .O.O.O.O.O.O.O.O.O.O.s.k.h.#         o g g 1     z.].S.S.S.S.S.S.S.S.].z.    1 g g g g g                             U { ] ] { I     B M.M.M.M.M.-     OXOXOXOXOXOXOXOXOX=X+XOX&X&X+XOXOX&X=X",
"OXOX+X%XOXOX+X&X=XOX%XOX+XOXOXOXOX&XOX    - M.M.M.M.M.B     * - 1  .O.O.O.O.O.O.O.O.O.O.i.y.y.a - -     o a a *     z.].S.S.S.S.S.S.S.S.].z.    * a 1 1 1 1                             0 K K K K 9     B M.M.M.M.M.-     OXOXOXOXOXOXOXOXOX=XOXoX&X&X&X+X&X=X=X",
"OXOX=X=XOXOX+XOX&X+X+X=X+XOXOXOXOXOX+X    - M.M.M.M.M.B     V O.O.O.O.O.O.O.O.O.O.O.O.O.O...O.O.O. .                z.].S.S.S.S.S.S.S.S.].z.                                                            B M.M.M.M.M.-     OXOXOX+XOXOXOXOXOX&X+X=X+XOX+X=X+X=X=X",
"OX*X=X=X=X&XOXOX+X+XOX=X=XOXOX&X+XOXOX    - M.M.M.M.M.B     V O.O.O.O.O.................O.O.O.O.O. .                w.].S.S.S.S.S.S.S.S.].z.                                                            B M.M.M.M.M.-     =XOXOXOXOX=X=X+X+XOX+XOXOXOXOX+X+XOX=X",
"OXOX=X=XtX=XOX=X=X&X%X=X&X=X=X+XOX#X+X    - M.M.M.M.M.B     c ) ) ) ) ) y.y.y.y.y.y.y.y.@.O.O.a a 1           l w.0.V.'.S.S.S.S.S.S.S.S.].z.                = : : : : : : : o           q r r r r q     B M.M.M.M.M.-     =X=X@XOXOXOXOXOXOX%X&X+XOXOXOXOX&X=X=X",
"OX*X=X=X&X=X=X=X=X=X&X=X+X&X&X&XOXOX#X    - M.M.M.M.M.B     y R R R R ( h.h.h.h.h.h.h.k.$.O.O.o               ;.[.].'.S.S.S.S.S.S.S.S.S.].z.                5 s s s s s s s =           T R R R Q y     B M.M.M.M.M.-     =X=X*X*X*X=XOXOXOX%X=X&X&X&XOXOX&X=X=X",
"OX*X=X=X=X=X=X=X=X=X%X=X&X&X&X=XOXOXOX    - M.M.M.M.M.B     y R R R R ( d.h.h.h.h.h.h.h.$.O.O.o               ;.].S.S.S.S.S.S.S.S.S.S.S.].z.                5 s s s s s s s =           T R R R R y     B M.M.M.M.M.-     =X=X=X=X*XOXOXOXOX&X&XOX=X=XOX&XOX&X=X",
"OX=X=X=X&X=X&X=X=X=X=X=X&X%X=X=X=X*XOX    - M.M.M.M.M.B     y R R R R ( d.h.h.h.h.h.h.k.A * *                 ;.].S.S.S.S.S.S.S.S.S.S.S.].z.    j *.*.*.*.*.-.-.-.-.-.-.-.-.C 2 5 o     $ $ & ' ' P     B M.M.M.M.M.-     =X=X=X=X=X*XOXOXOXOXOXOX%X=X&X=X&X%X=X",
"+XOX%X=X%X=X%X%X=X=X=XOXOXOX=X=X=X=X*X    - M.M.M.M.M.B     y R R R R ( d.h.h.h.h.h.h.k.d                     ;.].S.S.S.S.S.S.S.S.S.S.S.].z.    m 2.<.<.<.<.<.<.<.<.<.<.<.<.G s s +         X ] ] I     B M.M.M.M.M.-     =XsX=X=X=X=X*X=X=XXX}.&X%XOX=X=X=X=X%X",
"=X=X=X=X=X%XOX=X=X=X&XoX X%XOX=X=X=X=X    - M.M.M.M.M.B     y R R R R ( d.d.d.h.h.d.d.h.d                     ;.S.D.S.S.S.S.S.S.S.S.S.S.].z.    x <.,.,.,.,.,.,.,.,.,.,.,.,.D 5 s +         X ] ] I     B M.M.M.M.M.-     =XsXsX=X=X=X=X=X%X&XOXOXOXOX=X=X=X=XOX",
"=X=X=X=X=X=X=X=X+X&XOXOXOX&XOXOX=X=X=X    - M.M.M.M.M.B     y R R R R R W ~ +.h.k.S o +                       o ; @ z.].S.S.S.S.S.S.S.S.].z.    x <.<.C k k k k k k k k k k k s s +         X ] ] I     B M.M.M.M.M.-     =X=X=X=X=X=X=X=X@XOXOXOXOXOXOX=X=XOXOX",
"OX&X&X%X=XtX=X%X=X=X&X=X=X=XOXOXOX=X=X    - M.M.M.M.M.B     y R R R R R R E +.h.k.S                                 z.].S.S.S.S.S.S.S.`.].z.    x <.<.C s s s s s s s s s s s s s +         X ] ] I     B M.M.M.M.M.-     =X=X=X=X=X=X=X=X=XOXOXOXOX=X}.}.OXOXOX",
"&X=X&X%X=X=X=X=X=X=X&XOX=X&XOXOXXXOX=X    - M.M.M.M.M.B     y R R Q Q Q Q Q +.h.k.S                 o   o @ @ o     z.].S.S.S.S.S.S.D.V.Z.0.o o D <.<.C s s s s s s s s s s s s s +         X U U K     B M.M.M.M.M.-     *XOX=X=X=X=X=XpXpX=XOXOXOXOXOXOXOX.X$X",
"&X=X=X=X=X=X=X=X=X=X&X+X+X=XOXOXOX+X=X    - M.M.M.M.M.B     y R R ` ] ] ] ` %.h.k.S           5 s s s s C ,.<.x     z.].S.S.S.S.S.'.B.    j <.,.,.,.<.C s s s s s s s s s s s s s s s s                 B M.M.M.M.M.-     OX&X&X=X=X=X=X=XsXsX=X=X*X*X*X=XOXOXOX",
"&X&X&X=X=X=X=X=X=X=X=X=X+X+X+XOX=X=X=X    - M.M.M.M.M.B     y R R ] ] ] ] ` %.k.k.S           5 s s s s C <.<.x     z.].'.'.'.'.'.].C.    j <.,.<.<.<.C s s s s s s s s s s s s s s s s o               B M.M.M.M.M.-     OXOX%X=X=X*X=X=X=X=X=X=X=X*X=X*XOXOX=X",
"+X=X=X=X=X=X=X=X%X=X=X&X&X&XOX&XOX=X=X    - M.M.M.M.M.B     Y ~ ~ ] ] ] ] ] %.t.t.A           5 s s s s C <.<.x     ;.v.x.x.x.x.x.x.w.6 , x <.,.>.-.-.k s s s s s s s k C C k s s s s s o               B M.M.M.M.M.-     OXOXOX=X*X=X=X=X=X=X=X*XOXOX=XOXOXOX@X",
"=X=X=X=X=X=X=X=X=X=X%X=X=X=X=X=XOXOX#X    - M.M.M.M.M.B     I ] ] ] ] ] ] ] P                 5 s s s s C <.<.x                     @ <.<.<.,.<.Z 5 5 s s s s s s s s C <.2.G 5 s s s s o               B M.M.M.M.M.-     =X=X*X*X*X=X=X=X=X=X*X*X=X=X*X@X@X@XOX",
"=X@X=X&X=X=X=X=X=X=X&X=X=X=X=X%X&XOXOX    - M.M.M.M.M.B     I ] ] ] ] ] { { L                 5 s s s s C <.<.x                     ; ,.,.<.<.2.D 5 s s s s s s s s s C <.<.D 5 s s s s o               B M.M.M.M.M.-     OX=XOX*X=X=X=X=X=X=X=X=X=XOX*X*X=X=X=X",
"#XOX=X=X=X%X=X=X=X=X=X=X=XOX=XOX=XOXOX    - M.M.M.M.M.B     I ] ] ] ] [ 9 9 8     o = = o     + = = = # j <.<.D + = j l l o         ; ,.<.:.D G C s s s s s s s s s s C <.<.D 5 s s s s                 B M.M.M.M.M.-     *X=XOX=X=X=X=X=X=X=XpX=X=XOX=X=X=X=X=X",
"OXOXOX*XOXOX*X=X=X=X=X=XOXOX@X#X=XOX=X    - M.M.M.M.M.B     I ] ] ] ] U           = s s +               : <.<.-.s s -.2.<.;         ; ,.<.-.5 5 s s s s s s s s s s s C <.<.D 5 s s s s                 B M.M.M.M.M.-     OX=XOX=X=X=X=X=X=XpX=X=X=X=X=X=X=X*XOX",
"=XOXOXOXOX*X=X=X*X=X*X=X*X=XOX@X=X=X*X    - M.M.M.M.M.B     I ] ] ] ] U           = s s o               : 2.2.-.s s -.2.<.;         ; ,.<.*.5 s s s s s s s s s s 5 5 C <.<.D 5 s s s s o               B M.M.M.M.M.-     =X=XOX=XdX=X=X=X=X=XsX=X=X=X=X=X=X=X=X",
"OXOXOXOX=XOXOX=X=X=X=X=X=X=X@X#X=X=X#X    - M.M.M.M.M.B     I ] ] ! ~ W           j -.-.k 2 2 2 2 2     o 6 6 : o o : 6 6       D D *.,.<.*.5 s s s s s s s s s k -.-.-.,.<.D 5 s s s s o               B M.M.M.M.M.-     =X=X=X=X=X=X=X=XsXpX=X=X=X=X=X=X=X=X=X",
"*X*X*X=X=XOXOXOXOXOX*X=XOXOXOX=X#XOX#X    - M.M.M.M.M.B     I ] ] R R T           l 2.<.C s s s s 5                             ,.<.<.,.<.*.5 s s s s s s s s s k ,.<.<.,.<.D 5 s s s s o               B M.M.M.M.M.-     OX=X=X=X=X=X=X=X=X=XOX=X=X=X=X=X=X=X*X",
"=X=XOX*X=XOX@XOXOXOXOX=X=X*XOX#X#X#X#X    - M.M.M.M.M.B     I ] ] ~ R T           l <.<.C s s s s 5                             >.,.,.,.,.-.5 s s s s s s s s s k ,.,.,.,.<.D 5 s s s s                 B M.M.M.M.M.-     *X=X=X=X=X=X*X=X=X=X=X=X=X=X=X=X=X=X=X",
"#XOXOXOXOX@XOXOXOXOXOX*XOXOXOX=X=X=X#X    - M.M.M.M.M.B     I ] } g.s.y.    o 5 5 D <.<.C s s o         j Z.V.V.V.Z.F           >.,.>.k k k s s s s s s s s s s k ,.<.-.k k k s s s s s                 B M.M.M.M.M.-     =X*X@X=X=X*XOX*X*X=X=X=XpX=X=X=X=X#X=X",
"OXOX=X=XOXOXOXOXOXOXOXOXOX*X#XOX=X#X=X    - M.M.M.M.M.B     I ] } f.h.s.    + s 5 G <.<.C s s           b ].`.`.`.].H           >.,.:.s s s s s s s s s s s s s k ,.<.-.5 s s s s s s s o               B M.M.M.M.M.-     =XOX#X=X=X*XOXOX=X=X=X=X=X=X=X=X=X=X=X",
"#XOX@X@X=XOXOX=X=X*X*XOX=X=XOXOXOX=X=X    - M.M.M.M.M.B     I ] ] s.f.y.    o 5 5 D <.<.Z k k o     ; @ F '.S.S.S.].;.@ ;       >.,.:.s s s s s s s s s s s s s k ,.<.-.k k k s s s s s o               g m.p.m.M.M.-     =XOX#X#X#X=X=X=X=X=X=X=X=X=X=X=X=X=X#X",
"#X#X#X=X@XOX=XOX=X*X*X=XOX#X*XOXOX=X*X    - M.M.M.M.M.B     I ] ] ~ Q T           l <.,.,.,.,.@   ; A.D.D.S.S.S.S.`.D.D.D.7     >.,.:.s s s s s s s s s s s s s k ,.,.,.,.,.D 5 s s s s o                     #.M.M.-     =XOXOXOX#X@XOX#X=X=X=X=X=X=X@X*X*X=X=X",
"=X#X=X=X#XOX=X=X=XOXOX=X=X#X=XOXOXOXOX    - M.M.M.M.M.B     I { ] Q R T           l 2.<.<.<.,.@   ; D.'.'.'.'.'.'.'.'.'.'.j   o >.,.:.s s s s s s s s s s s s s k ,.<.<.<.2.-.s s s s s o                     @.M.M.-     =X*XOXOX=XOXOXOXOX@X=X=XOXOXOX*X*X*X=X",
"=X=XOXOXOX=X=X=X=X=X*X=X=X=XOX@X=X*X*X    - M.M.M.M.M.B     0 I I y y i           j *.*.*.*.*.o   @ c.c.c.c.c.c.c.c.c.c.c.,   o >.<.-.4 4 4 4 4 4 4 4 4 4 4 4 4 5 *.*.*.*.*.l 2 4 4 4 4                       @.M.M.-     *XOX=X@X@X*XOXOXOX=X=XOX*XOXOX*X*XOX*X",
"=X=XOX=X=X=X=X=X=X=X=X*X*X=X@X*X*X=X=X    - M.M.M.M.M.B                                                                         >.<.=.                                                                        @.M.M.-     =XOX=XOXOXOXOXOX*X=X*X=X=X=X*X@X=X=X=X",
"=X*X*X=X=X=X=X=X=XpX=X=XOXOX*X=X=X=X=X    - M.M.M.M.N.B                                                                         >.<.=.                                                                        @.M.M.-     =X=X=XOXOX@XOX*X=X*X=X*X=X=X*X*X=X=X=X",
"*X=X=X=X=X=X=X=X=X=X=X=XOXOXOX=XOX=X*X    - M.M.p.o.o.X.B B B B B B B B B B B B B B B B B B B B B B B B B B B B B B B B B B B B 3.a.&.B B B B B B B B B B B B B B B B B B B B B B B B B B B B B B B B B a     @.M.M.-     =X*X=XOXOX%X=X*X*X*XOXOX=X=X=X=X=X=XsX",
"=X=X*X*X=X=X=X=X*X=X*XOX*X*X+XOXOXOX=X    - M.M.@.    o.N.M.M.M.M.M.M.M.M.M.M.N.M.M.M.M.M.M.M.M.M.M.M.M.M.M.M.M.M.M.M.M.M.M.M.M.M.M.M.M.M.M.M.N.M.M.M.M.M.M.M.M.M.M.M.M.M.M.M.M.M.M.M.M.M.M.M.N.M.M.M.N.o.    @.M.M.-     =X=X=X=X=XOX%X=X*XOXOX@XOX*X*X=X=X=X=X",
"=X=X=X=X=X=X=X=X=X=XOXOXOX*XOXOXOX=X=X    1 M.N.#.    o.M.M.M.M.M.M.M.M.M.M.M.M.M.M.M.M.M.M.M.M.M.M.M.M.M.M.M.M.M.M.M.M.M.M.M.M.M.M.M.M.M.M.M.M.M.M.M.M.M.M.M.M.M.M.M.M.M.M.M.M.M.M.M.M.M.M.M.M.M.M.M.M.o.    #.N.M.1     =X=X=X=X=X=XOXOX=X@XOXOXOX@X*X=X=X*X=X",
"#X#X=X=X*XOX=XOXOX=XOXOXOXOXOX#X=XOX*X    o g g X.#.@.p.M.M.M.M.M.M.M.M.M.M.M.M.M.M.M.M.M.M.M.M.M.M.M.M.M.M.M.M.M.M.M.M.M.M.M.M.M.M.M.M.M.M.M.M.M.M.M.M.M.M.M.M.M.M.M.M.M.M.M.M.M.M.M.M.M.M.M.M.M.M.M.M.p.@.#.X.g g o     =X=X=X=X=X=X=XOX*X=XOX*X*X=X=XOXOXOX=X",
"=X=X=X*X*XOX=XOXOXOX=X*XOXOXOX#X#X=X*X          g N.M.M.M.M.M.M.M.M.M.M.M.M.M.M.M.M.M.M.M.M.M.M.M.M.M.M.M.M.M.M.M.M.M.M.M.M.M.M.M.M.M.M.M.M.M.M.M.M.M.M.M.M.M.M.M.M.M.M.M.M.M.M.M.M.M.M.M.M.M.M.M.M.M.M.M.M.N.g           =X=X=X=X=X=X=X@X=X=XOXOX@X=X=X*XOXOX=X",
"=X#XOX=X=X*X=X=X#XOXOX*XOXOXOX=X@XOXOX          g M.M.M.M.M.M.M.M.M.M.M.M.M.M.M.M.M.M.M.M.M.M.M.M.M.M.M.M.M.M.M.M.M.M.M.M.M.M.M.M.M.M.M.M.M.M.M.M.M.M.M.M.M.M.M.M.M.M.M.M.M.M.M.M.M.M.M.M.M.M.M.M.M.M.M.M.M.M.g           =X=X=XpX=X=X=X=XOX*X=X=X*X=X=X*XOXOX=X",
"=X=X=X=X=X@X=X=X=XOX=XOX*X=XOXOX=X=X=X          o 1 - - - - - - - - - - - - - - - - - - - - - - - - - - - - - - - - - - - - - - - - - - - - - - - - - - - - - - - - - - - - - - - - - - - - - - - - - - - - 1 o           =X=X=X=XsX=X=X=X*XOX=X=X=X*X=XOXOX*X=X",
"=X=X=X=X*X*X=X=X=X=X=X=X=X=X=X=XOX=X=X                                                                                                                                                                                    =X=X=X=XsX=X=X*X*X=X*X*X=X=X=X@X*X@X=X",
"=XOX=X=X*X=X=X=X=XdX=X X=X=X=X=X*X=X=X                                                                                                                                                                                    pX=X=X=XOX*X*XOXOX=X=X@X@X*X*X*X=X*X=X",
"=XOX*X=X=X=X=X=X*X=X=X*X=X=X=X=X=X=X=X=X=X=X=XpX=X=X=XdXdX=X*X=X=X=X=X=X=X=X=X=X=X&XOX+X=XOXOXOX#XOXOXOX=X*X@XOX*X=X=X=X=X=XsX=X=X=X=X=X=X=X=X=X=X=X=X#X=X=X=X&X+X=X=XOXOXOX@X#X=X=X=X=X#X#X=X*X=X=X+X=X=X=XsXpX=X=X=X=X*X=X=X=X=X*X=X=X*XOX*X=XOXOX*X=XpX*XOX=X",
"*X@X=X=X=X=X=X=XsX=X@XOXOXOX=X=X=X=X=X=X=X=X=X=X=X=X=X=X=X=X*X=XpX=X=X=X=X=X=X=X&XOXOX+X&XOXOXOX=X=XOX*X*XOXOX*X=X=X=X=X=X=X=XpX=X=X=X=X*X=X=X*X=X=X=X@XOXOX&X=X=X=X=X#XOXOX@XOX=X=X=X=X=X#X=X=X=X=X=X=X=X=X=X=X=X=X*X=XOX=X=X=X=X*XsX=X*XOX*X=X*X*X=X=XsX=X=X=X",
"=X=X=X=X=X=X=X=X=X=X=XOXOXOXOX%X=X@X=X=X=X=X=X=X=X=X=X=X=X=XsXsXsX=X=X=XdX=X=X=XOXOXOXOXOX=XOXOX*XOXOX=XOX*X@XOXOXOX=X=X=X=X=X=X=X=X=X=X=X=X=XOX*X=X=XOXOX#X=X=XOX&X=XOX+X+X=X+XOXOX=X=X=X&X=X=X=X=X=X=X=X=X=X=X=XOX*X=X=X=X*X=X*XOX=X=X=XOX=X=XOX*X=X*XOX=X=X=X",
"=X=X=X=X=X=X=X=X=X=X*XOXXXOXOX=X=X*XOXsXpX=XsX=X*X=X=X=XpXpX=X=XtXsXsX=X=X=X=X=X=X*X@XOX*X=X#X@X*XOXOX=X=X=X=XOXOX+X=X=X=X=X=X=X=X=X=X=X=X=X=X=X*X=X=X*X#X=X&XOXOXOX+X+X&X+XOX+XOX=X=X=XOX%X=XOX=X=X=X=X=X=X=X=X#X=X@X=X=X=X=X=X*X@X=X=X=X=X=X=XOXOX=X=XOXOXOX@X",
"*XOX=X=X=X=XsX=X=XdX=XOXOXOX=X=X=X=X=X=XpX=X=X*X=X=X=X=X=X=X=X=X=X=XsXsXOX=XpX=X=X=X=X*X=X=X@X*XOXOXOX=XOX=X*XOXOX&X@X@X=X=X=X=X=X=X=X=X=X=X=X=X=X=X*X=X=X=X=X=X&X=X=XOX=XOXOX+X&X+X@X=X%X=X=X*X=X*X=X*X=X=X=X=X=X=X=XOX*XpX=X=X=X=X=X=X*XOXOX=XOXOX*X*XOXOXOX=X",
"OXOX=X=X=X=X=X=X=X=X=XOX=XOX*X=X=X=X=X=X=X=X=X=X=X=X=XsX=X=XsX=X=X=X=XsXpX=X=X*X*X=X=X=X=X=X=XOXOXOXOX=XOXOX*X=XOX XOXOXOX*X=X=X=X=X=X=XsX=X=X#X=X=X=X%X=X=X=X=X=X&X=X+XOXOX=X=X=X=XOX=X%X&X&X=X=X=X=XOX#X=X=X=X=X=X=X=X=X=X=X=X=X=X=XpX*XOXOX%XOX%X=X@XOX@X=X=X",
"=X=X=X=X=X=X=X=X=X=X@XOX=X=X=X=X=XsX=X=X=X=XOX=XpXdX=X=X=X=XsXtX=X=X=X=XsX=X=X=X=X=X=X=X=X=X=X#X#XOX*X=X XOX@XOXOXOX=XOXOXOX=X=X=X=X=X=X=X=X=X=X*X=X=X=X=X=X=XOXOX&X=X=XOXOXOX=X=X*X*X%XOX=X=X&XOX=X*X*X=X=X=X=X=X=X*X=X=XpX=X=X=X=X=X=X*XOXOXOXOXOXOX=XOXOXOX=X",
"=XOX=X=X=X*X=X*X=X=XOX*XsXsX=X=XsXsX=X=X=X=X=XsX=XsXsX=X=X*X=X=X=X=X=X=X=X=X=XsX=X=X=X=X=X+X+X=X=XOXOXOXOX*X*XOX@XOX=X=X=X*X*X=X=X@X@X*X=X=X@X=X=X=X=X=X%X=X&XOXoXOX=X=XOX=X+XOX@X*X@X=X=X%X%X=X=X%X=X*X@X=X=XOXpX=X=X=X=X=X=X=X=X=X=X=X*X%XOXOXOXOXOX@XOX*X%X*X",
"OXOX@XOXOX=X=X=X=X=X=X=X=X=X=X=XsXsX=XsX*X=XdXfXsX=X=X=XsX=X=X=X=X=X=X=X=X=X=X=X=X=X=X=X=X*XOX=X=XOXOX=X=X=X=X=XOX=X*XOX=X=X=X=X=XOX*X*X=X=X=X=X=X=X=X=X=X=X&X+X&X&X&X=X=X=X=X#XOX*X=X=X=X=XOX=X=X=X=X=X=X%X%X=XsX=X=XsX=X=X=X=XsX=X@X*X=X=X*XOXOXOX+X}.OX*X*X=X",
"OX=X=XOXOXOX=X*X=X=X=X=XsX=X=X=X=XsXsXdX=X*XpXfXpX=X=X=X=XpXpXsXsX=X=X=X=X=X=XsX=X=X=X=X=XOX=X=X=X*XOX=XOXOXOXOX%X=XOX=X=X=X=X=X=X=X X*X*X=X=X=X=X=X=X=X=X#X=X&XOXOX%X=X=X=X=X#X=X=X=X*X%X=X=X=X=X=X#XOX%X&X=X=X=X=X=XdX=X=X=X=X=X=X*X=X=X=X=X%XOXOXOX}.OXOX=X=X",
"OX=X=XOX#X@X=X=X=XsXsX=X=X=X=X=X=XdX=X=XdX=X=X=X=X=X=X=X=XdX=X=X=X=X=X=XdX=X=X=X=X=X*X*X=X%X%X=X*X*XOXOXOX*X XOX=XOXOX=X=X=X*X=X=X=X*XOXOX=X=X=X=X=X=X=X=X=XOX=XOX=X=X=X=X#X=X=X=X=X=X%X=X=X%X=X=X=X=XOXOX&X&X=X=X=X*XdXsX=X=X@X=X=X*X=X=X=X=X=XOXOXOXOX=XOXOXOX",
"=X=X=X=XOX=X=X=X=X=X=X=X=X=X=X=X*X=XpX=XOX=X=X=X=X=X=X=X=X=XdX=X*X=X=X=X=X=X=XOX*X=X=XpX=X=X&XOX=XOXOXOXOX@XOXOXOXOX*X=X=X=X=X*X=X=XsX=X=X=X*X*X=X=X=X=X&X=X=X=X=X=X=X=X=X=X=X=X=X=X=X%X=X%X=X=X=X=X=X=X=X=X+X=X=X&XOX=X=XpX=X=X=X*X=X=X=XOXOX=X=X=X=X*X=XOXoX=X",
"OX*X=X#X=XpXpX=X=X=X=XsX*XOXdXpX=X=X=X=X@XOX=X=XsXsX=XsX=X=X=X=X=X=X=X=XOX=X=X=X=X=X=X=X=X&X&X+XOXOX XOXOXOX@XOXOX=X=X=X=X=X=X=X=X=X=XpXdX=XpXpX=X=X=X=XOXOX%X*X=X=X=XOX=X=X=X=X*X%X=X%X=XOX*X=X=X=X=X=X+XOX=X=X=X=X*X=X=X=X=X=X=X=X=X*X=X=X*X=X*X*X=X=X=X=X%X%X",
"#X=X=X=X=X=X=XOX=X=XOX@X=XsXsX=XsX=X=X=X=X=X=X=X=X=XpXdX=X=X=X=X=X=X=X=X*X=X=X=X=X=XOX=XOXOXOXOXOXOXOXOXOXOX=X*X=X=X=X=X=X=X*X=X=X=X=X=X=X=X=X=X=XpX=X%X%XOXOXOX=X=X=XOX*X=X=X=X*X=X=X=X=X=XOX=X=X=X=X=X=X=X=X=X=X=X=X=X=XOX=X@X=X=X=X=X=XsXpX=X*XOXOXOXOX=X*XOX",
"@XOX=X=X=X=X*X=X=X=XpX=X=XsXdX=XpX=XsXdX=X=X=X=X=X=X=X=X=X=X=X=X*X=X=X=X=X=X=XOXOXOX=X=XOXOXOXOXOXOXoXOX&XOX*X=X=XOX=X=X=X=X=X=X=X=X=X=X=X=X=X=X=X=X=X=X&X%X*XOX*X&X&X=X=X=X=X=X=X=X=X=X=X=X=X=X=X*X%X=X#X=X=X=X=X=X=X=X=X=X=XOXOX=X=X=X=X=X=X=X=X=X=X=X*X=X=X=X",
"OXOX=X=X#X@XOXOX=X=X=X=X@XsXdXsXpXdXsXsXsX=XOX=X=X=X=X=X=X=X=X=X=X=X=X=X=X=XOX=XOXOXOX=XOXOXOXOXOXOXOXOXOX=X=X*X=X*X=X=X=X=X*X=X=X=X*X=X=XpX=X*XOX=X=X=X%X%X*X*XOX%X%X=X=X*X=X=X=X=X=X=X=XsX=XOX=X=X=X=X=X#X=X=X=X=X=X=X=XsX=X*X*X=XOXOX=X=X=X=X=X=X=X=X@XOXOXOX",
"OXOXOXOXOXOX=X=XsXdXdX*X@X=XfXsXdX=XsX=X=X=X=XOXOXOX=X=X=X*X=X=X=X=X*XtX=X*X=X=X=X=X*X%X=X=XOX}.oXOXOXoXOXOX=X=X*X*X=X*X=X=XOX*X=XsXsXsX=X=X=X=X@X=XdXsX=XOX#XOXOX@XOXOX=XOXOX*X=X%X=X=X=X=X=XOX=X=X=X=X=X=X=X*X=X=X=X=X=X=X=XOX%X=X*X=X=X=X=X=X=X*X=X=XOX=X=X X",
"OXOXOXXXOXOX=X=X*X*XdXsX=X=XsXfXdX=X=X=X=XOX*X=X=X=X=X=XOX*X*X=XsX=XOX=XOXOXOX=X#X=X=X=X=X#XOX.X{.XXOX}.OXOX=X=X=X*X=X=X=X=X=X@X*X=XsXsX=X*XsXsX=X=XsXtX=X=XOXOX@X=XOXOX=X#X@X*XOX%X=X=X&X%X=X=X=X=X=X=X=X=X=X=X=X=XpX=X=X=X=X%X%X=X=X=X*X=X=X=X=X=X=X=XOX*X=XOX",
"+XOXOXOX+XOXOXOX=X=XtXsXsX=X=XsXpX=X=X=X=X=XOX*X=X*XsX=X=X=X=X*X=X=XOXOXOX=X*X=X=X=XOXOX=X=XOXoX.XoXOXXXOXOX=XOX*X=X*X*X=X=X=X@XOX*X=X=X=X=XdXsX=XsX=X=X=X=X=X=X#X=X=XOXOXOX@XOXOX%XOX=X=X&X*X*X=X=XOX#X#X=X#X*X*X=XdX=X=XsX=X=X%X=X=XOX*X=X=X=X=X=X*X=X=X*X*X*X"
};
