/* XPM */
static char *wall_mona_3[] = {
/* columns rows colors chars-per-pixel */
"128 128 225 2 ",
"   c #000000",
".  c #090602",
"X  c #020A03",
"o  c #0D0A02",
"O  c #020F08",
"+  c #0E0B0A",
"@  c #120C03",
"#  c #110E09",
"$  c #1A0F05",
"%  c #051003",
"&  c #03150A",
"*  c #04190B",
"=  c #091E04",
"-  c #151202",
";  c #1A1305",
":  c #1F1B01",
">  c #15110C",
",  c #1C140A",
"<  c #041F11",
"1  c #1C1711",
"2  c #110711",
"3  c #201C02",
"4  c #241709",
"5  c #27190B",
"6  c #2C1C0C",
"7  c #261504",
"8  c #321F0D",
"9  c #221D13",
"0  c #261F18",
"q  c #092408",
"w  c #113607",
"e  c #133D07",
"r  c #052312",
"t  c #062B15",
"y  c #062E18",
"u  c #0A2E10",
"i  c #093516",
"p  c #093916",
"a  c #063119",
"s  c #073415",
"d  c #0F2C0D",
"f  c #292403",
"g  c #34210E",
"h  c #372607",
"j  c #373004",
"k  c #3A3304",
"l  c #3C3508",
"z  c #2A2317",
"x  c #392712",
"c  c #3C2A14",
"v  c #352D1C",
"b  c #372814",
"n  c #3C341F",
"m  c #203810",
"M  c #34153D",
"N  c #2B0F31",
"B  c #332A20",
"V  c #3A2F24",
"C  c #3E3326",
"Z  c #3F3428",
"A  c #1F0B23",
"S  c #463C03",
"D  c #453C07",
"F  c #44321A",
"G  c #453517",
"H  c #432C10",
"J  c #63380C",
"K  c #4E3E23",
"L  c #453929",
"P  c #503F23",
"I  c #4D3E30",
"U  c #15450A",
"Y  c #184C09",
"T  c #164A0B",
"R  c #1A520A",
"E  c #1D5C0B",
"W  c #0F4115",
"Q  c #0A4219",
"!  c #0B4C1D",
"~  c #074B1A",
"^  c #144D13",
"/  c #144917",
"(  c #0E511B",
")  c #195B11",
"_  c #125519",
"`  c #165714",
"'  c #25511C",
"]  c #2D4C15",
"[  c #1E630D",
"{  c #1F6A0E",
"}  c #1C6312",
"|  c #226C0D",
" . c #22660C",
".. c #23710D",
"X. c #0E4B21",
"o. c #4D4203",
"O. c #4D430A",
"+. c #4F480B",
"@. c #594D03",
"#. c #53490B",
"$. c #515415",
"%. c #645604",
"&. c #665804",
"*. c #735611",
"=. c #4E690F",
"-. c #7C6218",
";. c #514629",
":. c #5B4C2C",
">. c #544528",
",. c #584837",
"<. c #584837",
"1. c #54482B",
"2. c #60512F",
"3. c #625533",
"4. c #695B36",
"5. c #6C5E38",
"6. c #63533A",
"7. c #6E603A",
"8. c #7E6D20",
"9. c #361140",
"0. c #551D62",
"q. c #5A2364",
"w. c #735E47",
"e. c #6C5349",
"r. c #7A634C",
"t. c #484A61",
"y. c #894D10",
"u. c #935E12",
"i. c #935311",
"p. c #895A12",
"a. c #877505",
"s. c #8E6418",
"d. c #A56615",
"f. c #BC6C17",
"g. c #B26D17",
"h. c #95681B",
"j. c #C36E17",
"k. c #C97118",
"l. c #C77117",
"z. c #816950",
"x. c #8D7358",
"c. c #997D5F",
"v. c #92785B",
"b. c #9A7E60",
"n. c #988306",
"m. c #A18B06",
"M. c #AA9206",
"N. c #A48666",
"B. c #AC8C6C",
"V. c #A68868",
"C. c #B1916F",
"Z. c #B69572",
"A. c #9E8263",
"S. c #C5A17B",
"D. c #CBA67F",
"F. c #CEAA7F",
"G. c #C29E79",
"H. c #7A288F",
"J. c #664981",
"K. c #8F3B8F",
"L. c #9C32B9",
"P. c #9A47BD",
"I. c #BC4EB8",
"U. c #D252B8",
"Y. c #AD38CD",
"T. c #BE3DE1",
"R. c #BB47E0",
"E. c #CB44EE",
"W. c #D745FF",
"Q. c #DB46FF",
"!. c #D144F6",
"~. c #CA41F0",
"^. c #E448FF",
"/. c #CCA780",
"(. c #CEA981",
"). c #D1AB83",
"_. c #D7B087",
"`. c #D391A2",
"'. c #CCBBAF",
"]. c #DED6CC",
"[. c #DED6CB",
"{. c #DFD8D0",
"}. c #D9CFC5",
"|. c #E0D7CE",
" X c #E1D9CE",
".X c #E5DDD5",
"XX c #E8DFD6",
"oX c #E7DFD8",
"OX c #E8DFD8",
"+X c #E0D7D0",
"@X c #E7E0D6",
"#X c #E8E0D7",
"$X c #E7E0D8",
"%X c #EBE2D9",
"&X c #EAE3D9",
"*X c #EAE2D9",
"=X c #EBE3DA",
"-X c #E9E2D8",
";X c #ECE3DA",
":X c #ECE2D9",
">X c #EBE4DA",
",X c #EBE4DB",
"<X c #EAE5DA",
"1X c #ECE5DB",
"2X c #ECE4DB",
"3X c #ECE6DB",
"4X c #EBE5DC",
"5X c #ECE5DD",
"6X c #EDE6DC",
"7X c #ECE7DD",
"8X c #EEE7DD",
"9X c #EEE6DD",
"0X c #EDE6DE",
"qX c #EEE7DE",
"wX c #EAE3DB",
"eX c #EFE8DE",
"rX c #EEE8DE",
"tX c #F0E9DF",
"yX c #F0E6DF",
"uX c #EFE7E0",
"iX c #EFE9E1",
"pX c #EFE8E0",
"aX c #F1EAE2",
"sX c #F2EBE5",
"dX c #F7F3ED",
/* pixels */
"%X.XXX.XXX%X#X%X%X@X.X#X#X%X%X.X.X%X#X.X.XXXXX.X.X.X.XXX%X#X#X%X%X%X%X%X%X%X@X%XeXpXeX%X%X%X#XeXeXeX%X%X%X%X%X%X%X%XeX%XeXeX%X@X#X#X.X X.X.X.X#XXXXXXXXXXX.X.XXX.XXXXXXX.XXX#X#X%X@X@X#X#X%X#X%X#X%X%X%XeX%X%XeX%X%X%X%X%X%X%X%X%X%X%X%X%X%X%X@X%X%X%X%X%X#X%XeX",
"%X#X#X.X.X#XXXXX%X%X#X#X@X@X%X%X.X.X%X.X.XXX.X.X.X.X#X#X#X#X%X@X@X%X%X%X%X%X%X%XeXaXaXeX%X#X@X%X%XtXaX%XeX%X%X%X%X%XeX%XeXtXeX%XXX#X%X.X|..XXX#XXX#X%X%X#X.X.XXX#X%X#X#XXX.X.X%X%X%X%X#X%X#XXX%X%X%X%X%X%X%X%XtX%X%X%X%X%X%X%XeX%X%X%X%X%X%X%X%X%X@X%X%X%X%X%X%X",
"%X%X%X#X.X.XXXXX%X@X%X%X%X%X%X%X%X%X%X%X.XXX.X.X.X.XXXXX#X#X#X#X#X.X@X.X#XeX%XOX.X.X#X%X#X%X%X%X%X#X%XeXeX%X%X%X%X%XeX%X%X%XeX%X%X%X.X.X.X#XXXXXXX#X%X%X#X.XXXXX%X%XXX#X.X.X]..X%X%X%X%X%X@X.X%X.X@X%X%X%X%X%X%X%X%X@X@X@X#X#X%X%X%X%XeX%X%X%X%X%X%X%X%X%X%X%X%X",
"%X%X%X#X%X#X.X.X.X@X#X%X%X%X%X%X%XaX$X%X.X.X#X.X.X.X.X#XXX.XXX%X%XXX.X.X#X@X#X%X%X@X.X%X%X%X%X%X%X%X%X%X%X%X%X%X#X%XeX%X%X%X%X%X%X#X.X.X.X.X.X.XXXXX#XXXXX.X.XXX%XXX.X.X%X.X.X.X%X@X#X%X@X%X#X%X.X#X%X%X#X%X%X%X%X.X#X#X.X#X%X%X%XtX%XeXeX%X%X%X%X%X%X%X%X%X%X%X",
"eXpX%X%X%XXX.X.X.X@X@X%X%X%X%X%X%X$X%X%X%X@XXX.X.X.X.X.X.XXX%X#X#X#X%X%X%X%X%XeX%X#X%X%X%X$X%XaXtX%X%X%X%X%X%X%X%X@X.X%X%X%X%X%X%X#X%X%X@XXX.XXXXXXX#XXX.X.X.XXXXXXXXX#X%X#X.X.X.X@X#X.X%X%X%X%X%X%X@X.X.X%X%X%X%X#X%X%X#X%X%X%X%X%XeX%X%X%X%X%X%X%X%X%X%X%X%XeX",
"%X%X%X%X%X%X#X.X.X@X@X%X%X%X%X%X%X.X%XpX%X%X.X.X.X.X#XXX#X%X#X#X#X%X.X%X%X%X#X%X%X%X%X%X%X%X%X%X%X%X%X%XeX%X%X%X%X@X@X%X%X%X%X%X%X%X%X%X#X.X.X.X.XXX#X%XXX.X.X#X#XXX.X#X#X#X#XXX#X%X%X#X#X#X%X#X%X@X.X#X.X%X%X%X%X%X%X%X#X.X%X@XeX%X%X%X#X%X%X%X%X%X%X%X%X%X%X%X",
"%X%X%X%X@X@X#X.X.X#X%X@X%X%X%X%X%X%X%X%X%X%X%X.X.X.X.X.X#X%X%X%X@X%X.XXX%XXX%X#X%X#X%X@X%X%X%X%X%X%X%X%X%X%XeXeX#X@X%X@X%X%X%X%X%X%X%X%XeX#XXX.X%X.XXX#X%X#X#X#X.XXX.XXXXXXX#XXX#X%X%X%XXXXX%X#X%X.X.XXX%X%X%X%X%X%X%X%X%X@X%X#XeXtXeX%X%X%X%X%X%XeX%XeX%X%X%X%X",
"%X%X%X%X@X.X#X.X.X.X.X%X%X%X%X%X%X%X%X%X%X%X%XXX.X.XXX.X@X#X%X#X.X#X.X#X#X%X%X%X.X.X%X%X@X#X#X%X%X%X%X%X%X%X%X%X%X#X%X%X%X%X%X%X%X%X%X%X%X%XXX.XXX#X%X%XXX#X%X%X.X.X.X.X.XXX.X.X%X#X.X%X%X%X.X%X%X.X.X.XXX%X%X%X%X%X%X%X#X#X%X%X%X%X%X%X%X@X%X%X%X%XeX%X%XeX%X%X",
"pXaXeX%X%X%XXX.X.X.X.X.X%X%X%X%X%X%X%X%X.X.XpX%X.X.X.X#X@X@X%X%X.X.X#X#X.X%X%X%X.X.X%X%X%X%X#X%X%X%X%X%X%X%X%X%XeXeX%X%X%X%X#X@X%X%X%X%X#X%X%X@X.X#X#X%X#X%X%X#X.X#X.X.X.XXX#X%X#XXXXX#X#X#X%X%X%X%X%X#X%X%X#X%X%X%X.X#X%X%X%X%X%X%X%X%X#X#X%X%X%X%X%X%X%X%X%X%X",
"%X%X%X%X%X%X.X.XXX.X.X.X.X@X%X%X%X%X%X%X%X%X%X$X.X.X.X#X#X%X%X%X#X.X.X.X#X#X#X.X.X.X#X%X%X%X%X%X%X%X%X%X%X%X%X%X@X%X%X%X%X%X%X%X%XaX%X%X%X@X%X%X#X#X#X%X#X%XXX.X.X#X#X.X.XXX#X%XXX.XXX%X%X.X#X%X.XXX%X#XXX#X%X%X%X%X.X%X%X%X%X%X%X%X%X%X#X#X%X#X@X%X%X%X%X%X%XeX",
"pXaX%X%X%X%X%X%X.X]..X#X@X.X@X#X@X%X%X%X%X%X%X$X@X.X.X%X%X%X%X.X#X.X.X.XXX%XXX.XXX.X@X%X%X%X%X%X%X%X%X%X%X$X%X%XXX.X%X%XeX%X%X%X%X%X$X%X%X%X@X%X%X%X%X.X.X#XXX.X.X.XXX#XXX.X.X.X%X.XXX#X%XXX.X%X#XXX.X.X.X.X%X%X.X#X%X%X%X#X%XeX%X.X.X@X.X.X.X#X#X%X%XeX%X%X%XeX",
"%X%X%X.XXX.X#X%X.XXXXX.X#X.X.X.X#X%X%X%X%X%X%X.X.X.X.X.X.X%X%X#XXX.XXX.X%X%X#XXX.X.X%X%X#X@X%X%X%X%X%X#X@X@X%X%X#X.X%X%X%X%X%XeX%X%X%X%X%X@X@X@X%X#X#X|..X#X.X.XXXXXXX.X#XXX.X.X#X.X.X.X.X#X%X%XXXXX.XXXXX.X#X#X.X%X.X.X%X#X#XaX%X.X%X.X.X.X#X#X%X%X%X%X%X%X#X%X",
"pX%X%X%X#XXX.X.X.X%X.X.X.X.X.X.X.X.X%X#X.X.X.XXXXX.X.X.X X.X%X%X%X.X.XXX%X#X%X%X.X.X.XXX%X%X#X%X#X%X@X%X.X%X@X#X%X%X%X%X%X%X%X%X%XeX%X%X%X@X%X%X#X#X.X|..X#X.XXX.X%X%X#X#XXX.XXX%X#XXX#X#X%X%X#X#X.XXXXX.XXX.X#XXX%X%X#X%X%X%X%X%X.X@X%X.X.XXX#X%X%X%X%X.X.X.X%X",
"pX%X%X.X.X.X.X.X%X#X%X.X#X.X.X#X.X.X.XXXXX.X.X.X#X%X.X.X.X.XXX.X%XXX#X.XXXXX%X%X%X.X.X.X.X.X.X.X@X%X%X%X%X%X%X%X#X%X%X%X%X%X%X#X%X%X%X%X%X%X%X%X@X@X.X#X%XXX.XXX.X#X%XXX#X.X.X#XXX#X#X%X%X%X%X.X#X#X#X#X.X.X#X%XXX.XXX%X%X%X%X%X%X@X.X#X#X.X.X#X#X%X%X%X.X#X%X%X",
"$X.X%XOX%X.X.X.X.X#X%X@X.X%X X.X%X.X.X.X.XXX@X#X@X#X.X.X.X.X.X.X.X#X#XXX.XXXXX%X.X.X#X.X.X.X.X#X.X%X%X%X%X%X%X#X#X#X%X%X%X%X%X%X%X@X.X@X%X%X#X@X%X%X#X#X%X#X.X.X.X%X%X.X@X@XXXXX%X#X#X%X%X%X#X%X#X%X%X@X#X#X.X#XXX#X#X%X#X%X%X%X%X%X#X@X%X#X@X@X.X.X%X%X%X%X@X%X",
"%X#X%X%X%X%X.X.X.XXX.X#X@X#X.X X.X#X.X.X.XXXXX.X.X.X#XXX.X%X#X.X.X.X.XXX.X#X#XXX.X.X.X%X#X.X.XXX.X#X%X.X.X#X#X#X#X#X%X%X#X%X%X%X%X%X%X%X%X%X%X%X%X%X@X.XXXXX.X.X.XXX%X.X@X%X#X.X%X%X#X#XXX.X%X@X@X%X%X%X%X%X.XXX.X.XXX%XXXXX%X%X%X#X%X%X%X%X%X%X.X.X#X%X#X#X#X%X",
"$X%X%X%X%X%X#X#X%X%X%X%X%X@X%X.X.X%X#X.X.X X.X.X X.XXX.X.X.XXX.X.X.X%X%X%X%X%X%X#X.X.X.X%X%XXX.X.XXX%X.X.X#XXX#X%X%X%X%X%X%X%X%X%X%X%X%X%X%X%X%X%X%X%X#X%X#X.XXX%X#X#X.X%X@X.X#X%X%X%X#X#X.X.X#X@X#X%X%X%X@X@XXXXX.X.X%X%X%X#X%X#X#X%X%X%X@X%X%X@X.X#X%X#X%X%X#X",
"%XaXpX%X%X%X%X%X%X%X%X#X$X%X%X@X%X#XXX.X X].].]. X.X.X.XXX.X.X#X@X%X%X%X%X%X%X%X%X%X%X.X.X%X%X.X.XXX#XXX#X.X.XXXXX#X%X%X%X%X%X%X%X#X#X%X%X%X%X#X@X%X%X%X@X@XXXXX%X%X%X%X%X%X%X%X%X%X%X%XXX#X.X.X.XXX#XXX#X%X%X@X%X.XXXXXXX%XXX%X%X#X%X%X%X%X%X#X%X%X#X%X%X.X.X%X",
"%X%X%X$X%XeX%X%X%X%X%X%X%X%X@X.X.X#X%X@X#X.X.X.X.X.X.X.X#X.X.X@X.X@XoX%X%X%X%X%X%X%X%X%X%X.X%X#X#X.X.X.X.X.X.X.X.XXX.X%X%X%X%X#X%X%X%X%X%X%X%X%X@X%X@X.X%X#X#X.X.X%X%X%X%X%X%X%X%X%X%X%X.X.X#X%X.XXXXX.X@X@X#X#X%X%X%XXX.X#X#X%X%X%X#X%X%X%X%X%X%X%X%X%X%X%X.X%X",
"%X%X%X%X%XeXeX%X%X%X%X%X%X%X@X@X.X.X%X                                                                                                                                                                                    %X#X#X%X%X%X%X%XeX%X%X%X%X%X%X%X%X%X%X",
"%X%X#X#X%XeX%X#X%X%X%X%X%X%X#X%X.X@X%X                                                                                                                                                                                    XX#XXX.X#X%X%X%X%X%X%X%X%X%X%X%X%X#X%X",
"%X%X@X.X%X%X%X@X%X%X%X%X%X%X%X%X%X%X%X          o 3 : : : : : : : : : : : : : : : : : : : : : : : : : : : : : : : : : : : : : : : : : : : : : : : : : : : : : : : : : : : : : : : : : : : : : : : : : : : : 3 o           XX#X#X%X.X@X%X%X%X%X%X%X%X%X%X%X%X%X%X",
"%X#X#X%X%X%X%X%X@X#X%X%X%X%X%X%X%X#X%X          k m.m.m.m.m.m.m.m.m.m.m.m.m.m.m.m.m.m.m.m.m.m.m.m.m.m.m.m.m.m.m.m.m.m.m.m.m.m.m.m.m.m.m.m.m.m.m.m.m.m.m.m.m.m.m.m.m.m.m.m.m.m.m.m.m.m.m.m.m.m.m.m.m.m.m.m.m.m.k           #X#X#X%X.X#X%X%X@X@X#X%X%X%X%X%X%X%X%X",
"%X%X%X%XeX%X%X#X%X%X%X%X%X.X%X%X%X%X%X          k M.m.m.m.m.m.m.m.m.m.m.m.m.m.m.m.m.m.m.m.m.m.m.m.m.m.m.m.m.m.m.m.m.m.m.m.m.m.m.m.m.m.m.m.m.m.m.m.m.m.m.m.m.m.m.m.m.m.m.m.m.m.m.m.m.m.m.m.m.m.m.m.m.m.m.m.m.M.k           %X%X%X#XXX.X#X%X%X%X%X%X%X%X%X%X%X%X%X",
"%X%X%XeX%X%X%X%X@X%X%X%X%X%X@X#X#X%X%X    o k k o.&.%.a.m.m.m.m.m.m.m.m.m.m.m.m.m.m.m.m.m.m.m.m.m.m.m.m.m.m.m.m.m.m.m.m.m.m.m.m.m.m.m.m.m.m.m.m.m.m.m.m.m.m.m.m.m.m.m.m.m.m.m.m.m.m.m.m.m.m.m.m.m.m.m.m.a.%.&.o.k k o     %X%X%X#X#X.XXX%X%X%X%X%X%X%X%X%X%X%X%X",
"eX%X%X%X%X.X%X%X%X%X#X%X@X@X#X#X#X#X%X    3 m.M.&.    @.m.m.m.m.m.m.m.m.m.m.m.m.m.m.m.m.m.m.m.m.m.m.m.m.m.m.m.m.m.m.m.m.m.m.m.m.m.m.m.m.m.m.m.m.m.m.m.m.m.m.m.m.m.m.m.m.m.m.m.m.m.m.m.m.m.m.m.m.m.m.m.m.@.    &.M.m.3     %X%X%X#X#X#X.X%X#X#X%X%X%X%X%X%XeX%X%X",
"%X%X%X%X%X%X%X%X#X%X%X%X%X%X%X@X%X%X%X    : m.m.%.    @.M.m.m.m.m.m.m.m.m.m.m.m.m.m.m.m.m.m.m.m.M.m.m.m.m.m.m.m.m.m.m.m.m.m.m.m.m.m.m.m.m.m.m.m.M.m.m.m.m.m.m.m.m.m.m.m.m.m.m.m.m.m.m.m.m.m.m.m.m.m.m.M.@.    %.m.m.:     %X%X%X%X%X%XXX%X%X#X.X@X%X%X%X%X%X%X%X",
"%X%X%X%X%X%X%X%X%X%X%X%X%X%X#X.X%X%X%X    : m.m.a.@.@.o.S S S S S S S S S S S S S S S S S S S S S S S S S S S S S S S S S S S S S S S S S S S S S S S S S S S S S S S S S S S S S S S S S S S S S S S S o.@.@.a.m.m.:     %X%X#X%X#X%X.X%X#X.X.X@X%X%X%X%X%X%X%X",
"aX%XeXpX%X%X%X%X%X@X%X%X%X#X%X#X#X#X@X    : m.m.m.m.M.S                                                                                                                                                 S M.m.m.m.m.:     %X%X.X@X@X%X.X@X#X.X%X%X%X%X%XeXeX%X%X",
"pXpXpXpXpXaXpX%X$X#X%X%X%X%X%X%X@X%X#X    : m.m.m.m.m.S                                                                                                                                                 S m.m.m.m.m.:     %X#X.X.X@X@X.X.X.X%X%X%X%X%X%XeXpX%X%X",
"pXpXpXpXpXpXaX%X%X%X%X%X%X%X%X%X#X%X%X    : m.m.m.m.m.S     u p p p p p p p p p p p p p p p p p p p p p p p p p p p p p p p p p p p p p p p p p p p p p p p p p p p p p p p p p p p p p p p p p p u     S m.m.m.m.m.:     %X.X.X.X@X#X.X.X#X#X%X%X%X%X%X%X%X%X%X",
"%XpXpXaXpX%X%XaXaXeX%X%X%X%X%X%X#X#X.X    : m.m.m.m.m.S     p ! ! ! ! ! ! ! ! ! ! ! ! ! ! ! ! ! ! ! ! ! ! ! ! ! ! ! ! ! ! ! ! ! ! ! ! ! ! ! ! ! ! ! ! ! ! ! ! ! ! ! ! ! ! ! ! ! ! ! ! ! ! ! ! ! ! p     S m.m.m.m.m.:     #X#XXXXXXX#X#XXX@X@X#X%X%X%XeXeX%X%X%X",
"%XeXaXaXaX%X%XpXuX%X%X%X%X%X%X#X#X.X.X    : m.m.m.m.m.S     p ! ! ! ! ! ! ! ! ! ! ! ! ! ! ! ! ! ! ! ! ! ! ! ! ! ! ! ! ! ! ! ! ! ! ! ! ! ! ! ! ! ! ! ! ! ! ! ! ! ! ! ! ! ! ! ! ! ! ! ! ! ! ! ! ! ! p     S m.m.m.m.m.:     #X%X%X%X%X%XXX#X%X@X%X%X%X%X%X%XpX%X%X",
"%X%X%X%X%X%X%XpXuX%X%X%X%X%X%X$X%X.X.X    : m.m.m.m.m.S     p ! ! ! ! ! ! ! ! ! ! ! ! ! ! ! ! } | | | | R   X X X X     X X X X X X X X X X       X   p ! ! ! ! ! ! ! _ | | | | | _ ! ! ! ! ! ! ! p     S m.m.m.m.m.:     %X%X%X%X%X%X.X.X%X@X%X%X@X%X%X%X%XpXpX",
"%X%X%X%X%X%X%XpX%X%X%X%X%X%X%X%X%X%X%X    : m.m.m.m.m.S     p ! ! ! ! ! ! ! ! ! ! ! ! ! ! ! ! [ | | | | R                                             p ! ! ! ! ! ! ! _ | | | | | _ ! ! ! ! ! ! ! p     S m.m.m.m.m.:     %X%X%X#X@XXXXX.X%X@X%X%X%X.X%X%X%X%XaX",
"%X%XuX$X%X%X%XpX%X%X%XuX%X%X%X%X%X%X%X    : m.m.m.m.m.S     p ! ! Q Q Q ! ! ! ( ( ( ( ( ( ( ( { | | E E U                                   o o       s Q Q ! ( ( ( ( ) | |  .E E / Q Q ! ! ! ! ! p     S m.m.m.m.m.:     #X@X%X#X.X.X.X].@X@X%X%X%X%XpX%X%X%X%X",
"%X%XpX%X%XuXuX%X%XpX%X$X%X%X%XaXaX%X%X    : m.m.m.m.m.S     p ! ! X   X ! ! _ | | | | | | | | | | [                                       - k k ;           [ | | | | | | ..w           Q ! ! ! ! p     S m.m.m.m.m.:     %XeX%X%X%X.X%X{.{.%X%X%X%X%X%XpXaX%X%X",
"%X%X%X%X%XpX%X%X%X%X%X$X%XpX%X%X%XaXpX    : m.m.m.m.m.S     p ! ! X   X ! ! _ | | | | | | | | | | [                                       - k k ;           [ | | | | | | ..w           Q ! ! ! ! p     S m.m.m.m.m.:     %XeX%X.X%X@X#X%X.X%X%X%X%X%X%XpX%X%X%X",
"%X%X%X%X%X%X%X%X%X%X%X%X%X%X%X%XpXpXuX    : m.m.m.m.m.S     q s s     X s s W | | | | | | | | } } )           1 L C C C C C C C C Z B     - k k ;           [ | | | | [ T Y q           / _ _ ! ! p     S m.m.m.m.m.:     %X%X%X%X%X%X.X@X.X%X.X%X%X%X%XpX%X%X%X",
"%X%X%X%X%X%X%X%XaX%X%X%X.X.X.X#XaXpX%X    : m.m.m.m.m.S                     q | | | | | | | | ( ! Q           ,._.).).).).).).).).).B.    - k k ;           [ | | | | T                 E | | ! ! p     S m.m.m.m.m.:     eX%X%X%X%X%X%X%X$X%X%X%XuXuXpX%X%X%X%X",
"%X%X%X%X%X%XpX%X%X%X%X%X.X.X.X.X%X%X%X    : m.m.m.m.M.S                     q ..............| ( ! Q           <.).D.D.D.D.D.D.D.D.(.N.    - k k ;           [ | | | | Y                 E | | ! ! p     S m.m.m.m.m.:     %X%X%X%X%X%X%X%X%X.X$X%XpX%XpX%X%X%X%X",
"%X%X%X%X%X%X%X%X%X%X%X%X%X%X.X%X@X%X%X    : m.m.m.m.m.S           & & &     % w w w w w w w w q r r     1 e.6.v.(.D.D.D.D.D.D.D.D.(.N.    o : : : : :       [ | | | | Y     X * *       E | | ) ) W     S M.m.m.m.m.:     %X%XeX%X%X%X%X%X%X%X.X%X%XpX%XuXpX%X%X",
"%X%X%X%X%X%X%X%X%X%X%X.X#X%X%X%X%X#X@X    : m.m.m.m.m.S           u a u                                 B ).).(.D.D.D.D.D.D.D.D.D.(.N.          3 k k o     [ | | | | Y     * a a O     E | | | | R     S m.m.m.m.m.:     %X%X%XpX%XeX%X%X%X#X$X%X%X%X%XpX%X%X%X",
"%XpX%X%X%X%X%X%X%X%X%X]..XeX%X%X%X@X.X    : m.m.m.m.m.S           u y r                                 B ).).).).).(.D.D.(.).).).).V.          3 k k o     [ | | | ..Y     & a y X     E | | | | R     S m.m.m.m.m.:     pX%X%XpX%XaX%X%X%X#X.X%X%X%XpX%X$X%X%X",
"%X%X%X%X%X%X%X$X$X$X%X.X.X%X%XpX%X%X.X    : m.m.m.m.m.S     * r r u y u r < u Y Y w < r X               # L C C C V c.(.D.,.C C C C I x.v.,.    3 k k o     = q q q q q r < r y y X     E | | | | R     S m.m.m.m.m.:     aX%X%XpXeX%X%X%X%X%X@X%X%X%X%X%X.X$X%X",
"%X%X%X%X$X%X%X%X%X%X$X$X$X%X%XuXpXaX%X    : m.m.m.m.m.S     r a y y y y y y W ....^ y a O                           r.).D.0         0 ).).z.    3 k k o               X a y y y y X     E | | | | R     S m.m.m.m.m.:     %X%X%XaX%X%X%X%X%X%X#X%X%X%X%X%X%X$X%X",
"%X%X%X%X%X%X.X@X.XoX.X.X$X%X%X%X%X%X%X    : m.m.m.m.m.S     r y y y y y y y W | | ^ y a O                           z.).D.z         z D.).z.    3 k k o               O y y y y y X     E | | | | R     S m.m.m.m.m.:     %X%X%XpX%X%X%X%X%X%X#X%X%X%X%X%X%X%X%X",
"%X%X%X%X%X@X.X.X@X.X.X.X%X%X%X%X%X%X%X    : m.m.m.m.m.S     r y y y y i [ [ [ | | | [ [ p r r           z C.C.6.    z.).D.C.B.B.B.B.C.D.).z.    3 k k o           r r u y y y y y X     X % % % % X     S M.m.m.m.m.:     pXpXpXpX%X%X%X%X%X%X%X.X%X%X%X%X%X%X%X",
"%X$X%X.XXX%X.X.X.X%X.X%X%X%X%X$X%X%X%X    : m.m.m.m.m.S     r y y y y s | | | | | | | | W y y           B ).).w.    z.).D././././././.D.).z.    3 k k o           y y y y y y y y X                     S m.m.m.m.m.:     pXaX%X%X%X%X%X%X%X$X%X@X@X%X%X%X%X%X%X",
"%X.X$X.X.X%X]..X.X%X%X.X%X%X%X%X%X%X%X    : m.m.m.m.m.S     r y y y y s | | | [ [ | | | W s s X         B (.).w.    z.).D.D.D.D.D.D.D.D.).z.    3 k k o         X y y y y y y y a &                     S m.m.m.m.m.:     %X%X%X%X%X%X%X%X@X%X%X%X.X%X%X%X%X%X%X",
"%X.X@X#X.X.X.X.X.X.X%X%X%X%X%X%X%X%X%X    : m.m.m.m.m.S     r y y y y s | | ) y y ^ | | | | | X         B (.).w.    z.).D.D.D.D.D.D.D.D.).z.    3 k k o     u u u y y y y y y y y u y y       u u r     S m.m.m.m.m.:     %X%X%X%X%X%X%X%X%X%X@X$X#XeX%X%X%X%X%X",
"%X%XXX#X.X.X.XXX%X@X#X%X%X%X%X%X%X%X%X    : m.m.m.m.m.S     r y y y y s | | ) y y ^ | | | | | X         v F.).r.    z.).(.D.D.D.D.D.D.D.).z.    3 k k o     u y y y y y y y y y y y y y       u y r     S m.m.m.m.m.:     %XpX%X%X%X%X%X$X%X%X%X@X.X%X%X%X%X#X%X",
"%X%X#X%X#X#X#X%X%X%X%X%X%X%X%X%X%X%X%X    : m.m.m.m.m.S     u p p p p W | | ) a a ^ } } } } } M 9.M M M q.`.`.e.    6.A.b.G.D.D.D.D.D.D.).z.    3 k k o     < r r y y s p p p p p s y y & X O u y r     S m.m.m.m.m.:     %XpXpX%X%XeXpX%X%X%X%X.X.X%X%X%XeX%X%X",
"%X#X#X%X%X%X.X.X%X%X%X%X%X%X%X%X%X#X@X    : m.m.m.m.m.S     R | | | | | | | } ! ! ! ! ! ! ! X.R.Q.Q.Q.Q.Q.W.Q.H.          N.(.D.D.D.D.D.).z.    3 k k o           y y W | | | | | W y y y y y y y r     S m.m.m.m.m.:     %XuX%X%X%X%X%XeX%X%X%X.X.X%X%X%X%XeX%X",
"%X%X%X%X%X%X%X%X%X%X#X%X%X%X%X%X%X%X%X    : m.m.m.m.m.S     R | | | | | | ..} ! ! ! ! ! ~ ~ ! R.Q.W.W.W.W.W.Q.H.          N.(.D.D.D./.)._.z.    3 k k o           y y W | | | | ..W y y y y y y y r     S m.m.m.m.m.:     aXaXpX%X%X.X%X%X%X%X@XXX.X.X%X%X%XeX%X",
"%X%X%X.X%X%X%X%X%X%X%X$X%X$X%X%X%X%X%X    : m.m.m.m.m.S     U } ) ) ) ) e e U ! ! ! ! ! t.J.J.E.Q.W.W.W.W.W.Q.Y.q.q.N     N.(.D.D./.Z.w.r.I     3 k k 3 ; ;       y y W | | E ^ ^ p y y y y y y y r     S m.m.m.m.m.:     %X%XpX%X@X%X%X%X@X%X@X.X.X#X%X%X%XeX%X",
"%X%X%X%X%X%X#X%X%X@X#X@X%X%X%X%X%X%X%X    : m.m.m.m.m.S     p ! ! ! ! Q     & ! ! ! ! ~ P.^.Q.Q.W.W.W.W.W.W.W.Q.Q.^.0.    N.(.D.D.(.N.          3 k k k k k       y y W | | ^ y y y y y y y y y y r     S m.m.m.m.m.:     %X.X%X%X%XeX%X%X%X%X@X@X@X@X%X#X#X%XeX",
"#X%X%X%X%X%X#X#X%X%X@X#X%X#X#X%X%X#X%X    : m.m.m.m.m.S     p ~ ~ ! ! Q     & ~ ~ ~ ~ ~ P.Q.W.W.W.W.W.W.W.W.W.Q.Q.^.0.    B.).).).).B.          3 k k k k j       y y W | | ^ y y y y y y y y y y r     S m.m.m.m.m.:     %X%X%X%X%X%XaXaX%X%X%X%X#X.X%X%X@X.X%X",
".X#X%X%X#X%X.X@X%X@X%X.X.X%X%X#X@X$X%X    : m.m.m.m.m.S     #.s.-.q * *     5 s.-.-.-.-.I.Q.W.W.W.W.W.W.W.W.Q.L.0.0.A     C I I I I C           3 k k k k k       y y W | | ^ y y y y y y y y y y r     S m.m.m.m.m.:     %X%X%X%X%X%XpXeX%X%X%XeX%X@X.X%X#X.X#X",
"%X%X.X.X%X.X.X@X%X%X%X%X#X@X%X#X@XoX%X    : m.m.m.m.m.S     i.k.f.@         h k.j.j.j.l.U.W.W.W.W.W.W.W.W.W.Q.H.                                3 k k k k k       y y W | | ^ y y y y y y y y y y r     S m.m.m.m.m.:     %X#X%X%X%X%X%X%X%X%X%X%X%X%X%X%X#X#X#X",
"%X%X%XXX#X#X@X@X.X%X#X%X@X@X%X%X%X%X%X    : m.m.m.m.m.S     i.j.f.@         h k.j.j.j.j.U.Q.Q.W.W.W.W.W.W.W.Q.H.                                3 k k k k j       y y W | | ^ y y y y y y y y y y r     S m.m.m.m.m.:     .X#X%X@X#X%X%X%X%X%X%X%X%X%X%X%X.X%X%X",
"#X%X%X.X.X#X.X.X#X.X%X#X@X#X%X%X@X.X#X    : m.m.m.m.m.S     i.j.f.@         o 7 7 7 7 7 A N N T.Q.W.W.W.W.W.Q.K.f f @     z.V.N.N.N.N.N.B.e.    3 k k k k j     X E [ [ | | ^ y y ^ [ [ [ [ ) a y r     S m.m.m.m.m.:     .X%X%X%X#X%X@X%XeX%X%X%X%X%X%XeXeX%X%X",
"XX#X%X.X.X%X%X.X#X#X#X#X#X#X@X@X.X#X%X    : m.m.m.m.m.S     i.l.f.@                           T.Q.W.W.W.W.W.Q.K.j k -     V.).(.(.F.(.(.).z.    3 k k k k j     % | | | | | ^ y y ) | | | | [ a y r     S m.m.m.m.m.:     .X.X%X%X%X%X%X%X%X%X%X%XeX%X%X#X%X%X%X",
".X%X%XXX#X.X%X#X.X@X#X#X%X#X@X@X#X#X@X    : m.m.m.m.m.S     y.f.g.;                           Y.~.E.E.E.E.E.!.K.j j -     N.(.D.D.D.D.D.).z.    3 k k k k j     % | | | | | ^ u u R  . .| | [ a a r     S m.m.m.m.m.:     .XXX%X%X%X%X%X%X%X%X%X%X%X%X%X%X.X#X%X",
"oX%X%X%X#X.XXXXX.XXX#X%X%X#XXX.XXX X%X    : m.m.m.m.m.S     o o o D O.O.O.O.j                 2 2 2 G G G G G 6           N.(.D.D.D.D.D.).z.    3 k k k k j     % | | ) a i *         X E | | ! ! p     S m.m.m.m.m.:     XXXX%X%XXX%X%X%X%X%X%X%X.X%X%X%X.X%X%X",
".X.X.X.X.XXX.X.X%X#X%X%XXX%X%X#X.X#X#X    : m.m.m.m.m.S           O.#.#.#.#.l                       j k k k k 3           N.(.D.D.D.D.D.).z.    3 k k k k j     % | ..) y a &           E | | ! ! p     S m.m.m.m.m.:     .XXX%X%X%X%X%X%X%X%X%XXX#X%XXXXX#X%X%X",
".X@X%X.X.X.X.X.X%X@X#X%X%X%X%X%X%X%X@X    : m.m.m.m.m.S           O.#.#.#.#.l o @ @ @ @ ; 7 7       f f j k k 3     1 z z B./.D.D.D.D.D.).z.    3 k k k k j     X R E T r r &           E | | _ _ p     S m.m.m.m.m.:     .X.X.X.X.X.X.X@X%X%X%XXX%X%X#X.X.X%X%X",
".XOX%X.X.X.X%XXX.X%X%X%X%XOX%X%XOX%X%X    : m.m.m.m.m.S           O.#.#.#.#.#.#.#.#.#.#.d.j.f.;         o k k 3     z.).D.D.D.D.D.D.D.D.).z.    3 k k k k j                             E | | | | R     S m.m.m.m.m.:     .XXX.X.X.X.X.XXXXX%X%X%X%X%X#X.X.X%X%X",
".X.X.X X.XXX.X.X@X%X%X%X%X.X.XOX%X%X%X    : m.m.m.m.m.S           O.#.#.#.#.#.#.#.#.#.#.d.k.j.$         o k k 3     z.).D.D.D.D.D.D.D.D.).z.    3 k k k k k                             E ..| | ..R     S m.m.m.m.m.:     .X.X.X.X.X.X.X.X.X%XXX.X#X#XXX.X.X#X%X",
".X.XXX@X.X.XXX#X%X.X@X.XXX.X.X.X.X#X.X    : m.m.m.m.m.S     - : 3 O.#.#.#.#.#.#.#.#.#.#.p.u.u.h : :     o f f -     z.).D.D.D.D.D.D.D.D.).z.    - f 3 3 3 3                             e U U U U w     S m.m.m.m.m.:     .X.X.X.X.X.X.X.X.X%X.X X#X#X#XXX#X%X%X",
".X.X%X%X.X.XXX.X#XXXXX%XXX.X.X.X.X.XXX    : m.m.m.m.m.S     D #.#.#.#.#.#.#.#.#.#.#.#.#.#.+.#.#.#.O.                z.).D.D.D.D.D.D.D.D.).z.                                                            S m.m.m.m.m.:     .X.X.XXX.X.X.X.X.X#XXX%XXX.XXX%XXX%X%X",
".X$X%X%X%X#X.X.XXXXX.X%X%X.X.X#XXX.X.X    : m.m.m.m.m.S     D #.#.#.#.#.+.+.+.+.+.+.+.+.#.#.#.#.#.O.                r.).D.D.D.D.D.D.D.D.).z.                                                            S m.m.m.m.m.:     %X.X.X.X.X%X%XXXXX.XXX.X.X.X.XXXXX.X%X",
".X.X%X%XeX%X.X%X%X#X@X%X#X%X%XXX.XOXXX    : m.m.m.m.m.S     m ] ] ] ] ] u.u.u.u.u.u.u.u.%.#.#.f f 3           v r.w.B.(.D.D.D.D.D.D.D.D.).z.                ; , , , , , , , o           r u u u u r     S m.m.m.m.m.:     %X%XoX.X.X.X.X.X.X@X#XXX.X.X.X.X#X%X%X",
".X$X%X%X#X%X%X%X%X%X#X%XXX#X#X#X.X.XOX    : m.m.m.m.m.S     p ! ! ! ! ' j.j.j.j.j.j.j.k.*.+.#.o               ,._.).(.D.D.D.D.D.D.D.D.D.).z.                8 g g g g g g g ;           Q ! ! ! ( p     S m.m.m.m.m.:     %X%X$X$X$X%X.X.X.X@X%X#X#X#X.X.X#X%X%X",
".X$X%X%X%X%X%X%X%X%X@X%X#X#X#X%X.X.X.X    : m.m.m.m.m.S     p ! ! ! ! ' f.j.j.j.j.j.j.j.*.#.#.o               ,.).D.D.D.D.D.D.D.D.D.D.D.).z.                6 g g g g g g g ;           Q ! ! ! ! p     S m.m.m.m.m.:     %X%X%X%X$X.X.X.X.X#X#X.X%X%X.X#X.X#X%X",
".X%X%X%X#X%X#X%X%X%X%X%X#X@X%X%X%X$X.X    : m.m.m.m.m.S     p ! ! ! ! ' f.j.j.j.j.j.j.l.H - -                 ,.).D.D.D.D.D.D.D.D.D.D.D.).z.    z ;.;.;.;.;.>.>.>.>.>.>.>.>.F 4 6 o     % % * } } T     S m.m.m.m.m.:     %X%X%X%X%X$X.X.X.X.X.X.X@X%X#X%X#X@X%X",
"XX.X@X%X@X%X@X@X%X%X%X.X.X.X%X%X%X%X$X    : m.m.m.m.m.S     p ! ! ! ! ' f.j.j.j.j.j.j.l.h                     ,.).D.D.D.D.D.D.D.D.D.D.D.).z.    C 7.5.5.5.5.5.5.5.5.5.5.5.5.P g g @         X | | R     S m.m.m.m.m.:     %XpX%X%X%X%X$X%X%X|.].#X@X.X%X%X%X%X@X",
"%X%X%X%X%X@X.X%X%X%X#X X{.@X.X%X%X%X%X    : m.m.m.m.m.S     p ! ! ! ! ' f.f.f.j.j.f.f.j.h                     <.D.S.D.D.D.D.D.D.D.D.D.D.).z.    n 5.4.4.4.4.4.4.4.4.4.4.4.4.K 8 g @         X | | R     S m.m.m.m.m.:     %XpXpX%X%X%X%X%X@X#X.X.X.X.X%X%X%X%X.X",
"%X%X%X%X%X%X%X%XXX#X.X.X.X#X.X.X%X%X%X    : m.m.m.m.m.S     p ! ! ! ! ! / _ $.j.k.J o @                       o > # z.).D.D.D.D.D.D.D.D.).z.    n 5.5.F x x x x x x x x x x b g g @         X | | R     S m.m.m.m.m.:     %X%X%X%X%X%X%X%XoX.X.X.X.X.X.X%X%X.X.X",
".X#X#X@X%XeX%X@X%X%X#X%X%X%X.X.X.X%X%X    : m.m.m.m.m.S     p ! ! ! ! ! ! ~ $.j.k.J                                 z.).D.D.D.D.D.D.D./.).z.    n 5.5.F g g g g g g g g g g g g g @         X | | R     S m.m.m.m.m.:     %X%X%X%X%X%X%X%X%X.X.X.X.X%X].]..X.X.X",
"#X%X#X@X%X%X%X%X%X%X#X.X%X#X.X.X|..X%X    : m.m.m.m.m.S     p ! ! ( ( ( ( ( $.j.k.J                 o   o # # o     z.).D.D.D.D.D.D.S.B.C.w.o o K 5.5.F g g g g g g g g g g g g g @         X E E U     S m.m.m.m.m.:     $X.X%X%X%X%X%XuXuX%X.X.X.X.X.X.X.X}.+X",
"#X%X%X%X%X%X%X%X%X%X#XXXXX%X.X.X.XXX%X    : m.m.m.m.m.S     p ! ! { | | | { =.j.k.J           6 g g g g F 4.5.n     z.).D.D.D.D.D.(.N.    z 5.4.4.4.5.F g g g g g g g g g g g g g g g g                 S m.m.m.m.m.:     .X#X#X%X%X%X%X%XpXpX%X%X$X$X$X%X.X.X.X",
"#X#X#X%X%X%X%X%X%X%X%X%XXXXXXX.X%X%X%X    : m.m.m.m.m.S     p ! ! | | | | { =.k.k.J           6 g g g g F 5.5.n     z.).(.(.(.(.(.).V.    z 5.4.5.5.5.F g g g g g g g g g g g g g g g g o               S m.m.m.m.m.:     .X.X@X%X%X$X%X%X%X%X%X%X%X$X%X$X.X.X%X",
"XX%X%X%X%X%X%X%X@X%X%X#X#X#X.X#X.X%X%X    : m.m.m.m.m.S     W _ _ | | | | | =.y.y.H           6 g g g g F 5.5.n     ,.v.x.x.x.x.x.x.r.0 1 n 5.4.3.>.>.x g g g g g g g x F F x g g g g g o               S m.m.m.m.m.:     .X.X.X%X$X%X%X%X%X%X%X$X.X.X%X.X.X.XoX",
"%X%X%X%X%X%X%X%X%X%X@X%X%X%X%X%X.X.XOX    : m.m.m.m.m.S     R | | | | | | | T                 6 g g g g F 5.5.n                     # 5.5.5.4.5.G 8 8 g g g g g g g g F 5.7.P 8 g g g g o               S m.m.m.m.m.:     %X%X$X$X$X%X%X%X%X%X$X$X%X%X$XoXoXoX.X",
"%XoX%X#X%X%X%X%X%X%X#X%X%X%X%X@X#X.X.X    : m.m.m.m.m.S     R | | | | | ....Y                 6 g g g g F 5.5.n                     > 4.4.5.5.7.K 8 g g g g g g g g g F 5.5.K 8 g g g g o               S m.m.m.m.m.:     .X%X.X$X%X%X%X%X%X%X%X%X%X.X$X$X%X%X%X",
"OX.X%X%X%X@X%X%X%X%X%X%X%X.X%X.X%X.X.X    : m.m.m.m.m.S     R | | | |  .w w q     o ; ; o     @ ; ; ; $ z 5.5.K @ ; z v v o         > 4.5.2.K P F g g g g g g g g g g F 5.5.K 8 g g g g                 S m.m.m.m.m.:     $X%X.X%X%X%X%X%X%X%XuX%X%X.X%X%X%X%X%X",
".X.X.X$X.X.X$X%X%X%X%X%X.X.XoXOX%X.X%X    : m.m.m.m.m.S     R | | | | E           ; g g @               , 5.5.>.g g >.7.5.>         > 4.5.>.8 8 g g g g g g g g g g g F 5.5.K 8 g g g g                 S m.m.m.m.m.:     .X%X.X%X%X%X%X%X%XuX%X%X%X%X%X%X%X$X.X",
"%X.X.X.X.X$X%X%X$X%X$X%X$X%X.XoX%X%X$X    : m.m.m.m.m.S     R | | | | E           ; g g o               , 7.7.>.g g >.7.5.>         > 4.5.;.8 g g g g g g g g g g 8 8 F 5.5.K 8 g g g g o               S m.m.m.m.m.:     %X%X.X%XaX%X%X%X%X%XpX%X%X%X%X%X%X%X%X",
".X.X.X.X%X.X.X%X%X%X%X%X%X%XoXOX%X%XOX    : m.m.m.m.m.S     R | | ) _ /           z >.>.b 4 4 4 4 4     o 0 0 , o o , 0 0       K K ;.4.5.;.8 g g g g g g g g g x >.>.>.4.5.K 8 g g g g o               S m.m.m.m.m.:     %X%X%X%X%X%X%X%XpXuX%X%X%X%X%X%X%X%X%X",
"$X$X$X%X%X.X.X.X.X.X$X%X.X.X.X%XOX.XOX    : m.m.m.m.m.S     R | | ! ! p           v 7.5.F g g g g 8                             4.5.5.4.5.;.8 g g g g g g g g g x 4.5.5.4.5.K 8 g g g g o               S m.m.m.m.m.:     .X%X%X%X%X%X%X%X%X%X.X%X%X%X%X%X%X%X$X",
"%X%X.X$X%X.XoX.X.X.X.X%X%X$X.XOXOXOXOX    : m.m.m.m.m.S     R | | _ ! Q           v 5.5.F g g g g 6                             3.4.4.4.4.>.8 g g g g g g g g g x 4.4.4.4.5.K 8 g g g g                 S m.m.m.m.m.:     $X%X%X%X%X%X$X%X%X%X%X%X%X%X%X%X%X%X%X",
"OX.X.X.X.XoX.X.X.X.X.X$X.X.X.X%X%X%XOX    : m.m.m.m.m.S     R | | h.d.u.    o 6 6 K 5.5.F g g o         z C.B.B.B.C.L           3.4.3.x x x g g g g g g g g g g x 4.5.>.x x x g g g g g                 S m.m.m.m.m.:     %X$XoX%X%X$X.X$X$X%X%X%XuX%X%X%X%XOX%X",
".X.X%X%X.X.X.X.X.X.X.X.X.X$XOX.X%XOX%X    : m.m.m.m.m.S     R | | g.j.d.    @ g 8 P 5.5.F g g           B )./././.).I           3.4.2.g g g g g g g g g g g g g x 4.5.>.8 g g g g g g g o               S m.m.m.m.m.:     %X.XOX%X%X$X.X.X%X%X%X%X%X%X%X%X%X%X%X",
"OX.XoXoX%X.X.X%X%X$X$X.X%X%X.X.X.X%X%X    : m.m.m.m.m.S     R | | d.g.u.    o 8 6 K 5.5.G x x o     > # L (.D.D.D.).,.# >       3.4.2.g g g g g g g g g g g g g x 4.5.>.x x b g g g g g o               k n.a.n.m.m.:     %X.XOXOXOX%X%X%X%X%X%X%X%X%X%X%X%X%XOX",
"OXOXOX%XoX.X%X.X%X$X$X%X.XOX$X.X.X%X$X    : m.m.m.m.m.S     R | | _ ( Q           v 5.4.4.4.4.#   > Z.S.S.D.D.D.D./.S.S.S.0     3.4.2.g g g g g g g g g g g g g x 4.4.4.4.4.K 8 g g g g o                     &.m.m.:     %X.X.X.XOXoX.XOX%X%X%X%X%X%XoX$X$X%X%X",
"%XOX%X%XOX.X%X%X%X.X.X%X%XOX%X.X.X.X.X    : m.m.m.m.m.S     R ..| ( ! Q           v 7.5.5.5.4.#   > S.(.(.(.(.(.(.(.(.(.(.z   o 3.4.2.g g g g g g g g g g g g g x 4.5.5.5.7.>.g g g g g o                     %.m.m.:     %X$X.X.X%X.X.X.X.XoX%X%X.X.X.X$X$X$X%X",
"%X%X.X.X.X%X%X%X%X%X$X%X%X%X.XoX%X$X$X    : m.m.m.m.m.S     e R R p p s           z ;.;.;.;.;.o   # c.c.c.c.c.c.c.c.c.c.b.1   o 3.5.>.5 5 5 5 5 5 5 5 5 5 5 5 5 6 ;.;.;.;.;.v 4 5 5 5 5                       %.m.m.:     $X.X%XoXoX$X.X.X.X%X%X.X$X.X.X$X$X.X$X",
"%X%X.X%X%X%X%X%X%X%X%X$X$X%XoX$X$X%X%X    : m.m.m.m.m.S                                                                         3.5.1.                                                                        %.m.m.:     %X.X%X.X.X.X.X.X$X%X$X%X%X%X$XoX%X%X%X",
"%X$X$X%X%X%X%X%X%XuX%X%X.X.X$X%X%X%X%X    : m.m.m.m.M.S                                                                         3.5.1.                                                                        %.m.m.:     %X%X%X.X.XoX.X$X%X$X%X$X%X%X$X$X%X%X%X",
"$X%X%X%X%X%X%X%X%X%X%X%X.X.X.X%X.X%X$X    : m.m.a.@.@.o.S S S S S S S S S S S S S S S S S S S S S S S S S S S S S S S S S S S S 8.s.-.S S S S S S S S S S S S S S S S S S S S S S S S S S S S S S S S S f     %.m.m.:     %X$X%X.X.X@X%X$X$X$X.X.X%X%X%X%X%X%XpX",
"%X%X$X$X%X%X%X%X$X%X$X.X$X$XXX.X.X.X%X    : m.m.%.    @.M.m.m.m.m.m.m.m.m.m.m.M.m.m.m.m.m.m.m.m.m.m.m.m.m.m.m.m.m.m.m.m.m.m.m.m.m.m.m.m.m.m.M.M.m.m.m.m.m.m.m.m.m.m.m.m.m.m.m.m.m.m.m.m.m.m.m.M.m.m.m.M.@.    %.m.m.:     %X%X%X%X%X.X@X%X$X.X.XoX.X$X$X%X%X%X%X",
"%X%X%X%X%X%X%X%X%X%X.X.X.X$X.X.X.X%X%X    3 m.M.&.    @.m.m.m.m.m.m.m.m.m.m.m.m.m.m.m.m.m.m.m.m.m.m.m.m.m.m.m.m.m.m.m.m.m.m.m.m.m.m.m.m.m.m.m.m.m.m.m.m.m.m.m.m.m.m.m.m.m.m.m.m.m.m.m.m.m.m.m.m.m.m.m.m.@.    &.M.m.3     %X%X%X%X%X%X.X.X%XoX.X.X.XoX$X%X%X$X%X",
"OXOX%X%X$X.X%X.X.X%X.X.X.X.X.XOX%X.X$X    o k k o.&.%.a.m.m.m.m.m.m.m.m.m.m.m.m.m.m.m.m.m.m.m.m.m.m.m.m.m.m.m.m.m.m.m.m.m.m.m.m.m.m.m.m.m.m.m.m.m.m.m.m.m.m.m.m.m.m.m.m.m.m.m.m.m.m.m.m.m.m.m.m.m.m.m.m.a.%.&.o.k k o     %X%X%X%X%X%X%X.X$X%X.X$X$X%X%X.X.X.X%X",
"%X%X%X$X$X.X%X.X.X.X%X$X.X.X.XOXOX%X$X          k M.m.m.m.m.m.m.m.m.m.m.m.m.m.m.m.m.m.m.m.m.m.m.m.m.m.m.m.m.m.m.m.m.m.m.m.m.m.m.m.m.m.m.m.m.m.m.m.m.m.m.m.m.m.m.m.m.m.m.m.m.m.m.m.m.m.m.m.m.m.m.m.m.m.m.m.m.M.k           %X%X%X%X%X%X%XoX%X%X.X.XoX%X%X$X.X.X%X",
"%XOX.X%X%X$X%X%XOX.X.X$X.X.X.X%XoX.X.X          k m.m.m.m.m.m.m.m.m.m.m.m.m.m.m.m.m.m.m.m.m.m.m.m.m.m.m.m.m.m.m.m.m.m.m.m.m.m.m.m.m.m.m.m.m.m.m.m.m.m.m.m.m.m.m.m.m.m.m.m.m.m.m.m.m.m.m.m.m.m.m.m.m.m.m.m.m.m.k           %X%X%XuX%X%X%X%X.X$X%X%X$X%X%X$X.X.X%X",
"%X%X%X%X%XoX%X%X%X.X%X.X$X%X.X.X%X%X%X          o 3 : : : : : : : : : : : : : : : : : : : : : : : : : : : : : : : : : : : : : : : : : : : : : : : : : : : : : : : : : : : : : : : : : : : : : : : : : : : : 3 o           %X%X%X%XpX%X%X%X$X.X%X%X%X$X%X.X.X$X%X",
"%X%X%X%X$X$X%X%X%X%X%X%X%X%X%X%X.X%X%X                                                                                                                                                                                    %X%X%X%XpX%X%X$X$X%X$X$X%X%X%XoX$XoX%X",
"%X.X%X%X$X%X%X%X%XaX%X{.%X%X%X%X$X%X%X                                                                                                                                                                                    uX%X%X%X.X$X$X.X.X%X%XoXoX$X$X$X%X$X%X",
"%X.X$X%X%X%X%X%X$X%X%X$X%X%X%X%X%X%X%X%X%X%X%XuX%X%X%XaXaX%X$X%X%X%X%X%X%X%X%X%X%X#X.XXX%X.X.X.XOX.X.X.X%X$XoX.X$X%X%X%X%X%XpX%X%X%X%X%X%X%X%X%X%X%X%XOX%X%X%X#XXX%X%X.X.X.XoXOX%X%X%X%XOXOX%X$X%X%XXX%X%X%XpXuX%X%X%X%X$X%X%X%X%X$X%X%X$X.X$X%X.X.X$X%XuX$X.X%X",
"$XoX%X%X%X%X%X%XpX%XoX.X.X.X%X%X%X%X%X%X%X%X%X%X%X%X%X%X%X%X$X%XuX%X%X%X%X%X%X%X#X.X.XXX#X.X.X.X%X%X.X$X$X.X.X$X%X%X%X%X%X%X%XuX%X%X%X%X$X%X%X$X%X%X%XoX.X.X#X%X%X%X%XOX.X.XoX.X%X%X%X%X%XOX%X%X%X%X%X%X%X%X%X%X%X%X$X%X.X%X%X%X%X$XpX%X$X.X$X%X$X$X%X%XpX%X%X%X",
"%X%X%X%X%X%X%X%X%X%X%X.X.X.X.X@X%XoX%X%X%X%X%X%X%X%X%X%X%X%XpXpXpX%X%X%XaX%X%X%X.X.X.X.X.X%X.X.X$X.X.X%X.X$XoX.X.X.X%X%X%X%X%X%X%X%X%X%X%X%X%X.X$X%X%X.X.XOX%X%X.X#X%X.XXXXX%XXX.X.X%X%X%X#X%X%X%X%X%X%X%X%X%X%X%X.X$X%X%X%X$X%X$X.X%X%X%X.X%X%X.X$X%X$X.X%X%X%X",
"%X%X%X%X%X%X%X%X%X%X$X.X|..X.X%X%X$X.XpXuX%XpX%X$X%X%X%XuXuX%X%XeXpXpX%X%X%X%X%X%X$XoX.X$X%XOXoX$X.X.X%X%X%X%X.X.XXX%X%X%X%X%X%X%X%X%X%X%X%X%X%X$X%X%X$XOX%X#X.X.X.XXXXX#XXX.XXX.X%X%X%X.X@X%X.X%X%X%X%X%X%X%X%XOX%XoX%X%X%X%X%X$XoX%X%X%X%X%X%X.X.X%X%X.X.X.XoX",
"$X.X%X%X%X%XpX%X%XaX%X.X.X.X%X%X%X%X%X%XuX%X%X$X%X%X%X%X%X%X%X%X%X%XpXpX.X%XuX%X%X%X%X$X%X%XoX$X.X.X.X%X.X%X$X.X.X#XoXoX%X%X%X%X%X%X%X%X%X%X%X%X%X%X$X%X%X%X%X%X#X%X%X.X%X.X.XXX#XXXoX%X@X%X%X$X%X$X%X$X%X%X%X%X%X%X%X.X$XuX%X%X%X%X%X%X$X.X.X%X.X.X$X$X.X.X.X%X",
".X.X%X%X%X%X%X%X%X%X%X.X%X.X$X%X%X%X%X%X%X%X%X%X%X%X%XpX%X%XpX%X%X%X%XpXuX%X%X$X$X%X%X%X%X%X%X.X.X.X.X%X.X.X$X%X.X{..X.X.X$X%X%X%X%X%X%XpX%X%XOX%X%X%X@X%X%X%X%X%X#X%XXX.X.X%X%X%X%X.X%X@X#X#X%X%X%X%X.XOX%X%X%X%X%X%X%X%X%X%X%X%X%X%XuX$X.X.X@X.X@X%XoX.XoX%X%X",
"%X%X%X%X%X%X%X%X%X%XoX.X%X%X%X%X%XpX%X%X%X%X.X%XuXaX%X%X%X%XpXeX%X%X%X%XpX%X%X%X%X%X%X%X%X%X%XOXOX.X$X%X{..XoX.X.X.X%X.X.X.X%X%X%X%X%X%X%X%X%X%X$X%X%X%X%X%X%X.X.X#X%X%X.X.X.X%X%X$X$X@X.X%X%X#X.X%X$X$X%X%X%X%X%X%X$X%X%XuX%X%X%X%X%X%X$X.X.X.X.X.X.X%X.X.X.X%X",
"%X.X%X%X%X$X%X$X%X%X.X$XpXpX%X%XpXpX%X%X%X%X%XpX%XpXpX%X%X$X%X%X%X%X%X%X%X%X%XpX%X%X%X%X%XXXXX%X%X.X.X.X.X$X$X.XoX.X%X%X%X$X$X%X%XoXoX$X%X%XoX%X%X%X%X%X@X%X#X.X X.X%X%X.X%XXX.XoX$XoX%X%X@X@X%X%X@X%X$XoX%X%X.XuX%X%X%X%X%X%X%X%X%X%X%X$X@X.X.X.X.X.XoX.X$X@X$X",
".X.XoX.X.X%X%X%X%X%X%X%X%X%X%X%XpXpX%XpX$X%XaXsXpX%X%X%XpX%X%X%X%X%X%X%X%X%X%X%X%X%X%X%X%X$X.X%X%X.X.X%X%X%X%X%X.X%X$X.X%X%X%X%X%X.X$X$X%X%X%X%X%X%X%X%X%X%X#XXX#X#X#X%X%X%X%XOX.X$X%X%X%X%X.X%X%X%X%X%X%X@X@X%XpX%X%XpX%X%X%X%XpX%XoX$X%X%X$X.X.X.XXX]..X$X$X%X",
".X%X%X.X.X.X%X$X%X%X%X%XpX%X%X%X%XpXpXaX%X$XuXsXuX%X%X%X%XuXuXpXpX%X%X%X%X%X%XpX%X%X%X%X%X.X%X%X%X$X.X%X.X.X.X.X@X%X.X%X%X%X%X%X%X%X{.$X$X%X%X%X%X%X%X%X%XOX%X#X.X.X@X%X%X%X%XOX%X%X%X$X@X%X%X%X%X%XOX.X@X#X%X%X%X%X%XaX%X%X%X%X%X%X$X%X%X%X%X@X.X.X.X]..X.X%X%X",
".X%X%X.XOXoX%X%X%XpXpX%X%X%X%X%X%XaX%X%XaX%X%X%X%X%X%X%X%XaX%X%X%X%X%X%XaX%X%X%X%X%X$X$X%X@X@X%X$X$X.X.X.X$X{..X%X.X.X%X%X%X$X%X%X%X$X.X.X%X%X%X%X%X%X%X%X%X.X%X.X%X%X%X%XOX%X%X%X%X%X@X%X%X@X%X%X%X%X.X.X#X#X%X%X%X$XaXpX%X%XoX%X%X$X%X%X%X%X%X.X.X.X.X%X.X.X.X",
"%X%X%X%X.X%X%X%X%X%X%X%X%X%X%X%X$X%XuX%X.X%X%X%X%X%X%X%X%X%XaX%X$X%X%X%X%X%X%X.X$X%X%XuX%X%X#X.X%X.X.X.X.XoX.X.X.X.X$X%X%X%X%X$X%X%XpX%X%X%X$X$X%X%X%X%X#X%X%X%X%X%X%X%X%X%X%X%X%X%X%X@X%X@X%X%X%X%X%X%X%X%XXX%X%X#X.X%X%XuX%X%X%X$X%X%X%X.X.X%X%X%X%X$X%X.X X%X",
".X$X%XOX%XuXuX%X%X%X%XpX$X.XaXuX%X%X%X%XoX.X%X%XpXpX%XpX%X%X%X%X%X%X%X%X.X%X%X%X%X%X%X%X%X#X#XXX.X.X{..X.X.XoX.X.X%X%X%X%X%X%X%X%X%X%XuXaX%XuXuX%X%X%X%X.X.X@X$X%X%X%X.X%X%X%X%X$X@X%X@X%X.X$X%X%X%X%X%XXX.X%X%X%X%X$X%X%X%X%X%X%X%X%X$X%X%X$X%X$X$X%X%X%X%X@X@X",
"OX%X%X%X%X%X%X.X%X%X.XoX%XpXpX%XpX%X%X%X%X%X%X%X%X%XuXaX%X%X%X%X%X%X%X%X$X%X%X%X%X%X.X%X.X.X.X.X.X.X.X.X.X.X%X$X%X%X%X%X%X%X$X%X%X%X%X%X%X%X%X%X%XuX%X@X@X.X.X.X%X%X%X.X$X%X%X%X$X%X%X%X%X%X.X%X%X%X%X%X%X%X%X%X%X%X%X%X%X.X%XoX%X%X%X%X%XpXuX%X$X.X.X.X.X%X$X.X",
"oX.X%X%X%X%X$X%X%X%XuX%X%XpXaX%XuX%XpXaX%X%X%X%X%X%X%X%X%X%X%X%X$X%X%X%X%X%X%X.X.X.X%X%X.X.X.X.X.X.X X.X#X.X$X%X%X.X%X%X%X%X%X%X%X%X%X%X%X%X%X%X%X%X%X%X#X@X$X.X$X#X#X%X%X%X%X%X%X%X%X%X%X%X%X%X%X$X@X%XOX%X%X%X%X%X%X%X%X%X%X.X.X%X%X%X%X%X%X%X%X%X%X%X$X%X%X%X",
".X.X%X%XOXoX.X.X%X%X%X%XoXpXaXpXuXaXpXpXpX%X.X%X%X%X%X%X%X%X%X%X%X%X%X%X%X%X.X%X.X.X.X%X.X.X.X.X.X.X.X.X.X%X%X$X%X$X%X%X%X%X$X%X%X%X$X%X%XuX%X$X.X%X%X%X@X@X$X$X.X@X@X%X%X$X%X%X%X%X%X%X%XpX%X.X%X%X%X%X%XOX%X%X%X%X%X%X%XpX%X$X$X%X.X.X%X%X%X%X%X%X%X%XoX.X.X.X",
".X.X.X.X.X.X%X%XpXaXaX$XoX%XsXpXaX%XpX%X%X%X%X.X.X.X%X%X%X$X%X%X%X%X$XeX%X$X%X%X%X%X$X@X%X%X.X]. X.X.X|..X.X%X%X$X$X%X$X%X%X.X$X%XpXpXpX%X%X%X%XoX%XaXpX%X.XOX.X.XoX.X.X%X.X.X$X%X@X%X%X%X%X%X.X%X%X%X%X%X%X%X$X%X%X%X%X%X%X%X.X@X%X$X%X%X%X%X%X%X$X%X%X.X%X%X{.",
".X.X.X|..X.X%X%X$X$XaXpX%X%XpXsXaX%X%X%X%X.X$X%X%X%X%X%X.X$X$X%XpX%X.X%X.X.X.X%XOX%X%X%X%XOX.X}.'.|..X]..X.X%X%X%X$X%X%X%X%X%XoX$X%XpXpX%X$XpXpX%X%XpXeX%X%X.X.XoX%X.X.X%XOXoX$X.X@X%X%X#X@X%X%X%X%X%X%X%X%X%X%X%X%XuX%X%X%X%X@X@X%X%X%X$X%X%X%X%X%X%X%X.X$X%X.X",
"XX.X.X.XXX.X.X.X%X%XeXpXpX%X%XpXuX%X%X%X%X%X.X$X%X$XpX%X%X%X%X$X%X%X.X.X.X%X$X%X%X%X.X.X%X%X.X X}. X.X|..X.X%X.X$X%X$X$X%X%X%XoX.X$X%X%X%X%XaXpX%XpX%X%X%X%X%X%XOX%X%X.X.X.XoX.X.X@X.X%X%X#X$X$X%X%X.XOXOX%XOX$X$X%XaX%X%XpX%X%X@X%X%X.X$X%X%X%X%X%X$X%X%X$X$X$X"
};
