/* XPM */
static char *wall_mona_0[] = {
/* columns rows colors chars-per-pixel */
"128 128 217 2 ",
"   c #000000",
".  c #090602",
"X  c #020A04",
"o  c #0D0A02",
"O  c #020F08",
"+  c #0F0D09",
"@  c #120C03",
"#  c #110E09",
"$  c #1A0F05",
"%  c #051103",
"&  c #03150A",
"*  c #04190B",
"=  c #091E04",
"-  c #141202",
";  c #1A1305",
":  c #1F1B01",
">  c #15110C",
",  c #1C140A",
"<  c #041F11",
"1  c #1C1711",
"2  c #261504",
"3  c #211C02",
"4  c #241709",
"5  c #27190B",
"6  c #2C1C0C",
"7  c #321F0D",
"8  c #221D13",
"9  c #261F18",
"0  c #0B2204",
"q  c #07250D",
"w  c #113607",
"e  c #133D07",
"r  c #052312",
"t  c #062B15",
"y  c #062E18",
"u  c #0A2E10",
"i  c #093516",
"p  c #093916",
"a  c #063119",
"s  c #073415",
"d  c #0F2C0D",
"f  c #252003",
"g  c #2D2703",
"h  c #34210E",
"j  c #372706",
"k  c #373004",
"l  c #3A3304",
"z  c #3C3508",
"x  c #2B231B",
"c  c #2A2315",
"v  c #392712",
"b  c #3C2A14",
"n  c #352D1D",
"m  c #372814",
"M  c #3C341F",
"N  c #203810",
"B  c #332A20",
"V  c #3A2F24",
"C  c #3E3326",
"Z  c #3F3428",
"A  c #463C03",
"S  c #453C07",
"D  c #402F18",
"F  c #44321A",
"G  c #4A391E",
"H  c #472A09",
"J  c #63380C",
"K  c #4E3E23",
"L  c #413528",
"P  c #483C2A",
"I  c #503F23",
"U  c #4D3E30",
"Y  c #15450A",
"T  c #164A0B",
"R  c #184C09",
"E  c #1A520A",
"W  c #1D5C0B",
"Q  c #0F4115",
"!  c #0A4219",
"~  c #0B4C1D",
"^  c #084B1B",
"/  c #144D13",
"(  c #144917",
")  c #0E511B",
"_  c #165B15",
"`  c #195B11",
"'  c #125519",
"]  c #165112",
"[  c #2A4B15",
"{  c #25511C",
"}  c #394D15",
"|  c #1E630D",
" . c #1F6B0E",
".. c #1C6311",
"X. c #176013",
"o. c #226C0D",
"O. c #22660C",
"+. c #23710D",
"@. c #396115",
"#. c #4D4203",
"$. c #4D430A",
"%. c #4F480B",
"&. c #594D03",
"*. c #53490B",
"=. c #515415",
"-. c #645604",
";. c #665804",
":. c #735611",
">. c #546D10",
",. c #41620E",
"<. c #7C621A",
"1. c #514629",
"2. c #5B4C2C",
"3. c #544528",
"4. c #584837",
"5. c #594838",
"6. c #54482B",
"7. c #60512F",
"8. c #625533",
"9. c #695B36",
"0. c #6C5E38",
"q. c #645439",
"w. c #6E603A",
"e. c #7E6D20",
"r. c #695542",
"t. c #735E48",
"y. c #725D47",
"u. c #7A644C",
"i. c #894D10",
"p. c #895A12",
"a. c #935E12",
"s. c #935311",
"d. c #867405",
"f. c #8F7C05",
"g. c #81631A",
"h. c #9A6515",
"j. c #A56615",
"k. c #BC6C17",
"l. c #B26D17",
"z. c #827122",
"x. c #A75E14",
"c. c #C36E17",
"v. c #CB6F17",
"b. c #C97118",
"n. c #C77117",
"m. c #816950",
"M. c #8D7358",
"N. c #997D5F",
"B. c #93785C",
"V. c #9B7E61",
"C. c #988306",
"Z. c #A18B06",
"A. c #AA9206",
"S. c #A48666",
"D. c #AC8C6C",
"F. c #A68868",
"G. c #B1916F",
"H. c #B69572",
"J. c #C5A17B",
"K. c #CBA67F",
"L. c #CCA780",
"P. c #CEA981",
"I. c #D1AB83",
"U. c #D8B187",
"Y. c #CCBBAF",
"T. c #DED6CC",
"R. c #DED6CB",
"E. c #DFD8D0",
"W. c #D9CFC5",
"Q. c #E0D7CE",
"!. c #E1D9CE",
"~. c #E5DDD5",
"^. c #E8DFD6",
"/. c #E7DFD8",
"(. c #E8DFD8",
"). c #E0D7D0",
"_. c #E7E0D6",
"`. c #E8E0D7",
"'. c #E7E0D8",
"]. c #EAE2D9",
"[. c #EBE2D9",
"{. c #EAE3D9",
"}. c #EAE2D8",
"|. c #EBE3DA",
" X c #E9E2D8",
".X c #ECE3DA",
"XX c #EDE3DB",
"oX c #ECE2D9",
"OX c #EBE4DA",
"+X c #EBE4DB",
"@X c #EAE5DA",
"#X c #ECE5DB",
"$X c #ECE4DB",
"%X c #ECE6DB",
"&X c #EBE4DC",
"*X c #EBE6DD",
"=X c #ECE5DD",
"-X c #EDE6DC",
";X c #ECE7DD",
":X c #EEE7DD",
">X c #EEE6DD",
",X c #EDE6DE",
"<X c #EEE7DF",
"1X c #EDE5DD",
"2X c #EAE3DB",
"3X c #EFE8DE",
"4X c #EDE9DE",
"5X c #EEE8DE",
"6X c #F0E9DF",
"7X c #F0E6DF",
"8X c #EFE7E0",
"9X c #EFE9E1",
"0X c #EFE8E0",
"qX c #F1E9E1",
"wX c #F1EAE2",
"eX c #F2EBE5",
"rX c #F7F3ED",
/* pixels */
"[.~.^.~.^.[.`.[.[._.~.`.`.[.[.~.~.[.`.~.~.^.^.~.~.~.~.^.[.`.`.[.[.[.[.[.[.[._.[.3X0X3X[.[.[.`.3X3X3X[.[.[.[.[.[.[.[.3X[.3X3X[._.`.`.~.!.~.~.~.`.^.^.^.^.^.~.~.^.~.^.^.^.~.^.`.`.[._._.`.`.[.`.[.`.[.[.[.3X[.[.3X[.[.[.[.[.[.[.[.[.[.[.[.[.[.[._.[.[.[.[.[.`.[.3X",
"[.`.`.~.~.`.^.^.[.[.`.`._._.[.[.~.~.[.~.~.^.~.~.~.~.`.`.`.`.[._._.[.[.[.[.[.[.[.3XwXwX3X[.`._.[.[.6XwX[.3X[.[.[.[.[.3X[.3X6X3X[.^.`.[.~.Q.~.^.`.^.`.[.[.`.~.~.^.`.[.`.`.^.~.~.[.[.[.[.`.[.`.^.[.[.[.[.[.[.[.[.6X[.[.[.[.[.[.[.3X[.[.[.[.[.[.[.[.[._.[.[.[.[.[.[.",
"[.[.[.`.~.~.^.^.[._.[.[.[.[.[.[.[.[.[.[.~.^.~.~.~.~.^.^.`.`.`.`.`.~._.~.`.3X[.(.~.~.`.[.`.[.[.[.[.`.[.3X3X[.[.[.[.[.3X[.[.[.3X[.[.[.~.~.~.`.^.^.^.`.[.[.`.~.^.^.[.[.^.`.~.~.T.~.[.[.[.[.[._.~.[.~._.[.[.[.[.[.[.[.[._._._.`.`.[.[.[.[.3X[.[.[.[.[.[.[.[.[.[.[.[.",
"[.[.[.`.[.`.~.~.~._.`.[.[.[.[.[.[.wX'.[.~.~.`.~.~.~.~.`.^.~.^.[.[.^.~.~.`._.`.[.[._.~.[.[.[.[.[.[.[.[.[.[.[.[.[.`.[.3X[.[.[.[.[.[.`.~.~.~.~.~.~.^.^.`.^.^.~.~.^.[.^.~.~.[.~.~.~.[._.`.[._.[.`.[.~.`.[.[.`.[.[.[.[.~.`.`.~.`.[.[.[.6X[.3X3X[.[.[.[.[.[.[.[.[.[.[.",
"3X0X[.[.[.^.~.~.~._._.[.[.[.[.[.[.'.[.[.[._.^.~.~.~.~.~.~.^.[.`.`.`.[.[.[.[.[.3X[.`.[.[.[.'.[.wX6X[.[.[.[.[.[.[.[._.~.[.[.[.[.[.[.`.[.[._.^.~.^.^.^.`.^.~.~.~.^.^.^.^.`.[.`.~.~.~._.`.~.[.[.[.[.[.[._.~.~.[.[.[.[.`.[.[.`.[.[.[.[.[.3X[.[.[.[.[.[.[.[.[.[.[.[.3X",
"[.[.[.[.[.[.`.~.~._._.[.[.[.[.[.[.~.[.0X[.[.~.~.~.~.`.^.`.[.`.`.`.[.~.[.[.[.`.[.[.[.[.[.[.[.[.[.[.[.[.[.3X[.[.[.[._._.[.[.[.[.[.[.[.[.[.`.~.~.~.~.^.`.[.^.~.~.`.`.^.~.`.`.`.`.^.`.[.[.`.`.`.[.`.[._.~.`.~.[.[.[.[.[.[.[.`.~.[._.3X[.[.[.`.[.[.[.[.[.[.[.[.[.[.[.",
"[.[.[.[._._.`.~.~.`.[._.[.[.[.[.[.[.[.[.[.[.[.~.~.~.~.~.`.[.[.[._.[.~.^.[.^.[.`.[.`.[._.[.[.[.[.[.[.[.[.[.[.3X3X`._.[._.[.[.[.[.[.[.[.[.3X`.^.~.[.~.^.`.[.`.`.`.~.^.~.^.^.^.`.^.`.[.[.[.^.^.[.`.[.~.~.^.[.[.[.[.[.[.[.[.[._.[.`.3X6X3X[.[.[.[.[.[.3X[.3X[.[.[.[.",
"[.[.[.[._.~.`.~.~.~.~.[.[.[.[.[.[.[.[.[.[.[.[.^.~.~.^.~._.`.[.`.~.`.~.`.`.[.[.[.~.~.[.[._.`.`.[.[.[.[.[.[.[.[.[.[.`.[.[.[.[.[.[.[.[.[.[.[.[.^.~.^.`.[.[.^.`.[.[.~.~.~.~.~.^.~.~.[.`.~.[.[.[.~.[.[.~.~.~.^.[.[.[.[.[.[.[.`.`.[.[.[.[.[.[.[._.[.[.[.[.3X[.[.3X[.[.",
"0XwX3X[.[.[.^.~.~.~.~.~.[.[.[.[.[.[.[.[.~.~.0X[.~.~.~.`._._.[.[.~.~.`.`.~.[.[.[.~.~.[.[.[.[.`.[.[.[.[.[.[.[.[.[.3X3X[.[.[.[.`._.[.[.[.[.`.[.[._.~.`.`.[.`.[.[.`.~.`.~.~.~.^.`.[.`.^.^.`.`.`.[.[.[.[.[.`.[.[.`.[.[.[.~.`.[.[.[.[.[.[.[.[.`.`.[.[.[.[.[.[.[.[.[.[.",
"[.[.[.[.[.[.~.~.^.~.~.~.~._.[.[.[.[.[.[.[.[.[.'.~.~.~.`.`.[.[.[.`.~.~.~.`.`.`.~.~.~.`.[.[.[.[.[.[.[.[.[.[.[.[.[._.[.[.[.[.[.[.[.[.wX[.[.[._.[.[.`.`.`.[.`.[.^.~.~.`.`.~.~.^.`.[.^.~.^.[.[.~.`.[.~.^.[.`.^.`.[.[.[.[.~.[.[.[.[.[.[.[.[.[.`.`.[.`._.[.[.[.[.[.[.3X",
"0XwX[.[.[.[.[.[.~.T.~.`._.~._.`._.[.[.[.[.[.[.'._.~.~.[.[.[.[.~.`.~.~.~.^.[.^.~.^.~._.[.[.[.[.[.[.[.[.[.[.'.[.[.^.~.[.[.3X[.[.[.[.[.'.[.[.[._.[.[.[.[.~.~.`.^.~.~.~.^.`.^.~.~.~.[.~.^.`.[.^.~.[.`.^.~.~.~.~.[.[.~.`.[.[.[.`.[.3X[.~.~._.~.~.~.`.`.[.[.3X[.[.[.3X",
"[.[.[.~.^.~.`.[.~.^.^.~.`.~.~.~.`.[.[.[.[.[.[.~.~.~.~.~.~.[.[.`.^.~.^.~.[.[.`.^.~.~.[.[.`._.[.[.[.[.[.`._._.[.[.`.~.[.[.[.[.[.3X[.[.[.[.[._._._.[.`.`.Q.~.`.~.~.^.^.^.~.`.^.~.~.`.~.~.~.~.`.[.[.^.^.~.^.^.~.`.`.~.[.~.~.[.`.`.wX[.~.[.~.~.~.`.`.[.[.[.[.[.[.`.[.",
"0X[.[.[.`.^.~.~.~.[.~.~.~.~.~.~.~.~.[.`.~.~.~.^.^.~.~.~.!.~.[.[.[.~.~.^.[.`.[.[.~.~.~.^.[.[.`.[.`.[._.[.~.[._.`.[.[.[.[.[.[.[.[.[.3X[.[.[._.[.[.`.`.~.Q.~.`.~.^.~.[.[.`.`.^.~.^.[.`.^.`.`.[.[.`.`.~.^.^.~.^.~.`.^.[.[.`.[.[.[.[.[.~._.[.~.~.^.`.[.[.[.[.~.~.~.[.",
"0X[.[.~.~.~.~.~.[.`.[.~.`.~.~.`.~.~.~.^.^.~.~.~.`.[.~.~.~.~.^.~.[.^.`.~.^.^.[.[.[.~.~.~.~.~.~.~._.[.[.[.[.[.[.[.`.[.[.[.[.[.[.`.[.[.[.[.[.[.[.[._._.~.`.[.^.~.^.~.`.[.^.`.~.~.`.^.`.`.[.[.[.[.~.`.`.`.`.~.~.`.[.^.~.^.[.[.[.[.[.[._.~.`.`.~.~.`.`.[.[.[.~.`.[.[.",
"'.~.[.(.[.~.~.~.~.`.[._.~.[.!.~.[.~.~.~.~.^._.`._.`.~.~.~.~.~.~.~.`.`.^.~.^.^.[.~.~.`.~.~.~.~.`.~.[.[.[.[.[.[.`.`.`.[.[.[.[.[.[.[._.~._.[.[.`._.[.[.`.`.[.`.~.~.~.[.[.~._._.^.^.[.`.`.[.[.[.`.[.`.[.[._.`.`.~.`.^.`.`.[.`.[.[.[.[.[.`._.[.`._._.~.~.[.[.[.[._.[.",
"[.`.[.[.[.[.~.~.~.^.~.`._.`.~.!.~.`.~.~.~.^.^.~.~.~.`.^.~.[.`.~.~.~.~.^.~.`.`.^.~.~.~.[.`.~.~.^.~.`.[.~.~.`.`.`.`.`.[.[.`.[.[.[.[.[.[.[.[.[.[.[.[.[._.~.^.^.~.~.~.^.[.~._.[.`.~.[.[.`.`.^.~.[._._.[.[.[.[.[.~.^.~.~.^.[.^.^.[.[.[.`.[.[.[.[.[.[.~.~.`.[.`.`.`.[.",
"'.[.[.[.[.[.`.`.[.[.[.[.[._.[.~.~.[.`.~.~.!.~.~.!.~.^.~.~.~.^.~.~.~.[.[.[.[.[.[.`.~.~.~.[.[.^.~.~.^.[.~.~.`.^.`.[.[.[.[.[.[.[.[.[.[.[.[.[.[.[.[.[.[.[.`.[.`.~.^.[.`.`.~.[._.~.`.[.[.[.`.`.~.~.`._.`.[.[.[._._.^.^.~.~.[.[.[.`.[.`.`.[.[.[._.[.[._.~.`.[.`.[.[.`.",
"[.wX0X[.[.[.[.[.[.[.[.`.'.[.[._.[.`.^.~.!.T.T.T.!.~.~.~.^.~.~.`._.[.[.[.[.[.[.[.[.[.[.~.~.[.[.~.~.^.`.^.`.~.~.^.^.`.[.[.[.[.[.[.[.`.`.[.[.[.[.`._.[.[.[._._.^.^.[.[.[.[.[.[.[.[.[.[.[.[.^.`.~.~.~.^.`.^.`.[.[._.[.~.^.^.^.[.^.[.[.`.[.[.[.[.[.`.[.[.`.[.[.~.~.[.",
"[.[.[.'.[.3X[.[.[.[.[.[.[.[._.~.~.`.[._.`.~.~.~.~.~.~.~.`.~.~._.~._./.[.[.[.[.[.[.[.[.[.[.~.[.`.`.~.~.~.~.~.~.~.~.^.~.[.[.[.[.`.[.[.[.[.[.[.[.[._.[._.~.[.`.`.~.~.[.[.[.[.[.[.[.[.[.[.[.~.~.`.[.~.^.^.~._._.`.`.[.[.[.^.~.`.`.[.[.[.`.[.[.[.[.[.[.[.[.[.[.[.~.[.",
"[.[.[.[.[.3X3X[.[.[.[.[.[.[._._.~.~.[.                                                                                                                                                                                    [.`.`.[.[.[.[.[.3X[.[.[.[.[.[.[.[.[.[.",
"[.[.`.`.[.3X[.`.[.[.[.[.[.[.`.[.~._.[.                                                                                                                                                                                    ^.`.^.~.`.[.[.[.[.[.[.[.[.[.[.[.[.`.[.",
"[.[._.~.[.[.[._.[.[.[.[.[.[.[.[.[.[.[.          o 3 : : : : : : : : : : : : : : : : : : : : : : : : : : : : : : : : : : : : : : : : : : : : : : : : : : : : : : : : : : : : : : : : : : : : : : : : : : : : 3 o           ^.`.`.[.~._.[.[.[.[.[.[.[.[.[.[.[.[.[.",
"[.`.`.[.[.[.[.[._.`.[.[.[.[.[.[.[.`.[.          l Z.Z.Z.Z.Z.Z.Z.Z.Z.Z.Z.Z.Z.Z.Z.Z.Z.Z.Z.Z.Z.Z.Z.Z.Z.Z.Z.Z.Z.Z.Z.Z.Z.Z.Z.Z.Z.Z.Z.Z.Z.Z.Z.Z.Z.Z.Z.Z.Z.Z.Z.Z.Z.Z.Z.Z.Z.Z.Z.Z.Z.Z.Z.Z.Z.Z.Z.Z.Z.Z.Z.Z.Z.Z.Z.Z.Z.Z.l           `.`.`.[.~.`.[.[._._.`.[.[.[.[.[.[.[.[.",
"[.[.[.[.3X[.[.`.[.[.[.[.[.~.[.[.[.[.[.          l A.Z.Z.Z.Z.Z.Z.Z.Z.Z.Z.Z.Z.Z.Z.Z.Z.Z.Z.Z.Z.Z.Z.Z.Z.Z.Z.Z.Z.Z.Z.Z.Z.Z.Z.Z.Z.Z.Z.Z.Z.Z.Z.Z.Z.Z.Z.Z.Z.Z.Z.Z.Z.Z.Z.Z.Z.Z.Z.Z.Z.Z.Z.Z.Z.Z.Z.Z.Z.Z.Z.Z.Z.Z.Z.Z.Z.A.l           [.[.[.`.^.~.`.[.[.[.[.[.[.[.[.[.[.[.[.",
"[.[.[.3X[.[.[.[._.[.[.[.[.[._.`.`.[.[.    o l l #.;.-.d.Z.Z.Z.Z.Z.Z.Z.Z.Z.Z.Z.Z.Z.Z.Z.Z.Z.Z.Z.Z.Z.Z.Z.Z.Z.Z.Z.Z.Z.Z.Z.Z.Z.Z.Z.Z.Z.Z.Z.Z.Z.Z.Z.Z.Z.Z.Z.Z.Z.Z.Z.Z.Z.Z.Z.Z.Z.Z.Z.Z.Z.Z.Z.Z.Z.Z.Z.Z.Z.Z.Z.Z.d.-.;.#.l l o     [.[.[.`.`.~.^.[.[.[.[.[.[.[.[.[.[.[.[.",
"3X[.[.[.[.~.[.[.[.[.`.[._._.`.`.`.`.[.    3 Z.A.;.    &.Z.Z.Z.Z.Z.Z.Z.Z.Z.Z.Z.Z.Z.Z.Z.Z.Z.Z.Z.Z.Z.Z.Z.Z.Z.Z.Z.Z.Z.Z.Z.Z.Z.Z.Z.Z.Z.Z.Z.Z.Z.Z.Z.Z.Z.Z.Z.Z.Z.Z.Z.Z.Z.Z.Z.Z.Z.Z.Z.Z.Z.Z.Z.Z.Z.Z.Z.Z.Z.Z.Z.Z.&.    ;.A.Z.3     [.[.[.`.`.`.~.[.`.`.[.[.[.[.[.[.3X[.[.",
"[.[.[.[.[.[.[.[.`.[.[.[.[.[.[._.[.[.[.    : Z.Z.-.    &.A.Z.Z.Z.Z.Z.Z.Z.Z.Z.Z.Z.Z.Z.Z.Z.Z.Z.Z.Z.A.Z.Z.Z.Z.Z.Z.Z.Z.Z.Z.Z.Z.Z.Z.Z.Z.Z.Z.Z.Z.Z.Z.Z.A.Z.Z.Z.Z.Z.Z.Z.Z.Z.Z.Z.Z.Z.Z.Z.Z.Z.Z.Z.Z.Z.Z.Z.Z.Z.Z.A.&.    -.Z.Z.:     [.[.[.[.[.[.^.[.[.`.~._.[.[.[.[.[.[.[.",
"[.[.[.[.[.[.[.[.[.[.[.[.[.[.`.~.[.[.[.    : Z.Z.d.&.&.#.A A A A A A A A A A A A A A A A A A A A A A A A A A A A A A A A A A A A A A A A A A A A A A A A A A A A A A A A A A A A A A A A A A A A A A A A #.&.&.d.Z.Z.:     [.[.`.[.`.[.~.[.`.~.~._.[.[.[.[.[.[.[.",
"wX[.3X0X[.[.[.[.[._.[.[.[.`.[.`.`.`._.    : Z.Z.Z.Z.A.A                                                                                                                                                 A A.Z.Z.Z.Z.:     [.[.~._._.[.~._.`.~.[.[.[.[.[.3X3X[.[.",
"0X0X0X0X0XwX0X[.'.`.[.[.[.[.[.[._.[.`.    : Z.Z.Z.Z.Z.A                                                                                                                                                 A Z.Z.Z.Z.Z.:     [.`.~.~._._.~.~.~.[.[.[.[.[.[.3X0X[.[.",
"0X0X0X0X0X0XwX[.[.[.[.[.[.[.[.[.`.[.[.    : Z.Z.Z.Z.Z.A     u p p p p p p p p p p p p p p p p p p p p p p p p p p p p p p p p p p p p p p p p p p p p p p p p p p p p p p p p p p p p p p p p p p u     A Z.Z.Z.Z.Z.:     [.~.~.~._.`.~.~.`.`.[.[.[.[.[.[.[.[.[.",
"[.0X0XwX0X[.[.wXwX3X[.[.[.[.[.[.`.`.~.    : Z.Z.Z.Z.Z.A     p ~ ~ ~ ~ ~ ~ ~ ~ ~ ~ ~ ~ ~ ~ ~ ~ ~ ~ ~ ~ ~ ~ ~ ~ ~ ~ ~ ~ ~ ~ ~ ~ ~ ~ ~ ~ ~ ~ ~ ~ ~ ~ ~ ~ ~ ~ ~ ~ ~ ~ ~ ~ ~ ~ ~ ~ ~ ~ ~ ~ ~ ~ ~ ~ ~ ~ p     A Z.Z.Z.Z.Z.:     `.`.^.^.^.`.`.^._._.`.[.[.[.3X3X[.[.[.",
"[.3XwXwXwX[.[.0X8X[.[.[.[.[.[.`.`.~.~.    : Z.Z.Z.Z.Z.A     p ~ ~ ~ ~ ~ ~ ~ ~ ~ ~ ~ ~ ~ ~ ~ ~ ~ ~ ~ ~ ~ ~ ~ ~ ~ ~ ~ ~ ~ ~ ~ ~ ~ ~ ~ ~ ~ ~ ~ ~ ~ ~ ~ ~ ~ ~ ~ ~ ~ ~ ~ ~ ~ ~ ~ ~ ~ ~ ~ ~ ~ ~ ~ ~ ~ ~ p     A Z.Z.Z.Z.Z.:     `.[.[.[.[.[.^.`.[._.[.[.[.[.[.[.0X[.[.",
"[.[.[.[.[.[.[.0X8X[.[.[.[.[.[.'.[.~.~.    : Z.Z.Z.Z.Z.A     p ~ ~ ~ ~ ~ ~ ~ ~ ~ ~ ~ ~ ~ ~ ~ ~ ..o.o.o.o.E   X X X X     X X X X X X X X X X       X   p ~ ~ ~ ~ ~ ~ ~ ' o.o.o.o.o.' ~ ~ ~ ~ ~ ~ ~ p     A Z.Z.Z.Z.Z.:     [.[.[.[.[.[.~.~.[._.[.[._.[.[.[.[.0X0X",
"[.[.[.[.[.[.[.0X[.[.[.[.[.[.[.[.[.[.[.    : Z.Z.Z.Z.Z.A     p ~ ~ ~ ~ ~ ~ ~ ~ ~ ~ ~ ~ ~ ~ ~ ~ | o.o.o.o.E                                             p ~ ~ ~ ~ ~ ~ ~ ' o.o.o.o.o.' ~ ~ ~ ~ ~ ~ ~ p     A Z.Z.Z.Z.Z.:     [.[.[.`._.^.^.~.[._.[.[.[.~.[.[.[.[.wX",
"[.[.8X'.[.[.[.0X[.[.[.8X[.[.[.[.[.[.[.    : Z.Z.Z.Z.Z.A     p ~ ~ ! ! ! ~ ~ ~ ) ) ) ) ) ) ) )  .o.o.W W Y                                   o o       s ! ! ~ ) ) ) ) ` o.o.O.W W ( ! ! ~ ~ ~ ~ ~ p     A Z.Z.Z.Z.Z.:     `._.[.`.~.~.~.T._._.[.[.[.[.0X[.[.[.[.",
"[.[.0X[.[.8X8X[.[.0X[.'.[.[.[.wXwX[.[.    : Z.Z.Z.Z.Z.A     p ~ ~ X   X ~ ~ ' o.o.o.o.o.o.o.o.o.o.|                                       - l l ;           | o.o.o.o.o.o.+.w           ! ~ ~ ~ ~ p     A Z.Z.Z.Z.Z.:     [.3X[.[.[.~.[.E.E.[.[.[.[.[.[.0XwX[.[.",
"[.[.[.[.[.0X[.[.[.[.[.'.[.0X[.[.[.wX0X    : Z.Z.Z.Z.Z.A     p ~ ~ X   X ~ ~ ' o.o.o.o.o.o.o.o.o.o.|                                       - l l ;           | o.o.o.o.o.o.+.w           ! ~ ~ ~ ~ p     A Z.Z.Z.Z.Z.:     [.3X[.~.[._.`.[.~.[.[.[.[.[.[.0X[.[.[.",
"[.[.[.[.[.[.[.[.[.[.[.[.[.[.[.[.0X0X8X    : Z.Z.Z.Z.Z.A     q s s     X s s Q o.o.o.o.o.o.o.o.....`           1 L C C C C C C C C Z B     - l l ;           | o.o.o.o.| T R 0           ( ' ' ~ ~ p     A Z.Z.Z.Z.Z.:     [.[.[.[.[.[.~._.~.[.~.[.[.[.[.0X[.[.[.",
"[.[.[.[.[.[.[.[.wX[.[.[.~.~.~.`.wX0X[.    : Z.Z.Z.Z.Z.A                     0 o.o.o.o.o.o.o.o.) ~ !           5.U.I.I.I.I.I.I.I.I.I.D.    - l l ;           | o.o.o.o.T                 W o.o.~ ~ p     A Z.Z.Z.Z.Z.:     3X[.[.[.[.[.[.[.'.[.[.[.8X8X0X[.[.[.[.",
"[.[.[.[.[.[.0X[.[.[.[.[.~.~.~.~.[.[.[.    : Z.Z.Z.Z.A.A                     0 +.+.+.+.+.+.+.o.) ~ !           4.I.K.K.K.K.K.K.K.K.P.S.    - l l ;           | o.o.o.o.R                 W o.o.~ ~ p     A Z.Z.Z.Z.Z.:     [.[.[.[.[.[.[.[.[.~.'.[.0X[.0X[.[.[.[.",
"[.[.[.[.[.[.[.[.[.[.[.[.[.[.~.[._.[.[.    : Z.Z.Z.Z.Z.A           & & &     % w w w w w w w w q q q     1 r.q.B.P.K.K.K.K.K.K.K.K.P.S.    o : : : : :       | o.o.o.o.R     X * *       W o.o.` ` Q     A A.Z.Z.Z.Z.:     [.[.3X[.[.[.[.[.[.[.~.[.[.0X[.8X0X[.[.",
"[.[.[.[.[.[.[.[.[.[.[.~.`.[.[.[.[.`._.    : Z.Z.Z.Z.Z.A           u a u                                 B I.I.P.K.K.K.K.K.K.K.K.K.P.S.          3 l l o     | o.o.o.o.R     * a a O     W o.o.o.o.E     A Z.Z.Z.Z.Z.:     [.[.[.0X[.3X[.[.[.`.'.[.[.[.[.0X[.[.[.",
"[.0X[.[.[.[.[.[.[.[.[.T.~.3X[.[.[._.~.    : Z.Z.Z.Z.Z.A           u y r                                 B I.I.I.I.I.P.K.K.P.I.I.I.I.F.          3 l l o     | o.o.o.+.R     & a y X     W o.o.o.o.E     A Z.Z.Z.Z.Z.:     0X[.[.0X[.wX[.[.[.`.~.[.[.[.0X[.'.[.[.",
"[.[.[.[.[.[.[.'.'.'.[.~.~.[.[.0X[.[.~.    : Z.Z.Z.Z.Z.A     * r r u y u r < u R R w < r X               # L C C C V N.P.K.5.C C C C U M.B.4.    3 l l o     = 0 0 0 0 0 r < r y y X     W o.o.o.o.E     A Z.Z.Z.Z.Z.:     wX[.[.0X3X[.[.[.[.[._.[.[.[.[.[.~.'.[.",
"[.[.[.[.'.[.[.[.[.[.'.'.'.[.[.8X0XwX[.    : Z.Z.Z.Z.Z.A     r a y y y y y y Q +.+./ y a O                           u.I.K.9         9 I.I.m.    3 l l o               X a y y y y X     W o.o.o.o.E     A Z.Z.Z.Z.Z.:     [.[.[.wX[.[.[.[.[.[.`.[.[.[.[.[.[.'.[.",
"[.[.[.[.[.[.~._.~./.~.~.'.[.[.[.[.[.[.    : Z.Z.Z.Z.Z.A     r y y y y y y y Q o.o./ y a O                           m.I.K.x         x K.I.m.    3 l l o               O a y y y y X     W o.o.o.o.E     A Z.Z.Z.Z.Z.:     [.[.[.0X[.[.[.[.[.[.`.[.[.[.[.[.[.[.[.",
"[.[.[.[.[._.~.~._.~.~.~.[.[.[.[.[.[.[.    : Z.Z.Z.Z.Z.A     r y y y y i | | | o.o.o.| | p r r           x G.G.q.    m.I.K.G.D.D.D.D.G.K.I.m.    3 l l o           r r u y y y y y X     X % % % % X     A A.Z.Z.Z.Z.:     0X0X0X0X[.[.[.[.[.[.[.~.[.[.[.[.[.[.[.",
"[.'.[.~.^.[.~.~.~.[.~.[.[.[.[.'.[.[.[.    : Z.Z.Z.Z.Z.A     r y y y y s o.o.o.o.o.o.o.o.Q y y           B I.I.t.    m.I.K.L.L.L.L.L.L.K.I.m.    3 l l o           y y y y y y y y X                     A Z.Z.Z.Z.Z.:     0XwX[.[.[.[.[.[.[.'.[._._.[.[.[.[.[.[.",
"[.~.'.~.~.[.T.~.~.[.[.~.[.[.[.[.[.[.[.    : Z.Z.Z.Z.Z.A     r y y y y s o.o.o.| | o.o.o.Q s s X         B P.I.t.    m.I.K.K.K.K.K.K.K.K.I.m.    3 l l o         X y y y y y y y a &                     A Z.Z.Z.Z.Z.:     [.[.[.[.[.[.[.[._.[.[.[.~.[.[.[.[.[.[.",
"[.~._.`.~.~.~.~.~.~.[.[.[.[.[.[.[.[.[.    : Z.Z.Z.Z.Z.A     r y y y y s o.o.` y y / o.o.o.o.o.X         B P.I.t.    m.I.K.K.K.K.K.K.K.K.I.m.    3 l l o     u u u y y y y y y y y u y y       u u r     A Z.Z.Z.Z.Z.:     [.[.[.[.[.[.[.[.[.[._.'.`.3X[.[.[.[.[.",
"[.[.^.`.~.~.~.^.[._.`.[.[.[.[.[.[.[.[.    : Z.Z.Z.Z.Z.A     r y y y y s o.o.` y y / o.o.o.o.o.%         B I.I.t.    u.I.K.K.K.K.K.K.K.K.I.m.    3 l l o     u y y y y y y y y y y y y y       u y r     A Z.Z.Z.Z.Z.:     [.0X[.[.[.[.[.'.[.[.[._.~.[.[.[.[.`.[.",
"[.[.`.[.`.`.`.[.[.[.[.[.[.[.[.[.[.[.[.    : Z.Z.Z.Z.Z.A     u p p p p Q o.o.` a a / ..........X         9 V.V.r.x x N.P.K.K.K.K.K.K.K.K.I.m.    3 l l o     < r r y y s p p p p p s y y & X O u y r     A Z.Z.Z.Z.Z.:     [.0X0X[.[.3X0X[.[.[.[.~.~.[.[.[.3X[.[.",
"[.`.`.[.[.[.~.~.[.[.[.[.[.[.[.[.[.`._.    : Z.Z.Z.Z.Z.A     E o.o.o.o.o.o.o...~ ~ ~ ~ ~ ~ ~ ~ X               4.I.P.L.K.K.K.K.K.K.K.K.K.I.m.    3 l l o           y y Q o.o.o.o.o.Q y y y y y y y r     A Z.Z.Z.Z.Z.:     [.8X[.[.[.[.[.3X[.[.[.~.~.[.[.[.[.3X[.",
"[.[.[.[.[.[.[.[.[.[.`.[.[.[.[.[.[.[.[.    : Z.Z.Z.Z.Z.A     E o.o.o.o.o.o.+...~ ~ ~ ~ ~ ~ ~ ~ X               5.U.I.I.I.I.L.K.K.K.K.L.I.U.m.    3 l l o           y y Q o.o.o.o.+.Q y y y y y y y r     A Z.Z.Z.Z.Z.:     wXwX0X[.[.~.[.[.[.[._.^.~.~.[.[.[.3X[.",
"[.[.[.~.[.[.[.[.[.[.[.'.[.'.[.[.[.[.[.    : Z.Z.Z.Z.Z.A     Y ..` ` ` ` e e Y ~ ~ ~ ~ ~ ~ ~ ~ X     ; ; -     n u.t.t.t.t.H.L.K.K.L.H.t.u.U     3 l l 3 ; ;       y y Q o.o.W ] ] p y y y y y y y r     A Z.Z.Z.Z.Z.:     [.[.0X[._.[.[.[._.[._.~.~.`.[.[.[.3X[.",
"[.[.[.[.[.[.`.[.[._.`._.[.[.[.[.[.[.[.    : Z.Z.Z.Z.Z.A     p ~ ~ ~ ~ !     & ~ ~ ~ ~ ~ ~ ~ ~ X     l l g                 S.P.K.K.P.S.          3 l l l l l       y y Q o.o./ y y y y y y y y y y r     A Z.Z.Z.Z.Z.:     [.~.[.[.[.3X[.[.[.[._._._._.[.`.`.[.3X",
"`.[.[.[.[.[.`.`.[.[._.`.[.`.`.[.[.`.[.    : Z.Z.Z.Z.Z.A     p ^ ^ ~ ~ !     & ^ ^ ^ ^ ^ ~ ~ ~ X     k l g                 D.I.I.I.I.D.          3 l l l l k       y y Q o.o./ y y y y y y y y y y r     A Z.Z.Z.Z.Z.:     [.[.[.[.[.[.wXwX[.[.[.[.`.~.[.[._.~.[.",
"~.`.[.[.`.[.~._.[._.[.~.~.[.[.`._.'.[.    : Z.Z.Z.Z.Z.A     *.g.<.d * *     5 g.<.<.<.g.@.X.` X     k l k 3 f -           C U U U U C           3 l l l l l       y y Q o.o./ y y y y y y y y y y r     A Z.Z.Z.Z.Z.:     [.[.[.[.[.[.0X3X[.[.[.3X[._.~.[.`.~.`.",
"[.[.~.~.[.~.~._.[.[.[.[.`._.[.`._./.[.    : Z.Z.Z.Z.Z.A     s.b.k.@         j b.c.c.c.v.>. .o.%     k l l l l 3                                 3 l l l l l       y y Q o.o./ y y y y y y y y y y r     A Z.Z.Z.Z.Z.:     [.`.[.[.[.[.[.[.[.[.[.[.[.[.[.[.`.`.`.",
"[.[.[.^.`.`._._.~.[.`.[._._.[.[.[.[.[.    : Z.Z.Z.Z.Z.A     s.c.k.@         j b.c.c.c.c.>. .o.%     k l l l l 3                                 3 l l l l k       y y Q o.o./ y y y y y y y y y y r     A Z.Z.Z.Z.Z.:     ~.`.[._.`.[.[.[.[.[.[.[.[.[.[.[.~.[.[.",
"`.[.[.~.~.`.~.~.`.~.[.`._.`.[.[._.~.`.    : Z.Z.Z.Z.Z.A     s.c.k.@         o 2 2 2 2 2 - % %       l l l l l k g g @     m.F.S.S.S.S.S.D.r.    3 l l l l k     X W | | o.o./ y y ] | | | | ` a y r     A Z.Z.Z.Z.Z.:     ~.[.[.[.`.[._.[.3X[.[.[.[.[.[.3X3X[.[.",
"^.`.[.~.~.[.[.~.`.`.`.`.`.`._._.~.`.[.    : Z.Z.Z.Z.Z.A     s.n.k.@                                 l l l l l l l l -     F.I.P.P.P.P.P.I.m.    3 l l l l k     % o.o.o.o.o./ y y ` o.o.o.o.| a y r     A Z.Z.Z.Z.Z.:     ~.~.[.[.[.[.[.[.[.[.[.[.3X[.[.`.[.[.[.",
"~.[.[.^.`.~.[.`.~._.`.`.[.`._._.`.`._.    : Z.Z.Z.Z.Z.A     i.k.l.;                                 l l l l l k k k -     S.P.K.K.K.K.K.I.m.    3 l l l l k     % o.o.o.o.o./ u u E O.O.o.o.| a a r     A Z.Z.Z.Z.Z.:     ~.^.[.[.[.[.[.[.[.[.[.[.[.[.[.[.~.`.[.",
"/.[.[.[.`.~.^.^.~.^.`.[.[.`.^.~.^.!.[.    : Z.Z.Z.Z.Z.A     o o o S $.$.$.$.k                       k l l l l 3           S.P.K.K.K.K.K.I.m.    3 l l l l k     % o.o.` a i *         X W o.o.~ ~ p     A Z.Z.Z.Z.Z.:     ^.^.[.[.^.[.[.[.[.[.[.[.~.[.[.[.~.[.[.",
"~.~.~.~.~.^.~.~.[.`.[.[.^.[.[.`.~.`.`.    : Z.Z.Z.Z.Z.A           $.*.*.*.*.z                       k l l l l 3           S.P.K.K.K.K.K.I.m.    3 l l l l k     % o.+.` y a &           W o.o.~ ~ p     A Z.Z.Z.Z.Z.:     ~.^.[.[.[.[.[.[.[.[.[.^.`.[.^.^.`.[.[.",
"~._.[.~.~.~.~.~.[._.`.[.[.[.[.[.[.[._.    : Z.Z.Z.Z.Z.A           $.*.*.*.*.z o @ @ @ @ ; 2 2       g g k l l 3     1 x c D.L.K.K.K.K.K.I.m.    3 l l l l k     X E W T r r &           W o.o.' ' p     A Z.Z.Z.Z.Z.:     ~.~.~.~.~.~.~._.[.[.[.^.[.[.`.~.~.[.[.",
"~.(.[.~.~.~.[.^.~.[.[.[.[.(.[.[.(.[.[.    : Z.Z.Z.Z.Z.A           $.*.*.*.*.*.*.*.*.*.*.j.c.k.$         o l l 3     m.I.K.K.K.K.K.K.K.K.I.m.    3 l l l l k                             W o.o.o.o.E     A Z.Z.Z.Z.Z.:     ~.^.~.~.~.~.~.^.^.[.[.[.[.[.`.~.~.[.[.",
"~.~.~.!.~.^.~.~._.[.[.[.[.~.~.(.[.[.[.    : Z.Z.Z.Z.Z.A           $.*.*.*.*.*.*.*.*.*.*.j.b.c.$         o l l 3     m.I.K.K.K.K.K.K.K.K.I.m.    3 l l l l l                             W +.o.o.+.E     A Z.Z.Z.Z.Z.:     ~.~.~.~.~.~.~.~.~.[.^.~.`.`.^.~.~.`.[.",
"~.~.^._.~.~.^.`.[.~._.~.^.~.~.~.~.`.~.    : Z.Z.Z.Z.Z.A     - : 3 $.*.*.*.*.*.*.*.*.*.*.p.h.a.g : :     o f f -     m.I.K.K.K.K.K.K.K.K.I.m.    - f 3 3 3 3                             e Y Y Y Y w     A Z.Z.Z.Z.Z.:     ~.~.~.~.~.~.~.~.~.[.~.!.`.`.`.^.`.[.[.",
"~.~.[.[.~.~.^.~.`.^.^.[.^.~.~.~.~.~.^.    : Z.Z.Z.Z.Z.A     S *.*.*.*.*.*.*.*.*.*.*.*.*.*.%.*.*.*.$.                m.I.K.K.K.K.K.K.K.K.I.m.                                                            A Z.Z.Z.Z.Z.:     ~.~.~.^.~.~.~.~.~.`.^.[.^.~.^.[.^.[.[.",
"~.'.[.[.[.`.~.~.^.^.~.[.[.~.~.`.^.~.~.    : Z.Z.Z.Z.Z.A     S *.*.*.*.*.%.%.%.%.%.%.%.%.*.*.*.*.*.$.                u.I.K.K.K.K.K.K.K.K.I.m.                                                            A Z.Z.Z.Z.Z.:     [.~.~.~.~.[.[.^.^.~.^.~.~.~.~.^.^.~.[.",
"~.~.[.[.3X[.~.[.[.`._.[.`.[.[.^.~.(.^.    : Z.Z.Z.Z.Z.A     N [ [ [ [ } a.a.a.a.a.a.a.a.-.*.*.g f 3           n u.y.D.P.K.K.K.K.K.K.K.K.I.m.                ; , , , , , , , o           q u u u u q     A Z.Z.Z.Z.Z.:     [.[./.~.~.~.~.~.~._.`.^.~.~.~.~.`.[.[.",
"~.'.[.[.`.[.[.[.[.[.`.[.^.`.`.`.~.~.(.    : Z.Z.Z.Z.Z.A     p ~ ~ ~ ~ { c.c.c.c.c.c.c.n.:.*.*.o               5.U.I.P.K.K.K.K.K.K.K.K.K.I.m.                7 h h h h h h h ;           ! ~ ~ ~ ) p     A Z.Z.Z.Z.Z.:     [.[.'.'.'.[.~.~.~._.[.`.`.`.~.~.`.[.[.",
"~.'.[.[.[.[.[.[.[.[._.[.`.`.`.[.~.~.~.    : Z.Z.Z.Z.Z.A     p ~ ~ ~ ~ { k.c.c.c.c.c.c.c.:.*.*.o               4.I.K.K.K.K.K.K.K.K.K.K.K.I.m.                6 h h h h h h h ;           ! ~ ~ ~ ~ p     A Z.Z.Z.Z.Z.:     [.[.[.[.'.~.~.~.~.`.`.~.[.[.~.`.~.`.[.",
"~.[.[.[.`.[.`.[.[.[.[.[.`._.[.[.[.'.~.    : Z.Z.Z.Z.Z.A     p ~ ~ ~ ~ { k.c.c.c.c.c.c.n.H - -                 4.I.K.K.K.K.K.K.K.K.K.K.K.I.m.    c 1.1.1.1.1.3.3.3.3.3.3.3.3.F 4 6 o     % % * ....T     A Z.Z.Z.Z.Z.:     [.[.[.[.[.'.~.~.~.~.~.~._.[.`.[.`._.[.",
"^.~._.[._.[._._.[.[.[.~.~.~.[.[.[.[.'.    : Z.Z.Z.Z.Z.A     p ~ ~ ~ ~ { k.c.c.c.c.c.c.n.j                     4.I.K.K.K.K.K.K.K.K.K.K.K.I.m.    C w.0.0.0.0.0.0.0.0.0.0.0.0.I h h @         X o.o.E     A Z.Z.Z.Z.Z.:     [.0X[.[.[.[.'.[.[.Q.T.`._.~.[.[.[.[._.",
"[.[.[.[.[._.~.[.[.[.`.!.E._.~.[.[.[.[.    : Z.Z.Z.Z.Z.A     p ~ ~ ~ ~ { k.k.k.c.c.k.k.c.j                     4.K.J.K.K.K.K.K.K.K.K.K.K.I.m.    M 0.9.9.9.9.9.9.9.9.9.9.9.9.K 7 h @         X o.o.E     A Z.Z.Z.Z.Z.:     [.0X0X[.[.[.[.[._.`.~.~.~.~.[.[.[.[.~.",
"[.[.[.[.[.[.[.[.^.`.~.~.~.`.~.~.[.[.[.    : Z.Z.Z.Z.Z.A     p ~ ~ ~ ~ ~ ( ' =.c.b.J o @                       o > + m.I.K.K.K.K.K.K.K.K.I.m.    M 0.0.F v v v v v v v v v v m h h @         X o.o.E     A Z.Z.Z.Z.Z.:     [.[.[.[.[.[.[.[./.~.~.~.~.~.~.[.[.~.~.",
"~.`.`._.[.3X[._.[.[.`.[.[.[.~.~.~.[.[.    : Z.Z.Z.Z.Z.A     p ~ ~ ~ ~ ~ ~ ^ =.c.b.J                                 m.I.K.K.K.K.K.K.K.L.I.m.    M 0.0.F h h h h h h h h h h h h h @         X o.o.E     A Z.Z.Z.Z.Z.:     [.[.[.[.[.[.[.[.[.~.~.~.~.[.T.T.~.~.~.",
"`.[.`._.[.[.[.[.[.[.`.~.[.`.~.~.Q.~.[.    : Z.Z.Z.Z.Z.A     p ~ ~ ) ) ) ) ) =.c.b.J               o o   o + # o     m.I.K.K.K.K.K.K.J.D.G.y.o o K 0.0.F h h h h h h h h h h h h h @         X W W Y     A Z.Z.Z.Z.Z.:     '.~.[.[.[.[.[.8X8X[.~.~.~.~.~.~.~.W.).",
"`.[.[.[.[.[.[.[.[.[.`.^.^.[.~.~.~.^.[.    : Z.Z.Z.Z.Z.A     p ~ ~  .o.o.o. .>.c.b.J           6 h h h h D 9.0.M     m.I.K.K.K.K.K.P.S.    c 0.9.9.9.0.F h h h h h h h h h h h h h h h h                 A Z.Z.Z.Z.Z.:     ~.`.`.[.[.[.[.[.0X0X[.[.'.'.'.[.~.~.~.",
"`.`.`.[.[.[.[.[.[.[.[.[.^.^.^.~.[.[.[.    : Z.Z.Z.Z.Z.A     p ~ ~ o.o.o.o. .>.b.b.J           6 h h h h F 0.0.M     m.I.P.P.P.P.P.I.F.    c 0.9.0.0.0.F h h h h h h h h h h h h h h h h o               A Z.Z.Z.Z.Z.:     ~.~._.[.[.'.[.[.[.[.[.[.[.'.[.'.~.~.[.",
"^.[.[.[.[.[.[.[._.[.[.`.`.`.~.`.~.[.[.    : Z.Z.Z.Z.Z.A     Q ' ' o.o.o.o.o.,.i.i.H           6 h h h h F 0.0.M     4.B.M.M.M.M.M.M.u.9 1 M 0.9.8.3.3.v h h h h h h h v F F v h h h h h o               A Z.Z.Z.Z.Z.:     ~.~.~.[.'.[.[.[.[.[.[.'.~.~.[.~.~.~./.",
"[.[.[.[.[.[.[.[.[.[._.[.[.[.[.[.~.~.(.    : Z.Z.Z.Z.Z.A     E o.o.o.o.o.o.o.T                 6 h h h h F 0.0.M                     # 0.0.0.9.0.G 7 7 h h h h h h h h F 0.w.I 7 h h h h o               A Z.Z.Z.Z.Z.:     [.[.'.'.'.[.[.[.[.[.'.'.[.[.'./././.~.",
"[./.[.`.[.[.[.[.[.[.`.[.[.[.[._.`.~.~.    : Z.Z.Z.Z.Z.A     E o.o.o.o.o.+.+.R                 6 h h h h F 0.0.M                     > 9.9.0.0.w.K 7 h h h h h h h h h F 0.0.K 7 h h h h o               A Z.Z.Z.Z.Z.:     ~.[.~.'.[.[.[.[.[.[.[.[.[.~.'.'.[.[.[.",
"(.~.[.[.[._.[.[.[.[.[.[.[.~.[.~.[.~.~.    : Z.Z.Z.Z.Z.A     E o.o.o.o.O.w w 0     o ; ; o     @ ; ; ; $ c 0.0.K @ ; c n n o         > 9.0.7.K I D h h h h h h h h h h F 0.0.K 7 h h h h                 A Z.Z.Z.Z.Z.:     '.[.~.[.[.[.[.[.[.[.8X[.[.~.[.[.[.[.[.",
"~.~.~.'.~.~.'.[.[.[.[.[.~.~./.(.[.~.[.    : Z.Z.Z.Z.Z.A     E o.o.o.o.W           ; h h @               , 0.0.3.h h 3.w.0.>         > 9.0.3.7 7 h h h h h h h h h h h F 0.0.K 7 h h h h                 A Z.Z.Z.Z.Z.:     ~.[.~.[.[.[.[.[.[.8X[.[.[.[.[.[.[.'.~.",
"[.~.~.~.~.'.[.[.'.[.'.[.'.[.~./.[.[.'.    : Z.Z.Z.Z.Z.A     E o.o.o.o.W           ; h h o               , w.w.3.h h 3.w.0.>         > 9.0.1.7 h h h h h h h h h h 7 7 F 0.0.K 7 h h h h o               A Z.Z.Z.Z.Z.:     [.[.~.[.wX[.[.[.[.[.0X[.[.[.[.[.[.[.[.",
"~.~.~.~.[.~.~.[.[.[.[.[.[.[./.(.[.[.(.    : Z.Z.Z.Z.Z.A     E o.o.` ' (           c 3.3.m 4 4 4 4 4     o 9 9 , o o , 9 9       K K 1.9.0.1.7 h h h h h h h h h v 3.3.3.9.0.K 7 h h h h o               A Z.Z.Z.Z.Z.:     [.[.[.[.[.[.[.[.0X8X[.[.[.[.[.[.[.[.[.",
"'.'.'.[.[.~.~.~.~.~.'.[.~.~.~.[.(.~.(.    : Z.Z.Z.Z.Z.A     E o.o.~ ~ !           n w.0.F h h h h 7                             9.0.0.9.0.1.7 h h h h h h h h h v 9.0.0.9.0.K 7 h h h h o               A Z.Z.Z.Z.Z.:     ~.[.[.[.[.[.[.[.[.[.~.[.[.[.[.[.[.[.'.",
"[.[.~.'.[.~./.~.~.~.~.[.[.'.~.(.(.(.(.    : Z.Z.Z.Z.Z.A     E o.o.' ~ !           n 0.0.F h h h h 6                             8.9.9.9.9.3.7 h h h h h h h h h v 9.9.9.9.0.K 7 h h h h                 A Z.Z.Z.Z.Z.:     '.[.[.[.[.[.'.[.[.[.[.[.[.[.[.[.[.[.[.",
"(.~.~.~.~./.~.~.~.~.~.'.~.~.~.[.[.[.(.    : Z.Z.Z.Z.Z.A     E o.o.h.j.a.    o 6 6 K 0.0.F h h o         x G.D.D.D.G.L           8.9.8.v v v h h h h h h h h h h v 9.0.3.v v v h h h h h                 A Z.Z.Z.Z.Z.:     [.'./.[.[.'.~.'.'.[.[.[.8X[.[.[.[.(.[.",
"~.~.[.[.~.~.~.~.~.~.~.~.~.'.(.~.[.(.[.    : Z.Z.Z.Z.Z.A     E o.o.l.c.x.    @ h 7 I 0.0.F h h           B I.L.L.L.I.U           8.9.7.h h h h h h h h h h h h h v 9.0.3.7 h h h h h h h o               A Z.Z.Z.Z.Z.:     [.~.(.[.[.'.~.~.[.[.[.[.[.[.[.[.[.[.[.",
"(.~././.[.~.~.[.[.'.'.~.[.[.~.~.~.[.[.    : Z.Z.Z.Z.Z.A     E o.o.j.l.a.    o 7 6 K 0.0.G v v o     > # L P.K.K.K.I.5.# >       8.9.7.h h h h h h h h h h h h h v 9.0.3.v v m h h h h h o               l C.f.C.Z.Z.:     [.~.(.(.(.[.[.[.[.[.[.[.[.[.[.[.[.[.(.",
"(.(.(.[./.~.[.~.[.'.'.[.~.(.'.~.~.[.'.    : Z.Z.Z.Z.Z.A     E o.o.' ) !           n 0.9.9.9.9.+   > H.J.J.K.K.K.K.L.J.J.J.9     8.9.7.h h h h h h h h h h h h h v 9.9.9.9.9.K 7 h h h h o                     ;.Z.Z.:     [.~.~.~.(./.~.(.[.[.[.[.[.[./.'.'.[.[.",
"[.(.[.[.(.~.[.[.[.~.~.[.[.(.[.~.~.~.~.    : Z.Z.Z.Z.Z.A     E +.o.) ~ !           n w.0.0.0.9.#   > J.P.P.P.P.P.P.P.P.P.P.x   o 8.9.7.h h h h h h h h h h h h h v 9.0.0.0.w.3.h h h h h o                     -.Z.Z.:     [.'.~.~.[.~.~.~.~./.[.[.~.~.~.'.'.'.[.",
"[.[.~.~.~.[.[.[.[.[.'.[.[.[.~./.[.'.'.    : Z.Z.Z.Z.Z.A     e E E p p s           c 1.1.1.1.1.o   # N.N.N.N.N.N.N.N.N.N.V.1   o 8.0.3.5 5 5 5 5 5 5 5 5 5 5 5 5 6 1.1.1.1.1.n 4 5 5 5 5                       -.Z.Z.:     '.~.[././.'.~.~.~.[.[.~.'.~.~.'.'.~.'.",
"[.[.~.[.[.[.[.[.[.[.[.'.'.[./.'.'.[.[.    : Z.Z.Z.Z.Z.A                                                                         8.0.6.                                                                        -.Z.Z.:     [.~.[.~.~.~.~.~.'.[.'.[.[.[.'./.[.[.[.",
"[.'.'.[.[.[.[.[.[.8X[.[.~.~.'.[.[.[.[.    : Z.Z.Z.Z.A.A                                                                         8.0.6.                                                                        -.Z.Z.:     [.[.[.~.~./.~.'.[.'.[.'.[.[.'.'.[.[.[.",
"'.[.[.[.[.[.[.[.[.[.[.[.~.~.~.[.~.[.'.    : Z.Z.d.&.&.#.A A A A A A A A A A A A A A A A A A A A A A A A A A A A A A A A A A A A e.z.<.A A A A A A A A A A A A A A A A A A A A A A A A A A A A A A A A A f     -.Z.Z.:     [.'.[.~.~._.[.'.'.'.~.~.[.[.[.[.[.[.0X",
"[.[.'.'.[.[.[.[.'.[.'.~.'.'.^.~.~.~.[.    : Z.Z.-.    &.A.Z.Z.Z.Z.Z.Z.Z.Z.Z.Z.A.Z.Z.Z.Z.Z.Z.Z.Z.Z.Z.Z.Z.Z.Z.Z.Z.Z.Z.Z.Z.Z.Z.Z.Z.Z.Z.Z.Z.Z.Z.Z.A.Z.Z.Z.Z.Z.Z.Z.Z.Z.Z.Z.Z.Z.Z.Z.Z.Z.Z.Z.Z.Z.Z.Z.A.Z.Z.Z.A.&.    -.Z.Z.:     [.[.[.[.[.~._.[.'.~.~./.~.'.'.[.[.[.[.",
"[.[.[.[.[.[.[.[.[.[.~.~.~.'.~.~.~.[.[.    3 Z.A.;.    &.Z.Z.Z.Z.Z.Z.Z.Z.Z.Z.Z.Z.Z.Z.Z.Z.Z.Z.Z.Z.Z.Z.Z.Z.Z.Z.Z.Z.Z.Z.Z.Z.Z.Z.Z.Z.Z.Z.Z.Z.Z.Z.Z.Z.Z.Z.Z.Z.Z.Z.Z.Z.Z.Z.Z.Z.Z.Z.Z.Z.Z.Z.Z.Z.Z.Z.Z.Z.Z.Z.Z.Z.&.    ;.A.Z.3     [.[.[.[.[.[.~.~.[./.~.~.~./.'.[.[.'.[.",
"(.(.[.[.'.~.[.~.~.[.~.~.~.~.~.(.[.~.'.    o l l #.;.-.d.Z.Z.Z.Z.Z.Z.Z.Z.Z.Z.Z.Z.Z.Z.Z.Z.Z.Z.Z.Z.Z.Z.Z.Z.Z.Z.Z.Z.Z.Z.Z.Z.Z.Z.Z.Z.Z.Z.Z.Z.Z.Z.Z.Z.Z.Z.Z.Z.Z.Z.Z.Z.Z.Z.Z.Z.Z.Z.Z.Z.Z.Z.Z.Z.Z.Z.Z.Z.Z.Z.Z.Z.d.-.;.#.l l o     [.[.[.[.[.[.[.~.'.[.~.'.'.[.[.~.~.~.[.",
"[.[.[.'.'.~.[.~.~.~.[.'.~.~.~.(.(.[.'.          l A.Z.Z.Z.Z.Z.Z.Z.Z.Z.Z.Z.Z.Z.Z.Z.Z.Z.Z.Z.Z.Z.Z.Z.Z.Z.Z.Z.Z.Z.Z.Z.Z.Z.Z.Z.Z.Z.Z.Z.Z.Z.Z.Z.Z.Z.Z.Z.Z.Z.Z.Z.Z.Z.Z.Z.Z.Z.Z.Z.Z.Z.Z.Z.Z.Z.Z.Z.Z.Z.Z.Z.Z.Z.Z.Z.Z.A.l           [.[.[.[.[.[.[./.[.[.~.~./.[.[.'.~.~.[.",
"[.(.~.[.[.'.[.[.(.~.~.'.~.~.~.[./.~.~.          l Z.Z.Z.Z.Z.Z.Z.Z.Z.Z.Z.Z.Z.Z.Z.Z.Z.Z.Z.Z.Z.Z.Z.Z.Z.Z.Z.Z.Z.Z.Z.Z.Z.Z.Z.Z.Z.Z.Z.Z.Z.Z.Z.Z.Z.Z.Z.Z.Z.Z.Z.Z.Z.Z.Z.Z.Z.Z.Z.Z.Z.Z.Z.Z.Z.Z.Z.Z.Z.Z.Z.Z.Z.Z.Z.Z.Z.Z.l           [.[.[.8X[.[.[.[.~.'.[.[.'.[.[.'.~.~.[.",
"[.[.[.[.[./.[.[.[.~.[.~.'.[.~.~.[.[.[.          o 3 : : : : : : : : : : : : : : : : : : : : : : : : : : : : : : : : : : : : : : : : : : : : : : : : : : : : : : : : : : : : : : : : : : : : : : : : : : : : 3 o           [.[.[.[.0X[.[.[.'.~.[.[.[.'.[.~.~.'.[.",
"[.[.[.[.'.'.[.[.[.[.[.[.[.[.[.[.~.[.[.                                                                                                                                                                                    [.[.[.[.0X[.[.'.'.[.'.'.[.[.[./.'./.[.",
"[.~.[.[.'.[.[.[.[.wX[.E.[.[.[.[.'.[.[.                                                                                                                                                                                    8X[.[.[.~.'.'.~.~.[.[././.'.'.'.[.'.[.",
"[.~.'.[.[.[.[.[.'.[.[.'.[.[.[.[.[.[.[.[.[.[.[.8X[.[.[.wXwX[.'.[.[.[.[.[.[.[.[.[.[.`.~.^.[.~.~.~.(.~.~.~.[.'./.~.'.[.[.[.[.[.0X[.[.[.[.[.[.[.[.[.[.[.[.(.[.[.[.`.^.[.[.~.~.~./.(.[.[.[.[.(.(.[.'.[.[.^.[.[.[.0X8X[.[.[.[.'.[.[.[.[.'.[.[.'.~.'.[.~.~.'.[.8X'.~.[.",
"'./.[.[.[.[.[.[.0X[./.~.~.~.[.[.[.[.[.[.[.[.[.[.[.[.[.[.[.[.'.[.8X[.[.[.[.[.[.[.`.~.~.^.`.~.~.~.[.[.~.'.'.~.~.'.[.[.[.[.[.[.[.8X[.[.[.[.'.[.[.'.[.[.[./.~.~.`.[.[.[.[.(.~.~./.~.[.[.[.[.[.(.[.[.[.[.[.[.[.[.[.[.[.[.'.[.~.[.[.[.[.'.0X[.'.~.'.[.'.'.[.[.0X[.[.[.",
"[.[.[.[.[.[.[.[.[.[.[.~.~.~.~._.[./.[.[.[.[.[.[.[.[.[.[.[.[.0X0X0X[.[.[.wX[.[.[.~.~.~.~.~.[.~.~.'.~.~.[.~.'./.~.~.~.[.[.[.[.[.[.[.[.[.[.[.[.[.~.'.[.[.~.~.(.[.[.~.`.[.~.^.^.[.^.~.~.[.[.[.`.[.[.[.[.[.[.[.[.[.[.[.~.'.[.[.[.'.[.'.~.[.[.[.~.[.[.~.'.[.'.~.[.[.[.",
"[.[.[.[.[.[.[.[.[.[.'.~.Q.~.~.[.[.'.~.0X8X[.0X[.'.[.[.[.8X8X[.[.3X0X0X[.[.[.[.[.[.'./.~.'.[.(./.'.~.~.[.[.[.[.~.~.^.[.[.[.[.[.[.[.[.[.[.[.[.[.[.'.[.[.'.(.[.`.~.~.~.^.^.`.^.~.^.~.[.[.[.~._.[.~.[.[.[.[.[.[.[.[.(.[./.[.[.[.[.[.'./.[.[.[.[.[.[.~.~.[.[.~.~.~./.",
"'.~.[.[.[.[.0X[.[.wX[.~.~.~.[.[.[.[.[.[.8X[.[.'.[.[.[.[.[.[.[.[.[.[.0X0X~.[.8X[.[.[.[.'.[.[./.'.~.~.~.[.~.[.'.~.~.`././.[.[.[.[.[.[.[.[.[.[.[.[.[.[.'.[.[.[.[.[.`.[.[.~.[.~.~.^.`.^./.[._.[.[.'.[.'.[.'.[.[.[.[.[.[.[.~.'.8X[.[.[.[.[.[.'.~.~.[.~.~.'.'.~.~.~.[.",
"~.~.[.[.[.[.[.[.[.[.[.~.[.~.'.[.[.[.[.[.[.[.[.[.[.[.[.0X[.[.0X[.[.[.[.0X8X[.[.'.'.[.[.[.[.[.[.~.~.~.~.[.~.~.'.[.~.E.~.~.~.'.[.[.[.[.[.[.0X[.[.(.[.[.[._.[.[.[.[.[.`.[.^.~.~.[.[.[.[.~.[._.`.`.[.[.[.[.~.(.[.[.[.[.[.[.[.[.[.[.[.[.[.[.8X'.~.~._.~._.[./.~./.[.[.",
"[.[.[.[.[.[.[.[.[.[./.~.[.[.[.[.[.0X[.[.[.[.~.[.8XwX[.[.[.[.0X3X[.[.[.[.0X[.[.[.[.[.[.[.[.[.[.(.(.~.'.[.E.~./.~.~.~.[.~.~.~.[.[.[.[.[.[.[.[.[.[.'.[.[.[.[.[.[.~.~.`.[.[.~.~.~.[.[.'.'._.~.[.[.`.~.[.'.'.[.[.[.[.[.[.'.[.[.8X[.[.[.[.[.[.'.~.~.~.~.~.~.[.~.~.~.[.",
"[.~.[.[.[.'.[.'.[.[.~.'.0X0X[.[.0X0X[.[.[.[.[.0X[.0X0X[.[.'.[.[.[.[.[.[.[.[.[.0X[.[.[.[.[.^.^.[.[.~.~.~.~.'.'.~./.~.[.[.[.'.'.[.[././.'.[.[./.[.[.[.[.[._.[.`.~.!.~.[.[.~.[.^.~./.'./.[.[._._.[.[._.[.'./.[.[.~.8X[.[.[.[.[.[.[.[.[.[.[.'._.~.~.~.~.~./.~.'._.'.",
"~.~./.~.~.[.[.[.[.[.[.[.[.[.[.[.0X0X[.0X'.[.wXeX0X[.[.[.0X[.[.[.[.[.[.[.[.[.[.[.[.[.[.[.[.'.~.[.[.~.~.[.[.[.[.[.~.[.'.~.[.[.[.[.[.~.'.'.[.[.[.[.[.[.[.[.[.[.`.^.`.`.`.[.[.[.[.(.~.'.[.[.[.[.~.[.[.[.[.[.[._._.[.0X[.[.0X[.[.[.[.0X[./.'.[.[.'.~.~.~.^.T.~.'.'.[.",
"~.[.[.~.~.~.[.'.[.[.[.[.0X[.[.[.[.0X0XwX[.'.8XeX8X[.[.[.[.8X8X0X0X[.[.[.[.[.[.0X[.[.[.[.[.~.[.[.[.'.~.[.~.~.~.~._.[.~.[.[.[.[.[.[.[.E.'.'.[.[.[.[.[.[.[.[.(.[.`.~.~._.[.[.[.[.(.[.[.[.'._.[.[.[.[.[.(.~._.`.[.[.[.[.[.wX[.[.[.[.[.[.'.[.[.[.[._.~.~.~.T.~.~.[.[.",
"~.[.[.~.(./.[.[.[.0X0X[.[.[.[.[.[.wX[.[.wX[.[.[.[.[.[.[.[.wX[.[.[.[.[.[.wX[.[.[.[.[.'.'.[._._.[.'.'.~.~.~.'.E.~.[.~.~.[.[.[.'.[.[.[.'.~.~.[.[.[.[.[.[.[.[.[.~.[.~.[.[.[.[.(.[.[.[.[.[._.[.[._.[.[.[.[.~.~.`.`.[.[.[.'.wX0X[.[./.[.[.'.[.[.[.[.[.~.~.~.~.[.~.~.~.",
"[.[.[.[.~.[.[.[.[.[.[.[.[.[.[.[.'.[.8X[.~.[.[.[.[.[.[.[.[.[.wX[.'.[.[.[.[.[.[.~.'.[.[.8X[.[.`.~.[.~.~.~.~./.~.~.~.~.'.[.[.[.[.'.[.[.0X[.[.[.'.'.[.[.[.[.`.[.[.[.[.[.[.[.[.[.[.[.[.[.[._.[._.[.[.[.[.[.[.[.[.^.[.[.`.~.[.[.8X[.[.[.'.[.[.[.~.~.[.[.[.[.'.[.~.!.[.",
"~.'.[.(.[.8X8X[.[.[.[.0X'.~.wX8X[.[.[.[./.~.[.[.0X0X[.0X[.[.[.[.[.[.[.[.~.[.[.[.[.[.[.[.[.`.`.^.~.~.E.~.~.~./.~.~.[.[.[.[.[.[.[.[.[.[.8XwX[.8X8X[.[.[.[.~.~._.'.[.[.[.~.[.[.[.[.'._.[._.[.~.'.[.[.[.[.[.^.~.[.[.[.[.'.[.[.[.[.[.[.[.[.'.[.[.'.[.'.'.[.[.[.[._._.",
"(.[.[.[.[.[.[.~.[.[.~./.[.0X0X[.0X[.[.[.[.[.[.[.[.[.8XwX[.[.[.[.[.[.[.[.'.[.[.[.[.[.~.[.~.~.~.~.~.~.~.~.~.~.[.'.[.[.[.[.[.[.'.[.[.[.[.[.[.[.[.[.[.8X[._._.~.~.~.[.[.[.~.'.[.[.[.'.[.[.[.[.[.~.[.[.[.[.[.[.[.[.[.[.[.[.[.[.~.[./.[.[.[.[.[.0X8X[.'.~.~.~.~.[.'.~.",
"/.~.[.[.[.[.'.[.[.[.8X[.[.0XwX[.8X[.0XwX[.[.[.[.[.[.[.[.[.[.[.[.'.[.[.[.[.[.[.~.~.~.[.[.~.~.~.~.~.~.!.~.`.~.'.[.[.~.[.[.[.[.[.[.[.[.[.[.[.[.[.[.[.[.[.[.`._.'.~.'.`.`.[.[.[.[.[.[.[.[.[.[.[.[.[.[.'._.[.(.[.[.[.[.[.[.[.[.[.[.~.~.[.[.[.[.[.[.[.[.[.[.[.'.[.[.[.",
"~.~.[.[.(./.~.~.[.[.[.[./.0XwX0X8XwX0X0X0X[.~.[.[.[.[.[.[.[.[.[.[.[.[.[.[.[.~.[.~.~.~.[.~.~.~.~.~.~.~.~.~.[.[.'.[.'.[.[.[.[.'.[.[.[.'.[.[.8X[.'.~.[.[.[._._.'.'.~._._.[.[.'.[.[.[.[.[.[.[.0X[.~.[.[.[.[.[.(.[.[.[.[.[.[.[.0X[.'.'.[.~.~.[.[.[.[.[.[.[.[./.~.~.~.",
"~.~.~.~.~.~.[.[.0XwXwX'.~.[.eX0XwX[.0X[.[.[.[.~.~.~.[.[.[.'.[.[.[.[.'.3X[.'.[.[.[.[.'._.[.[.~.T.!.~.~.Q.~.~.[.[.'.'.[.'.[.[.~.'.[.0X0X0X[.[.[.[./.[.wX0X[.~.(.~.~./.~.~.[.~.~.'.[._.[.[.[.[.[.~.[.[.[.[.[.[.[.'.[.[.[.[.[.[.[.~._.[.'.[.[.[.[.[.[.'.[.[.~.[.[.E.",
"~.~.~.Q.~.~.[.[.'.'.wX0X[.[.0XeXwX[.[.[.[.~.'.[.[.[.[.[.~.'.'.[.0X[.~.[.~.~.~.[.(.[.[.[.[.(.~.W.Y.Q.~.T.~.~.[.[.[.'.[.[.[.[.[./.'.[.0X0X[.'.0X0X[.[.0X3X[.[.~.~./.[.~.~.[.(./.'.~._.[.[.`._.[.[.[.[.[.[.[.[.[.[.[.[.8X[.[.[.[._._.[.[.[.'.[.[.[.[.[.[.[.~.'.[.~.",
"^.~.~.~.^.~.~.~.[.[.3X0X0X[.[.0X8X[.[.[.[.[.~.'.[.'.0X[.[.[.[.'.[.[.~.~.~.[.'.[.[.[.~.~.[.[.~.!.W.!.~.Q.~.~.[.~.'.[.'.'.[.[.[./.~.'.[.[.[.[.wX0X[.0X[.[.[.[.[.[.(.[.[.~.~.~./.~.~._.~.[.[.`.'.'.[.[.~.(.(.[.(.'.'.[.wX[.[.0X[.[._.[.[.~.'.[.[.[.[.[.'.[.[.'.'.'."
};
