/* XPM */
static char *wall_mona_6[] = {
/* columns rows colors chars-per-pixel */
"128 128 221 2 ",
"   c #000000",
".  c #090602",
"X  c #020A04",
"o  c #0D0A02",
"O  c #020F08",
"+  c #0F0D09",
"@  c #120C03",
"#  c #110E09",
"$  c #1A0F05",
"%  c #051103",
"&  c #03150A",
"*  c #04190B",
"=  c #091E04",
"-  c #141302",
";  c #1A1305",
":  c #1F1B01",
">  c #15110C",
",  c #1C140A",
"<  c #16071A",
"1  c #041F11",
"2  c #1C1711",
"3  c #201C02",
"4  c #241709",
"5  c #27190B",
"6  c #2C1C0C",
"7  c #261504",
"8  c #321F0D",
"9  c #221D13",
"0  c #261F18",
"q  c #0B2204",
"w  c #07250D",
"e  c #113607",
"r  c #133D07",
"t  c #052312",
"y  c #062B15",
"u  c #062E18",
"i  c #0A2E10",
"p  c #093516",
"a  c #093916",
"s  c #063119",
"d  c #073415",
"f  c #0F2C0D",
"g  c #292403",
"h  c #34210E",
"j  c #372607",
"k  c #373003",
"l  c #3A3304",
"z  c #3C3508",
"x  c #2A2317",
"c  c #392712",
"v  c #3C2A14",
"b  c #352D1C",
"n  c #372814",
"m  c #3C341F",
"M  c #203810",
"N  c #2F1037",
"B  c #332A20",
"V  c #3A2F24",
"C  c #3E3326",
"Z  c #3F3428",
"A  c #1F0B23",
"S  c #463C03",
"D  c #453C07",
"F  c #44321A",
"G  c #4A391E",
"H  c #432C10",
"J  c #63380C",
"K  c #4E3E23",
"L  c #453929",
"P  c #503F23",
"I  c #4D3E30",
"U  c #573635",
"Y  c #15450A",
"T  c #184C09",
"R  c #164A0B",
"E  c #1A520A",
"W  c #1D5C0B",
"Q  c #0F4115",
"!  c #0A4219",
"~  c #0B4C1D",
"^  c #084B1B",
"/  c #144D13",
"(  c #144917",
")  c #0E511B",
"_  c #195B11",
"`  c #125519",
"'  c #165714",
"]  c #25511C",
"[  c #2D4C15",
"{  c #1E630D",
"}  c #1F6B0E",
"|  c #1C6311",
" . c #176013",
".. c #226C0D",
"X. c #22660C",
"o. c #23710D",
"O. c #396115",
"+. c #4D4203",
"@. c #4D430A",
"#. c #4F480B",
"$. c #594D03",
"%. c #53490B",
"&. c #515415",
"*. c #645604",
"=. c #665804",
"-. c #735611",
";. c #546D10",
":. c #41620E",
">. c #7C621A",
",. c #514629",
"<. c #5B4C2C",
"1. c #544528",
"2. c #584837",
"3. c #584837",
"4. c #54482B",
"5. c #60512F",
"6. c #625533",
"7. c #695B36",
"8. c #6C5E38",
"9. c #63533A",
"0. c #6E603A",
"q. c #7E6D20",
"w. c #551D62",
"e. c #5A2364",
"r. c #735E47",
"t. c #6C5349",
"y. c #7A634C",
"u. c #894D10",
"i. c #935E12",
"p. c #935311",
"a. c #895A12",
"s. c #877505",
"d. c #81631A",
"f. c #9A6515",
"g. c #A56615",
"h. c #BC6C17",
"j. c #B26D17",
"k. c #95681B",
"l. c #C36E17",
"z. c #CB6F17",
"x. c #C97118",
"c. c #C77117",
"v. c #816950",
"b. c #8D7358",
"n. c #997D5F",
"m. c #92785B",
"M. c #9A7E60",
"N. c #988306",
"B. c #A18B06",
"V. c #AA9206",
"C. c #9E8263",
"Z. c #A48666",
"A. c #AC8C6C",
"S. c #A68868",
"D. c #B1916F",
"F. c #B69572",
"G. c #C5A17B",
"H. c #CBA67F",
"J. c #CEAA7F",
"K. c #C29E79",
"L. c #7A2890",
"P. c #9C32B9",
"I. c #A436C1",
"U. c #CF42F5",
"Y. c #D745FF",
"T. c #DB46FF",
"R. c #E549FF",
"E. c #CCA780",
"W. c #CEA981",
"Q. c #D1AB83",
"!. c #D7B087",
"~. c #D391A2",
"^. c #CCBBAF",
"/. c #DED6CC",
"(. c #DED6CB",
"). c #DFD8D0",
"_. c #D9CFC5",
"`. c #E0D7CE",
"'. c #E1D9CE",
"]. c #E5DDD5",
"[. c #E8DFD6",
"{. c #E7DFD8",
"}. c #E8DFD8",
"|. c #E0D7D0",
" X c #E7E0D6",
".X c #E8E0D7",
"XX c #E7E0D8",
"oX c #EBE2D9",
"OX c #EAE3D9",
"+X c #EAE2D9",
"@X c #EBE3DA",
"#X c #E9E2D8",
"$X c #ECE3DA",
"%X c #ECE2D9",
"&X c #EBE4DA",
"*X c #EBE4DB",
"=X c #EAE5DA",
"-X c #ECE5DB",
";X c #ECE4DB",
":X c #ECE6DB",
">X c #EBE4DC",
",X c #EBE6DD",
"<X c #ECE5DD",
"1X c #EDE6DC",
"2X c #ECE7DD",
"3X c #EEE7DD",
"4X c #EEE6DD",
"5X c #EDE6DE",
"6X c #EEE7DF",
"7X c #EDE5DD",
"8X c #EAE3DB",
"9X c #EFE8DE",
"0X c #EEE8DE",
"qX c #F0E9DF",
"wX c #F0E6DF",
"eX c #EFE7E0",
"rX c #EFE9E1",
"tX c #EFE8E0",
"yX c #F1EAE2",
"uX c #F2EBE5",
"iX c #F7F3ED",
/* pixels */
"oX].[.].[.oX.XoXoX X]..X.XoXoX].].oX.X].].[.[.].].].].[.oX.X.XoXoXoXoXoXoXoX XoX9XtX9XoXoXoX.X9X9X9XoXoXoXoXoXoXoXoX9XoX9X9XoX X.X.X].'.].].]..X[.[.[.[.[.].].[.].[.[.[.].[..X.XoX X X.X.XoX.XoX.XoXoXoX9XoXoX9XoXoXoXoXoXoXoXoXoXoXoXoXoXoXoX XoXoXoXoXoX.XoX9X",
"oX.X.X].]..X[.[.oXoX.X.X X XoXoX].].oX].].[.].].].]..X.X.X.XoX X XoXoXoXoXoXoXoX9XyXyX9XoX.X XoXoXqXyXoX9XoXoXoXoXoX9XoX9XqX9XoX[..XoX].`.].[..X[..XoXoX.X].].[..XoX.X.X[.].].oXoXoXoX.XoX.X[.oXoXoXoXoXoXoXoXqXoXoXoXoXoXoXoX9XoXoXoXoXoXoXoXoXoX XoXoXoXoXoXoX",
"oXoXoX.X].].[.[.oX XoXoXoXoXoXoXoXoXoXoX].[.].].].].[.[..X.X.X.X.X]. X]..X9XoX}.].]..XoX.XoXoXoXoX.XoX9X9XoXoXoXoXoX9XoXoXoX9XoXoXoX].].]..X[.[.[..XoXoX.X].[.[.oXoX[..X].]./.].oXoXoXoXoX X].oX]. XoXoXoXoXoXoXoXoX X X X.X.XoXoXoXoX9XoXoXoXoXoXoXoXoXoXoXoXoX",
"oXoXoX.XoX.X].].]. X.XoXoXoXoXoXoXyXXXoX].]..X].].].]..X[.].[.oXoX[.].]..X X.XoXoX X].oXoXoXoXoXoXoXoXoXoXoXoXoX.XoX9XoXoXoXoXoXoX.X].].].].].].[.[..X[.[.].].[.oX[.].].oX].].].oX X.XoX XoX.XoX]..XoXoX.XoXoXoXoX]..X.X]..XoXoXoXqXoX9X9XoXoXoXoXoXoXoXoXoXoXoX",
"9XtXoXoXoX[.].].]. X XoXoXoXoXoXoXXXoXoXoX X[.].].].].].].[.oX.X.X.XoXoXoXoXoX9XoX.XoXoXoXXXoXyXqXoXoXoXoXoXoXoXoX X].oXoXoXoXoXoX.XoXoX X[.].[.[.[..X[.].].].[.[.[.[..XoX.X].].]. X.X].oXoXoXoXoXoX X].].oXoXoXoX.XoXoX.XoXoXoXoXoX9XoXoXoXoXoXoXoXoXoXoXoXoX9X",
"oXoXoXoXoXoX.X].]. X XoXoXoXoXoXoX].oXtXoXoX].].].]..X[..XoX.X.X.XoX].oXoXoX.XoXoXoXoXoXoXoXoXoXoXoXoXoX9XoXoXoXoX X XoXoXoXoXoXoXoXoXoX.X].].].].[..XoX[.].]..X.X[.]..X.X.X.X[..XoXoX.X.X.XoX.XoX X]..X].oXoXoXoXoXoXoX.X].oX X9XoXoXoX.XoXoXoXoXoXoXoXoXoXoXoX",
"oXoXoXoX X X.X].]..XoX XoXoXoXoXoXoXoXoXoXoXoX].].].].]..XoXoXoX XoX].[.oX[.oX.XoX.XoX XoXoXoXoXoXoXoXoXoXoX9X9X.X XoX XoXoXoXoXoXoXoXoX9X.X[.].oX].[..XoX.X.X.X].[.].[.[.[..X[..XoXoXoX[.[.oX.XoX].].[.oXoXoXoXoXoXoXoXoX XoX.X9XqX9XoXoXoXoXoXoX9XoX9XoXoXoXoX",
"oXoXoXoX X]..X].].].].oXoXoXoXoXoXoXoXoXoXoXoX[.].].[.]. X.XoX.X]..X]..X.XoXoXoX].].oXoX X.X.XoXoXoXoXoXoXoXoXoXoX.XoXoXoXoXoXoXoXoXoXoXoXoX[.].[..XoXoX[..XoXoX].].].].].[.].].oX.X].oXoXoX].oXoX].].].[.oXoXoXoXoXoXoX.X.XoXoXoXoXoXoXoX XoXoXoXoX9XoXoX9XoXoX",
"tXyX9XoXoXoX[.].].].].].oXoXoXoXoXoXoXoX].].tXoX].].]..X X XoXoX].]..X.X].oXoXoX].].oXoXoXoX.XoXoXoXoXoXoXoXoXoX9X9XoXoXoXoX.X XoXoXoXoX.XoXoX X]..X.XoX.XoXoX.X]..X].].].[..XoX.X[.[..X.X.XoXoXoXoXoX.XoXoX.XoXoXoX]..XoXoXoXoXoXoXoXoX.X.XoXoXoXoXoXoXoXoXoXoX",
"oXoXoXoXoXoX].].[.].].].]. XoXoXoXoXoXoXoXoXoXXX].].]..X.XoXoXoX.X].].]..X.X.X].].]..XoXoXoXoXoXoXoXoXoXoXoXoXoX XoXoXoXoXoXoXoXoXyXoXoXoX XoXoX.X.X.XoX.XoX[.].]..X.X].].[..XoX[.].[.oXoX]..XoX].[.oX.X[..XoXoXoXoX].oXoXoXoXoXoXoXoXoX.X.XoX.X XoXoXoXoXoXoX9X",
"tXyXoXoXoXoXoXoX]./.]..X X]. X.X XoXoXoXoXoXoXXX X].].oXoXoXoX]..X].].].[.oX[.].[.]. XoXoXoXoXoXoXoXoXoXoXXXoXoX[.].oXoX9XoXoXoXoXoXXXoXoXoX XoXoXoXoX].]..X[.].].].[..X[.].].].oX].[..XoX[.].oX.X[.].].].].oXoX]..XoXoXoX.XoX9XoX].]. X].].]..X.XoXoX9XoXoXoX9X",
"oXoXoX].[.]..XoX].[.[.]..X].].]..XoXoXoXoXoXoX].].].].].].oXoX.X[.].[.].oXoX.X[.].].oXoX.X XoXoXoXoXoX.X X XoXoX.X].oXoXoXoXoX9XoXoXoXoXoX X X XoX.X.X`.]..X].].[.[.[.]..X[.].]..X].].].]..XoXoX[.[.].[.[.]..X.X].oX].].oX.X.XyXoX].oX].].]..X.XoXoXoXoXoXoX.XoX",
"tXoXoXoX.X[.].].].oX].].].].].].].].oX.X].].].[.[.].].].'.].oXoXoX].].[.oX.XoXoX].].].[.oXoX.XoX.XoX XoX].oX X.XoXoXoXoXoXoXoXoXoX9XoXoXoX XoXoX.X.X].`.]..X].[.].oXoX.X.X[.].[.oX.X[..X.XoXoX.X.X].[.[.].[.]..X[.oXoX.XoXoXoXoXoX]. XoX].].[..XoXoXoXoX].].].oX",
"tXoXoX].].].].].oX.XoX]..X].]..X].].].[.[.].].]..XoX].].].].[.].oX[..X].[.[.oXoXoX].].].].].].]. XoXoXoXoXoXoXoX.XoXoXoXoXoXoX.XoXoXoXoXoXoXoXoX X X]..XoX[.].[.]..XoX[..X].]..X[..X.XoXoXoXoX]..X.X.X.X].]..XoX[.].[.oXoXoXoXoXoX X]..X.X].]..X.XoXoXoX]..XoXoX",
"XX].oX}.oX].].].]..XoX X].oX'.].oX].].].].[. X.X X.X].].].].].].]..X.X[.].[.[.oX].]..X].].].]..X].oXoXoXoXoXoX.X.X.XoXoXoXoXoXoXoX X]. XoXoX.X XoXoX.X.XoX.X].].].oXoX]. X X[.[.oX.X.XoXoXoX.XoX.XoXoX X.X.X]..X[..X.XoX.XoXoXoXoXoX.X XoX.X X X].].oXoXoXoX XoX",
"oX.XoXoXoXoX].].].[.]..X X.X].'.]..X].].].[.[.].].]..X[.].oX.X].].].].[.]..X.X[.].].].oX.X].].[.]..XoX].]..X.X.X.X.XoXoX.XoXoXoXoXoXoXoXoXoXoXoXoXoX X].[.[.].].].[.oX]. XoX.X].oXoX.X.X[.].oX X XoXoXoXoXoX].[.].].[.oX[.[.oXoXoX.XoXoXoXoXoXoX].]..XoX.X.X.XoX",
"XXoXoXoXoXoX.X.XoXoXoXoXoX XoX].].oX.X].].'.].].'.].[.].].].[.].].].oXoXoXoXoXoX.X].].].oXoX[.].].[.oX].]..X[..XoXoXoXoXoXoXoXoXoXoXoXoXoXoXoXoXoXoXoX.XoX.X].[.oX.X.X].oX X]..XoXoXoX.X.X].]..X X.XoXoXoX X X[.[.].].oXoXoX.XoX.X.XoXoXoX XoXoX X]..XoX.XoXoX.X",
"oXyXtXoXoXoXoXoXoXoXoX.XXXoXoX XoX.X[.].'./././.'.].].].[.].]..X XoXoXoXoXoXoXoXoXoXoX].].oXoX].].[..X[..X].].[.[..XoXoXoXoXoXoXoX.X.XoXoXoXoX.X XoXoXoX X X[.[.oXoXoXoXoXoXoXoXoXoXoXoX[..X].].].[..X[..XoXoX XoX].[.[.[.oX[.oXoX.XoXoXoXoXoX.XoXoX.XoXoX].].oX",
"oXoXoXXXoX9XoXoXoXoXoXoXoXoX X].]..XoX X.X].].].].].].]..X].]. X]. X{.oXoXoXoXoXoXoXoXoXoX].oX.X.X].].].].].].].].[.].oXoXoXoX.XoXoXoXoXoXoXoXoX XoX X].oX.X.X].].oXoXoXoXoXoXoXoXoXoXoX].]..XoX].[.[.]. X X.X.XoXoXoX[.]..X.XoXoXoX.XoXoXoXoXoXoXoXoXoXoXoX].oX",
"oXoXoXoXoX9X9XoXoXoXoXoXoXoX X X].].oX                                                                                                                                                                                    oX.X.XoXoXoXoXoX9XoXoXoXoXoXoXoXoXoXoX",
"oXoX.X.XoX9XoX.XoXoXoXoXoXoX.XoX]. XoX                                                                                                                                                                                    [..X[.]..XoXoXoXoXoXoXoXoXoXoXoXoX.XoX",
"oXoX X].oXoXoX XoXoXoXoXoXoXoXoXoXoXoX          o 3 : : : : : : : : : : : : : : : : : : : : : : : : : : : : : : : : : : : : : : : : : : : : : : : : : : : : : : : : : : : : : : : : : : : : : : : : : : : : 3 o           [..X.XoX]. XoXoXoXoXoXoXoXoXoXoXoXoXoX",
"oX.X.XoXoXoXoXoX X.XoXoXoXoXoXoXoX.XoX          l B.B.B.B.B.B.B.B.B.B.B.B.B.B.B.B.B.B.B.B.B.B.B.B.B.B.B.B.B.B.B.B.B.B.B.B.B.B.B.B.B.B.B.B.B.B.B.B.B.B.B.B.B.B.B.B.B.B.B.B.B.B.B.B.B.B.B.B.B.B.B.B.B.B.B.B.B.B.l           .X.X.XoX]..XoXoX X X.XoXoXoXoXoXoXoXoX",
"oXoXoXoX9XoXoX.XoXoXoXoXoX].oXoXoXoXoX          l V.B.B.B.B.B.B.B.B.B.B.B.B.B.B.B.B.B.B.B.B.B.B.B.B.B.B.B.B.B.B.B.B.B.B.B.B.B.B.B.B.B.B.B.B.B.B.B.B.B.B.B.B.B.B.B.B.B.B.B.B.B.B.B.B.B.B.B.B.B.B.B.B.B.B.B.B.V.l           oXoXoX.X[.]..XoXoXoXoXoXoXoXoXoXoXoXoX",
"oXoXoX9XoXoXoXoX XoXoXoXoXoX X.X.XoXoX    o l l +.=.*.s.B.B.B.B.B.B.B.B.B.B.B.B.B.B.B.B.B.B.B.B.B.B.B.B.B.B.B.B.B.B.B.B.B.B.B.B.B.B.B.B.B.B.B.B.B.B.B.B.B.B.B.B.B.B.B.B.B.B.B.B.B.B.B.B.B.B.B.B.B.B.B.B.s.*.=.+.l l o     oXoXoX.X.X].[.oXoXoXoXoXoXoXoXoXoXoXoX",
"9XoXoXoXoX].oXoXoXoX.XoX X X.X.X.X.XoX    3 B.V.=.    $.B.B.B.B.B.B.B.B.B.B.B.B.B.B.B.B.B.B.B.B.B.B.B.B.B.B.B.B.B.B.B.B.B.B.B.B.B.B.B.B.B.B.B.B.B.B.B.B.B.B.B.B.B.B.B.B.B.B.B.B.B.B.B.B.B.B.B.B.B.B.B.B.$.    =.V.B.3     oXoXoX.X.X.X].oX.X.XoXoXoXoXoXoX9XoXoX",
"oXoXoXoXoXoXoXoX.XoXoXoXoXoXoX XoXoXoX    : B.B.*.    $.V.B.B.B.B.B.B.B.B.B.B.B.B.B.B.B.B.B.B.B.V.B.B.B.B.B.B.B.B.B.B.B.B.B.B.B.B.B.B.B.B.B.B.B.V.B.B.B.B.B.B.B.B.B.B.B.B.B.B.B.B.B.B.B.B.B.B.B.B.B.B.V.$.    *.B.B.:     oXoXoXoXoXoX[.oXoX.X]. XoXoXoXoXoXoXoX",
"oXoXoXoXoXoXoXoXoXoXoXoXoXoX.X].oXoXoX    : B.B.s.$.$.+.S S S S S S S S S S S S S S S S S S S S S S S S S S S S S S S S S S S S S S S S S S S S S S S S S S S S S S S S S S S S S S S S S S S S S S S S +.$.$.s.B.B.:     oXoX.XoX.XoX].oX.X].]. XoXoXoXoXoXoXoX",
"yXoX9XtXoXoXoXoXoX XoXoXoX.XoX.X.X.X X    : B.B.B.B.V.S                                                                                                                                                 S V.B.B.B.B.:     oXoX]. X XoX]. X.X].oXoXoXoXoX9X9XoXoX",
"tXtXtXtXtXyXtXoXXX.XoXoXoXoXoXoX XoX.X    : B.B.B.B.B.S                                                                                                                                                 S B.B.B.B.B.:     oX.X].]. X X].].].oXoXoXoXoXoX9XtXoXoX",
"tXtXtXtXtXtXyXoXoXoXoXoXoXoXoXoX.XoXoX    : B.B.B.B.B.S     i a a a a a a a a a a a a a a a a a a a a a a a a a a a a a a a a a a a a a a a a a a a a a a a a a a a a a a a a a a a a a a a a a a i     S B.B.B.B.B.:     oX].].]. X.X].]..X.XoXoXoXoXoXoXoXoXoX",
"oXtXtXyXtXoXoXyXyX9XoXoXoXoXoXoX.X.X].    : B.B.B.B.B.S     a ~ ~ ~ ~ ~ ~ ~ ~ ~ ~ ~ ~ ~ ~ ~ ~ ~ ~ ~ ~ ~ ~ ~ ~ ~ ~ ~ ~ ~ ~ ~ ~ ~ ~ ~ ~ ~ ~ ~ ~ ~ ~ ~ ~ ~ ~ ~ ~ ~ ~ ~ ~ ~ ~ ~ ~ ~ ~ ~ ~ ~ ~ ~ ~ ~ ~ a     S B.B.B.B.B.:     .X.X[.[.[..X.X[. X X.XoXoXoX9X9XoXoXoX",
"oX9XyXyXyXoXoXtXeXoXoXoXoXoXoX.X.X].].    : B.B.B.B.B.S     a ~ ~ ~ ~ ~ ~ ~ ~ ~ ~ ~ ~ ~ ~ ~ ~ ~ ~ ~ ~ ~ ~ ~ ~ ~ ~ ~ ~ ~ ~ ~ ~ ~ ~ ~ ~ ~ ~ ~ ~ ~ ~ ~ ~ ~ ~ ~ ~ ~ ~ ~ ~ ~ ~ ~ ~ ~ ~ ~ ~ ~ ~ ~ ~ ~ ~ a     S B.B.B.B.B.:     .XoXoXoXoXoX[..XoX XoXoXoXoXoXoXtXoXoX",
"oXoXoXoXoXoXoXtXeXoXoXoXoXoXoXXXoX].].    : B.B.B.B.B.S     a ~ ~ ~ ~ ~ ~ ~ ~ ~ ~ ~ ~ ~ ~ ~ ~ | ........E   X X X X     X X X X X X X X X X     X X   a ~ ~ ~ ~ ~ ~ ~ ` ..........` ~ ~ ~ ~ ~ ~ ~ a     S B.B.B.B.B.:     oXoXoXoXoXoX].].oX XoXoX XoXoXoXoXtXtX",
"oXoXoXoXoXoXoXtXoXoXoXoXoXoXoXoXoXoXoX    : B.B.B.B.B.S     a ~ ~ ~ ~ ~ ~ ~ ~ ~ ~ ~ ~ ~ ~ ~ ~ { ........E                                             a ~ ~ ~ ~ ~ ~ ~ ` ..........` ~ ~ ~ ~ ~ ~ ~ a     S B.B.B.B.B.:     oXoXoX.X X[.[.].oX XoXoXoX].oXoXoXoXyX",
"oXoXeXXXoXoXoXtXoXoXoXeXoXoXoXoXoXoXoX    : B.B.B.B.B.S     a ~ ~ ! ! ! ~ ~ ~ ) ) ) ) ) ) ) ) } ....W W Y                                   . .       d ! ! ~ ) ) ) ) _ ....X.W W ( ! ! ~ ~ ~ ~ ~ a     S B.B.B.B.B.:     .X XoX.X].].]./. X XoXoXoXoXtXoXoXoXoX",
"oXoXtXoXoXeXeXoXoXtXoXXXoXoXoXyXyXoXoX    : B.B.B.B.B.S     a ~ ~ X   X ~ ~ ` ....................{                                       - l l ;           { ............o.e           ! ~ ~ ~ ~ a     S B.B.B.B.B.:     oX9XoXoXoX].oX).).oXoXoXoXoXoXtXyXoXoX",
"oXoXoXoXoXtXoXoXoXoXoXXXoXtXoXoXoXyXtX    : B.B.B.B.B.S     a ~ ~ X   X ~ ~ ` ....................{                                       - l l ;           { ............o.e           ! ~ ~ ~ ~ a     S B.B.B.B.B.:     oX9XoX].oX X.XoX].oXoXoXoXoXoXtXoXoXoX",
"oXoXoXoXoXoXoXoXoXoXoXoXoXoXoXoXtXtXeX    : B.B.B.B.B.S     w d d     X d d Q ................| | _           2 L C C C C C C C C Z B     - l l ;           { ........{ R T q           ( ` ` ~ ~ a     S B.B.B.B.B.:     oXoXoXoXoXoX]. X].oX].oXoXoXoXtXoXoXoX",
"oXoXoXoXoXoXoXoXyXoXoXoX].].]..XyXtXoX    : B.B.B.B.B.S                     q ................) ~ !           2.!.Q.Q.Q.Q.Q.Q.Q.Q.Q.A.    - l l ;           { ........R                 W ....~ ~ a     S B.B.B.B.B.:     9XoXoXoXoXoXoXoXXXoXoXoXeXeXtXoXoXoXoX",
"oXoXoXoXoXoXtXoXoXoXoXoX].].].].oXoXoX    : B.B.B.B.V.S                     q o.o.o.o.o.o.o...) ~ !           3.Q.H.H.H.H.H.H.H.H.W.Z.    - l l ;           { ........T                 W ....~ ~ a     S B.B.B.B.B.:     oXoXoXoXoXoXoXoXoX].XXoXtXoXtXoXoXoXoX",
"oXoXoXoXoXoXoXoXoXoXoXoXoXoX].oX XoXoX    : B.B.B.B.B.S           & & &     % e e e e e e e e w w w     2 t.9.m.W.H.H.H.H.H.H.H.H.W.Z.    o : : : : :       { ........T     X * *       W ...._ _ Q     S V.B.B.B.B.:     oXoX9XoXoXoXoXoXoXoX].oXoXtXoXeXtXoXoX",
"oXoXoXoXoXoXoXoXoXoXoX]..XoXoXoXoX.X X    : B.B.B.B.B.S           i s i                                 B Q.Q.W.H.H.H.H.H.H.H.H.H.W.Z.          3 l l o     { ........T     * s s O     W ........E     S B.B.B.B.B.:     oXoXoXtXoX9XoXoXoX.XXXoXoXoXoXtXoXoXoX",
"oXtXoXoXoXoXoXoXoXoXoX/.].9XoXoXoX X].    : B.B.B.B.B.S           i u t                                 B Q.Q.Q.Q.Q.W.H.H.W.Q.Q.Q.Q.S.          3 l l o     { ......o.T     & s u X     W ........E     S B.B.B.B.B.:     tXoXoXtXoXyXoXoXoX.X].oXoXoXtXoXXXoXoX",
"oXoXoXoXoXoXoXXXXXXXoX].].oXoXtXoXoX].    : B.B.B.B.B.S     * t t i u i t 1 i T T e 1 t X               # L C C C V n.W.H.2.C C C C I b.m.2.    3 l l o     = q q q q q t 1 t u u X     W ........E     S B.B.B.B.B.:     yXoXoXtX9XoXoXoXoXoX XoXoXoXoXoX].XXoX",
"oXoXoXoXXXoXoXoXoXoXXXXXXXoXoXeXtXyXoX    : B.B.B.B.B.S     t s u u u u u u Q o.o./ u s O                           y.Q.H.0         0 Q.Q.v.    3 l l o               X s u u u u X     W ........E     S B.B.B.B.B.:     oXoXoXyXoXoXoXoXoXoX.XoXoXoXoXoXoXXXoX",
"oXoXoXoXoXoX]. X].{.].].XXoXoXoXoXoXoX    : B.B.B.B.B.S     t u u u u u u u Q ..../ u s O                           v.Q.H.x         x H.Q.v.    3 l l o               O s u u u u X     W ........E     S B.B.B.B.B.:     oXoXoXtXoXoXoXoXoXoX.XoXoXoXoXoXoXoXoX",
"oXoXoXoXoX X].]. X].].].oXoXoXoXoXoXoX    : B.B.B.B.B.S     t u u u u p { { { ......{ { a t t           x D.D.9.    v.Q.H.D.A.A.A.A.D.H.Q.v.    3 l l o           t t i u u u u u X     X % % % % X     S V.B.B.B.B.:     tXtXtXtXoXoXoXoXoXoXoX].oXoXoXoXoXoXoX",
"oXXXoX].[.oX].].].oX].oXoXoXoXXXoXoXoX    : B.B.B.B.B.S     t u u u u d ................Q u u           B Q.Q.r.    v.Q.H.E.E.E.E.E.E.H.Q.v.    3 l l o           u u u u u u u u X                     S B.B.B.B.B.:     tXyXoXoXoXoXoXoXoXXXoX X XoXoXoXoXoXoX",
"oX].XX].].oX/.].].oXoX].oXoXoXoXoXoXoX    : B.B.B.B.B.S     t u u u u d ......{ { ......Q d d X         B W.Q.r.    v.Q.H.H.H.H.H.H.H.H.Q.v.    3 l l o         X u u u u u u u s &                     S B.B.B.B.B.:     oXoXoXoXoXoXoXoX XoXoXoX].oXoXoXoXoXoX",
"oX]. X.X].].].].].].oXoXoXoXoXoXoXoXoX    : B.B.B.B.B.S     t u u u u d ...._ u u / ..........X         B W.Q.r.    v.Q.H.H.H.H.H.H.H.H.Q.v.    3 l l o     i i i u u u u u u u u i u u       i i t     S B.B.B.B.B.:     oXoXoXoXoXoXoXoXoXoX XXX.X9XoXoXoXoXoX",
"oXoX[..X].].].[.oX X.XoXoXoXoXoXoXoXoX    : B.B.B.B.B.S     t u u u u d ...._ u u / ..........%         b J.Q.y.    v.Q.W.H.H.H.H.H.H.H.Q.v.    3 l l o     i u u u u u u u u u u u u u       i u t     S B.B.B.B.B.:     oXtXoXoXoXoXoXXXoXoXoX X].oXoXoXoX.XoX",
"oXoX.XoX.X.X.XoXoXoXoXoXoXoXoXoXoXoXoX    : B.B.B.B.B.S     i a a a a Q ...._ s s / | | | | | X     N N e.~.~.t.    9.C.M.K.H.H.H.H.H.H.Q.v.    3 l l o     1 t t u u d a a a a a d u u & X O i u t     S B.B.B.B.B.:     oXtXtXoXoX9XtXoXoXoXoX].].oXoXoX9XoXoX",
"oX.X.XoXoXoX].].oXoXoXoXoXoXoXoXoX.X X    : B.B.B.B.B.S     E ..............| ~ ~ ~ ~ ~ ~ ~ ~ X   < Y.T.T.Y.T.L.  .       Z.W.H.H.H.H.H.Q.v.    3 l l o           u u Q ..........Q u u u u u u u t     S B.B.B.B.B.:     oXeXoXoXoXoXoX9XoXoXoX].].oXoXoXoX9XoX",
"oXoXoXoXoXoXoXoXoXoX.XoXoXoXoXoXoXoXoX    : B.B.B.B.B.S     E ............o.| ~ ~ ~ ~ ~ ~ ~ ~ X   < U.Y.Y.Y.T.L.          Z.W.H.H.H.E.Q.!.v.    3 l l o           u u Q ........o.Q u u u u u u u t     S B.B.B.B.B.:     yXyXtXoXoX].oXoXoXoX X[.].].oXoXoX9XoX",
"oXoXoX].oXoXoXoXoXoXoXXXoXXXoXoXoXoXoX    : B.B.B.B.B.S     Y | _ _ _ _ r r Y ~ ~ ~ ~ ~ ~ ~ ~ X   < U.Y.Y.Y.T.I.e.e.A     Z.W.H.H.E.F.r.y.I     3 l l 3 ; ;       u u Q ....W / / a u u u u u u u t     S B.B.B.B.B.:     oXoXtXoX XoXoXoX XoX X].]..XoXoXoX9XoX",
"oXoXoXoXoXoX.XoXoX X.X XoXoXoXoXoXoXoX    : B.B.B.B.B.S     a ~ ~ ~ ~ !     & ~ ~ ~ ~ ~ ~ ~ ~ X   < U.Y.Y.Y.Y.T.T.T.w.    Z.W.H.H.W.Z.          3 l l l l l       u u Q ..../ u u u u u u u u u u t     S B.B.B.B.B.:     oX].oXoXoX9XoXoXoXoX X X X XoX.X.XoX9X",
".XoXoXoXoXoX.X.XoXoX X.XoX.X.XoXoX.XoX    : B.B.B.B.B.S     a ^ ^ ~ ~ !     & ^ ^ ^ ^ ^ ~ ~ ~ X   < U.Y.Y.Y.Y.T.T.T.w.  . A.Q.Q.Q.Q.A.          3 l l l l k       u u Q ..../ u u u u u u u u u u t     S B.B.B.B.B.:     oXoXoXoXoXoXyXyXoXoXoXoX.X].oXoX X].oX",
"]..XoXoX.XoX]. XoX XoX].].oXoX.X XXXoX    : B.B.B.B.B.S     %.d.>.f * *     5 d.>.>.>.d.O. ._ X   < U.Y.Y.Y.T.P.w.w.A     C I I I I C           3 l l l l l       u u Q ..../ u u u u u u u u u u t     S B.B.B.B.B.:     oXoXoXoXoXoXtX9XoXoXoX9XoX X].oX.X]..X",
"oXoX].].oX].]. XoXoXoXoX.X XoX.X X{.oX    : B.B.B.B.B.S     p.x.h.@         j x.l.l.l.z.;.} ..%   < U.Y.Y.Y.T.L.                                3 l l l l l       u u Q ..../ u u u u u u u u u u t     S B.B.B.B.B.:     oX.XoXoXoXoXoXoXoXoXoXoXoXoXoXoX.X.X.X",
"oXoXoX[..X.X X X].oX.XoX X XoXoXoXoXoX    : B.B.B.B.B.S     p.l.h.@         j x.l.l.l.l.;.} ..%   < U.T.T.T.T.L.                                3 l l l l k       u u Q ..../ u u u u u u u u u u t     S B.B.B.B.B.:     ]..XoX X.XoXoXoXoXoXoXoXoXoXoXoX].oXoX",
".XoXoX].]..X].]..X].oX.X X.XoXoX X]..X    : B.B.B.B.B.S     p.l.h.@         . 7 7 7 7 7 - % %     . U U U U U F g g @     v.S.Z.Z.Z.Z.Z.A.t.    3 l l l l k     X W { { ..../ u u / { { { { _ s u t     S B.B.B.B.B.:     ].oXoXoX.XoX XoX9XoXoXoXoXoXoX9X9XoXoX",
"[..XoX].].oXoX]..X.X.X.X.X.X X X]..XoX    : B.B.B.B.B.S     p.c.h.@                                 k k k k k l l l -     S.Q.W.W.J.W.W.Q.v.    3 l l l l k     % ........../ u u _ ........{ s u t     S B.B.B.B.B.:     ].].oXoXoXoXoXoXoXoXoXoX9XoXoX.XoXoXoX",
"].oXoX[..X].oX.X]. X.X.XoX.X X X.X.X X    : B.B.B.B.B.S     u.h.j.;                                 k l l l l k k k -     Z.W.H.H.H.H.H.Q.v.    3 l l l l k     % ........../ i i E X.X.....{ s s t     S B.B.B.B.B.:     ].[.oXoXoXoXoXoXoXoXoXoXoXoXoXoX]..XoX",
"{.oXoXoX.X].[.[.].[..XoXoX.X[.].[.'.oX    : B.B.B.B.B.S     . . o D @.@.@.@.k                       l l l l l 3           Z.W.H.H.H.H.H.Q.v.    3 l l l l k     % ...._ s p *         X W ....~ ~ a     S B.B.B.B.B.:     [.[.oXoX[.oXoXoXoXoXoXoX].oXoXoX].oXoX",
"].].].].].[.].].oX.XoXoX[.oXoX.X]..X.X    : B.B.B.B.B.S           @.%.%.%.%.z                       k l l l l 3           Z.W.H.H.H.H.H.Q.v.    3 l l l l k     % ..o._ u s &           W ....~ ~ a     S B.B.B.B.B.:     ].[.oXoXoXoXoXoXoXoXoX[..XoX[.[..XoXoX",
"]. XoX].].].].].oX X.XoXoXoXoXoXoXoX X    : B.B.B.B.B.S           @.%.%.%.%.z o @ @ @ @ ; 7 7       g g k l l 3     2 x x A.E.H.H.H.H.H.Q.v.    3 l l l l k     X E W R t t &           W ....` ` a     S B.B.B.B.B.:     ].].].].].].]. XoXoXoX[.oXoX.X].].oXoX",
"].}.oX].].].oX[.].oXoXoXoX}.oXoX}.oXoX    : B.B.B.B.B.S           @.%.%.%.%.%.%.%.%.%.%.g.l.h.$         o l l 3     v.Q.H.H.H.H.H.H.H.H.Q.v.    3 l l l l k                             W ........E     S B.B.B.B.B.:     ].[.].].].].].[.[.oXoXoXoXoX.X].].oXoX",
"].].].'.].[.].]. XoXoXoXoX].].}.oXoXoX    : B.B.B.B.B.S           @.%.%.%.%.%.%.%.%.%.%.g.x.l.$         o l l 3     v.Q.H.H.H.H.H.H.H.H.Q.v.    3 l l l l l                             W o.....o.E     S B.B.B.B.B.:     ].].].].].].].].].oX[.]..X.X[.].]..XoX",
"].].[. X].].[..XoX]. X].[.].].].]..X].    : B.B.B.B.B.S     - : 3 @.%.%.%.%.%.%.%.%.%.%.a.f.i.g : :     o g g -     v.Q.H.H.H.H.H.H.H.H.Q.v.    - g 3 3 3 3                             r Y Y Y Y e     S B.B.B.B.B.:     ].].].].].].].].].oX].'..X.X.X[..XoXoX",
"].].oXoX].].[.]..X[.[.oX[.].].].].].[.    : B.B.B.B.B.S     D %.%.%.%.%.%.%.%.%.%.%.%.%.%.#.%.%.%.@.                v.Q.H.H.H.H.H.H.H.H.Q.v.                                                            S B.B.B.B.B.:     ].].].[.].].].].]..X[.oX[.].[.oX[.oXoX",
"].XXoXoXoX.X].].[.[.].oXoX].]..X[.].].    : B.B.B.B.B.S     D %.%.%.%.%.#.#.#.#.#.#.#.#.%.%.%.%.%.@.                y.Q.H.H.H.H.H.H.H.H.Q.v.                                                            S B.B.B.B.B.:     oX].].].].oXoX[.[.].[.].].].].[.[.].oX",
"].].oXoX9XoX].oXoX.X XoX.XoXoX[.].}.[.    : B.B.B.B.B.S     M [ [ [ [ [ i.i.i.i.i.i.i.i.*.%.%.g g 3           b y.r.A.W.H.H.H.H.H.H.H.H.Q.v.                ; , , , , , , , o           w i i i i w     S B.B.B.B.B.:     oXoX{.].].].].].]. X.X[.].].].]..XoXoX",
"].XXoXoX.XoXoXoXoXoX.XoX[..X.X.X].].}.    : B.B.B.B.B.S     a ~ ~ ~ ~ ] l.l.l.l.l.l.l.x.-.#.%.o               2.!.Q.W.H.H.H.H.H.H.H.H.H.Q.v.                8 h h h h h h h ;           ! ~ ~ ~ ) a     S B.B.B.B.B.:     oXoXXXXXXXoX].].]. XoX.X.X.X].]..XoXoX",
"].XXoXoXoXoXoXoXoXoX XoX.X.X.XoX].].].    : B.B.B.B.B.S     a ~ ~ ~ ~ ] h.l.l.l.l.l.l.l.-.%.%.o               2.Q.H.H.H.H.H.H.H.H.H.H.H.Q.v.                6 h h h h h h h ;           ! ~ ~ ~ ~ a     S B.B.B.B.B.:     oXoXoXoXXX].].].]..X.X].oXoX]..X]..XoX",
"].oXoXoX.XoX.XoXoXoXoXoX.X XoXoXoXXX].    : B.B.B.B.B.S     a ~ ~ ~ ~ ] h.l.l.l.l.l.l.c.H - -                 2.Q.H.H.H.H.H.H.H.H.H.H.H.Q.v.    x ,.,.,.,.,.1.1.1.1.1.1.1.1.F 4 6 o     % % * | | R     S B.B.B.B.B.:     oXoXoXoXoXXX].].].].].]. XoX.XoX.X XoX",
"[.]. XoX XoX X XoXoXoX].].].oXoXoXoXXX    : B.B.B.B.B.S     a ~ ~ ~ ~ ] h.l.l.l.l.l.l.c.j                     2.Q.H.H.H.H.H.H.H.H.H.H.H.Q.v.    C 0.8.8.8.8.8.8.8.8.8.8.8.8.P h h @         X ....E     S B.B.B.B.B.:     oXtXoXoXoXoXXXoXoX`./..X X].oXoXoXoX X",
"oXoXoXoXoX X].oXoXoX.X'.). X].oXoXoXoX    : B.B.B.B.B.S     a ~ ~ ~ ~ ] h.h.h.l.l.h.h.l.j                     3.H.G.H.H.H.H.H.H.H.H.H.H.Q.v.    m 8.7.7.7.7.7.7.7.7.7.7.7.7.K 8 h @         X ....E     S B.B.B.B.B.:     oXtXtXoXoXoXoXoX X.X].].].].oXoXoXoX].",
"oXoXoXoXoXoXoXoX[..X].].]..X].].oXoXoX    : B.B.B.B.B.S     a ~ ~ ~ ~ ~ ( ` &.l.x.J o @                       . > + v.Q.H.H.H.H.H.H.H.H.Q.v.    m 8.8.F c c c c c c c c c c n h h @         X ....E     S B.B.B.B.B.:     oXoXoXoXoXoXoXoX{.].].].].].].oXoX].].",
"]..X.X XoX9XoX XoXoX.XoXoXoX].].].oXoX    : B.B.B.B.B.S     a ~ ~ ~ ~ ~ ~ ^ &.l.x.J                                 v.Q.H.H.H.H.H.H.H.E.Q.v.    m 8.8.F h h h h h h h h h h h h h @         X ....E     S B.B.B.B.B.:     oXoXoXoXoXoXoXoXoX].].].].oX/./.].].].",
".XoX.X XoXoXoXoXoXoX.X].oX.X].].`.].oX    : B.B.B.B.B.S     a ~ ~ ) ) ) ) ) &.l.x.J             . . .   . + # o     v.Q.H.H.H.H.H.H.G.A.D.r.o o K 8.8.F h h h h h h h h h h h h h @         X W W Y     S B.B.B.B.B.:     XX].oXoXoXoXoXeXeXoX].].].].].].]._.|.",
".XoXoXoXoXoXoXoXoXoX.X[.[.oX].].].[.oX    : B.B.B.B.B.S     a ~ ~ } ......} ;.l.x.J           6 h h h h F 7.8.m     v.Q.H.H.H.H.H.W.Z.    x 8.7.7.7.8.F h h h h h h h h h h h h h h h h                 S B.B.B.B.B.:     ]..X.XoXoXoXoXoXtXtXoXoXXXXXXXoX].].].",
".X.X.XoXoXoXoXoXoXoXoXoX[.[.[.].oXoXoX    : B.B.B.B.B.S     a ~ ~ ........} ;.x.x.J           6 h h h h F 8.8.m     v.Q.W.W.W.W.W.Q.S.    x 8.7.8.8.8.F h h h h h h h h h h h h h h h h .               S B.B.B.B.B.:     ].]. XoXoXXXoXoXoXoXoXoXoXXXoXXX].].oX",
"[.oXoXoXoXoXoXoX XoXoX.X.X.X]..X].oXoX    : B.B.B.B.B.S     Q ` ` ..........:.u.u.H           6 h h h h F 8.8.m     2.m.b.b.b.b.b.b.y.0 2 m 8.7.6.1.1.c h h h h h h h c F F c h h h h h .               S B.B.B.B.B.:     ].].].oXXXoXoXoXoXoXoXXX].].oX].].].{.",
"oXoXoXoXoXoXoXoXoXoX XoXoXoXoXoX].].}.    : B.B.B.B.B.S     E ..............R                 6 h h h h F 8.8.m                     # 8.8.8.7.8.G 8 8 h h h h h h h h F 8.0.P 8 h h h h .               S B.B.B.B.B.:     oXoXXXXXXXoXoXoXoXoXXXXXoXoXXX{.{.{.].",
"oX{.oX.XoXoXoXoXoXoX.XoXoXoXoX X.X].].    : B.B.B.B.B.S     E ..........o.o.T                 6 h h h h F 8.8.m                     > 7.7.8.8.0.K 8 h h h h h h h h h F 8.8.K 8 h h h h .               S B.B.B.B.B.:     ].oX].XXoXoXoXoXoXoXoXoXoX].XXXXoXoXoX",
"}.].oXoXoX XoXoXoXoXoXoXoX].oX].oX].].    : B.B.B.B.B.S     E ........X.e e q     o ; ; .     @ ; ; ; $ x 8.8.K @ ; x b b o         > 7.8.5.K P F h h h h h h h h h h F 8.8.K 8 h h h h .               S B.B.B.B.B.:     XXoX].oXoXoXoXoXoXoXeXoXoX].oXoXoXoXoX",
"].].].XX].].XXoXoXoXoXoX].].{.}.oX].oX    : B.B.B.B.B.S     E ........W           ; h h @               , 8.8.1.h h 1.0.8.>         > 7.8.1.8 8 h h h h h h h h h h h F 8.8.K 8 h h h h .               S B.B.B.B.B.:     ].oX].oXoXoXoXoXoXeXoXoXoXoXoXoXoXXX].",
"oX].].].].XXoXoXXXoXXXoXXXoX].{.oXoXXX    : B.B.B.B.B.S     E ........W           ; h h o               , 0.0.1.h h 1.0.8.>         > 7.8.,.8 h h h h h h h h h h 8 8 F 8.8.K 8 h h h h .               S B.B.B.B.B.:     oXoX].oXyXoXoXoXoXoXtXoXoXoXoXoXoXoXoX",
"].].].].oX].].oXoXoXoXoXoXoX{.}.oXoX}.    : B.B.B.B.B.S     E ...._ ` (           x 1.1.n 4 4 4 4 4     . 0 0 , o o , 0 0       K K ,.7.8.,.8 h h h h h h h h h c 1.1.1.7.8.K 8 h h h h .               S B.B.B.B.B.:     oXoXoXoXoXoXoXoXtXeXoXoXoXoXoXoXoXoXoX",
"XXXXXXoXoX].].].].].XXoX].].].oX}.].}.    : B.B.B.B.B.S     E ....~ ~ !           b 0.8.F h h h h 8                             7.8.8.7.8.,.8 h h h h h h h h h c 7.8.8.7.8.K 8 h h h h .               S B.B.B.B.B.:     ].oXoXoXoXoXoXoXoXoX].oXoXoXoXoXoXoXXX",
"oXoX].XXoX].{.].].].].oXoXXX].}.}.}.}.    : B.B.B.B.B.S     E ....` ~ !           b 8.8.F h h h h 6                             6.7.7.7.7.1.8 h h h h h h h h h c 7.7.7.7.8.K 8 h h h h .               S B.B.B.B.B.:     XXoXoXoXoXoXXXoXoXoXoXoXoXoXoXoXoXoXoX",
"}.].].].].{.].].].].].XX].].].oXoXoX}.    : B.B.B.B.B.S     E ....f.g.i.    o 6 6 K 8.8.F h h o         x D.A.A.A.D.L           6.7.6.c c c h h h h h h h h h h c 7.8.1.c c c h h h h h .               S B.B.B.B.B.:     oXXX{.oXoXXX].XXXXoXoXoXeXoXoXoXoX}.oX",
"].].oXoX].].].].].].].].].XX}.].oX}.oX    : B.B.B.B.B.S     E ....j.l.g.    @ h 8 P 8.8.F h h           B Q.E.E.E.Q.I           6.7.5.h h h h h h h h h h h h h c 7.8.1.8 h h h h h h h .               S B.B.B.B.B.:     oX].}.oXoXXX].].oXoXoXoXoXoXoXoXoXoXoX",
"}.].{.{.oX].].oXoXXXXX].oXoX].].].oXoX    : B.B.B.B.B.S     E ....g.j.i.    o 8 6 K 8.8.G c c .     > # L W.H.H.H.Q.2.# >       6.7.5.h h h h h h h h h h h h h c 7.8.1.c c n h h h h h .               l N.s.N.B.B.:     oX].}.}.}.oXoXoXoXoXoXoXoXoXoXoXoXoX}.",
"}.}.}.oX{.].oX].oXXXXXoX].}.XX].].oXXX    : B.B.B.B.B.S     E ....` ) !           b 8.7.7.7.7.+   > F.G.G.H.H.H.H.E.G.G.G.x   . 6.7.5.h h h h h h h h h h h h h c 7.7.7.7.7.K 8 h h h h .                     =.B.B.:     oX].].].}.{.].}.oXoXoXoXoXoX{.XXXXoXoX",
"oX}.oXoX}.].oXoXoX].].oXoX}.oX].].].].    : B.B.B.B.B.S     E o...) ~ !           b 0.8.8.8.7.#   > G.W.W.W.W.W.W.W.W.W.W.x   . 6.7.5.h h h h h h h h h h h h h c 7.8.8.8.0.1.h h h h h .                     *.B.B.:     oXXX].].oX].].].].{.oXoX].].].XXXXXXoX",
"oXoX].].].oXoXoXoXoXXXoXoXoX].{.oXXXXX    : B.B.B.B.B.S     r E E a a d           x ,.,.,.,.,.o   # n.n.n.n.n.n.n.n.n.n.M.2   . 6.8.1.5 5 5 5 5 5 5 5 5 5 5 5 5 6 ,.,.,.,.,.b 4 5 5 5 5                       *.B.B.:     XX].oX{.{.XX].].].oXoX].XX].].XXXX].XX",
"oXoX].oXoXoXoXoXoXoXoXXXXXoX{.XXXXoXoX    : B.B.B.B.B.S                                                                         6.8.4.                                                                        *.B.B.:     oX].oX].].].].].XXoXXXoXoXoXXX{.oXoXoX",
"oXXXXXoXoXoXoXoXoXeXoXoX].].XXoXoXoXoX    : B.B.B.B.V.S                                                                         6.8.4.                                                                        *.B.B.:     oXoXoX].].{.].XXoXXXoXXXoXoXXXXXoXoXoX",
"XXoXoXoXoXoXoXoXoXoXoXoX].].].oX].oXXX    : B.B.s.$.$.+.S S S S S S S S S S S S S S S S S S S S S S S S S S S S S S S S S S S S q.d.>.S S S S S S S S S S S S S S S S S S S S S S S S S S S S S S S S S g     *.B.B.:     oXXXoX].]. XoXXXXXXX].].oXoXoXoXoXoXtX",
"oXoXXXXXoXoXoXoXXXoXXX].XXXX[.].].].oX    : B.B.*.    $.V.B.B.B.B.B.B.B.B.B.B.V.B.B.B.B.B.B.B.B.B.B.B.B.B.B.B.B.B.B.B.B.B.B.B.B.B.B.B.B.B.B.V.V.B.B.B.B.B.B.B.B.B.B.B.B.B.B.B.B.B.B.B.B.B.B.B.V.B.B.B.V.$.    *.B.B.:     oXoXoXoXoX]. XoXXX].].{.].XXXXoXoXoXoX",
"oXoXoXoXoXoXoXoXoXoX].].].XX].].].oXoX    3 B.V.=.    $.B.B.B.B.B.B.B.B.B.B.B.B.B.B.B.B.B.B.B.B.B.B.B.B.B.B.B.B.B.B.B.B.B.B.B.B.B.B.B.B.B.B.B.B.B.B.B.B.B.B.B.B.B.B.B.B.B.B.B.B.B.B.B.B.B.B.B.B.B.B.B.B.$.    =.V.B.3     oXoXoXoXoXoX].].oX{.].].].{.XXoXoXXXoX",
"}.}.oXoXXX].oX].].oX].].].].].}.oX].XX    o l l +.=.*.s.B.B.B.B.B.B.B.B.B.B.B.B.B.B.B.B.B.B.B.B.B.B.B.B.B.B.B.B.B.B.B.B.B.B.B.B.B.B.B.B.B.B.B.B.B.B.B.B.B.B.B.B.B.B.B.B.B.B.B.B.B.B.B.B.B.B.B.B.B.B.B.B.s.*.=.+.l l o     oXoXoXoXoXoXoX].XXoX].XXXXoXoX].].].oX",
"oXoXoXXXXX].oX].].].oXXX].].].}.}.oXXX          l V.B.B.B.B.B.B.B.B.B.B.B.B.B.B.B.B.B.B.B.B.B.B.B.B.B.B.B.B.B.B.B.B.B.B.B.B.B.B.B.B.B.B.B.B.B.B.B.B.B.B.B.B.B.B.B.B.B.B.B.B.B.B.B.B.B.B.B.B.B.B.B.B.B.B.B.B.V.l           oXoXoXoXoXoXoX{.oXoX].].{.oXoXXX].].oX",
"oX}.].oXoXXXoXoX}.].].XX].].].oX{.].].          l B.B.B.B.B.B.B.B.B.B.B.B.B.B.B.B.B.B.B.B.B.B.B.B.B.B.B.B.B.B.B.B.B.B.B.B.B.B.B.B.B.B.B.B.B.B.B.B.B.B.B.B.B.B.B.B.B.B.B.B.B.B.B.B.B.B.B.B.B.B.B.B.B.B.B.B.B.B.l           oXoXoXeXoXoXoXoX].XXoXoXXXoXoXXX].].oX",
"oXoXoXoXoX{.oXoXoX].oX].XXoX].].oXoXoX          o 3 : : : : : : : : : : : : : : : : : : : : : : : : : : : : : : : : : : : : : : : : : : : : : : : : : : : : : : : : : : : : : : : : : : : : : : : : : : : : 3 o           oXoXoXoXtXoXoXoXXX].oXoXoXXXoX].].XXoX",
"oXoXoXoXXXXXoXoXoXoXoXoXoXoXoXoX].oXoX                                                                                                                                                                                    oXoXoXoXtXoXoXXXXXoXXXXXoXoXoX{.XX{.oX",
"oX].oXoXXXoXoXoXoXyXoX).oXoXoXoXXXoXoX                                                                                                                                                                                    eXoXoXoX].XXXX].].oXoX{.{.XXXXXXoXXXoX",
"oX].XXoXoXoXoXoXXXoXoXXXoXoXoXoXoXoXoXoXoXoXoXeXoXoXoXyXyXoXXXoXoXoXoXoXoXoXoXoXoX.X].[.oX].].].}.].].].oXXX{.].XXoXoXoXoXoXtXoXoXoXoXoXoXoXoXoXoXoXoX}.oXoXoX.X[.oXoX].].].{.}.oXoXoXoX}.}.oXXXoXoX[.oXoXoXtXeXoXoXoXoXXXoXoXoXoXXXoXoXXX].XXoX].].XXoXeXXX].oX",
"XX{.oXoXoXoXoXoXtXoX{.].].].oXoXoXoXoXoXoXoXoXoXoXoXoXoXoXoXXXoXeXoXoXoXoXoXoXoX.X].].[..X].].].oXoX].XXXX].].XXoXoXoXoXoXoXoXeXoXoXoXoXXXoXoXXXoXoXoX{.].]..XoXoXoXoX}.].].{.].oXoXoXoXoX}.oXoXoXoXoXoXoXoXoXoXoXoXXXoX].oXoXoXoXXXtXoXXX].XXoXXXXXoXoXtXoXoXoX",
"oXoXoXoXoXoXoXoXoXoXoX].].].]. XoX{.oXoXoXoXoXoXoXoXoXoXoXoXtXtXtXoXoXoXyXoXoXoX].].].].].oX].].XX].].oX].XX{.].].].oXoXoXoXoXoXoXoXoXoXoXoXoX].XXoXoX].].}.oXoX]..XoX].[.[.oX[.].].oXoXoX.XoXoXoXoXoXoXoXoXoXoXoX].XXoXoXoXXXoXXX].oXoXoX].oXoX].XXoXXX].oXoXoX",
"oXoXoXoXoXoXoXoXoXoXXX].`.].].oXoXXX].tXeXoXtXoXXXoXoXoXeXeXoXoX9XtXtXoXoXoXoXoXoXXX{.].XXoX}.{.XX].].oXoXoXoX].].[.oXoXoXoXoXoXoXoXoXoXoXoXoXoXXXoXoXXX}.oX.X].].].[.[..X[.].[.].oXoXoX]. XoX].oXoXoXoXoXoXoXoX}.oX{.oXoXoXoXoXXX{.oXoXoXoXoXoX].].oXoX].].].{.",
"XX].oXoXoXoXtXoXoXyXoX].].].oXoXoXoXoXoXeXoXoXXXoXoXoXoXoXoXoXoXoXoXtXtX].oXeXoXoXoXoXXXoXoX{.XX].].].oX].oXXX].]..X{.{.oXoXoXoXoXoXoXoXoXoXoXoXoXoXXXoXoXoXoXoX.XoXoX].oX].].[..X[.{.oX XoXoXXXoXXXoXXXoXoXoXoXoXoXoX].XXeXoXoXoXoXoXoXXX].].oX].].XXXX].].].oX",
"].].oXoXoXoXoXoXoXoXoX].oX].XXoXoXoXoXoXoXoXoXoXoXoXoXtXoXoXtXoXoXoXoXtXeXoXoXXXXXoXoXoXoXoXoX].].].].oX].].XXoX].).].].].XXoXoXoXoXoXoXtXoXoX}.oXoXoX XoXoXoXoXoX.XoX[.].].oXoXoXoX].oX X.X.XoXoXoXoX].}.oXoXoXoXoXoXoXoXoXoXoXoXoXoXeXXX].]. X]. XoX{.].{.oXoX",
"oXoXoXoXoXoXoXoXoXoX{.].oXoXoXoXoXtXoXoXoXoX].oXeXyXoXoXoXoXtX9XoXoXoXoXtXoXoXoXoXoXoXoXoXoXoX}.}.].XXoX).].{.].].].oX].].].oXoXoXoXoXoXoXoXoXoXXXoXoXoXoXoXoX].]..XoXoX].].].oXoXXXXX X].oXoX.X].oXXXXXoXoXoXoXoXoXXXoXoXeXoXoXoXoXoXoXXX].].].].].].oX].].].oX",
"oX].oXoXoXXXoXXXoXoX].XXtXtXoXoXtXtXoXoXoXoXoXtXoXtXtXoXoXXXoXoXoXoXoXoXoXoXoXtXoXoXoXoXoX[.[.oXoX].].].].XXXX].{.].oXoXoXXXXXoXoX{.{.XXoXoX{.oXoXoXoXoX XoX.X].'.].oXoX].oX[.].{.XX{.oXoX X XoXoX XoXXX{.oXoX].eXoXoXoXoXoXoXoXoXoXoXoXXX X].].].].].{.].XX XXX",
"].].{.].].oXoXoXoXoXoXoXoXoXoXoXtXtXoXtXXXoXyXuXtXoXoXoXtXoXoXoXoXoXoXoXoXoXoXoXoXoXoXoXoXXX].oXoX].].oXoXoXoXoX].oXXX].oXoXoXoXoX].XXXXoXoXoXoXoXoXoXoXoXoX.X[..X.X.XoXoXoXoX}.].XXoXoXoXoX].oXoXoXoXoXoX X XoXtXoXoXtXoXoXoXoXtXoX{.XXoXoXXX].].].[./.].XXXXoX",
"].oXoX].].].oXXXoXoXoXoXtXoXoXoXoXtXtXyXoXXXeXuXeXoXoXoXoXeXeXtXtXoXoXoXoXoXoXtXoXoXoXoXoX].oXoXoXXX].oX].].].]. XoX].oXoXoXoXoXoXoX).XXXXoXoXoXoXoXoXoXoX}.oX.X].]. XoXoXoXoX}.oXoXoXXX XoXoXoXoXoX}.]. X.XoXoXoXoXoXyXoXoXoXoXoXoXXXoXoXoXoX X].].]./.].].oXoX",
"].oXoX].}.{.oXoXoXtXtXoXoXoXoXoXoXyXoXoXyXoXoXoXoXoXoXoXoXyXoXoXoXoXoXoXyXoXoXoXoXoXXXXXoX X XoXXXXX].].].XX).].oX].].oXoXoXXXoXoXoXXX].].oXoXoXoXoXoXoXoXoX].oX].oXoXoXoX}.oXoXoXoXoX XoXoX XoXoXoXoX].]..X.XoXoXoXXXyXtXoXoX{.oXoXXXoXoXoXoXoX].].].].oX].].].",
"oXoXoXoX].oXoXoXoXoXoXoXoXoXoXoXXXoXeXoX].oXoXoXoXoXoXoXoXoXyXoXXXoXoXoXoXoXoX].XXoXoXeXoXoX.X].oX].].].].{.].].].].XXoXoXoXoXXXoXoXtXoXoXoXXXXXoXoXoXoX.XoXoXoXoXoXoXoXoXoXoXoXoXoXoX XoX XoXoXoXoXoXoXoXoX[.oXoX.X].oXoXeXoXoXoXXXoXoXoX].].oXoXoXoXXXoX].'.oX",
"].XXoX}.oXeXeXoXoXoXoXtXXX].yXeXoXoXoXoX{.].oXoXtXtXoXtXoXoXoXoXoXoXoXoX].oXoXoXoXoXoXoXoX.X.X[.].].).].].].{.].].oXoXoXoXoXoXoXoXoXoXeXyXoXeXeXoXoXoXoX].]. XXXoXoXoX].oXoXoXoXXX XoX XoX].XXoXoXoXoXoX[.].oXoXoXoXXXoXoXoXoXoXoXoXoXXXoXoXXXoXXXXXoXoXoXoX X X",
"}.oXoXoXoXoXoX].oXoX].{.oXtXtXoXtXoXoXoXoXoXoXoXoXoXeXyXoXoXoXoXoXoXoXoXXXoXoXoXoXoX].oX].].].].].].].].].].oXXXoXoXoXoXoXoXXXoXoXoXoXoXoXoXoXoXoXeXoX X X].].].oXoXoX].XXoXoXoXXXoXoXoXoXoX].oXoXoXoXoXoXoXoXoXoXoXoXoXoX].oX{.oXoXoXoXoXtXeXoXXX].].].].oXXX].",
"{.].oXoXoXoXXXoXoXoXeXoXoXtXyXoXeXoXtXyXoXoXoXoXoXoXoXoXoXoXoXoXXXoXoXoXoXoXoX].].].oXoX].].].].].].'.]..X].XXoXoX].oXoXoXoXoXoXoXoXoXoXoXoXoXoXoXoXoXoX.X XXX].XX.X.XoXoXoXoXoXoXoXoXoXoXoXoXoXoXXX XoX}.oXoXoXoXoXoXoXoXoXoX].].oXoXoXoXoXoXoXoXoXoXoXXXoXoXoX",
"].].oXoX}.{.].].oXoXoXoX{.tXyXtXeXyXtXtXtXoX].oXoXoXoXoXoXoXoXoXoXoXoXoXoXoX].oX].].].oX].].].].].].].].].oXoXXXoXXXoXoXoXoXXXoXoXoXXXoXoXeXoXXX].oXoXoX X XXXXX]. X XoXoXXXoXoXoXoXoXoXoXtXoX].oXoXoXoXoX}.oXoXoXoXoXoXoXtXoXXXXXoX].].oXoXoXoXoXoXoXoX{.].].].",
"].].].].].].oXoXtXyXyXXX{.oXuXtXyXoXtXoXoXoXoX].].].oXoXoXXXoXoXoXoXXX9XoXXXoXoXoXoXXX XoXoX]./.'.].].`.].].oXoXXXXXoXXXoXoX].XXoXtXtXtXoXoXoXoX{.oXyXtXoX].}.].].{.].].oX].].XXoX XoXoXoXoXoX].oXoXoXoXoXoXoXXXoXoXoXoXoXoXoX]. XoXXXoXoXoXoXoXoXXXoXoX].oXoX).",
"].].].`.].].oXoXXXXXyXtXoXoXtXuXyXoXoXoXoX].XXoXoXoXoXoX].XXXXoXtXoX].oX].].].oX}.oXoXoXoX}.]._.^.`.]./.].].oXoXoXXXoXoXoXoXoX{.XXoXtXtXoXXXtXtXoXoXtX9XoXoX].].{.oX].].oX}.{.XX]. XoXoX.X XoXoXoXoXoXoXoXoXoXoXoXoXeXoXoXoXoX X XoXoXoXXXoXoXoXoXoXoXoX].XXoX].",
"[.].].].[.].].].oXoX9XtXtXoXoXtXeXoXoXoXoXoX].XXoXXXtXoXoXoXoXXXoXoX].].].oXXXoXoXoX].].oXoX].'._.'.].`.].].oX].XXoXXXXXoXoXoX{.].XXoXoXoXoXyXtXoXtXoXoXoXoXoXoX}.oXoX].].].{.].]. X].oXoX.XXXXXoXoX].}.}.oX}.XXXXoXyXoXoXtXoXoX XoXoX].XXoXoXoXoXoXXXoXoXXXXXXX"
};
