/* XPM */
static char *wall_anim_4[] = {
/* columns rows colors chars-per-pixel */
"128 128 233 2 ",
"   c #000000",
".  c #0C0B02",
"X  c #03020A",
"o  c #0A0A09",
"O  c #090604",
"+  c #100F0E",
"@  c #120C05",
"#  c #1F1B01",
"$  c #161307",
"%  c #080615",
"&  c #161413",
"*  c #191817",
"=  c #221C07",
"-  c #211E1C",
";  c #282409",
":  c #262208",
">  c #332E0B",
",  c #3B3305",
"<  c #382916",
"1  c #29231B",
"2  c #0C0735",
"3  c #110D29",
"4  c #2C2A27",
"5  c #312D28",
"6  c #34302D",
"7  c #3B342B",
"8  c #2F2E34",
"9  c #3F3C38",
"0  c #3E3B37",
"q  c #463C03",
"w  c #413A0E",
"e  c #49361C",
"r  c #453319",
"t  c #503419",
"y  c #4B0C3A",
"u  c #4B3A24",
"i  c #413E39",
"p  c #443C33",
"a  c #56282A",
"s  c #6E2E2F",
"d  c #71322E",
"f  c #743A2E",
"g  c #6D2E31",
"h  c #6F3132",
"j  c #713232",
"k  c #783B35",
"l  c #68372B",
"z  c #642317",
"x  c #4D4203",
"c  c #5A4E03",
"v  c #4C4411",
"b  c #5A5014",
"n  c #584E12",
"m  c #645605",
"M  c #685C17",
"N  c #695C18",
"B  c #7A5B19",
"V  c #764F1F",
"C  c #7E6E0D",
"Z  c #7F710D",
"A  c #786918",
"S  c #7D701C",
"D  c #4A4136",
"F  c #4D463C",
"G  c #564938",
"H  c #754527",
"J  c #785120",
"K  c #7D433C",
"L  c #7C6835",
"P  c #110946",
"I  c #140C4D",
"U  c #150B5C",
"Y  c #140B57",
"T  c #130B4D",
"R  c #251457",
"E  c #2C1A4D",
"W  c #170D61",
"Q  c #1C1264",
"!  c #231967",
"~  c #251A72",
"^  c #312967",
"/  c #322970",
"(  c #292357",
")  c #512F47",
"_  c #532657",
"`  c #574E42",
"'  c #5E5343",
"]  c #57514C",
"[  c #4F4E55",
"{  c #615546",
"}  c #625748",
"|  c #645949",
" . c #685D53",
".. c #6D635B",
"X. c #4F496A",
"o. c #736C6D",
"O. c #755B6D",
"+. c #A82335",
"@. c #981132",
"#. c #925312",
"$. c #93591D",
"%. c #83720A",
"&. c #84751C",
"*. c #BE6B18",
"=. c #90522D",
"-. c #8F7F20",
";. c #986531",
":. c #966A3D",
">. c #936C2E",
",. c #BD7B3F",
"<. c #C26E18",
"1. c #C57017",
"2. c #C5711A",
"3. c #C57524",
"4. c #9B0F7E",
"5. c #834942",
"6. c #8D554A",
"7. c #9E6C59",
"8. c #9A6754",
"9. c #997D5F",
"0. c #916F56",
"q. c #BE7A4B",
"w. c #B87054",
"e. c #977C62",
"r. c #AF6464",
"t. c #C27E43",
"y. c #A18B06",
"u. c #AB9306",
"i. c #978622",
"p. c #978132",
"a. c #A99626",
"s. c #B19D27",
"d. c #A08F24",
"f. c #BAA629",
"g. c #8F831D",
"h. c #CA863E",
"j. c #C99F3B",
"k. c #C2AC2B",
"l. c #CCB52D",
"z. c #CFB82E",
"x. c #C6B12C",
"c. c #D2BB2F",
"v. c #D6BE30",
"b. c #D4B730",
"n. c #CEAA38",
"m. c #DAC230",
"M. c #D7C32D",
"N. c #A88D4B",
"B. c #B8926F",
"V. c #C78440",
"C. c #CA8741",
"Z. c #CC8943",
"A. c #C89053",
"S. c #C29A77",
"D. c #C09E6E",
"F. c #CBA57E",
"G. c #CAA579",
"H. c #3A2F89",
"J. c #403689",
"K. c #443789",
"L. c #453A9B",
"P. c #5A3E8D",
"I. c #493DA5",
"U. c #5B438D",
"Y. c #534B8D",
"T. c #635893",
"R. c #4E42A8",
"E. c #5446AC",
"W. c #5346B4",
"Q. c #5649B6",
"!. c #5649B8",
"~. c #584BBB",
"^. c #584CB5",
"/. c #5E53B4",
"(. c #6256B2",
"). c #6256A2",
"_. c #756DAD",
"`. c #726AA4",
"'. c #7C75AC",
"]. c #7D77A8",
"[. c #7169AE",
"{. c #76688D",
"}. c #A30D86",
"|. c #AB1388",
" X c #8B7984",
".X c #907696",
"XX c #817BAC",
"oX c #8079B1",
"OX c #8B8693",
"+X c #8A87A7",
"@X c #9997A8",
"#X c #9B9AAA",
"$X c #9694A6",
"%X c #928FAB",
"&X c #B59D92",
"*X c #CCA781",
"=X c #CEA982",
"-X c #C7A381",
";X c #D1AC83",
":X c #C5A894",
">X c #DED6CC",
",X c #DED6CB",
"<X c #DDD5CC",
"1X c #E1D9CE",
"2X c #E0D7CE",
"3X c #E5DDD5",
"4X c #E8DFD6",
"5X c #E7DFD8",
"6X c #E8DFD8",
"7X c #E0D7D0",
"8X c #E7E0D6",
"9X c #E8E0D7",
"0X c #E7E0D8",
"qX c #EAE3D9",
"wX c #EBE2D9",
"eX c #E9E2D8",
"rX c #ECE3DA",
"tX c #EBE4DA",
"yX c #EBE4DB",
"uX c #EAE5DA",
"iX c #ECE5DB",
"pX c #ECE4DB",
"aX c #ECE6DB",
"sX c #EDE6DC",
"dX c #EDE6DD",
"fX c #EAE3DB",
"gX c #EEE8DE",
"hX c #F0E9DF",
"jX c #EFE8E0",
"kX c #EFE7E0",
"lX c #F1EAE2",
"zX c #F2EBE5",
"xX c #F7F3ED",
/* pixels */
"wX3X4X3X4XwX9XwXwX8X3X9X9XwXwX3X3XwX4X3X3X4X4X3X3X3X3X4XwX9X9XwXwXwXwXwXwXwX8XwXgXjXgXwXwXwX9XgXgXgXwXwXwXwXwXwXwXwXgXwXgXgXwX8X9X9X3X1X3X3X3X9X4X4X4X4X4X3X3X4X3X4X4X4X3X4X9X9XwX8X8X9X9XwX9XwX9XwXwXwXgXwXwXgXwXwXwXwXwXwXwXwXwXwXwXwXwXwXwX8XwXwXwXwXwX9XwXwX",
"wX9X9X3X3X9X4X4XwXwX9X9X8X8XwXwX3X3XwX3X3X4X3X3X3X3X9X9X9X9XwX8X8XwXwXwXwXwXwXwXgXlXlXgXwX9X8XwXwXhXlXwXgXwXwXwXwXwXgXwXgXlXgXwX4X4XwX3X2X3X4X9X4X9XwXwX9X3X3X4X9XwX9X9X4X3X3XwXwXwXwX9XwX9X4XwXwXwXwXwXwXwXwXlXwXwXwXwXwXwXwXgXwXwXwXwXwXwXwXwXwX9XwXwXwXwXwXwX",
"wXwXwX9X3X3X4X4XwX8XwXwXwXwXwXwXwXwXwXwX3X4X3X3X3X3X4X4X9X9X9X9X9X3X8X3X9XgXwX6X3X3X9XwX9XwXwXwXwX9XwXgXgXwXwXwXwXwXgXwXwXwXgXwXwXwX3X3X3X9X4X4X4X9XwXwX9X3X4X4XwXwX4X9X3X3X>X3XwXwXwXwXwX9X3XwX3X8XwXwXwXwXwXwXwXwX8X8X8X9X9XwXwXwXwXgXwXwXwXwXwXwXwXwXwXwXwXwX",
"wXwXwX9XwX9X3X3X3X8X9XwXwXwXwXwXwXlX0XwX3X3X9X3X3X3X3X9X4X3X4XwXwX4X3X3X9X8X9XwXwX8X3XwXwXwXwXwXwXwXwXwXwXwXwXwX9XwXgXwXwXwXwXwXwX9X3X3X3X3X3X3X4X4X9X4X4X3X3X4XwX4X3X3XwX3X3X3XwX8X9XwX9XwX9XwX3X9XwXwX9XwXwXwXwX3X9X9X3X9XwXwXwXhXwXgXgXwXwXwXwXwXwXwXwXwXwXwX",
"gXjXwXwXwX4X3X3X3X8X8XwXwXwXwXwXwX0XwXwXwX0X4X3X3X3X3X3X3X4XwX9X9X9XwXwXwXwXwXgXwX9XwXwXwX0XwXlXhXwXwXwXwXwXwXwXwX8X3XwXwXwXwXwXwXwXwXwX3X4X3X4X4X4X9X4X3X3X3X4X4X4X4X9XwX9X3X3X3X8X9X3XwXwXwXwXwXwX8X3X3XwXwXwXwX9XwXwX9XwXwXwXwXwXgXwXwXwXwXwXwXwXwXwXwXwXwXgX",
"wXwXwXwXwXwX9X3X3X8X9XwXwXwXwXwXwX3XwXjXwXwX3X3X3X3X9X4X9XwX9X9X9XwX3XwXwXwX9XwXwXwXwXwXwXwXwXwXwXwXwXwXgXwXwXwXwX8X8XwXwXwXwXwXwXgXwXwX9X3X3X3X3X4X9XwX4X3X3X9X9X4X3X9X9X9X9X4X9XwXwX9X9X9XwX9XwX8X3X9X3XwXwXwXwXwXwXwX9X3XwX8XgXwXwXwX9XwXwXwXwXwXwXwXwXwXwXwX",
"wXwXwXwX9X8X9X3X3X9XwX8XwXwXwXwXwXwXwXwXwXwXwX3X3X3X3X3X9XwXwXwX8XwX4X4XwX4XwX9XwXwXwX8XwXwXwXwXwXwXwXwXwXwXgXgX9X8XwX8XwXwXwXwXwXwXwXwXwX9X4X4XwX3X4X9XwX9X9X9X3X4X3X4X4X4X9X4X9XwXwXwX4X4XwX9XwX3X3X4XwXwXwXwXwXwXwXwXwX8XwX9XgXhXgXwXwXwXwXwXwXgXwXgXwXwXwXwX",
"wXwXwXwX8X3X9X3X3X3X3XwXwXwXwXwXwXwXwXwXwXwXwX4X3X3X4X3X8X9XwX9X3X9X3X9X9XwXwXwX3X3XwXwX8X9X9XwXwXwXwXwXwXwXwXwXwX9XwXwXwXwXwXwXwXwXwXwXwXwX4X3X4X9XwXwX4X9XwXwX3X3X3X3X3X4X3X3XwX9X3XwXwXwX3XwXwX3X3X3X4XwXwXwXwXwXwXwX9X9XwXwXwXwXwXwXwX8XwXwXwXwXgXwXwXgXwXwX",
"jXlXgXwXwXwX4X3X3X3X3X3XwXwXwXwXwXwXwXwX3X3XjXwX3X3X3X9X8X8XwXwX3X3X9X9X3XwXwXwX3X3XwXwXwXwX9XwXwXwXwXwXwXwXwXwXgXgXwXwXwXwX9X8XwXwXwXwX9XwXwX9X3X9X9XwX9XwXwX9X3X9X3X3X3X4X9XwX9X4X4X9X9X9XwXwXwXwXwX9XwXwX9XwXwXwX3X9XwXwXwXwXwXwXwXwX9X9XwXwXwXwXwXwXwXwXwXwX",
"wXwXwXwXwXwX3X3X4X3X3X3X3X8XwXwXwXwXwXwXwXwXwX0X3X3X3X9X9XwXwXwX9X3X3X3X9X9X9X3X3X3X9XwXwXwXwXwXwXwXwXwXwXwXwXwX8XwXwXwXwXwXwXwXwXlXwXwXwX8XwXwX9X9X9XwX9XwX4X3X3X9X9X3X3X4X9XwX4X3X4XwXwX3X9XwX3X4XwX9X4X9XwXwXwXwX3XwXwXwXwXwXwXwXwXwX9X9XwX9X8XwXwXwXwXwXwXgX",
"kXlXwXwXwXwXwXwX3X>X3X9X8X3X8X9X8XwXwXwXwXwXwX0X8X3X3XwXwXwXwX3X9X3X3X3X4XwX4X3X4X3X8XwXwXwXwXwXwXwXwXwXwX0XwXwX4X3XwXwXwXwXwXwXwXwX0XwXwXwX8XwXwXwXwX3X3X9X4X3X3X3X4X9X4X3X3X3XwX3X4X9XwX4X3XwX9X4X3X3X3X3XwXwX3X9XwXwXwX9XwXgXwX3X3X8X3X3X3X9X9XwXwXgXwXwXwXgX",
"wXwXwX3X4X3X9XwX3X4X4X3X9X3X3X3X9XwXwXwXwXwXwX3X3X3X3X3X3XwXwX9X4X3X4X3XwXwX9X4X3X3XwXwX9X8XwXwXwXwXwX9X8X8XwXwX9X3XwXwXwXwXwXgXwXwXwXwXwX8X3X9XwX9X9X2X3X9X3X3X4X4X4X3X9X4X3X3X9X3X3X3X3X9XwXwX4X4X3X4X4X3X9X9X3XwX3X3XwX9X9XlXwX3XwX3X3X3X9X9XwXwXwXwXwXwX9XwX",
"jXwXwXwX9X4X3X3X3XwX3X3X3X3X3X3X3X3XwX9X3X3X3X4X4X3X3X3X1X3XwXwXwX3X3X4XwX9XwXwX3X3X3X4XwXwX9XwXwXwX8XwX3XwX8X9XwXwXwXwXwXwXwXwXwXgXwXwXwX8XwXwX9X9X3X2X3X9X3X4X3XwXwX9X9X4X3X4XwX9X4X9X9XwXwX9X9X3X4X4X3X4X3X9X4XwXwX4XwXwXwXwXwX3X8XwX3X3X4X9XwXwXwXwX3X3X3XwX",
"jXwXwX3X3X3X3X3XwX9XwX3X9X3X3X9X3X3X3X4X4X3X3X3X9XwX3X3X3X3X4X3XwX4X9X3X4X4XwXwXwX3X3X3X3X3X3X3X8XwXwXwXwXwXwXwX9XwXwXwXwXwXwX9XwXwXwXwXwXwXwXwX8X8X3X9XwX4X3X4X3X9XwX4X9X3X3X9X4X9X9XwXwXwXwX3X9X9X9X9X3X3X9XwX4X3X4XwXwXwXwXwXwX8X3X9X9X3X3X9X9XwXwXwX3X9XwXwX",
"0X3XwX6XwX3X3X3X3X9XwX8X3XwX1X3XwX3X3X3X3X4X8X9X8X9X3X3X3X3X3X3X3X9X9X4X3X4X4XwX3X3X9X3X3X3X3X9X3XwXwXwXwXwXwX9X9X9XwXwXwXwXwXwXwX8X3X8XwXwX9X8XwXwX9X9XwX9X3X3X3XwXwX3X8X8X4X4XwX9X9XwXwXwX9XwX9XwXwX8X9X9X3X9X4X9X9XwX9XwXwXwXwXwX9X8XwX9X8X8X3X3XwXwXwXwX8XwX",
"wX9XwXwXwXwX3X3X3X4X3X9X8X9X3X1X3X9X3X3X3X4X4X3X3X3X9X4X3XwX9X3X3X3X3X4X3X9X9X4X3X3X3XwX9X3X3X4X3X9XwX3X3X9X9X9X9X9XwXwX9XwXwXwXwXwXwXwXwXwXwXwXwXwX8X3X4X4X3X3X3X4XwX3X8XwX9X3XwXwX9X9X4X3XwX8X8XwXwXwXwXwX3X4X3X3X4XwX4X4XwXwXwX9XwXwXwXwXwXwX3X3X9XwX9X9X9XwX",
"0XwXwXwXwXwX9X9XwXwXwXwXwX8XwX3X3XwX9X3X3X1X3X3X1X3X4X3X3X3X4X3X3X3XwXwXwXwXwXwX9X3X3X3XwXwX4X3X3X4XwX3X3X9X4X9XwXwXwXwXwXwXwXwXwXwXwXwXwXwXwXwXwXwXwX9XwX9X3X4XwX9X9X3XwX8X3X9XwXwXwX9X9X3X3X9X8X9XwXwXwX8X8X4X4X3X3XwXwXwX9XwX9X9XwXwXwX8XwXwX3X3X9XwX9XwXwX9X",
"wXlXjXwXwXwXwXwXwXwXwX9X0XwXwX8XwX9X4X3X1X>X>X>X1X3X3X3X4X3X3X9X8XwXwXwXwXwXwXwXwXwXwX3X3XwXwX3X3X4X9X4X9X3X3X4X4X9XwXwXwXwXwXwXwX9X9XwXwXwXwX9X8XwXwXwX8X8X4X4XwXwXwXwXwXwXwXwXwXwXwXwX4X9X3X3X3X4X9X4X9XwXwX8XwX3X4X4X4XwX4XwXwX9XwXwXwXwXwX9XwXwX9XwXwX3X3XwX",
"wXwXwX0XwXgXwXwXwXwXwXwXwXwX8X3X3X9XwX9X9X3X3X3X3X3X3X3X9X3X3X8X3X8X5XwXwXwXwXwXwXwXwXwXwX3XwX9X9X3X3X3X3X3X3X3X3X4X3XwXwXwXwX9XwXwXwXwXwXwXwXwX8XwX8X3XwX9X9X3X3XwXwXwXwXwXwXwXwXwXwXwX3X3X9XwX3X4X4X3X8X8X9X9XwXwXwX4X3X9X9XwXwXwX9XwXwXwXwXwXwXwXwXwXwXwX3XwX",
"wXwXwXwXwXgXgXwXwXwXwXwXwXwX9X8X3X3XwX                                                                                                                                                                                    wX9X9XwXwXwXwXwXgXwXwXwXwXwXwXwXwXwXwX",
"wXwX9X9XwXgXwXwXwXwXwXwXwXwX9XwX3X8XwX                                                                                                                                                                                    4X9X4X3X9XwXwXwXwXwXwXwXwXwXwXwXwXwXwX",
"wXwX8X3XwXwXwX8XwXwXwXwXwXwXwXwXwXwXwX          . = # # # # # # # # # # # # # # # # # # # # # # # # # # # # # # # # # # # # # # # # # # # # # # # # # # # # # # # # # # # # # # # # # # # # # # # # # # # # = .           4X9X9XwX3X8XwXwXwXwXwXwXwXwXwXwXwXwXwX",
"wXwX9XwXwXwXwXwX8X9XwXwXwXwXwXwXwX9XwX          , y.y.y.y.y.y.y.y.y.y.y.y.y.y.y.y.y.y.y.y.y.y.y.y.y.y.y.y.y.y.y.y.y.y.y.y.y.y.y.y.y.y.y.y.y.y.y.y.y.y.y.y.y.y.y.y.y.y.y.y.y.y.y.y.y.y.y.y.y.y.y.y.y.y.y.y.y.y.,           9X9X9XwX3X9XwXwX8X8X9XwXwXwXwXwXwXwXwX",
"wXwXwXwXwXwXwXwXwXwXwXwXwX3XwXwXwXwXwX          , u.y.y.y.y.y.y.y.y.y.y.y.y.y.y.y.y.y.y.y.y.y.y.y.y.y.y.y.y.y.y.y.y.y.y.y.y.y.y.y.y.y.y.y.y.y.y.y.y.y.y.y.y.y.y.y.y.y.y.y.y.y.y.y.y.y.y.y.y.y.y.y.y.y.y.y.y.u.,           wXwXwX9X4X3X9XwXwXwXwXwXwXwXwXwXwXwXwX",
"wXwXwXwXwXwXwXwX8XwXwXwXwXwX8X9X9XwXwX    . , , x m m %.y.y.y.y.y.y.y.y.y.y.y.y.y.y.y.y.y.y.y.y.y.y.y.y.y.y.y.y.y.y.y.y.y.y.y.y.y.y.y.y.y.y.y.y.y.y.y.y.y.y.y.y.y.y.y.y.y.y.y.y.y.y.y.y.y.y.y.y.y.y.y.y.%.m m x , , .     wXwXwX9X9X3X4XwXwXwXwXwXwXwXwXwXwXwXwX",
"gXwXwXwXwX3XwXwXwXwX9XwX3X8X9X9X9X9XwX    = y.u.m     c y.y.y.y.y.y.y.y.y.y.y.y.y.y.y.y.y.y.y.y.y.y.y.y.y.y.y.y.y.y.y.y.y.y.y.y.y.y.y.y.y.y.y.y.y.y.y.y.y.y.y.y.y.y.y.y.y.y.y.y.y.y.y.y.y.y.y.y.y.y.y.y.c     m u.y.=     wXwXwX9X9X9X3XwX9X9XwXwXwXwXwXwXgXwXwX",
"wXwXwXwXwXwXwXwX9XwXwXwXwXwXwX8XwXwXwX    # y.y.m     c u.y.y.y.y.y.y.y.y.y.y.y.y.y.y.y.y.y.y.y.u.y.y.y.y.y.y.y.y.y.y.y.y.y.y.y.y.y.y.y.y.y.y.y.u.y.y.y.y.y.y.y.y.y.y.y.y.y.y.y.y.y.y.y.y.y.y.y.y.y.y.u.c     m y.y.#     wXwXwXwXwXwX4XwXwX9X3X8XwXwXwXwXwXwXwX",
"wXwXwXwXwXwXwXwXwXwXwXwXwXwX9X3XwXwXwX    # y.y.%.c c x q q q q q q q q q q q q q q q q q q q q q q q q q q q q q q q q q q q q q q q q q q q q q q q q q q q q q q q q q q q q q q q q q q q q q q q q x c c %.y.y.#     wXwX9XwX9XwX3XwX9X3X3X8XwXwXwXwXwXwXwX",
"lXwXgXjXwXwXwXwXwX9XwXwXwX9XwX9X9X9X8X    # y.y.y.y.u.q                                                                                                                                                 q u.y.y.y.y.#     wXwX3X8X8XwX3X8X9X3XwXwXwXwXwXgXjXwXwX",
"lXlXjXjXwXlXjXwXwX9XwXwXwXwXwXwX8XwX9X    # y.y.y.y.y.q                                                                                                                                                 q y.y.y.y.y.#     wX9X3X3X8X8X3X3X3XwXwXwXwXwXwXgXjXwXwX",
"lXjXjXjXgXjXlXwXwXwXwXwXwXwXwXwX9XwXwX    # y.y.y.y.y.q     V #.#.#.#.$.9.9.9.9.9.9.9.9.:.;.;.;.;.;.;.;.;.;.;.;.;.;.;.;.;.#.#.#.#.#.#.#.#.#.#.#.#.#.#.#.#.#.#.#.#.;.;.;.;.;.;.;.;.;.;.;.;.;.;.#.#.V     q y.y.y.y.y.#     wX3X3X3X8X9X3X3X9X9XwXwXwXwXwXwXwXwXwX",
"hXjXjXlXjXwXwXlXlXgXwXwXwXwXwXwX9X9X3X    # y.y.y.y.y.q     #.2.1.1.1.3.=X=X=X=X=X=X=X=XA.Z.Z.Z.Z.Z.Z.Z.Z.Z.Z.Z.Z.Z.Z.Z.Z.3.1.1.1.1.1.1.1.1.1.1.1.1.1.1.1.1.1.1.2.Z.Z.Z.Z.Z.Z.Z.Z.Z.Z.Z.Z.Z.h.2.2.#.    q y.y.y.y.y.#     9X9X4X4X4X9X9X4X8X8X9XwXwXwXwXgXwXwXwX",
"wXgXlXlXlXwXwXjXkXwXwXwXwXwXwX9X9X3X3X    # y.y.y.y.y.q     #.2.<.<.<.3.G.G.G.G.G.G.G.G.A.C.C.C.C.C.h.h.V.V.V.V.V.V.V.V.V.3.*.*.*.*.<.2.2.<.1.1.*.*.*.*.*.*.*.*.<.V.V.V.V.V.C.Z.Z.Z.Z.Z.Z.Z.h.2.2.#.    q y.y.y.y.y.#     9XwXwXwXwXwX4X9XwX9XwXwXwXwXwXwXjXwXwX",
"wXwXwXwXwXwXwXjXkXwXwXwXwXwXwX0XwX3X3X    # y.y.y.y.y.q     ;.h.h.h.h.h.Z.Z.Z.Z.Z.Z.Z.Z.Z.C.C.C.C.3.k k k k k k k k k k k k f f f d =.G.G.A.1.1.=.j d j f f f f k k k k k j 7.G.G.G.G.G.G.G.G.h.h.;.    q y.y.y.y.y.#     wXwXwXwXwXwX3X3XwX8XwXwX3XwXwXwXwXjXjX",
"wXwXwXwXkXwXwXjXwXwXwXwXwXwXwXwXwXwXwX    # y.y.y.y.y.q     ;.Z.Z.Z.Z.Z.C.C.C.C.C.C.C.C.Z.Z.Z.Z.Z.t.j j j j j j j j j j j j j j j h 5.*X=XA.1.1.=.h h h h h j j j j j j j g 7.=XG.G.G.G.*X*XG.Z.Z.;.    q y.y.y.y.y.#     wXwXwX9X8X4X4X3XwX8XwXwXwX3XwXwXwXwXlX",
"wXwXkX0XwXwXwXjXwXwXwXkXwXwXwXwXwXwXwX    # y.y.y.y.u.q     =.t.,.,.,.,.q.q.,.,.,.,.,.,.q.q.q.q.q.,.f f f f f f f f f f f f f f j h 5.G.=XA.*.*.=.f f K K K f f f f f f f d 8.G.B.G.G.G.S.B.B.q.t.=.    q y.y.y.y.y.#     9X8XwX9X3X3X3X>X9X8XwXwXwXwXjXwXwXwXwX",
"wXwXjXwXwXwXwXwXwXjXwX0XwXwXwXlXlXwXwX    # y.y.y.y.y.q     a j j j j j j j j j j j j j j j j j j k C C C C C C C C C C C C C C j h 5.*X=X9.s j V %.C B.*XG.&.C C C C C C C C &.C B.*XG.K j j j j a     q y.y.y.y.y.#     wXgXwXwXwX3XwX>X>XwXwXwXwXkXwXjXlXwXwX",
"wXwXwXwXwXjXwXwXwXwXwX0XwXjXwXwXwXlXjX    # y.y.y.y.y.q     a j j j j j j j j j j j j j j j j j j k C C C Z Z Z Z Z Z Z Z C Z C j j 5.*X=X9.s g V Z C B.=XG.&.C C C C C C C C Z C B.*XG.K g h j j a     q y.y.y.y.y.#     wXgXwX3XwX8X9XwX3XwXwXwXwXwXwXjXwXwXwX",
"wXwXwXwXwXwXwXwXwXwXwXwXwXwXwXwXjXjXkX    # y.y.y.y.y.q     t H H H H H H H H H H H H H H H H H H H C C C B B B B B B B B B B B j j 5.G.=XB.6.6.:.p.-.B.=XG.p.p.p.p.p.p.p.p.&.B B B.=XG.8.6.6.H H t     q y.y.y.y.y.#     wXwXwXwXwXwX3X8X3XwX3XwXwXwXwXjXwXwXwX",
"wXwXwXwXwXwXwXwXlXkXwXwX3X3X3X9XlXjXwX    # y.y.y.y.y.q     m %.Z Z Z Z Z Z Z Z Z Z Z Z Z Z Z Z Z Z C Z B g j j j j j j j j j j j j 5.G.G.*X=X=X=X*X*XG.G.G.=X=X*X*X*X*X*X;X7.s g B.=XG.=X=XG.&.%.m     q y.y.y.y.y.#     gXwXwXwXwXwXwXwX0XwXwXwXkXkXjXwXwXwXwX",
"wXwXwXwXwXwXjXwXwXwXwXwX3X3X3X3XwXwXwX    # y.y.y.y.u.q     m %.Z C C C C C C C C C %.%.%.%.%.%.%.%.%.%.A j j j j j j j j j j j j j 5.=X=X=X=X=X=X=X=X;X;X;XF.F.F.F.F.F.=X;X7.s s B.;X=X*X*XG.C C m     q y.y.y.y.y.#     wXwXwXwXwXwXwXwXwX3X0XwXjXwXjXwXwXwXwX",
"wXwXwXwXwXwXwXwXwXwXwXwXwXwX3XwX8XwXwX    # y.y.y.y.y.q     t J J N.N.N.N.N.N.N.N.>.V J V J J J J J J J H j j j j j j j j j j j j j k 7.7.7.7.7.7.7.7.O.O.O..X.X.X.X.X X7.7.5.g h 6.7.7.S.*XG.N.N.L     q y.y.y.y.y.#     wXwXgXwXwXwXwXwXwXwX3XwXwXjXwXkXlXwXwX",
"wXwXwXwXwXwXwXwXwXwXwX3X9XwXwXwXwX9X8X    # y.y.y.y.y.q     a j j S.=X=X=X=X=X=X;X7.g h j j h h g h h h h j j j j j j j j j j j j j h s s s s s s s g R U W I.W.W.W.W.P.s s h j j g s h B.*XG.=X;X9.    q y.y.y.y.y.#     wXwXwXjXwXgXwXwXwXwX0XwXwXwXwXjXwXwXwX",
"wXjXwXwXwXwXwXwXwXwXwX>X3XgXwXwXwX8X3X    # y.y.y.y.y.q     a j j S.G.G.*X*X*X*X=X7.s h j j j j j j d d d d d d s s s s s s s s d d d s s s s s j j j E U W R.Q.Q.W.W.U.s s j j j j j j S.=X=XG.=X9.    q y.y.y.y.y.#     jXwXwXjXwXlXwXwXwXwX3XwXwXwXjXwX0XwXwX",
"wXwXwXwXwXwXwX0X0X0XwX3X3XwXwXjXwXwX3X    # y.y.y.y.y.q     a j j S.*XG.G.G.*X*X=X7.s j j j h E E E U.U.U.U.U.{. X X X X X X X XU.U.U. X X X X XX.E E U U W R.Q.^.[.[.`.{.{.X.E E a j j 6.6.6.G.=X9.    q y.y.y.y.y.#     lXwXwXjXgXwXwXwXwXwX8XwXwXwXwXwX3X0XwX",
"wXwXwXwX0XwXwXwXwXwX0X0X0XwXwXkXjXlXwX    # y.y.y.y.y.q     a j j S.*X*X*XG.*X*X=X7.s j j j h R U Q W.!.!.!.W.[.#X#X#X#X#X#X#X$X^.!.(.#X#X#X#X#XX.Y U U U W R.Q.^.'.'.'.'.oXY.U U ) j j h g k G.=X9.    q y.y.y.y.y.#     wXwXwXlXwXwXwXwXwXwX9XwXwXwXwXwXwX0XwX",
"wXwXwXwXwXwX3X8X3X5X3X3X0XwXwXwXwXwXwX    # y.y.y.y.y.q     a j k S.*X*XG.G.G.G.=X7.g h h h h R U Q W.Q.Q.Q.W._.#X@X@X@X@X@X@X$X^.Q.(.@X@X@X@X#XX.U U U U W R.Q.^.'.'.'.'.XXY.U U ) j j j j k G.=X9.    q y.y.y.y.y.#     wXwXwXjXwXwXwXwXwXwX9XwXwXwXwXwXwXwXwX",
"wXwXwXwXwX8X3X3X8X3X3X3XwXwXwXwXwXwXwX    # y.y.y.y.y.q     0.S.B.G.*XS.K K ) ^ ^ R R R K.E.E.).).)._._._._._.'.XXXXXXXXXX$X@X@X%X%X+X/.(.R.! ^ Q U U U U W R.Q.Q.^.^.[.$X$X+X+X+XOXOXOX).E.).*X=X9.    q u.y.y.y.y.#     jXjXjXjXwXwXwXwXwXwXwX3XwXwXwXwXwXwXwX",
"wX0XwX3X4XwX3X3X3XwX3XwXwXwXwX0XwXwXwX    # y.y.y.y.y.q     9.=X*XG.*XB.j j a U U U U U L.!.Q._.'.'.'.'.'.'.'.'.'.'.'.'.'.$X#X@X#X#X+XW.!.H.U U U U U U U W R.Q.Q.Q.W.[.#X@X#X#X#X#X#X@X/.Q.(.-X=X9.    q y.y.y.y.y.#     jXlXwXwXwXwXwXwXwX0XwX8X8XwXwXwXwXwXwX",
"wX3X0X3X3XwX>X3X3XwXwX3XwXwXwXwXwXwXwX    # y.y.y.y.y.q     e.-X-X-X-XB.k k ) ! ! ! ! Q L.Q.Q._.'.'.'.'._.`.`.`.`.`._.'.'.+X%X%X+X+X].R.R.H.Y Y Y Y Y Y Y Y L.R.R.R.R.).+X+X+X%X%X$X@X@XE.R.E.B.B.0.    q y.y.y.y.y.#     wXwXwXwXwXwXwXwX8XwXwXwX3XwXwXwXwXwXwX",
"wX3X8X9X3X3X3X3X3X3XwXwXwXwXwXwXwXwXwX    # y.y.y.y.y.q     K.^.^.^.^.(.$X$X$X$X$X+X_.'.(.W.Q._.'.'.^.^.L.U Q Q Q U L.^.Q.Q.^.W.Q Q T                             X   % Q U H.~.Q.+X#X$X^ W U Q Q T     q y.y.y.y.y.#     wXwXwXwXwXwXwXwXwXwX8X0X9XgXwXwXwXwXwX",
"wXwX4X9X3X3X3X4XwX8X9XwXwXwXwXwXwXwXwX    # y.y.y.y.y.q     J.!.Q.Q.Q.(.@X#X#X@X#X+X'.'.(.W.Q.'.'.'.^.Q.L.U U U U U H.Q.Q.Q.Q.W.Q W T                                 % W U H.~.W.XX#X$X! U U U U P     q y.y.y.y.y.#     wXjXwXwXwXwXwX0XwXwXwX8X3XwXwXwXwX9XwX",
"wXwX9XwX9X9X9XwXwXwXwXwXwXwXwXwXwXwXwX    # y.y.y.y.y.q     / L.L.L.L.R.+X+X+X#X#X+XXXXX[././.T.T.T.Q.Q.I.~ ~ ~ ~ ~ L.Q.Q.I.L.L.T P 2 > > > > > > > > > > > > > > > > 1 T P / L.L.].#X@XX./ / ^ / (     q u.y.y.y.y.#     wXjXjXwXwXgXjXwXwXwXwX3X3XwXwXwXgXwXwX",
"wX9X9XwXwXwX3X3XwXwXwXwXwXwXwXwXwX9X8X    # y.y.y.y.y.q     P U U U U Q Q.W.[.#X@X@X#X#X+X'.'.! U Q W.Q.Q.Q.Q.Q.Q.Q.Q.Q.Q.! U Y     ; c.c.c.c.c.c.c.c.c.c.c.c.c.v.v.c.i.    3 U Y {.#X@X#X#X#X#X#Xo.    q u.y.y.y.y.#     wXkXwXwXwXwXwXgXwXwXwX3X3XwXwXwXwXgXwX",
"wXwXwXwXwXwXwXwXwXwX9XwXwXwXwXwXwXwXwX    # y.y.y.y.y.q     P U U U U Q Q.W.[.#X#X#X#X#X+X'.'.! U Q W.Q.Q.~.~.~.~.~.~.~.~.~ U U     ; c.z.z.z.z.z.z.z.z.z.z.z.z.z.z.c.-.    2 W U {.#X#X#X#X#X#X#Xo.    q y.y.y.y.y.#     lXlXjXwXwX3XwXwXwXwX8X4X3X3XwXwXwXwXwX",
"wXwXwX3XwXwXwXwXwXwXwX0XwX0XwXwXwXwXwX    # y.y.y.y.y.q     P U U / H.H.Q.Q.E.T.T.X.[ [ X.X.X.2 2 P W.Q.R.^ ^ ^ ^ ^ ^ ^ ^ 2 2 2     ; c.z.z.z.z.z.z.z.z.z.z.z.z.z.z.c.-.    % 2 2 ) [ [ T.T.T.'.'.T.    q y.y.y.y.y.#     wXwXjXwX0XwXwXwX8XwX8X3X3X9XwXwXwXgXwX",
"wXwXwXwXwXwX9XwXwX9X9X8XwXwXwXwXwXwXwX    # y.y.y.y.y.q     P U W W.!.!.Q.!.L.Y U 2               % E.!.H.                          ; c.z.z.z.z.z.z.z.z.z.z.z.z.z.z.c.-.                T Y W W.W.H.    q y.y.y.y.y.#     wX3XwXwXwXwXwXwXwXwX8X3X8X3XwX9XwXgXgX",
"9XwXwXwXwXwX9X9XwXwX8X9XwX9X9XwXwX9XwX    # y.y.y.y.y.q     P U U R.Q.Q.~.~.L.U W 2               X E.!.H.                          = c.z.z.z.z.z.z.z.z.z.z.z.z.z.z.c.&.                Y W Q Q.~.J.    q y.y.y.y.y.#     wXwXwXwXwXwXlXlXwXwXwXwX9X3XwXwX9X8XwX",
"3X9XwXwX9XwX3X8XwX9XwX3X3XwXwX9X8X0XwX    # y.y.y.y.y.q     / H.H.W.W.R.E E 2 % % %     E / / X.X.X.[.[.Y.2 2 %               . A &.i.z.z.z.z.z.z.z.z.z.z.z.z.z.z.z.c.f.&.&.w     b &.&.* % 3 / H.R     q y.y.y.y.y.#     wXwXwXwXwXwXjXgXwXwXwXwXwX8X3XwX9X3X9X",
"wXwX3X3XwX3X3X8XwXwXwXwX9X8XwX9X8X5XwX    # y.y.y.y.y.q     J.~.Q.W.W.L.                H.~.!.'.oX'.'.'.T.U W 2               . x.c.c.z.z.z.z.z.z.z.z.z.z.z.z.z.z.z.z.c.c.m.N     i.m.c.#     Y U P     q y.y.y.y.y.#     wX9XwXwXwXwXwXwXwXwXwXwXwXwXwXwX9X9X9X",
"wXwXwX4X9X9X8X8X3XwX9XwX8X8XwXwXwXwXwX    # y.y.y.y.y.q     J.~.Q.Q.Q.L.                / !.Q._.'.'.'.'.T.U W 2               . k.z.z.z.z.z.c.c.z.z.z.z.z.z.c.c.c.z.z.z.z.v.M     -.v.l.#   X U U P     q y.y.y.y.y.#     3X9XwX8X9XwXwXwXwXwXwXwXwXwXwXwX3XwXwX",
"9XwXwX3X3X9X3X3X9X3XwX9X9X9XwXwX8X3X9X    # y.y.y.y.y.q     % 3 3 3 3 %           E L.L.)._._.'.'.'.'.'.T.U W 2     M a.a.=   . k.z.z.z.c.i.= = &.c.z.z.z.l.> ; w l.z.z.z.v.M     -.c.l.#   X U U P     q y.y.y.y.y.#     3XwXwXwX9XwX8XwXgXwXwXwXwXwXwXwXwXwXwX",
"4X9XwX3X3XwXwX3X9X9X9X9X9X9X8X8X3X9XwX    # y.y.y.y.y.q                           ( ~.Q._.'.'.'.'.'.'.'.T.U W 2     &.v.c.;   . k.z.z.z.c.&.    A c.z.z.z.x.$   # l.z.z.z.v.M     -.c.l.#   X U U P     q y.y.y.y.y.#     3X3XwXwXwXwXwXwXwXwXwXwXgXwXwX9XwXwXwX",
"3XwXwX4X9X3XwX9X3X8X9X9XwX9X8X8X9X9X8X    # y.y.y.y.y.q       O                   ( E.R.).`.`.'.'.'.'.'.T.W Q 2     &.c.c.;   . k.z.l.k.x.A     A c.z.z.z.x.$   # f.k.x.z.v.M     -.c.l.#   X U U P     q y.y.y.y.y.#     3X4XwXwXwXwXwXwXwXwXwXwXwXwXwXwX3X9XwX",
"5XwXwXwX9X3X4X4X3X4X9XwXwX9X4X3X4X1XwX    # y.y.y.y.y.q     p ' ' ' ' ' ' ' 7       X X X o o R.^.^.'.'._.E.W.^     &.c.c.;   . k.c.a.. . .     A c.z.z.z.x.$     . . v c.v.M     -.c.l.#   X U U P     q y.y.y.y.y.#     4X4XwXwX4XwXwXwXwXwXwXwX3XwXwXwX3XwXwX",
"3X3X3X3X3X4X3X3XwX9XwXwX4XwXwX9X3X9X9X    # y.y.y.y.y.q     D | | } } } } | p                 L.Q.^.'.'._.W.!.^     &.c.c.;   . k.c.a.          A c.z.z.z.x.$         > v.v.M     -.c.l.#   X U U P     q y.y.y.y.y.#     3X4XwXwXwXwXwXwXwXwXwX4X9XwX4X4X9XwXwX",
"3X8XwX3X3X3X3X3XwX8X9XwXwXwXwXwXwXwX8X    # y.y.y.y.y.q     7 F F ' ' } ....] * - - - - o     H.I.R.'.'._././.^     &.c.c.;   . k.c.a.; ; ; ; = &.c.z.z.z.l.> ; ; ; ; b v.v.N     -.c.l.#   X ! ~ Y     q u.y.y.y.y.#     3X3X3X3X3X3X3X8XwXwXwX4XwXwX9X3X3XwXwX",
"3X6XwX3X3X3XwX4X3XwXwXwXwX6XwXwX6XwXwX    # y.y.y.y.y.q           p F ] @X@X@X#X#X#X#X#X8     T U ! '.'.'.'.oXX.    &.c.c.;   . k.z.z.c.c.c.c.c.z.z.z.z.z.z.c.c.c.c.c.z.c.v.N     -.c.l.#   % E.!.J.    q y.y.y.y.y.#     3X4X3X3X3X3X3X4X4XwXwXwXwXwX9X3X3XwXwX",
"3X3X3X1X3X4X3X3X8XwXwXwXwX3X3X6XwXwXwX    # y.y.y.y.y.q           p F ] #X#X#X@X@X@X@X#X8     Y W ! '.'.'.'.oXX.    &.c.c.;   . k.c.c.c.c.c.z.z.z.z.z.z.z.z.z.z.z.c.c.c.c.M.M     -.c.l.#   % E.!.J.    q y.y.y.y.y.#     3X3X3X3X3X3X3X3X3XwX4X3X9X9X4X3X3X9XwX",
"3X3X4X8X3X3X4XwXwX3X8X3X4X3X3X3X3X9X3X    # y.y.y.y.y.q           p p G  X XOX#X@X@X@X#X8     2 2 P Y.Y.T.[.[.^     &.c.c.;   . w.q.q.q.q.Z.c.z.z.z.z.z.z.z.z.z.n.q.q.q.q.t.l     -.c.l.#   % E.!.J.    q y.y.y.y.y.#     3X3X3X3X3X3X3X3X3XwX3X1X9X9X9X4X9XwXwX",
"3X3XwXwX3X3X4X3X9X4X4XwX4X3X3X3X3X3X4X    # y.y.y.y.y.q           r e e } ' o.#X@X@X@X#X8           Y U ~ Q.!.^     &.c.c.;   O 4.}.}.}.}.r.c.z.z.z.z.z.z.z.z.z.j.}.}.}.}.}.y     -.c.l.#   % E.!.J.    q y.y.y.y.y.#     3X3X3X4X3X3X3X3X3X9X4XwX4X3X4XwX4XwXwX",
"3X0XwXwXwX9X3X3X4X4X3XwXwX3X3X9X4X3X3X    # y.y.y.y.y.q           r e u | | o.#X#X#X@X#X8         X U U ~ ~.~.^     &.v.c.=     4.|.|.}.}.r.M.v.v.v.v.v.v.v.v.c.n.}.}.}.|.|.y     -.c.l.#   % E.!.J.    q y.y.y.y.y.#     wX3X3X3X3XwXwX4X4X3X4X3X3X3X3X4X4X3XwX",
"3X3XwXwXgXwX3XwXwX8X8XwX9XwXwX4X3X6X4X    # y.y.y.y.y.q           $ $ = 1 1 0 .. . X#X#XF = =       % % 2 H.H.I     &.c.z.&.A A y y a w.w.:.n b b b b b b b b b N w.w.6.y y l A A s.c.l.#   % E.!.J.    q y.y.y.y.y.#     wXwX5X3X3X3X3X3X3X8X9X3X3X3X3X3X9XwXwX",
"3X0XwXwX9XwXwXwXwXwX9XwX4X9X9X9X3X3X6X    # y.y.y.y.y.q                     @ e r ..#X#X} e e .         % U U 2     &.c.z.c.c.x..   : c.M.&.                    $ z.M.g.    M m.c.c.z.l.#   % E.!.J.    q y.y.y.y.y.#     wXwX0X0X0XwX3X3X3X8XwX9X9X9X3X3X9XwXwX",
"3X0XwXwXwXwXwXwXwXwX8XwX9X9X9XwX3X3X3X    # y.y.y.y.y.q                     + e r ..#X#X} r r O         % W W 2     &.c.z.z.z.k..   ; c.c.&.                    # l.c.-.    M v.z.c.c.z.#   % E.!.J.    q y.y.y.y.y.#     wXwXwXwX0X3X3X3X3XwX9X3XwXwX3X9X3X9XwX",
"3XwXwXwXwXwXwXwXwXwXwXwX9X8XwXwXwX0X3X    # y.y.y.y.y.q     6 D D D D p 7 7 4 @ . [ #X#X..G G D D p < < - % % X     &.c.z.z.z.k..   ; c.c.&.    n d.i.i.i.i.@   # l.c.-.    M v.c.M > >     % E.!.J.    q y.y.y.y.y.#     wXwXwXwXwX0X3X3X3X3X3X3X8XwX9XwX9X8XwX",
"4X3X8XwX8XwX8X8XwXwXwX3X3X3XwXwXwXwX0X    # y.y.y.y.y.q     D | | | | } F F 6     [ #X#Xo.} | | | } e e <           &.c.z.z.z.k..   ; c.c.&.    A m.v.v.v.l.$   # l.c.-.    M v.c.>         % E.!.J.    q y.y.y.y.y.#     wXjXwXwXwXwX0XwXwX2X>X9X8X3XwXwXwXwX8X",
"wXwXwXwXwX8X3XwXwXwX9X1X>X8X3XwXwXwXwX    # y.y.y.y.y.q     D } } } } ' F ` 6     [ @X$Xo.} } } } ' e e <           S l.x.l.z.k..   ; l.l.S     A b.l.l.l.k.$   # k.l.&.    N c.c.w         % E.!.J.    q y.y.y.y.y.#     wXjXjXwXwXwXwXwX8XwX3X3X3X3XwXwXwXwX3X",
"wXwXwXwXwXwXwXwX4X9X3X3X3X9X3X3XwXwXwX    # y.y.y.y.y.q     < u u } }  .OX$Xo.    o & % < u u ' } ' e e <           . $ $ a.c.k..     $ $ .     z +.+.+.+.+.@     $ @ v f.f.k.c.c.w     J.R.R.Q.!.J.    q y.y.y.y.y.#     wXwXwXwXwXwXwXwX5X3X3X3X3X3X3XwXwX3X3X",
"3X9X9X8XwXwXwX8XwXwX9XwXwXwX3X3X3XwXwX    # y.y.y.y.y.q     < e e } }  .$X#Xo.          < e e ' | } e e <                 a.c.k..               z +.@.@.@.@.@         w c.c.z.z.c.w     L.!.Q.Q.!.J.    q y.y.y.y.y.#     wXwXwXwXwXwXwXwXwX3X3X3X3XwX>X>X3X3X3X",
"9XwX9X8XwXwXwXwXwXwX9X3XwX9X3X3X2X3XwX    # y.y.y.y.y.q     ; < < G ' | @X#Xo.& & & & & < < < F G F < < < o o o o o       a.c.k.; # $     . # # z @.@.@.@.@.= # $     w c.z.z.c.c.w     H.L.L.I.R./     q y.y.y.y.y.#     0X3XwXwXwXwXwXkXkXwX3X3X3X3X3X3X3X<X7X",
"9XwXwXwXwXwXwXwXwXwX9X4X4XwX3X3X3X4XwX    # y.y.y.y.y.q           r e G @X@X@X$X$X$X$X#X8               + 9 0 0 0 i &     a.c.z.l.l.a.    v c.c.n         O f.l.a.    w c.z.c.c.c.w         X U W P     q y.y.y.y.y.#     3X9X9XwXwXwXwXwXjXjXwXwX0X0X5XwX3X3X3X",
"4X9X9XwXwXwXwXwXwXwXwXwX4X4X4X3XwXwXwX    # y.y.y.y.y.q           r e G @X#X#X#X#X#X@X#X8               + i 9 9 9 i &     a.c.z.z.c.a.    v c.v.n           f.c.s.    w c.z.c.c.m.w         X U U P     q y.y.y.y.y.#     3X3X8XwXwX0XwXwXwXwXwXwXwX0XwX0X3X3XwX",
"4XwXwXwXwXwXwXwX8XwXwX9X9X9X3X9X3XwXwX    # y.y.y.y.y.q           ; < 7 OXOXOXOXOXOX#X#X` * *           + i 9 9 9 i &     a.c.z.z.c.a.    v c.c.S > w w w w k.c.s.    w c.c.a.&.i.;         X U U P     q y.y.y.y.y.#     3X3X3XwX0XwXwXwXwXwXwX0X3X3XwX3X3X3X5X",
"wXwXwXwXwXwXwXwXwXwX8XwXwXwXwXwX3X3X6X    # y.y.y.y.y.q               o } } } } ' o.#X#Xo.| | o         + i 9 9 9 i &     a.c.z.z.c.a.    v c.z.c.c.c.c.c.c.c.c.s.    w c.v.M               X U U P     q y.y.y.y.y.#     wXwX0X0X0XwXwXwXwXwX0X0XwXwX0X5X5X5X3X",
"wX5XwX9XwXwXwXwXwXwX9XwXwXwXwX8X9X3X3X    # y.y.y.y.y.q               o | | | | } o.#X#Xo.} } o         + i 9 9 9 i &     a.m.v.v.m.a.    v m.v.v.v.v.v.v.v.v.v.f.    w m.m.N               X U U P     q y.y.y.y.y.#     3XwX3X0XwXwXwXwXwXwXwXwXwX3X0X0XwXwXwX",
"6X3XwXwXwX8XwXwXwXwXwXwXwX3XwX3XwX3X3X    # y.y.y.y.y.q     $ = =       5 5 7 G G } .... .} } 7 5 4     + i 9 9 9 i &     n M M M M n     ; N M M M M M M M M M n     = N N >     & - *     X U U P     q y.y.y.y.y.#     0XwX3XwXwXwXwXwXwXwXkXwXwX3XwXwXwXwXwX",
"3X3X3X0X3X3X0XwXwXwXwXwX3X3X5X5XwX3XwX    # y.y.y.y.y.q     < e e O         @ e r r r r G | } | | '     + i 9 9 9 i &                                                             5 i i o   X U U P     q y.y.y.y.y.#     3XwX3XwXwXwXwXwXwXkXwXwXwXwXwXwXwXwX3X",
"wX3X3X3X3X0XwXwX0XwX0XwXwXwX3X3XwXwX0X    # y.y.y.y.y.q     < e r           @ e e e e e G | } } } `     + i 9 i 9 i &                                                             4 i 0 o   X U U P     q y.y.y.y.y.#     wXwX3XwXlXwXwXwXwXwXkXwXwXwXwXwXwXwXwX",
"3X3X3X5XwX3X3XwXwXwXwXwXwXwX5X6XwXwX6X    # y.y.y.y.y.q     p G G p p p p p 5 @ + + + @ D | } } } `     + i i i 9 i &     - 4 4 4 4 -     > i.i.>           &.i.A     o 5 5 &     4 i 0 o   X U U P     q y.y.y.y.y.#     wXwXwXwXwXwXwXwXjXkXwXwXwXwXwXwXwXwXwX",
"0X0X0XwXwX3X3X3X3X3X0XwX5X3X3XwX6X3X6X    # y.y.y.y.y.q     D | | | | | | | p           p | } } } `     + i i 9 9 i &     6 i i i i 6     v m.m.b         O f.c.f.    & i i -     4 i 0 o   X U U P     q y.y.y.y.y.#     3XwXwXwXwXwXwXwXwXwX3XwXwXwXwXwXwXwXwX",
"wXwX3X0XwX3X5X3X3X3X3XwXwX0X3X6X6X6X6X    # y.y.y.y.y.q     D | } } } } } | p           p | } } } `     + i 9 9 9 i &     6 i 9 9 i 6     v c.v.b         . f.c.s.    & i i -     4 i 0 o   X U U P     q y.y.y.y.y.#     0XwXwXwXwXwX0XwXwXwXwXwXwXwXwXwXwXwXwX",
"6X3X3X3X3X6X3X3X3X3X3X0X3X3X3XwXwXwX6X    # y.y.y.y.y.q     D | } } } } } | ` p p p p p * o o r u r     + i 9 9 9 i &     6 i 9 9 i 6     v c.c.f.s.s.s.s.s.l.c.s.    & i i -     4 i 0 o   X U U P     q y.y.y.y.y.#     wX0X3XwXwX0X3X0X0XwXwXwXkXwXwXwXwX6XwX",
"3X3XwXwX3X3X3X3X3X3X3X3X3X0X6X3XwX6XwX    # y.y.y.y.y.q     D | } } } } } } ' F F F F F &     < e r     + i 9 9 9 i &     6 i 9 9 i 6     v v.z.c.c.c.c.c.c.c.c.s.    & i i -     4 i 0 o   X U U P     q y.y.y.y.y.#     wX3X6XwXwX0X3X3XwXwXwXwXwXwXwXwXwXwXwX",
"6X3X5X5XwX3X3XwXwX0X0X3XwXwX3X3X3XwXwX    # y.y.y.y.y.q     p ` ` ' ' } } } ' F F F F F &     < r <     + i 9 9 9 i &     6 i 9 9 i 6     w k.f.x.c.z.z.c.z.f.f.i.    & i i -     4 i 0 .   X Q Q T     q y.y.y.y.y.#     wX3X6X6X6XwXwXwXwXwXwXwXwXwXwXwXwXwX6X",
"6X6X6XwX5X3XwX3XwX0X0XwX3X6X0X3X3XwX0X    # y.y.y.y.y.q           r e u } } } } } ` F F &               + i 9 9 9 i &     6 i 9 9 i 6       O   A c.z.z.c.l.#         & i i -     5 i 0 .   % R.W.H.    q y.y.y.y.y.#     wX3X5X3X6X5X3X6XwXwXwXwXwXwX5X0X0XwXwX",
"wX6XwXwX6X3XwXwXwX3X3XwXwX6XwX3X3X3X3X    # y.y.y.y.y.q           r e u | | | | | ` F F &               + i i i i i &     6 i i i i 6           A m.c.c.c.l.$         & i i -     4 i 9 o   % W.~.J.    q y.y.y.y.y.#     wX0X3X3XwX3X3X3X3X3XwXwX3X3X3X0X0X0XwX",
"wXwX3X3X3XwXwXwXwXwXwXwXwXwX3X5XwX0X0X    # y.y.y.y.y.q           < < < D D D D D p 7 7 +               o 5 5 5 5 5 &     4 5 5 5 5 4           n d.i.i.i.i.@         o 5 5 &     - 5 5     X H.J.^     q y.y.y.y.y.#     0X3XwX5X5X0X3X3X3XwXwX3X0X3X3X0X0X3X0X",
"wXwX3XwXwXwXwXwXwXwXwX0XwXwX5X0X0XwXwX    # y.y.y.y.y.q                                                                                                                                                 q y.y.y.y.y.#     wX3XwX3X3X3X3X3X0XwX0XwXwXwXwX5XwXwXwX",
"wX0X0XwXwXwXwXwXwXkXwXwX3X3X0XwXwXwXwX    # y.y.y.y.u.q                                                                                                                                                 q u.y.y.y.y.#     wXwXwX3X5X5X3X0XwX0XwX0XwXwX0X0XwXwXwX",
"0XwXwXwXwXwXwXwXwXwXwXwX3X3X3XwX3XwX0X    # y.y.%.c c x q q q q q q q q q q q q q q q q q q q q q q q q q q q q q q q q q q q q q q q q q q q q q q q q q q q q q q q q q q q q q q q q q q q q q q q q x c c %.y.y.#     wX0XwX3X3X8XwXwX0XwX3X3XwXwXwXwXwXwXjX",
"wXwX0X0XwXwXwXwX0XwX0X3X0XwX4X3X3X3XwX    # y.y.m     c u.y.y.y.y.y.y.y.y.y.y.u.y.y.y.y.y.y.y.y.y.y.y.y.y.y.y.y.y.y.y.y.y.y.y.u.y.y.y.y.y.y.y.u.y.y.y.y.y.y.y.y.y.y.y.y.y.y.y.y.y.y.y.y.y.y.y.u.y.y.y.u.c     m y.y.#     wXwXwXwXwX3X8XwX0X3X3X5X3XwX0XwXwXwXwX",
"wXwXkXwXwXwXwXwXwXwX3X3X3X0X3X3X3XwXwX    = y.u.m     c y.y.y.y.y.y.y.y.y.y.y.y.y.y.y.y.y.y.y.y.y.y.y.y.y.y.y.y.y.y.y.y.y.y.y.y.y.y.y.y.y.y.y.y.y.y.y.y.y.y.y.y.y.y.y.y.y.y.y.y.y.y.y.y.y.y.y.y.y.y.y.y.c     m u.y.=     wXwXwX0XwXwX3X3XwX5X3X3X3X5X0XwXwX0XwX",
"6X6XwXwX0X3XwX3X3XwX3X3X3X3X3X5XwX3X0X    . , , x m m %.y.y.y.y.y.y.y.y.y.y.y.y.y.y.y.y.y.y.y.y.y.y.y.y.y.y.y.y.y.y.y.y.y.y.y.y.y.y.y.y.y.y.y.y.y.y.y.y.y.y.y.y.y.y.y.y.y.y.y.y.y.y.y.y.y.y.y.y.y.y.y.y.%.m m x , , .     wXwXwXwXwXwXwX3X0XwX3X0X0XwXwX3X3X3XwX",
"wXwXwXwX0X3XwX3X3X3XwX0X3X3X3X6X6XwX0X          , u.y.y.y.y.y.y.y.y.y.y.y.y.y.y.y.y.y.y.y.y.y.y.y.y.y.y.y.y.y.y.y.y.y.y.y.y.y.y.y.y.y.y.y.y.y.y.y.y.y.y.y.y.y.y.y.y.y.y.y.y.y.y.y.y.y.y.y.y.y.y.y.y.y.y.y.y.u.,           wXwXwXwXwXwXwX5XwXwX5X3X5XwXwXwX3X3XwX",
"wX6X3XwXwX5XwXwX6X3X3X0X3X3X3XwX5X3X3X          , y.y.y.y.y.y.y.y.y.y.y.y.y.y.y.y.y.y.y.y.y.y.y.y.y.y.y.y.y.y.y.y.y.y.y.y.y.y.y.y.y.y.y.y.y.y.y.y.y.y.y.y.y.y.y.y.y.y.y.y.y.y.y.y.y.y.y.y.y.y.y.y.y.y.y.y.y.y.,           wXwXwXkXwXwXwXwX3X5XwXwX0XwXwX0X3X3XwX",
"wXwXwXwXwX5XwXwXwX3XwX3X0XwX3X3XwXwXwX          . = # # # # # # # # # # # # # # # # # # # # # # # # # # # # # # # # # # # # # # # # # # # # # # # # # # # # # # # # # # # # # # # # # # # # # # # # # # # # = .           wXwXwXwXjXwXwXwX0X3XwXwX0X0XwX3X3X0XwX",
"wXwXwXwX0X0XwXwXwXwXwXwXwXwXwXwX3XwXwX                                                                                                                                                                                    wXwXwXwXjXwXwX0X0XwX0X0X0XwXwX5XwX5XwX",
"wX3XwXwX0XwXwXwXwXlXwX7XwXwXwXwX0XwXwX                                                                                                                                                                                    kXwXwXwX3X0XwX3X3XwXwX5X5X0X0X0XwX0XwX",
"wX3X0XwXwXwXwXwX0XwXwXwXwXwXwXwXwXwXwXwXwXwXwXwXwXwXwXlXlXwX0XwXwXwXwXwXwXwXwXwXwX9X3X4XwX3X3X3X6X3X3X3XwX0X5X3X0XwXwXwXwXwXjXwXwXwXwXwXwXwXwXwXwXwXwX6XwXwXwX9X4XwXwX3X3X3X5X6XwXwXwXwX6X6XwXwXwXwX4XwXwXwXjXkXwXwXwXwX0XwXwXwXwX0XwXwX0X3X0XwX3X3XwXwXkXwX3XwX",
"0X5XwXwXwXwXwXwXjXwX5X3X3X3XwXwXwXwXwXwXwXwXwXwXwXwXwXwXwXwX0XwXkXwXwXwXwXwXwXwX9X3X3X4X9X3X3X3XwXwX3X0X0X3X3X0XwXwXwXwXwXwXwXkXwXwXwXwX0XwXwX0XwXwXwX5X3X3X9XwXwXwXwX6X3X3X5X3XwXwXwXwXwX6XwXwXwXwXwXwXwXwXwXwXwXwX0XwX3XwXwXwXwX0XjXwX0X3X0XwX0X0XwXwXjXwXwXwX",
"wXwXwXwXwXwXwXwXwXwXwX3X3X3X3X8XwX5XwXwXwXwXwXwXwXwXwXwXwXwXjXjXjXwXwXwXlXwXwXwX3X3X3X3X3XwX3X3X0X3X3XwX3X0X5X3X3X3XwXwXwXwXwXwXwXwXwXwXwXwXwX3X0XwXwX3X3X6XwXwX3X9XwX3X4X4XwX4X3X3XwXwXwX9XwXwXwXwXwXwXwXwXwXwXwX3X0XwXwXwX0XwX0X5XwXwXwX3XwXwX3X0XwX0X5XwXwXwX",
"wXwXwXwXwXwXwXwXwXwX0X3X2X3X3XwXwX0X3XjXkXwXjXwX0XwXwXwXkXkXwXwXgXjXjXwXwXwXwXwXwX5X5X3X0XwX6X5X0X3X3XwXwXwXwX3X3X4XwXwXwXwXwXwXwXwXwXwXwXwXwXwXwXwXwXwX6XwX9X3X3X3X4X4X9X4X3X4X3XwXwXwX3X8XwX3XwXwXwXwXwXwXwXwX6XwX5XwXwXwXwXwX0X5XwXwXwXwXwXwX3X3XwXwX3X3X3X5X",
"0X3XwXwXwXwXjXwXwXlXwX3X3X3XwXwXwXwXwXwXkXwXwX0XwXwXwXwXwXwXwXwXwXwXjXjX3XwXkXwXwXwXwX0XwXwX5X0X3X3X3XwX3XwX0X3X3X9X5X5X0XwXwXwXwXwXwXwXwXwXwXwXwXwX0XwXwXwXwXwX9XwXwX3XwX3X3X4X9X4X6XwX8XwXwX0XwX0XwXwXwXwXwXwXwXwXwX3X0XkXwXwXwXwXwXwX0X3X3XwX3X3X0X0X3X3X3XwX",
"3X3XwXwXwXwXwXwXwXwXwX3XwX3X0XwXwXwXwXwXwXwXwXwXwXwXwXjXwXwXjXwXwXwXwXjXkXwXwX0X0XwXwXwXwXwXwX3X3X3X3XwX3X3XwXwX3X3X3X3X3X0XwXwXwXwXwXwXjXwXwX6XwXwXwX8XwXwXwXwXwX9XwX4X3X3XwXwXwXwX5XwX8X9X9XwXwXwXwX3X6XwXwXwXwXwXwXwXwXwXwXwXwXwXwXkX0X3X3X3X3X8XwX5X3X5XwXwX",
"wXwXwXwXwXwXwXwXwXwX5X3XwXwXwXwXwXjXwXwXwXwX3XwXkXlXwXwXwXwXjXwXwXwXwXwXjXwXwXwXwXwXwXwXwXwXwX6X6X3X0XwX7X3X5X3X3X3XwX3X3X3XwXwXwXwXwXwXwXwXwXwX0XwXwXwXwXwXwX3X3X9XwXwX3X3X3XwXwX0X0X0X3XwXwX9X3XwX0XwXwXwXwXwXwXwX5XwXwXkXwXwXwXwXwXwXwX3X3X3X3X3X3XwX3X3X3XwX",
"wX3XwXwXwX0XwX0XwXwX3X0XjXjXwXwXjXjXwXwXwXwXwXkXwXkXjXwXwX0XwXwXwXwXwXwXwXwXwXjXwXwXwXwXwX4X4XwX0X3X3X3X3X0X0X3X5X3XwXwXwX0X0XwXwX5X5X0XwXwX5XwXwXwXwXwX8XwX9X3X1X3XwXwX3XwX4X3X5X0X5XwXwX8X8XwXwX8XwX0X5XwXwX3XkXwXwXwXwXwXwXwXwXwXwXwXwX8X3X3X3X3X3X5X3X0X8X0X",
"3X3X5X3X3XwXwXwXwXwXwXwXwXwXwXwXjXjXwXjX0XwXlXzXjXwXwXwXjXwXwXwXwXwXwXwXwXwXwXwXwXwXwXwXwX0X3XwX0X3X3XwXwXwX0XwX3XwXwX3XwXwXwXwX0X3X0X0XwXwXwXwXwXwXwXwXwXwX9X4X9X9X9XwXwXwXwX6X3X0XwXwXwXwX3XwXwXwXwXwXwX8X8XwXjXwXwXjXwXwXwXwXjXwX5X0XwXwX0X3X3X3X4X>X3X0X0XwX",
"3XwXwX3X3X3XwX0XwXwXkXwXjXwXwXwXwXjXjXlXwX0XkXzXkXwXwXwXwXkXkXjXjXwXwXwXwXwXwXkXwXwXwXwXwX3XwXwX0X0X3XwX3X3X3X3X8XwX3XwXwXwXwXwXwXwX7X0XwXwXwXwXwXwXwXwXwX6XwX9X3X3X8XwXwXwXwX6XwXwXwX0X8XwXwXwXwXwX6X3X8X9XwXwXwXwXwXlXwXwXwXwXwXwX0XwXwXwXwX8X3X3X3X>X3X3XwXwX",
"3XwXwX3X6X5XwXwXwXjXjXwXwXwXwXwXwXlXwXwXlXwXwXwXwXwXwXwXwXlXwXwXwXwXwXwXlXwXwXwXwXwXwXwXwX8X8XwX0X0X3X3X3XwX7X3XwX3X3X0X0XwXwXwXwXwX0X5X3XwXwXwXwXwXwXwXwXwX3XwX4XwXwXwXwX6XwXwXwXwXwX3XwXwXwXwXwXwXwX3X3X9XwXwXwXwX0XlXjXwXwX5XwXwX0XwXwXwXwXwX3X3X3X3XwX3X3X3X",
"wXwXwXwX3XwXwXwXwXwXwXwXwXwXwXwX0XwXkXwX3XwXwXwXwXwXwXwXwXwXlXwX0XwXwXwXwXwXwX3X0XwXwXkXwXwX9X3XwX3X3X3X3X5X3X3X3X3X0XwXwXwXwXwXwXwXjXwXwXwX0X0XwXwXwXwX9XwXwXwXwXwXwXwXwXwXwXwXwXwXwX8XwX8XwXwXwXwXwXwXwXwX4XwXwX9X3XwXwXkXwXwXwX0XwXwXwX3X3XwXwXwXwX0XwX3X1XwX",
"3X0XwX6XwXkXkXwXwXwXwXkX0X3XlXkXwXwXwXwX5X3XwXwXjXjXwXjXwXwXwXwXwXkXwXwX3XwXwXwXwXwXwXwX9X9X9X4X3X3X7X3X3X3X6X3X3XwXwXwXwXwXwXwXwXwXwXkXlXkXkXkXwXwXwXwX3X3X8X0XwXwXwX3XwXwXwXwX0X8XwX8XwX3X0XwXwXwXwXwX4X3XwXwXwXwX0XwXwXwXwXwXwXwXwX5XwXwX0XwX0X0XwXwXwXwX8X8X",
"6XwXwXwXwXwXwX3XwXwX3X5XwXkXjXwXkXwXwXwXwXwXwXwXwXwXkXlXwXwXwXwXwXwXwXwX0XwXwXwXwXwX3XwX3X3X3X3X3X3X3X3X3X3XwX0XwXwXwXwXwXwX0XwXwXwXwXwXwXwXwXwXwXkXwX8X8X3X3X3XwXwXwX3X0XwXwXwX0XwXwXwXwXwX3XwXwXwXwXwXwXwXwXwXwXwXwXwXwX3XwX5XwXwXwXwXwXjXkXwX0X3X3X3X3XwX0X3X",
"5X3XwXwXwXwX0XwXwXwXkXwXwXjXlXwXkXwXjXlXwXwXwXwXwXwXwXwXwXwXwXwX0XwXwXwXwXwXwX3X3X3XwXwX3X3X3X3X3X3X1X3X9X3X0XwXwX3XwXwXwXwXwXwXwXwXwXwXwXwXwXwXwXwXwXwX9X0X0X3X0X9X9XwXwXwXwXwXwXwXwXwXwXwXwXwXwX0X8XwX6XwXwXwXwXwXwXwXwXwXwX3X3XwXwXwXwXwXwXwXwXwXwXwX0XwXwXwX",
"3X3XwXwX6X5X3X3XwXwXwXwX5XjXlXjXkXlXjXkXjXwX3XwXwXwXwXwXwXwXwXwXwXwXwXwXwXwX3XwX3X3X3XwX3X3X3X3X3X3X3X3X3XwXwX0XwXwXwXwXwXwX0XwXwXwX0XwXwXkXwX0X3XwXwXwX8X8X0X0X3X8X8XwXwX0XwXwXwXwXwXwXwXjXwX3XwXwXwXwXwX6XwXwXwXwXwXwXwXjXwX0X0XwX3X3XwXwXwXwXwXwXwXwX5X3X3X3X",
"3X3X3X3X3X3XwXwXjXlXlX0X5XwXzXjXlXwXjXwXwXwXwX3X3X3XwXwXwXwXwXwXwXwX0XgXwX0XwXwXwXwX0X8XwXwX3X>X1X3X3X1X3X3XwXwX0X0XwX0XwXwX3X0XwXjXjXjXwXwXwXwX5XwXlXjXwX3X6X3X3X6X3X3XwX3X3X0XwX8XwXwXwXwXwX3XwXwXwXwXwXwXwXwXwXwXwXwXwXwXwX3X8XwX0XwXwXwXwXwXwXwXwXwX3XwXwX7X",
"3X3X3X2X3X3XwXwX0X5XlXjXwXwXjXzXlXwXwXwXwX3X0XwXwXwXwXwX3X0X0XwXjXwX3XwX3X3X3XwX6XwXwXwXwX6X3X,X:X2X3X>X3X3XwXwXwX0XwXwXwXwXwX5X0XwXjXjXwX0XjXjXwXwXjXgXwXwX3X3X6XwX3X3XwX6X5X0X3X8XwXwX9X8XwXwXwXwXwXwXwXwXwXwXwXwXkXwXwXwXwX8X8XwXwXwX0XwXwXwXwXwXwXwX3X0XwX3X",
"4X3X3X3X4X3X3X3XwXwXgXjXlXwXwXjXkXwXwXwXwXwX3X0XwX0XjXwXwXwXwX0XwXwX3X3X3XwX0XwXwXwX3X3XwXwX3X1X<X1X4X2X3X3XwX3X0XwX0X0XwXwXwX5X3X0XwXwXwXwXlXjXwXkXwXwXwXwXwXwX6XwXwX3X3X3X5X3X3X8X3XwXwX9XwX0XwXwX3X6X6XwX6X0X0XwXlXwXwXjXwXwX8XwXwX3X0XwXwXwXwXwXwXwXwX5X0X0X"
};
